P3
400 225
255
172 196 0
175 197 0
176 199 0
173 197 0
173 197 0
173 197 0
173 196 0
174 198 0
172 196 0
173 197 0
174 197 0
173 197 0
173 197 0
175 198 0
175 198 0
175 198 0
175 197 0
173 197 0
174 197 0
174 197 0
174 198 0
173 197 0
173 196 0
176 198 0
174 198 0
174 198 0
173 196 0
173 197 0
172 196 0
175 198 0
174 197 0
173 197 0
174 198 0
172 196 0
174 197 0
172 196 0
174 197 0
173 197 0
175 198 0
173 196 0
173 196 0
173 197 0
173 196 0
172 195 0
173 196 0
173 197 0
175 198 0
172 196 0
172 196 0
174 198 0
173 197 0
173 196 0
173 197 0
173 196 0
175 198 0
174 197 0
174 196 0
173 197 0
174 198 0
173 197 0
174 197 0
172 196 0
174 197 0
173 196 0
175 198 0
175 198 0
174 197 0
173 196 0
173 197 0
173 197 0
172 196 0
174 197 0
173 197 0
173 196 0
176 199 0
173 197 0
173 196 0
173 197 0
174 198 0
173 197 0
175 198 0
173 196 0
173 196 0
173 196 0
173 196 0
173 197 0
172 196 0
172 196 0
175 198 0
173 196 0
174 198 0
175 197 0
175 198 0
173 197 0
171 195 0
174 198 0
173 197 0
174 198 0
174 196 0
175 198 0
173 196 0
173 197 0
173 197 0
173 197 0
175 198 0
174 197 0
174 197 0
170 195 0
172 196 0
173 197 0
173 197 0
173 196 0
176 199 0
172 196 0
172 195 0
172 195 0
174 198 0
173 196 0
173 197 0
173 197 0
174 197 0
172 195 0
174 197 0
173 196 0
173 196 0
174 197 0
172 195 0
173 197 0
175 198 0
176 199 0
174 197 0
171 195 0
171 195 0
173 195 0
171 194 0
173 196 0
174 198 0
174 197 0
175 197 0
170 194 0
174 197 0
172 196 0
173 195 0
174 197 0
173 197 0
174 197 0
174 197 0
173 196 0
172 195 0
173 196 0
174 196 0
174 197 0
175 198 0
174 197 0
173 196 0
170 195 0
173 197 0
173 196 0
171 195 0
174 197 0
174 198 0
173 197 0
171 195 0
173 195 0
173 196 0
173 196 0
172 195 0
172 196 0
173 197 0
173 197 0
173 197 0
172 196 0
174 197 0
173 196 0
174 197 0
174 197 0
173 197 0
172 195 0
171 195 0
173 196 0
172 195 0
174 197 0
175 198 0
174 196 0
171 194 0
175 197 0
175 198 0
174 198 0
174 198 0
174 197 0
174 197 0
174 198 0
173 197 0
172 196 0
171 194 0
175 198 0
172 195 0
172 195 0
171 194 0
174 197 0
171 195 0
174 197 0
173 197 0
172 195 0
172 196 0
173 196 0
174 197 0
172 196 0
173 196 0
173 196 0
173 196 0
175 198 0
173 196 0
174 197 0
174 197 0
173 196 0
172 196 0
173 197 0
173 197 0
174 197 0
174 197 0
173 196 0
172 196 0
175 198 0
176 199 0
171 194 0
176 198 0
175 198 0
174 197 0
172 195 0
171 194 0
175 198 0
172 197 0
173 196 0
173 196 0
173 196 0
174 197 0
173 197 0
171 194 0
169 192 0
167 189 16
168 189 19
168 187 30
165 186 19
165 183 37
164 178 48
159 176 32
156 169 48
160 171 53
152 163 52
145 153 52
159 162 70
153 154 74
148 152 68
147 147 74
157 157 78
159 157 89
143 140 82
148 143 86
159 154 96
147 142 89
157 152 91
150 145 92
145 140 85
146 142 90
151 146 92
157 152 97
152 148 94
161 156 101
149 145 91
155 150 96
162 157 101
156 152 97
154 151 98
159 154 100
155 151 95
159 155 100
165 160 104
163 159 104
159 155 102
162 158 104
166 161 107
162 159 104
161 157 103
156 154 102
158 155 102
162 159 105
157 154 102
165 161 107
165 161 106
163 158 105
163 160 106
164 161 107
157 155 103
162 159 107
164 161 107
165 162 108
164 161 107
163 160 106
155 153 103
165 162 108
166 163 109
169 166 111
161 159 106
167 164 109
166 163 109
162 159 106
166 164 109
164 162 109
165 162 108
168 166 110
162 159 106
166 164 110
167 165 110
162 159 106
169 166 110
163 160 107
167 165 110
165 163 109
166 164 110
164 161 108
168 165 110
167 165 110
164 162 109
160 158 106
167 164 109
159 157 104
163 161 108
164 161 107
166 163 108
165 162 108
164 162 108
162 160 107
167 164 109
169 166 110
161 158 105
163 160 106
162 159 106
165 161 106
163 161 108
166 162 108
164 160 106
162 159 105
167 164 108
156 153 101
162 159 104
152 149 99
159 155 101
159 156 103
163 159 105
158 154 102
164 160 104
165 161 106
162 157 102
154 150 99
160 156 101
159 155 102
155 151 97
159 154 99
160 155 101
150 145 93
154 150 95
152 147 94
156 151 95
151 146 93
151 146 93
145 140 88
157 152 94
143 138 85
158 152 93
148 143 87
145 139 84
146 141 83
148 145 84
147 147 70
146 147 75
153 155 73
151 158 61
146 152 62
164 176 54
157 169 53
163 177 47
166 182 44
168 187 32
165 185 25
171 191 25
171 192 16
175 198 0
175 198 0
175 198 0
172 196 0
175 198 0
176 199 0
175 197 0
173 197 0
174 197 0
176 199 0
173 197 0
172 195 0
173 197 0
173 197 0
173 197 0
172 196 0
174 198 0
171 196 0
173 197 0
174 197 0
174 197 0
172 196 0
172 197 0
172 196 0
172 196 0
174 197 0
173 197 0
174 197 0
174 198 0
174 198 0
173 197 0
172 196 0
174 198 0
173 197 0
174 197 0
172 196 0
175 198 0
176 198 0
174 197 0
173 196 0
174 197 0
173 196 0
173 197 0
174 197 0
172 195 0
175 198 0
173 197 0
173 197 0
174 198 0
173 197 0
173 197 0
173 196 0
173 196 0
173 196 0
173 197 0
176 198 0
174 197 0
173 197 0
174 197 0
172 196 0
173 197 0
172 196 0
173 197 0
173 197 0
174 197 0
173 197 0
173 196 0
174 197 0
174 197 0
173 197 0
174 197 0
172 196 0
173 197 0
174 197 0
175 197 0
174 197 0
172 196 0
174 197 0
175 198 0
170 195 0
172 196 0
173 196 0
174 197 0
173 197 0
173 197 0
173 197 0
174 197 0
175 198 0
172 196 0
173 197 0
173 196 0
175 198 0
172 195 0
171 195 0
174 196 0
173 196 0
172 195 0
176 198 0
173 197 0
176 198 0
174 197 0
174 197 0
171 195 0
173 196 0
174 197 0
173 196 0
175 198 0
175 198 0
173 195 0
174 197 0
174 197 0
175 198 0
173 196 0
173 197 0
173 197 0
173 196 0
175 198 0
175 197 0
173 196 0
172 196 0
174 197 0
173 197 0
172 195 0
172 196 0
174 197 0
172 196 0
173 196 0
175 198 0
173 196 0
174 197 0
174 197 0
174 196 0
171 195 0
173 195 0
175 198 0
174 197 0
175 197 0
173 196 0
172 195 0
175 197 0
174 196 0
174 197 0
174 197 0
175 198 0
174 198 0
170 193 0
174 197 0
174 198 0
173 197 0
173 196 0
173 197 0
173 196 0
174 196 0
173 196 0
173 197 0
170 194 0
174 196 0
173 196 0
172 195 0
170 192 0
172 195 0
173 196 0
173 196 0
172 195 0
171 196 0
173 197 0
173 197 0
172 196 0
173 196 0
172 196 0
172 196 0
174 197 0
173 196 0
173 196 0
174 197 0
171 195 0
174 197 0
173 196 0
174 197 0
173 197 0
173 195 0
172 195 0
174 197 0
175 198 0
172 195 0
176 198 0
173 196 0
173 195 0
172 195 0
173 197 0
172 195 0
173 197 0
173 196 0
173 196 0
173 196 0
174 196 0
173 196 0
173 197 0
175 198 0
173 196 0
171 193 0
173 197 0
174 196 0
172 195 0
170 193 0
175 198 0
173 196 0
175 198 0
175 197 0
169 193 0
171 195 0
173 196 0
174 197 0
171 194 0
173 196 0
174 197 0
173 195 0
172 196 0
175 198 0
174 197 0
174 198 0
171 194 0
173 195 0
172 195 0
171 194 0
173 196 0
173 197 0
174 197 0
173 196 0
173 195 0
173 196 0
172 195 0
172 195 0
174 197 0
174 197 0
173 197 0
171 194 0
174 196 0
173 196 0
173 196 0
173 196 0
174 197 0
174 197 0
171 195 0
171 195 0
172 196 0
173 197 0
173 196 0
173 197 0
171 195 0
174 197 0
174 196 11
171 191 16
172 191 32
165 187 22
163 183 30
166 184 25
165 182 32
164 177 49
161 174 47
153 163 54
151 162 50
155 164 57
157 165 60
158 164 69
157 161 70
146 145 78
152 153 79
151 151 79
145 139 85
139 134 81
143 138 87
151 146 90
156 150 95
157 152 94
152 147 90
152 148 93
158 152 94
153 148 90
154 149 95
157 152 97
149 145 94
155 150 95
159 155 99
160 155 101
160 155 99
162 157 103
153 149 97
156 153 99
159 155 101
157 153 101
162 158 105
163 158 103
161 156 102
158 156 103
161 158 105
161 158 105
159 156 103
166 162 107
165 160 107
156 153 101
165 162 108
159 155 102
158 156 104
160 158 105
164 161 108
162 159 106
163 160 107
161 158 105
163 160 107
160 158 106
165 162 108
165 163 109
161 158 105
167 165 110
168 166 111
167 164 109
163 161 108
165 162 108
162 159 107
165 162 108
161 158 106
161 160 107
162 159 106
168 165 110
169 166 110
168 165 110
165 163 109
163 162 108
166 163 109
166 164 109
166 164 110
158 157 105
171 168 112
167 166 111
166 164 110
164 162 108
160 159 107
171 168 112
165 163 109
164 161 107
162 160 107
157 155 103
166 163 109
165 163 109
163 160 107
171 167 111
162 159 106
164 161 108
167 164 109
161 158 106
160 157 105
166 162 106
160 156 103
167 164 109
166 162 106
160 156 103
163 158 104
160 157 103
161 157 104
162 158 104
156 152 100
156 152 101
165 161 106
160 156 102
162 157 102
157 153 99
162 158 104
156 152 100
162 158 101
160 155 100
164 159 103
153 149 97
163 157 103
162 157 101
155 150 97
159 154 93
155 150 95
157 151 96
153 148 93
149 144 87
156 151 95
151 145 90
148 143 90
146 141 84
153 146 88
144 139 81
147 146 75
157 154 84
155 157 70
150 156 59
151 160 52
158 168 57
164 174 53
165 179 47
164 177 45
168 186 37
163 179 37
166 186 30
171 192 25
173 197 16
172 196 0
174 197 0
174 197 0
175 198 0
176 198 0
174 197 0
171 195 0
174 197 0
173 196 0
174 197 0
175 198 0
174 197 0
173 197 0
174 197 0
172 196 0
174 197 0
175 198 0
176 198 0
176 199 0
176 199 0
172 196 0
173 197 0
173 197 0
175 198 0
175 198 0
174 198 0
174 197 0
172 196 0
173 196 0
173 197 0
173 197 0
174 197 0
174 197 0
175 198 0
173 197 0
175 198 0
174 197 0
174 198 0
174 197 0
174 198 0
173 196 0
174 198 0
172 196 0
173 196 0
171 194 0
175 198 0
174 197 0
173 196 0
174 197 0
175 198 0
173 197 0
173 197 0
176 199 0
174 197 0
174 197 0
173 197 0
175 197 0
174 197 0
175 198 0
172 196 0
174 197 0
171 194 0
175 198 0
173 197 0
174 196 0
174 197 0
174 198 0
173 197 0
175 198 0
171 195 0
176 198 0
174 198 0
174 198 0
172 196 0
172 195 0
174 197 0
175 198 0
174 197 0
175 198 0
173 196 0
173 196 0
173 196 0
173 197 0
171 195 0
174 196 0
174 197 0
172 196 0
171 195 0
174 197 0
174 197 0
176 199 0
173 197 0
174 197 0
174 197 0
172 195 0
173 196 0
172 196 0
172 196 0
173 197 0
175 198 0
175 197 0
174 198 0
173 197 0
174 197 0
174 198 0
173 196 0
173 196 0
173 197 0
174 197 0
174 197 0
173 196 0
174 197 0
174 197 0
175 198 0
173 197 0
173 197 0
174 197 0
173 196 0
173 197 0
177 199 0
174 197 0
173 197 0
174 197 0
172 195 0
174 196 0
174 197 0
173 197 0
172 196 0
172 195 0
174 197 0
175 198 0
173 197 0
173 197 0
174 197 0
173 196 0
174 197 0
173 196 0
174 198 0
173 197 0
173 197 0
173 197 0
175 198 0
173 197 0
174 197 0
174 197 0
174 197 0
174 197 0
172 195 0
174 197 0
175 198 0
172 195 0
175 198 0
171 194 0
175 198 0
175 198 0
173 196 0
173 195 0
173 196 0
173 197 0
174 197 0
174 197 0
173 197 0
175 198 0
173 197 0
173 196 0
172 196 0
174 197 0
173 196 0
171 194 0
172 196 0
171 194 0
173 196 0
172 196 0
174 196 0
172 196 0
174 196 0
172 195 0
173 197 0
173 196 0
175 198 0
172 195 0
173 196 0
172 195 0
174 197 0
172 196 0
174 198 0
173 196 0
174 197 0
174 196 0
173 197 0
174 198 0
171 194 0
174 196 0
172 196 0
175 198 0
174 197 0
174 197 0
174 197 0
172 195 0
174 198 0
173 196 0
174 197 0
171 195 0
173 196 0
174 197 0
173 196 0
174 197 0
172 196 0
175 197 0
173 197 0
172 195 0
173 196 0
174 197 0
173 196 0
175 198 0
173 197 0
173 196 0
172 195 0
172 195 0
173 195 0
172 195 0
173 196 0
172 196 0
171 195 0
174 196 0
173 196 0
174 197 0
172 195 0
173 197 0
171 195 0
174 197 0
173 196 0
172 196 0
172 195 0
173 197 0
172 196 0
172 196 0
172 195 0
172 195 0
173 197 0
175 198 0
173 196 0
172 195 0
173 196 0
176 198 0
174 197 0
173 197 0
174 197 0
173 196 0
174 198 0
170 192 0
168 189 22
170 190 22
166 185 19
161 178 25
165 177 48
160 176 41
160 172 44
152 165 37
156 166 52
161 167 68
152 161 57
152 155 73
158 161 75
153 153 75
154 153 76
146 144 72
152 146 84
149 144 89
152 145 87
151 145 90
141 136 83
145 139 86
155 150 91
153 148 93
159 153 97
162 157 99
157 152 96
160 156 100
155 150 95
147 143 89
155 150 96
153 149 94
156 152 99
159 156 103
157 153 100
152 149 97
161 158 103
150 146 97
156 152 98
164 160 104
162 158 104
162 159 104
160 156 103
158 154 101
161 157 103
166 161 105
166 163 108
167 164 110
161 158 105
166 163 108
163 160 106
163 161 106
163 160 107
168 165 109
166 162 108
160 157 105
166 163 108
161 159 107
165 163 109
157 155 103
165 162 108
158 157 105
159 157 104
169 166 110
163 160 107
166 163 109
161 159 107
169 166 111
167 165 110
165 163 109
161 159 106
168 166 111
163 160 107
160 158 106
161 158 106
168 165 110
165 163 109
164 161 108
166 165 110
171 168 112
165 163 109
165 163 109
156 152 101
169 166 110
161 158 106
159 157 104
164 162 109
170 167 111
165 162 108
166 164 109
161 159 106
161 158 105
165 162 108
162 159 106
169 165 109
170 166 110
167 165 110
164 161 107
164 161 108
164 162 108
163 160 106
161 159 105
160 157 104
158 154 101
172 168 111
160 156 103
159 154 102
162 159 104
162 159 106
161 155 99
162 157 103
156 152 100
154 151 99
160 156 101
165 160 104
167 161 104
161 156 101
161 156 101
161 155 101
162 157 100
155 151 96
150 146 95
162 156 101
161 155 99
152 147 95
144 139 89
158 152 95
163 157 97
152 146 91
145 140 88
153 147 92
145 140 84
153 147 88
143 138 84
150 143 88
147 142 84
155 153 81
149 149 78
151 156 63
152 158 61
157 166 63
158 165 62
159 172 49
158 172 45
166 183 44
160 179 28
167 184 37
168 187 34
172 194 22
176 199 0
175 198 0
174 197 0
175 198 0
171 195 0
175 198 0
174 196 0
175 198 0
174 197 0
174 197 0
174 197 0
172 195 0
175 198 0
174 197 0
175 198 0
175 198 0
173 196 0
174 197 0
176 199 0
174 198 0
174 197 0
174 197 0
174 197 0
175 198 0
175 198 0
174 197 0
174 197 0
178 199 0
175 198 0
174 197 0
175 198 0
174 197 0
174 197 0
173 197 0
175 198 0
172 196 0
175 198 0
174 197 0
173 197 0
173 197 0
172 196 0
173 197 0
172 195 0
173 196 0
175 198 0
171 195 0
172 195 0
175 198 0
174 198 0
172 195 0
174 198 0
173 197 0
173 196 0
174 197 0
175 198 0
175 198 0
173 197 0
173 197 0
175 198 0
174 198 0
172 196 0
174 197 0
173 196 0
174 197 0
174 197 0
173 197 0
172 196 0
175 198 0
173 196 0
173 196 0
173 197 0
175 198 0
174 196 0
174 197 0
172 195 0
174 197 0
174 197 0
172 196 0
175 198 0
174 197 0
174 197 0
176 198 0
173 197 0
174 197 0
171 195 0
173 196 0
174 197 0
173 196 0
173 197 0
174 197 0
172 196 0
174 197 0
173 197 0
173 196 0
175 198 0
175 197 0
175 198 0
173 196 0
172 196 0
172 196 0
174 197 0
175 198 0
173 196 0
175 197 0
175 197 0
172 195 0
175 198 0
173 196 0
176 197 0
173 196 0
175 198 0
174 198 0
174 197 0
174 197 0
173 197 0
172 196 0
175 198 0
172 196 0
174 197 0
172 196 0
175 198 0
173 197 0
175 198 0
173 197 0
175 198 0
174 196 0
175 197 0
173 197 0
176 198 0
173 197 0
172 196 0
172 195 0
172 196 0
171 195 0
170 194 0
173 196 0
174 197 0
171 194 0
173 196 0
175 198 0
174 197 0
172 196 0
173 197 0
173 197 0
174 197 0
173 197 0
172 196 0
172 196 0
172 195 0
174 197 0
172 196 0
174 197 0
175 198 0
172 195 0
174 196 0
172 196 0
172 195 0
174 198 0
172 195 0
175 198 0
173 196 0
173 197 0
173 196 0
173 197 0
173 196 0
173 197 0
174 197 0
174 197 0
173 197 0
175 198 0
174 197 0
172 196 0
171 194 0
173 196 0
174 197 0
172 196 0
175 198 0
173 196 0
172 195 0
175 198 0
175 198 0
172 196 0
174 197 0
173 195 0
171 194 0
171 193 0
173 195 0
172 196 0
172 195 0
174 197 0
171 194 0
174 197 0
173 196 0
174 198 0
175 198 0
175 198 0
172 195 0
173 197 0
174 197 0
175 198 0
172 196 0
173 196 0
172 196 0
173 196 0
171 194 0
175 198 0
174 197 0
174 197 0
170 194 0
173 196 0
171 194 0
174 197 0
171 194 0
173 197 0
173 196 0
174 197 0
173 196 0
173 197 0
173 196 0
174 197 0
171 195 0
174 198 0
174 196 0
175 198 0
172 195 0
171 195 0
175 197 0
175 198 0
173 197 0
175 197 0
176 199 0
174 198 0
173 195 0
174 197 0
174 198 0
173 196 0
172 196 0
174 197 0
172 194 0
173 195 0
174 196 0
172 195 0
174 197 0
172 195 0
173 197 0
175 198 0
174 197 0
172 195 0
171 195 0
173 195 0
172 193 16
168 188 19
166 184 30
165 184 28
164 180 37
160 175 37
165 179 49
155 164 52
155 167 49
159 168 58
150 158 58
153 159 65
139 141 66
147 149 68
159 160 77
155 152 82
150 146 78
148 144 85
153 147 87
141 136 80
155 148 89
154 148 90
150 144 87
155 149 94
148 142 88
155 149 94
150 144 90
154 150 96
160 154 96
162 156 100
164 159 103
162 157 102
160 157 104
163 158 102
155 150 97
161 156 101
150 146 97
159 155 103
156 153 101
161 157 102
155 152 100
159 154 103
164 160 105
162 159 105
157 153 102
162 158 104
161 157 104
162 158 104
161 157 104
165 162 108
162 158 103
162 158 105
164 161 107
168 165 110
163 160 107
170 167 110
165 162 107
166 162 107
159 157 105
166 163 109
159 157 106
167 164 109
163 161 107
163 160 107
162 160 107
166 164 109
163 161 107
166 163 109
166 163 108
165 163 109
167 165 110
166 163 109
167 165 110
164 162 109
166 163 109
162 160 107
168 164 109
162 160 107
167 165 110
160 158 106
160 159 106
168 165 110
166 164 109
161 160 107
163 162 109
167 164 109
159 157 105
163 160 107
168 165 110
165 162 108
169 167 111
167 164 110
166 164 109
163 160 107
161 158 105
160 157 104
162 159 106
167 164 109
164 161 108
167 163 108
165 162 108
167 163 108
164 161 106
164 161 107
169 165 109
165 162 106
159 156 103
154 151 100
157 153 100
161 158 104
172 167 109
168 165 109
159 155 103
164 160 106
154 150 97
162 158 102
170 165 108
166 161 104
163 158 103
160 155 101
154 149 97
153 149 97
159 153 97
159 153 95
157 152 95
157 153 100
159 153 97
155 149 95
156 152 95
155 150 92
157 152 92
146 140 90
149 144 90
150 143 87
139 135 82
156 150 92
147 141 83
147 142 83
160 158 86
145 145 75
151 153 74
160 168 61
152 159 66
161 170 63
161 173 53
161 173 49
165 181 41
161 180 36
168 187 30
170 193 0
175 196 11
175 198 0
175 198 0
173 197 0
173 197 0
175 198 0
173 197 0
172 196 0
173 196 0
171 195 0
175 198 0
175 198 0
174 198 0
174 198 0
173 197 0
174 198 0
175 198 0
174 197 0
174 197 0
173 196 0
173 196 0
175 198 0
173 197 0
172 196 0
174 198 0
174 197 0
173 197 0
174 198 0
174 198 0
175 198 0
174 197 0
175 198 0
173 196 0
174 197 0
173 197 0
174 197 0
174 197 0
174 197 0
175 198 0
174 197 0
172 195 0
174 198 0
172 195 0
171 195 0
173 197 0
172 196 0
173 196 0
173 197 0
174 197 0
172 196 0
175 198 0
171 195 0
173 197 0
174 198 0
173 197 0
174 198 0
174 198 0
173 196 0
173 197 0
172 196 0
173 196 0
174 197 0
171 195 0
173 197 0
173 197 0
173 196 0
173 196 0
171 194 0
175 198 0
173 196 0
174 198 0
172 195 0
173 196 0
173 197 0
173 197 0
174 197 0
172 196 0
172 196 0
174 198 0
174 198 0
174 198 0
172 196 0
174 197 0
172 195 0
174 197 0
171 194 0
174 197 0
172 196 0
174 196 0
175 198 0
174 197 0
176 198 0
172 195 0
173 196 0
175 198 0
174 197 0
171 194 0
174 197 0
172 195 0
171 194 0
173 196 0
172 196 0
173 196 0
175 198 0
173 197 0
174 198 0
173 196 0
173 197 0
173 196 0
174 198 0
172 196 0
173 197 0
174 197 0
173 197 0
173 197 0
174 197 0
171 195 0
174 198 0
173 197 0
173 195 0
173 196 0
174 198 0
174 197 0
173 196 0
172 195 0
173 197 0
172 196 0
175 197 0
173 197 0
174 197 0
173 197 0
171 194 0
173 196 0
173 197 0
174 196 0
174 197 0
173 197 0
173 197 0
172 196 0
174 197 0
173 197 0
172 196 0
175 198 0
173 196 0
173 196 0
173 197 0
173 195 0
175 198 0
172 195 0
173 196 0
174 197 0
174 197 0
174 197 0
174 197 0
174 197 0
174 196 0
175 198 0
173 197 0
170 193 0
175 198 0
175 198 0
175 198 0
172 196 0
173 196 0
171 195 0
173 197 0
173 196 0
174 197 0
173 196 0
171 195 0
171 195 0
173 196 0
169 193 0
173 196 0
173 197 0
173 196 0
173 197 0
171 195 0
171 195 0
173 196 0
173 195 0
171 194 0
176 199 0
173 196 0
174 197 0
174 197 0
172 196 0
173 196 0
172 196 0
172 196 0
174 197 0
174 197 0
171 194 0
174 196 0
175 197 0
174 196 0
172 196 0
171 194 0
174 197 0
173 197 0
173 197 0
173 196 0
172 196 0
173 197 0
173 196 0
172 195 0
174 196 0
171 195 0
174 197 0
172 195 0
172 195 0
174 198 0
172 195 0
172 196 0
173 196 0
171 195 0
172 195 0
174 196 0
174 198 0
173 196 0
174 197 0
171 195 0
171 195 0
172 196 0
173 196 0
174 197 0
174 197 0
172 194 0
171 193 0
172 195 0
172 195 0
173 196 0
170 193 0
174 196 0
174 197 0
171 195 0
171 195 0
173 196 0
173 196 0
175 198 0
174 196 0
173 197 0
174 197 0
172 195 0
174 197 0
172 196 0
172 195 0
173 195 0
172 195 0
172 194 0
166 187 19
166 186 30
164 183 25
168 185 36
159 177 32
165 181 41
157 168 54
153 167 45
159 169 54
161 172 62
152 158 63
153 161 56
143 144 65
152 156 67
153 150 83
151 148 82
141 137 78
142 137 82
147 142 85
149 143 87
141 137 86
141 137 87
147 141 87
148 144 86
145 140 85
146 142 91
151 147 94
154 149 95
150 146 96
152 147 94
155 152 97
154 150 96
161 157 102
154 150 97
156 152 100
149 147 98
157 153 100
153 151 99
156 154 103
164 159 104
155 152 99
159 155 102
155 152 101
161 157 103
162 158 105
166 162 108
166 162 106
165 161 107
164 162 108
168 164 109
159 157 106
164 161 107
169 165 110
159 157 105
165 161 107
163 160 107
159 157 105
166 163 109
163 161 108
160 158 106
164 160 106
168 165 111
165 163 109
165 162 108
168 165 110
167 164 109
170 167 111
166 164 110
165 162 108
169 166 111
162 159 106
165 162 108
167 164 110
164 162 108
169 166 110
165 163 109
166 163 109
165 163 109
164 162 108
168 166 110
163 162 108
169 165 110
163 161 108
165 162 108
168 165 110
163 160 106
166 163 109
165 162 108
169 166 110
165 163 109
169 166 110
168 165 110
162 159 106
161 158 106
165 162 108
165 163 109
169 165 109
162 159 106
168 165 110
162 160 106
168 164 109
163 159 103
164 160 106
167 164 109
158 154 101
171 166 110
159 157 104
168 164 109
164 160 106
165 162 106
164 160 105
164 159 103
159 155 100
166 162 106
160 157 103
157 153 97
159 155 100
155 149 97
163 158 102
163 159 103
167 162 104
162 157 100
163 158 101
154 150 97
150 147 95
164 158 101
165 160 102
162 155 97
148 143 92
148 144 89
155 150 94
156 149 93
151 146 90
156 151 93
152 146 88
156 150 90
143 137 84
144 139 84
144 141 76
157 155 84
150 152 71
155 158 71
147 154 58
151 161 51
154 164 51
164 175 57
166 181 44
167 183 36
166 186 28
168 189 25
172 193 22
173 196 0
173 197 0
173 197 0
172 197 0
175 198 0
174 197 0
174 198 0
175 198 0
173 197 0
176 199 0
174 197 0
173 197 0
172 196 0
173 197 0
173 197 0
174 197 0
175 198 0
174 197 0
174 197 0
174 197 0
172 195 0
174 198 0
174 198 0
172 197 0
173 197 0
174 197 0
174 197 0
173 196 0
173 195 0
174 197 0
175 198 0
174 198 0
173 197 0
174 197 0
173 196 0
174 198 0
174 197 0
171 194 0
174 198 0
174 198 0
173 197 0
173 197 0
173 197 0
174 197 0
175 198 0
172 196 0
175 198 0
173 196 0
175 197 0
174 197 0
172 196 0
174 197 0
173 196 0
170 194 0
174 197 0
175 198 0
174 197 0
172 196 0
174 198 0
175 198 0
173 196 0
175 198 0
173 196 0
174 197 0
173 196 0
173 197 0
172 196 0
173 196 0
175 197 0
173 197 0
174 197 0
172 196 0
173 196 0
174 197 0
175 198 0
172 196 0
171 195 0
174 197 0
175 198 0
176 198 0
173 197 0
174 197 0
173 197 0
174 197 0
175 198 0
171 195 0
172 196 0
172 195 0
173 197 0
175 197 0
175 198 0
173 196 0
175 198 0
174 197 0
175 198 0
173 196 0
176 198 0
175 198 0
172 195 0
174 197 0
171 195 0
171 194 0
173 197 0
174 197 0
175 198 0
174 197 0
175 198 0
173 196 0
174 196 0
174 198 0
174 197 0
174 197 0
175 198 0
172 195 0
174 197 0
174 198 0
171 194 0
173 196 0
171 194 0
172 196 0
172 197 0
173 197 0
171 195 0
172 196 0
173 195 0
174 197 0
174 197 0
173 197 0
174 198 0
173 196 0
173 197 0
174 197 0
172 197 0
174 197 0
174 197 0
172 195 0
172 195 0
172 195 0
174 197 0
172 196 0
174 197 0
175 198 0
173 196 0
173 197 0
174 197 0
174 197 0
172 196 0
172 194 0
175 198 0
173 196 0
175 198 0
175 198 0
173 196 0
174 197 0
174 197 0
170 195 0
173 196 0
173 196 0
173 197 0
171 195 0
173 196 0
170 193 0
175 198 0
172 196 0
173 196 0
173 197 0
172 196 0
172 196 0
171 194 0
174 197 0
171 195 0
173 197 0
172 195 0
173 196 0
173 196 0
171 193 0
171 195 0
172 196 0
175 198 0
172 196 0
173 196 0
172 196 0
174 196 0
172 196 0
175 198 0
171 196 0
173 196 0
172 195 0
173 197 0
175 197 0
170 194 0
173 197 0
171 195 0
174 197 0
172 195 0
171 195 0
173 197 0
173 197 0
170 195 0
172 195 0
173 197 0
174 197 0
173 195 0
174 197 0
170 193 0
173 197 0
171 195 0
172 196 0
175 197 0
173 197 0
172 196 0
173 195 0
173 196 0
169 193 0
173 196 0
173 196 0
174 197 0
173 197 0
172 195 0
173 197 0
173 196 0
173 196 0
173 197 0
172 195 0
174 197 0
172 196 0
174 197 0
171 195 0
172 195 0
173 196 0
173 195 0
174 197 0
173 195 0
173 197 0
172 196 0
171 194 0
172 194 0
173 196 0
171 194 0
172 196 0
173 197 0
172 196 0
171 193 0
174 197 0
173 195 0
169 191 0
174 197 0
171 195 11
168 189 19
168 191 11
168 186 22
167 185 34
160 176 41
163 179 41
154 168 45
144 155 47
158 169 54
163 175 53
142 150 55
153 160 67
160 163 75
150 157 65
148 149 71
157 154 83
139 134 79
144 138 84
139 135 80
150 145 85
145 139 84
148 143 88
146 141 86
156 151 95
148 144 92
155 151 94
156 151 97
149 145 90
152 148 94
150 146 94
153 149 97
154 150 98
159 155 98
152 149 99
163 158 104
156 152 98
156 153 101
160 156 100
150 147 97
163 159 103
157 154 103
161 157 103
161 157 104
157 154 102
166 162 105
157 154 103
161 158 106
162 159 105
163 160 107
165 161 106
163 160 106
156 153 103
168 164 108
165 162 108
164 161 108
162 159 106
165 162 108
169 166 110
162 160 107
161 159 106
156 154 103
166 163 108
163 161 108
165 163 109
164 161 107
165 163 109
165 162 108
166 164 109
165 162 108
165 162 108
169 166 111
164 161 107
166 163 109
165 162 108
161 159 106
166 163 109
160 158 106
170 168 113
163 161 108
167 165 110
164 162 109
160 159 106
167 164 109
166 164 110
167 164 109
170 167 112
165 163 109
167 164 109
169 167 111
163 160 107
166 165 110
167 164 110
163 161 107
163 160 107
167 165 110
168 165 110
166 164 109
164 162 107
166 163 108
162 160 107
163 160 106
166 163 107
168 164 109
166 163 108
160 158 104
167 164 108
158 156 104
169 165 108
163 159 106
160 156 103
162 158 102
160 156 102
161 157 102
165 161 106
163 159 105
161 158 103
161 157 103
162 158 103
162 158 103
162 157 103
155 151 97
154 150 95
167 161 104
159 155 101
161 156 101
155 151 95
161 156 100
162 157 98
162 156 100
150 145 92
155 149 95
156 150 95
153 149 95
152 147 89
150 146 87
148 143 89
141 136 81
159 152 95
153 147 90
149 145 85
156 154 83
143 142 71
156 156 77
156 162 62
148 158 51
163 175 57
160 172 53
167 179 54
165 182 36
166 182 36
169 188 32
167 187 22
171 193 16
173 196 0
173 196 0
175 198 0
175 198 0
173 197 0
173 196 0
173 196 0
176 198 0
173 196 0
173 196 0
175 198 0
174 197 0
174 198 0
173 197 0
174 198 0
175 198 0
174 197 0
175 198 0
173 196 0
173 196 0
173 197 0
173 197 0
172 195 0
177 199 0
174 197 0
173 197 0
171 194 0
176 199 0
175 198 0
173 197 0
176 198 0
174 197 0
174 197 0
175 198 0
173 197 0
175 198 0
173 196 0
174 197 0
173 197 0
174 197 0
174 197 0
173 196 0
172 196 0
174 197 0
173 197 0
172 196 0
173 196 0
173 196 0
174 197 0
173 197 0
173 196 0
173 197 0
174 197 0
174 196 0
171 194 0
175 198 0
174 198 0
174 198 0
174 197 0
174 197 0
172 196 0
173 196 0
172 195 0
174 197 0
172 196 0
173 197 0
172 195 0
172 196 0
174 197 0
172 195 0
173 196 0
173 197 0
173 197 0
173 197 0
172 196 0
173 197 0
173 196 0
175 198 0
174 197 0
172 196 0
173 196 0
174 198 0
173 197 0
173 196 0
173 196 0
173 196 0
174 198 0
173 196 0
176 198 0
173 197 0
173 196 0
173 196 0
173 196 0
176 198 0
173 197 0
172 196 0
175 198 0
174 197 0
172 196 0
172 196 0
175 197 0
173 197 0
174 198 0
175 198 0
173 196 0
172 196 0
172 197 0
172 196 0
174 196 0
174 197 0
173 196 0
171 195 0
173 196 0
172 195 0
172 196 0
173 196 0
175 198 0
174 197 0
173 196 0
173 197 0
169 193 0
174 198 0
172 196 0
173 196 0
172 195 0
173 196 0
173 196 0
173 197 0
171 195 0
175 198 0
172 195 0
174 197 0
173 197 0
173 196 0
173 196 0
172 195 0
172 195 0
175 198 0
172 194 0
172 196 0
175 198 0
174 197 0
173 196 0
172 196 0
172 195 0
173 196 0
174 196 0
173 196 0
173 197 0
174 198 0
174 197 0
172 196 0
175 197 0
174 196 0
173 197 0
174 197 0
172 195 0
172 196 0
173 196 0
172 195 0
171 194 0
173 197 0
173 197 0
172 196 0
173 196 0
172 194 0
174 197 0
173 197 0
173 196 0
174 197 0
170 194 0
171 195 0
172 195 0
173 196 0
172 195 0
170 194 0
173 197 0
172 196 0
173 196 0
171 194 0
168 192 18
172 196 18
172 195 18
174 197 0
170 192 31
171 195 18
173 197 18
171 193 25
168 191 25
174 197 0
173 196 0
171 195 0
174 196 0
175 198 0
173 196 0
171 195 0
175 198 0
172 196 0
172 195 0
174 197 0
173 195 0
172 196 0
173 196 0
171 193 0
173 196 0
173 196 0
170 194 0
171 193 0
174 197 0
171 195 0
173 197 0
174 196 0
172 195 0
174 196 0
175 198 0
171 195 0
172 195 0
173 196 0
172 195 0
172 195 0
174 197 0
172 196 0
175 198 0
175 197 0
171 195 0
172 195 0
174 196 0
172 195 0
174 196 0
172 194 0
171 194 0
171 195 0
169 192 0
174 197 0
174 197 0
171 195 0
171 195 0
174 197 0
170 193 0
174 197 0
172 194 0
172 196 0
172 196 0
173 197 0
174 197 0
172 193 19
173 195 11
171 191 22
165 183 25
165 182 41
165 183 39
157 172 42
162 176 45
154 169 32
157 170 44
151 162 50
148 156 52
157 164 65
154 161 61
148 151 71
151 152 72
146 143 77
154 151 78
145 139 79
141 136 81
144 139 84
146 141 89
153 148 91
153 148 90
146 140 84
151 145 87
158 153 95
147 142 87
147 143 93
152 148 95
151 147 95
150 146 92
153 149 97
153 150 99
156 150 98
148 145 94
162 158 102
152 149 97
162 158 103
156 152 99
160 156 103
163 160 104
158 155 102
161 157 103
162 158 104
162 158 104
154 151 101
155 152 101
161 157 104
162 160 108
162 159 104
165 161 107
161 158 106
165 162 108
165 162 108
164 161 107
171 167 110
171 168 111
164 161 108
163 159 106
167 163 108
164 162 108
163 160 107
165 162 108
167 164 110
163 161 108
166 164 109
169 166 110
167 164 109
166 165 110
164 162 108
167 165 110
165 162 108
166 164 109
168 165 110
166 163 108
168 166 111
167 165 110
166 163 108
167 165 110
168 165 110
166 163 109
169 167 112
166 164 109
166 164 110
163 161 108
170 167 111
170 168 112
169 166 110
168 165 110
168 165 110
167 165 110
171 167 111
168 165 110
166 164 110
169 166 111
165 163 109
168 165 109
168 166 111
168 165 110
159 157 104
163 161 107
165 161 106
165 161 106
166 162 108
169 165 109
168 165 110
163 160 106
165 161 106
168 165 108
164 161 108
163 159 104
165 163 107
162 159 103
161 158 104
161 157 103
160 156 101
166 162 108
166 161 103
160 155 100
167 162 104
159 155 99
166 161 103
149 144 93
162 157 101
150 146 93
161 155 101
159 154 97
156 150 94
154 148 94
157 153 97
151 147 91
156 150 97
159 154 97
149 143 87
144 140 88
154 148 89
146 140 88
151 145 88
147 141 86
147 143 87
151 144 85
153 148 84
148 145 76
153 153 76
157 161 70
152 156 58
159 167 53
157 168 56
161 171 56
163 178 44
169 188 34
166 183 37
168 188 28
168 190 11
172 195 11
176 198 0
174 197 0
174 197 0
174 197 0
174 198 0
174 198 0
174 197 0
172 196 0
175 198 0
175 197 0
174 198 0
174 198 0
174 197 0
173 197 0
177 199 0
173 197 0
172 196 0
174 197 0
175 198 0
174 197 0
173 196 0
174 197 0
173 197 0
175 198 0
174 198 0
172 195 0
175 198 0
174 198 0
174 197 0
173 196 0
175 198 0
175 198 0
175 198 0
172 196 0
172 196 0
174 197 0
175 198 0
175 198 0
173 196 0
173 196 0
174 197 0
174 197 0
173 197 0
173 197 0
173 197 0
173 197 0
174 197 0
173 196 0
174 197 0
173 197 0
173 196 0
174 197 0
172 195 0
174 198 0
175 198 0
175 198 0
174 198 0
174 197 0
174 197 0
174 196 0
175 198 0
172 195 0
174 198 0
173 196 0
175 198 0
174 198 0
176 198 0
174 197 0
174 197 0
173 196 0
172 196 0
174 197 0
172 196 0
175 198 0
174 197 0
174 196 0
172 195 0
172 194 0
173 197 0
172 196 0
173 196 0
175 198 0
174 197 0
172 195 0
174 197 0
173 196 0
171 195 0
174 197 0
173 196 0
173 196 0
174 198 0
172 194 0
172 196 0
173 197 0
173 197 0
171 194 0
171 195 0
170 194 0
174 197 0
171 195 0
174 197 0
173 196 0
174 196 0
171 196 0
175 198 0
173 196 0
172 195 0
173 197 0
175 198 0
174 198 0
173 196 0
174 197 0
173 196 0
174 198 0
173 196 0
174 197 0
176 199 0
173 197 0
170 194 0
173 197 0
174 197 0
173 197 0
175 198 0
173 196 0
173 196 0
172 195 0
175 197 0
175 198 0
173 196 0
173 197 0
175 198 0
173 197 0
173 197 0
176 198 0
175 198 0
173 196 0
171 195 0
173 196 0
171 194 0
173 196 0
174 198 0
173 197 0
173 197 0
174 197 0
173 196 0
172 196 0
174 198 0
174 198 0
173 196 0
170 193 0
173 196 0
171 195 0
173 197 0
172 195 0
174 197 0
172 196 0
173 196 0
173 196 0
174 197 0
173 196 0
174 198 0
173 197 0
172 195 0
173 196 0
172 195 0
171 194 0
174 197 0
172 194 0
173 197 0
171 194 0
167 191 25
167 190 40
167 190 51
169 193 40
159 181 74
155 178 86
154 179 84
151 175 94
148 173 94
145 170 103
139 164 111
133 159 124
136 160 111
130 155 125
142 166 108
134 159 120
148 172 100
140 165 114
149 174 97
150 174 95
153 177 84
157 181 78
162 186 67
162 185 70
168 192 40
169 193 36
171 194 18
172 195 0
173 196 0
172 194 0
173 196 0
172 196 0
172 195 0
172 195 0
172 196 0
172 195 0
171 195 0
173 196 0
173 196 0
171 194 0
171 193 0
175 197 0
173 195 0
174 197 0
170 193 0
173 197 0
173 197 0
173 197 0
172 196 0
173 196 0
174 198 0
171 195 0
171 195 0
173 197 0
173 197 0
169 193 0
171 194 0
173 196 0
172 196 0
171 194 0
175 198 0
172 195 0
171 194 0
170 194 0
171 194 0
173 196 0
172 194 0
173 196 0
169 193 0
173 196 0
172 196 0
172 196 0
173 196 0
173 195 0
174 197 11
167 188 19
165 186 11
166 185 28
164 182 32
162 176 45
164 181 39
159 174 41
156 168 45
150 157 58
155 162 61
158 165 61
139 143 66
153 157 66
144 144 70
141 141 71
140 138 78
142 138 80
151 145 87
147 142 87
142 137 82
155 151 91
154 149 93
154 148 91
141 136 83
138 135 87
159 154 97
160 154 96
161 156 97
155 150 95
144 141 92
154 150 96
156 151 97
157 152 97
146 143 94
159 154 97
149 146 95
161 156 100
160 156 103
157 154 102
158 154 102
158 155 103
162 159 105
162 158 104
154 151 99
165 161 106
156 153 100
155 154 104
158 155 103
162 159 106
159 156 104
163 160 106
167 163 108
160 157 105
157 154 103
168 165 110
158 154 103
164 162 108
167 164 109
164 162 108
166 162 108
164 161 108
163 161 108
165 162 108
165 162 108
165 162 108
168 165 110
167 164 109
170 168 112
169 165 110
164 162 109
163 160 107
168 165 111
167 165 110
167 165 110
173 170 113
168 167 112
165 163 109
166 164 109
170 167 111
166 164 110
164 162 108
166 163 109
165 163 109
164 161 107
171 168 112
165 163 109
167 165 110
166 163 109
164 161 108
163 161 108
161 159 106
167 165 110
167 165 110
167 163 109
165 163 109
164 161 107
170 167 111
166 163 108
168 165 110
160 158 106
171 167 111
170 167 112
162 158 104
172 169 112
164 160 106
164 160 106
168 165 109
163 160 104
167 163 107
163 160 106
164 160 104
164 160 106
165 162 106
161 157 104
165 160 103
160 155 100
159 154 100
163 159 103
158 155 100
164 160 105
168 163 105
166 161 105
162 157 101
163 158 101
162 158 103
157 152 97
152 149 94
166 160 101
162 157 99
155 150 94
152 147 93
157 152 92
157 151 91
153 147 93
151 146 91
149 144 90
150 144 88
153 147 90
152 146 87
147 141 85
138 133 80
146 141 81
143 142 75
151 152 73
151 155 65
142 149 51
157 165 60
159 168 56
164 175 53
162 176 49
163 179 41
165 182 34
167 186 34
170 191 19
176 198 0
173 196 0
172 195 0
174 197 0
172 195 0
173 197 0
174 198 0
172 196 0
175 198 0
175 197 0
175 198 0
173 197 0
174 197 0
173 197 0
173 196 0
172 196 0
175 198 0
173 196 0
174 197 0
175 198 0
173 197 0
173 197 0
172 196 0
175 198 0
174 197 0
173 197 0
174 197 0
175 198 0
172 196 0
174 197 0
174 197 0
172 195 0
172 196 0
172 196 0
173 197 0
173 197 0
174 197 0
174 198 0
173 197 0
172 195 0
172 197 0
173 197 0
175 198 0
173 197 0
172 195 0
175 197 0
174 198 0
173 197 0
173 196 0
172 195 0
173 196 0
174 197 0
173 197 0
174 197 0
174 198 0
172 196 0
173 196 0
175 198 0
174 198 0
174 197 0
175 198 0
173 197 0
174 198 0
171 195 0
173 197 0
173 196 0
176 198 0
173 197 0
174 197 0
174 197 0
172 196 0
171 194 0
172 195 0
174 197 0
174 197 0
170 195 0
172 196 0
176 197 0
172 195 0
173 196 0
171 196 0
175 198 0
174 195 0
172 195 0
175 198 0
173 197 0
175 198 0
174 198 0
173 196 0
171 195 0
172 196 0
173 196 0
172 196 0
173 196 0
174 198 0
171 195 0
174 197 0
171 195 0
173 196 0
173 196 0
174 197 0
173 197 0
173 196 0
173 196 0
173 196 0
173 197 0
173 196 0
172 196 0
174 197 0
173 197 0
174 197 0
173 197 0
174 197 0
172 196 0
172 195 0
173 197 0
173 196 0
173 197 0
173 197 0
174 197 0
172 195 0
173 196 0
173 196 0
174 197 0
172 196 0
174 198 0
172 196 0
171 195 0
174 197 0
173 197 0
170 195 0
173 196 0
173 197 0
173 195 0
171 195 0
173 197 0
171 194 0
171 195 0
170 193 0
174 197 0
174 197 0
171 195 0
172 195 0
173 197 0
172 196 0
171 196 0
174 197 0
173 196 0
174 197 0
172 196 0
173 196 0
173 196 0
174 197 0
174 195 0
173 197 0
173 196 0
173 196 0
171 195 0
173 196 0
172 195 0
171 195 0
174 198 0
172 196 0
173 197 0
173 197 0
172 195 31
166 190 54
168 191 51
160 182 74
143 168 100
137 163 117
122 148 136
120 146 139
93 124 162
90 121 163
87 118 165
74 108 174
69 104 178
64 101 180
62 99 180
62 99 180
61 99 181
62 99 181
62 99 179
62 99 181
61 99 180
61 98 181
62 99 180
61 98 179
63 100 180
67 102 179
67 102 173
80 112 170
82 114 169
89 119 166
115 142 141
125 150 135
139 163 114
147 171 103
153 177 86
162 186 62
168 192 47
168 191 25
170 194 25
170 193 18
172 195 0
171 193 0
173 197 0
173 197 0
171 193 0
173 196 0
173 195 0
174 197 0
175 197 0
174 197 0
174 197 0
171 196 0
172 195 0
172 196 0
173 197 0
173 196 0
172 195 0
173 196 0
169 193 0
173 197 0
172 195 0
173 197 0
171 195 0
172 195 0
171 194 0
172 195 0
171 194 0
173 196 0
170 192 0
174 197 0
172 196 0
173 197 0
170 194 0
171 195 0
174 196 0
171 194 0
173 195 0
173 196 0
172 195 0
173 194 16
168 190 22
167 188 19
163 183 16
165 184 29
164 179 42
166 181 49
158 172 42
161 173 51
166 181 48
160 168 60
152 157 64
151 157 58
151 156 62
150 154 71
149 147 78
148 148 76
139 136 81
142 137 81
131 126 73
146 142 86
147 141 84
154 149 94
143 138 84
157 152 93
148 143 90
150 145 89
158 153 96
154 148 95
148 143 92
156 151 97
155 150 97
148 144 92
161 156 102
156 151 98
154 150 98
155 152 101
152 148 97
158 154 100
149 147 96
157 154 99
149 147 97
154 151 101
161 157 103
155 153 100
162 159 105
155 153 102
160 158 104
154 152 102
159 157 104
159 156 103
163 160 108
162 159 106
166 162 108
162 160 107
162 159 106
167 164 109
166 163 108
168 165 110
163 160 107
163 160 108
169 166 110
170 167 111
161 159 107
162 159 106
169 165 110
165 162 109
166 163 109
160 157 105
172 168 112
167 165 110
168 166 111
170 167 111
165 162 108
173 169 112
165 163 109
170 167 111
167 164 109
166 163 109
169 166 111
168 165 110
163 161 108
166 163 109
165 162 108
171 168 112
172 169 112
169 166 110
167 164 109
167 165 110
168 164 109
168 164 109
164 161 108
169 166 111
166 163 108
170 167 111
166 163 109
168 164 109
165 162 108
167 164 109
167 164 109
169 166 110
168 166 110
168 165 109
168 164 109
168 164 108
166 163 109
172 169 112
168 164 109
163 160 105
163 160 106
162 157 103
168 163 106
164 160 104
161 157 103
162 159 104
163 159 104
164 161 104
159 156 101
166 162 106
155 151 99
166 162 106
163 158 103
157 152 97
165 159 102
168 163 106
163 158 102
159 154 99
158 152 97
158 154 98
154 149 93
160 155 97
154 148 91
154 148 92
160 154 96
157 152 94
166 158 99
151 145 88
155 150 95
158 152 93
151 145 90
162 156 97
156 150 91
146 140 82
149 141 84
150 144 81
151 147 80
154 156 74
148 154 65
153 157 66
158 166 63
162 172 54
156 167 48
161 175 44
169 185 42
166 183 39
167 187 30
165 185 19
171 194 0
175 198 0
174 197 0
173 197 0
173 197 0
172 196 0
174 197 0
173 196 0
173 196 0
175 197 0
173 196 0
175 198 0
172 196 0
174 197 0
174 198 0
175 198 0
174 198 0
173 197 0
175 198 0
173 196 0
174 197 0
173 197 0
176 199 0
174 197 0
173 197 0
174 198 0
175 198 0
173 196 0
174 198 0
175 198 0
174 198 0
174 197 0
173 197 0
173 196 0
174 197 0
173 196 0
177 199 0
172 195 0
174 197 0
174 197 0
172 196 0
172 196 0
174 197 0
171 196 0
175 198 0
174 197 0
171 196 0
174 198 0
173 197 0
175 197 0
174 198 0
173 197 0
174 197 0
173 196 0
173 196 0
173 196 0
174 198 0
174 197 0
174 197 0
175 198 0
174 196 0
174 198 0
173 196 0
173 196 0
174 197 0
175 197 0
173 197 0
173 196 0
175 198 0
174 197 0
173 197 0
175 198 0
173 196 0
175 198 0
173 197 0
174 197 0
172 196 0
173 196 0
172 195 0
175 198 0
175 198 0
176 198 0
172 196 0
175 197 0
174 197 0
173 197 0
173 196 0
170 194 0
173 196 0
172 196 0
173 196 0
172 196 0
174 197 0
173 196 0
173 196 0
176 199 0
172 194 0
174 197 0
174 198 0
173 197 0
171 194 0
173 196 0
172 195 0
173 196 0
174 198 0
173 196 0
173 196 0
174 197 0
173 197 0
173 196 0
176 199 0
172 196 0
171 194 0
172 195 0
173 197 0
170 194 0
170 194 0
173 197 0
172 196 0
173 196 0
175 198 0
172 196 0
172 196 0
172 196 0
171 195 0
172 196 0
172 194 0
174 198 0
173 197 0
173 196 0
172 195 0
174 197 0
174 197 0
170 193 0
173 196 0
174 197 0
174 197 0
173 196 0
174 198 0
172 196 0
175 197 0
172 196 0
170 194 0
171 193 0
173 196 0
175 198 0
171 194 0
172 196 0
171 194 0
174 196 0
172 196 0
174 196 0
172 195 0
171 194 0
174 197 0
173 196 0
168 191 0
173 196 0
171 194 0
173 197 0
170 194 25
168 192 44
152 177 84
149 173 99
122 148 136
115 141 143
103 131 155
71 106 175
69 104 177
62 99 180
62 99 179
62 99 180
61 99 180
62 99 181
61 98 181
61 99 181
61 98 180
62 99 181
62 99 181
62 99 181
62 99 181
61 99 181
62 99 181
62 99 180
62 99 180
61 99 181
62 99 181
61 98 179
61 98 179
61 99 181
62 99 181
61 98 180
62 99 180
61 98 176
61 98 179
61 98 178
62 99 180
64 100 180
74 108 171
92 122 163
112 139 147
122 148 134
130 155 123
156 180 85
164 187 60
172 195 31
170 193 18
168 191 0
172 195 0
174 197 0
174 197 0
170 194 0
172 195 0
174 196 0
171 194 0
172 196 0
172 196 0
172 195 0
172 197 0
173 196 0
171 194 0
173 196 0
173 196 0
173 196 0
173 196 0
173 196 0
174 197 0
173 196 0
173 195 0
171 195 0
175 197 0
173 195 0
171 194 0
170 194 0
174 197 0
174 197 0
170 194 0
171 195 0
174 196 0
173 195 0
172 195 0
171 194 0
172 195 11
169 190 16
167 188 28
166 186 19
162 179 36
165 183 32
162 178 34
163 177 42
158 170 48
160 171 47
151 160 54
154 164 55
159 168 59
150 154 59
158 159 80
146 147 72
146 144 76
147 143 81
141 135 79
151 145 84
154 148 90
152 147 89
142 138 85
145 139 85
150 145 92
142 138 88
154 149 94
159 154 96
144 140 89
152 147 94
148 143 90
156 151 96
163 158 102
151 147 94
152 149 94
153 149 95
154 151 99
154 150 98
165 160 105
157 153 101
158 154 101
156 153 101
155 152 101
155 153 102
164 160 105
155 152 101
161 158 106
157 153 101
164 161 105
154 151 100
164 160 106
152 150 99
164 160 107
166 162 107
163 159 105
166 162 108
160 158 105
163 161 108
163 160 107
165 162 109
167 164 109
166 163 109
165 161 107
167 164 110
167 164 110
164 162 108
169 165 109
166 163 109
164 161 108
168 165 110
168 166 111
169 166 110
169 166 111
164 162 109
165 162 108
166 164 110
164 162 109
170 167 111
170 167 111
166 164 110
166 163 109
165 163 108
166 163 109
166 163 109
174 171 114
163 161 108
169 166 111
168 165 109
169 166 111
169 166 110
172 169 113
168 164 109
166 163 109
168 165 109
168 164 109
165 163 108
164 161 107
165 162 108
168 165 109
172 168 112
171 167 111
165 163 108
167 164 108
163 161 107
172 168 112
165 162 107
163 161 107
163 159 104
166 163 108
167 163 108
170 167 111
167 164 108
168 163 107
156 153 101
162 160 105
165 161 106
167 162 105
169 165 106
166 163 106
161 158 103
163 159 104
153 149 97
161 157 102
165 160 103
156 153 98
167 162 104
160 155 100
158 153 97
164 159 101
165 160 101
166 161 102
151 146 91
150 145 89
163 157 101
164 159 101
155 150 95
159 153 95
155 151 90
160 154 93
154 149 90
149 144 89
153 147 87
153 147 92
152 145 87
142 137 84
148 141 79
144 140 76
148 148 77
147 149 60
159 163 70
153 160 60
147 156 51
165 178 52
162 176 52
166 180 49
167 186 32
171 190 28
164 182 28
172 193 16
173 197 0
173 197 0
172 196 0
173 197 0
174 197 0
173 197 0
174 196 0
173 196 0
173 196 0
173 197 0
172 195 0
176 198 0
175 198 0
173 197 0
174 198 0
173 197 0
174 197 0
175 198 0
175 198 0
173 197 0
173 197 0
175 198 0
174 198 0
173 197 0
172 196 0
176 198 0
175 198 0
176 198 0
173 196 0
175 198 0
174 197 0
173 196 0
176 198 0
171 195 0
172 196 0
172 196 0
173 197 0
174 197 0
173 197 0
173 197 0
174 197 0
173 196 0
172 196 0
172 196 0
173 196 0
175 198 0
175 198 0
173 196 0
175 198 0
174 197 0
172 195 0
175 198 0
173 196 0
173 196 0
174 197 0
174 196 0
173 196 0
173 196 0
173 196 0
170 194 0
173 197 0
172 196 0
171 194 0
173 197 0
172 194 0
172 196 0
174 197 0
172 196 0
174 197 0
173 197 0
173 196 0
173 197 0
171 195 0
173 196 0
173 197 0
169 194 0
172 195 0
172 196 0
172 196 0
174 198 0
174 197 0
173 196 0
173 197 0
175 198 0
174 197 0
175 198 0
174 198 0
175 197 0
175 198 0
175 198 0
173 196 0
172 195 0
172 196 0
172 195 0
175 198 0
173 196 0
174 197 0
174 197 0
174 197 0
173 196 0
172 196 0
173 196 0
171 195 0
174 197 0
172 195 0
174 197 0
172 196 0
172 196 0
173 197 0
173 197 0
173 197 0
172 195 0
172 196 0
173 197 0
172 195 0
172 195 0
173 197 0
173 196 0
171 195 0
172 196 0
172 194 0
172 195 0
173 195 0
173 196 0
175 198 0
173 196 0
173 197 0
173 196 0
172 196 0
173 197 0
174 197 0
173 197 0
172 195 0
173 196 0
174 196 0
173 196 0
172 196 0
173 197 0
170 194 0
175 198 0
174 197 0
170 193 0
173 196 0
175 198 0
174 197 0
173 196 0
174 197 0
174 197 0
172 196 0
172 196 0
172 196 0
174 197 0
171 195 0
174 197 0
174 197 0
174 196 25
169 193 40
165 189 54
149 173 97
124 150 136
105 133 152
80 113 170
62 99 181
62 99 179
62 99 180
62 99 181
61 99 181
61 98 181
62 99 181
61 98 181
61 99 181
61 99 179
62 99 180
62 99 181
61 98 180
62 99 181
62 99 181
61 98 179
62 99 181
61 99 181
61 99 180
62 99 181
61 99 181
61 98 181
61 99 181
61 98 181
61 99 181
62 99 180
61 99 181
61 98 179
62 99 180
62 99 180
62 99 180
62 99 181
62 99 179
62 99 180
62 99 181
61 98 177
61 98 179
62 99 180
61 98 179
65 101 177
76 110 172
96 125 159
123 150 134
143 168 110
159 183 75
165 188 60
169 192 47
170 192 0
171 194 0
173 196 0
172 194 0
169 191 0
172 196 0
175 197 0
172 196 0
176 198 0
172 196 0
173 196 0
173 196 0
172 195 0
170 194 0
170 194 0
169 191 0
173 197 0
172 195 0
172 195 0
173 196 0
173 196 0
174 198 0
170 194 0
171 195 0
172 196 0
172 194 0
173 196 0
175 197 0
173 196 0
172 195 0
169 193 0
171 194 0
171 194 0
166 188 11
170 191 16
166 186 16
169 185 41
166 182 32
155 171 36
161 175 44
156 169 45
156 166 51
161 171 58
147 156 54
157 163 64
150 153 64
154 158 69
147 148 71
150 147 81
147 143 84
141 135 80
149 143 85
140 135 81
149 144 90
156 150 92
148 143 88
149 145 90
158 153 94
146 142 91
152 147 95
150 146 95
151 147 95
146 143 92
153 149 93
149 145 94
156 152 98
151 148 97
151 148 97
156 151 100
157 154 100
154 151 99
153 149 99
153 150 99
155 152 102
161 156 104
159 156 102
158 155 101
157 154 103
156 154 103
155 152 101
153 149 99
166 163 108
159 156 103
155 153 102
160 157 105
165 162 109
163 160 107
167 164 109
163 159 105
155 153 103
161 159 106
164 161 107
166 163 109
163 160 106
162 160 108
164 161 108
170 166 111
169 165 110
162 160 107
161 159 106
168 165 110
165 162 109
164 161 108
169 166 110
166 164 110
170 167 111
164 162 108
169 165 109
170 168 112
170 166 110
162 160 107
172 169 112
169 166 111
167 165 110
169 165 109
168 166 110
165 163 109
169 166 110
168 166 110
169 166 110
161 159 106
170 166 110
171 168 112
169 165 110
170 167 111
172 169 113
170 168 112
171 168 112
160 157 104
168 165 110
172 168 112
169 166 110
169 166 109
172 168 112
169 166 110
167 163 108
167 164 109
168 165 109
168 163 105
167 164 109
165 162 107
166 164 108
168 164 109
172 167 109
166 163 105
167 163 107
167 163 108
165 161 106
166 162 105
161 157 102
162 158 103
169 164 104
163 159 102
162 157 101
164 160 103
162 158 103
164 160 102
165 160 105
164 160 104
158 152 97
155 151 97
159 154 97
162 156 98
164 158 101
165 159 99
160 154 98
160 155 95
154 150 95
162 157 98
155 149 90
155 149 92
159 152 95
153 147 88
153 147 87
147 141 89
148 143 89
151 145 85
151 146 85
136 132 75
149 147 81
154 155 74
154 155 74
151 157 65
143 151 51
154 163 57
160 173 47
168 182 53
161 180 30
166 184 34
165 185 25
173 195 16
173 196 16
175 198 0
173 196 0
173 197 0
173 196 0
174 198 0
175 197 0
174 196 0
174 197 0
172 195 0
175 198 0
173 197 0
175 198 0
173 197 0
175 198 0
172 196 0
172 197 0
173 197 0
171 195 0
176 198 0
174 197 0
174 197 0
174 197 0
174 197 0
174 197 0
173 197 0
173 197 0
170 194 0
173 197 0
174 198 0
176 198 0
175 198 0
172 195 0
175 198 0
173 197 0
175 198 0
171 195 0
175 198 0
173 197 0
175 198 0
172 196 0
172 196 0
171 195 0
173 197 0
174 198 0
175 198 0
173 197 0
171 194 0
173 196 0
175 198 0
173 197 0
174 198 0
173 196 0
172 195 0
173 197 0
172 196 0
173 197 0
173 197 0
173 197 0
175 198 0
175 198 0
172 197 0
173 197 0
173 196 0
172 196 0
172 196 0
173 196 0
173 196 0
173 196 0
174 197 0
173 197 0
174 197 0
174 197 0
172 196 0
172 195 0
172 195 0
173 196 0
174 198 0
174 197 0
174 197 0
174 197 0
172 196 0
175 198 0
172 196 0
173 196 0
174 197 0
174 197 0
174 198 0
171 196 0
172 196 0
173 196 0
173 196 0
174 197 0
173 197 0
174 198 0
174 197 0
173 197 0
172 196 0
174 197 0
173 197 0
174 198 0
174 197 0
172 195 0
170 193 0
169 193 0
170 194 0
174 197 0
174 197 0
172 196 0
173 197 0
172 196 0
172 195 0
171 194 0
173 196 0
172 195 0
171 195 0
171 194 0
171 195 0
172 196 0
172 195 0
172 195 0
172 195 0
172 196 0
173 196 0
174 197 0
174 197 0
171 194 0
172 196 0
173 197 0
174 197 0
173 196 0
174 198 0
172 196 0
175 198 0
171 196 0
175 198 0
173 196 0
173 196 0
171 194 0
173 196 0
174 197 0
171 194 0
175 198 0
174 197 0
173 196 0
175 197 0
172 196 0
172 195 0
172 196 0
172 196 0
169 192 0
171 194 0
172 195 18
169 192 40
161 185 72
135 160 120
104 132 150
78 111 171
64 100 178
62 99 180
62 99 180
62 99 181
61 98 181
62 99 181
62 99 180
62 99 181
62 99 181
61 99 181
62 99 181
61 99 181
61 99 181
61 99 181
61 98 181
62 99 181
62 99 181
62 99 181
61 99 181
61 99 181
61 98 181
61 99 181
61 99 180
61 99 181
61 99 181
62 99 181
62 99 181
61 98 179
61 98 180
61 99 181
62 99 181
61 99 181
60 98 180
62 99 180
61 98 181
62 99 181
61 98 180
61 98 181
61 98 180
61 98 180
61 99 181
62 99 181
61 98 178
61 98 179
62 99 181
62 99 180
61 98 177
63 100 177
90 120 165
90 119 161
129 155 123
149 173 99
157 179 83
166 189 60
171 193 0
171 194 0
173 196 0
171 194 0
174 197 0
174 197 0
174 197 0
174 196 0
173 196 0
173 197 0
170 195 0
172 195 0
171 194 0
173 195 0
173 197 0
172 196 0
174 197 0
172 195 0
173 196 0
174 197 0
172 194 0
171 194 0
170 194 0
174 197 0
174 196 0
173 197 0
174 196 0
173 196 0
173 195 0
172 195 0
171 192 16
159 180 19
168 186 28
166 182 44
163 178 39
160 174 50
154 170 38
157 169 46
162 173 50
154 166 51
145 151 61
146 151 63
152 156 71
148 152 61
140 139 70
135 131 72
143 138 81
150 144 85
140 135 83
149 143 84
153 147 89
147 142 85
152 148 92
150 146 90
157 152 95
150 145 88
152 147 94
161 156 99
152 147 97
152 148 95
160 154 98
147 144 94
156 152 95
147 143 94
159 155 99
144 142 94
155 151 100
156 153 100
156 152 100
159 156 104
154 150 99
153 150 99
154 152 101
160 157 105
150 147 98
158 155 103
158 154 102
155 151 100
165 161 106
156 153 101
165 161 107
159 156 104
162 160 107
167 163 108
165 161 107
163 161 108
164 162 108
169 165 110
164 160 106
163 160 108
168 165 110
165 162 108
172 167 110
164 162 108
166 162 107
171 167 111
167 164 109
171 167 111
169 167 111
168 165 110
172 169 113
170 167 111
169 166 111
169 166 110
172 169 113
167 165 110
167 165 110
168 166 111
167 165 110
168 166 110
174 171 113
171 168 112
169 165 110
164 162 108
168 165 109
169 167 111
169 165 109
168 166 110
167 165 110
168 164 109
171 167 111
167 164 109
171 167 110
171 168 112
172 168 111
171 168 110
166 164 109
169 166 111
167 163 108
170 167 111
169 165 110
168 165 109
163 160 106
172 169 110
171 166 110
166 163 108
165 162 108
166 163 109
165 162 107
166 162 107
164 161 106
167 164 108
170 166 109
166 163 107
165 161 104
164 160 105
166 161 105
161 158 103
167 163 106
158 155 101
165 160 103
157 153 95
168 164 104
166 162 106
163 158 100
161 156 101
163 158 103
168 163 103
166 160 101
161 157 99
164 159 102
158 152 95
157 153 97
159 154 96
163 156 95
158 153 95
157 152 93
150 144 87
154 149 93
146 141 84
148 142 87
147 142 85
159 153 93
145 140 84
141 135 80
141 135 81
155 150 81
144 144 71
154 154 73
146 152 63
151 159 62
152 161 53
167 178 59
157 170 41
165 183 32
165 183 30
166 186 30
171 190 32
174 196 11
173 197 0
172 196 0
173 196 0
174 198 0
173 197 0
174 198 0
174 198 0
174 197 0
172 196 0
172 196 0
175 198 0
174 198 0
172 197 0
172 196 0
174 197 0
174 197 0
174 197 0
174 198 0
173 196 0
174 197 0
173 196 0
174 197 0
174 197 0
174 197 0
175 198 0
174 197 0
175 198 0
174 198 0
173 197 0
173 197 0
174 198 0
174 197 0
172 195 0
175 197 0
174 197 0
174 197 0
174 197 0
173 197 0
171 195 0
173 197 0
176 198 0
171 195 0
174 198 0
174 197 0
175 197 0
173 197 0
173 197 0
172 196 0
173 196 0
174 197 0
172 195 0
174 197 0
172 196 0
175 198 0
171 194 0
173 196 0
173 196 0
172 196 0
174 197 0
170 194 0
174 196 0
173 196 0
173 197 0
172 196 0
172 196 0
170 194 0
172 196 0
175 198 0
171 195 0
174 196 0
177 199 0
175 198 0
175 198 0
173 196 0
174 197 0
173 197 0
173 197 0
172 195 0
175 198 0
174 197 0
174 197 0
172 196 0
175 198 0
173 196 0
174 198 0
172 196 0
173 196 0
173 196 0
173 197 0
172 195 0
172 197 0
175 198 0
172 196 0
174 197 0
175 198 0
174 197 0
173 196 0
171 195 0
173 196 0
173 196 0
173 197 0
173 196 0
174 196 0
172 196 0
174 197 0
174 197 0
174 197 0
172 196 0
173 196 0
172 196 0
170 194 0
171 193 0
173 196 0
172 195 0
173 197 0
172 195 0
174 197 0
172 196 0
174 197 0
173 196 0
173 196 0
173 196 0
174 197 0
174 197 0
172 196 0
172 196 0
171 195 0
173 197 0
172 196 0
171 195 0
174 198 0
169 193 0
173 197 0
174 197 0
171 195 0
175 197 0
172 195 0
174 196 0
170 193 0
174 197 0
172 196 0
173 197 0
175 198 0
174 197 0
172 196 0
172 195 0
172 195 0
173 195 0
172 195 0
167 190 40
164 187 62
138 163 111
105 133 151
70 105 177
62 99 179
62 99 179
61 99 178
62 99 180
61 99 179
62 99 181
61 99 181
62 99 181
61 99 180
61 99 180
61 99 181
61 99 181
61 99 181
61 98 181
61 99 181
61 98 181
61 98 181
61 99 181
62 99 181
61 98 181
61 99 181
62 99 181
62 99 181
62 99 181
62 99 181
61 99 181
61 99 181
62 99 181
62 99 181
61 99 181
62 99 181
61 99 181
62 99 181
61 98 180
62 99 181
62 99 181
61 98 181
62 99 181
61 98 180
62 99 181
61 98 180
61 98 179
61 99 181
62 99 181
62 99 181
62 99 181
62 99 180
61 98 180
62 98 179
61 98 179
61 98 177
62 99 179
62 98 177
62 99 180
70 105 170
93 122 159
120 146 138
147 170 93
159 182 76
173 196 25
173 195 0
170 195 0
173 197 0
170 194 0
172 196 0
173 196 0
172 195 0
174 196 0
173 196 0
171 194 0
171 194 0
173 196 0
170 194 0
171 194 0
173 196 0
173 196 0
171 195 0
172 196 0
172 195 0
174 196 0
172 195 0
172 194 0
173 196 0
173 197 0
170 194 0
172 194 0
169 192 16
165 184 30
166 186 22
159 180 11
161 178 36
166 182 31
162 179 42
155 167 47
158 166 61
151 163 51
161 170 58
155 160 65
144 147 65
141 141 69
147 148 71
141 137 75
142 137 82
140 135 78
150 145 89
149 144 86
145 140 88
153 148 91
142 136 83
152 147 94
150 145 90
152 147 89
136 132 82
148 145 95
143 140 91
148 144 95
142 137 87
149 145 92
142 139 91
155 152 100
159 154 99
157 154 100
160 156 102
148 145 96
157 153 102
146 144 96
153 150 98
154 151 99
160 156 104
159 155 102
153 151 101
156 153 103
157 155 104
160 157 104
161 158 104
168 164 108
161 158 106
159 157 105
155 152 103
163 160 108
167 162 107
159 157 106
162 159 107
163 160 108
161 159 106
162 159 107
163 161 108
166 163 109
166 163 108
163 160 108
167 164 109
168 165 110
169 166 111
165 163 109
168 164 108
167 164 110
171 168 112
164 162 108
171 168 112
172 169 113
168 165 110
168 165 110
166 163 109
170 166 110
167 164 110
169 166 111
168 166 111
168 165 110
168 166 110
170 167 111
169 166 111
171 167 110
169 167 110
170 166 110
172 168 112
168 165 110
166 163 109
172 168 111
168 165 110
170 167 111
170 167 111
166 163 109
166 164 109
168 166 110
172 168 110
164 161 108
172 167 110
166 163 108
170 167 110
164 160 106
165 161 105
166 162 108
164 161 106
168 164 107
166 162 104
170 166 108
169 165 109
169 166 108
168 163 107
162 159 104
171 167 110
166 163 107
161 156 101
169 165 106
167 163 106
161 157 103
164 160 101
160 156 102
163 158 102
168 163 106
169 164 104
160 156 99
167 163 104
168 163 107
165 160 101
162 157 99
162 157 100
156 151 93
163 159 99
165 160 98
152 146 90
151 147 95
166 159 99
157 153 95
152 146 88
147 142 84
148 143 85
145 139 84
147 141 84
153 147 88
158 152 90
144 139 84
133 127 76
153 148 83
146 146 73
154 153 76
161 164 72
144 149 60
154 162 60
165 176 57
159 172 41
172 186 51
163 178 44
159 178 25
166 187 19
171 192 22
173 196 0
175 198 0
173 195 0
173 196 0
174 197 0
176 198 0
172 196 0
173 197 0
173 196 0
172 196 0
175 198 0
174 197 0
175 198 0
173 196 0
174 198 0
172 195 0
173 196 0
172 196 0
173 196 0
174 197 0
172 196 0
171 195 0
173 197 0
174 198 0
174 198 0
172 196 0
174 198 0
173 197 0
174 197 0
173 196 0
174 198 0
173 196 0
173 196 0
171 195 0
172 195 0
173 196 0
175 198 0
175 198 0
171 196 0
172 195 0
171 195 0
172 195 0
174 197 0
172 195 0
174 198 0
173 197 0
175 198 0
174 197 0
168 192 0
173 197 0
174 198 0
174 197 0
175 198 0
173 197 0
174 197 0
176 198 0
173 196 0
172 196 0
174 197 0
173 196 0
172 196 0
173 197 0
174 197 0
170 194 0
173 196 0
173 196 0
172 196 0
173 197 0
172 196 0
173 197 0
176 198 0
173 197 0
173 197 0
172 196 0
173 196 0
173 196 0
174 197 0
173 197 0
174 197 0
173 196 0
174 197 0
173 195 0
174 197 0
174 197 0
174 198 0
173 197 0
174 197 0
174 197 0
174 196 0
172 196 0
174 196 0
173 196 0
173 196 0
173 197 0
175 198 0
174 197 0
173 197 0
173 197 0
172 196 0
173 196 0
172 196 0
174 198 0
174 196 0
173 197 0
174 197 0
172 195 0
176 198 0
174 198 0
171 195 0
173 195 0
174 198 0
173 196 0
174 198 0
171 194 0
173 196 0
173 197 0
174 198 0
172 195 0
173 197 0
173 196 0
174 197 0
173 196 0
174 197 0
170 194 0
172 195 0
174 198 0
172 195 0
172 195 0
173 196 0
175 198 0
172 196 0
172 196 0
175 197 0
174 196 0
173 196 0
169 193 0
173 197 0
169 193 0
173 197 0
172 195 0
172 196 0
172 195 0
173 197 0
171 195 0
173 196 0
173 197 0
174 197 0
163 187 65
149 173 99
113 140 142
78 111 170
62 99 179
62 99 181
61 99 181
62 99 178
62 99 181
62 99 180
61 99 180
62 99 179
62 99 181
62 99 181
61 99 181
62 99 180
61 99 181
61 98 181
62 99 181
61 99 181
61 99 181
61 99 181
61 99 181
62 99 181
61 98 181
61 98 181
61 98 181
61 98 181
61 99 181
61 99 181
62 99 181
62 99 181
61 98 181
61 99 181
62 99 181
61 98 181
61 98 181
61 99 181
61 99 181
61 99 181
61 99 181
61 99 181
62 99 181
61 99 181
61 98 181
61 98 181
61 98 181
62 99 181
61 98 181
61 98 180
62 99 180
62 99 181
61 99 180
61 99 180
62 99 179
61 98 180
62 99 181
62 99 180
61 98 180
61 98 179
62 99 179
61 98 176
62 99 181
61 98 176
73 106 172
106 134 152
132 157 124
151 175 92
161 184 67
170 194 18
171 193 0
173 197 0
171 193 0
175 197 0
170 194 0
170 193 0
174 197 0
171 194 0
171 194 0
173 196 0
172 195 0
172 195 0
174 196 0
172 196 0
175 197 0
174 195 0
170 194 0
172 195 0
175 198 0
173 196 0
172 195 0
173 196 0
170 191 0
173 195 19
162 180 25
165 184 28
168 185 37
160 174 45
162 177 39
159 171 49
162 175 48
157 168 45
158 165 62
153 159 58
145 150 63
151 153 68
151 153 69
153 150 83
139 134 76
157 151 86
146 139 84
136 131 78
139 135 79
138 134 83
143 138 83
149 144 94
150 146 90
145 140 89
147 143 90
147 143 90
146 143 91
149 146 92
150 147 98
149 145 93
147 143 94
153 150 97
149 146 96
154 150 98
152 149 96
152 149 95
148 145 96
153 150 100
151 147 98
154 151 100
158 154 103
157 154 101
156 153 102
157 154 102
158 156 105
160 157 105
159 155 102
160 156 102
155 153 103
158 156 104
155 153 103
160 158 107
161 158 105
163 160 107
166 162 108
162 159 107
160 157 105
170 166 111
163 159 107
163 160 107
165 163 109
165 163 109
167 164 110
164 161 108
160 157 104
169 165 109
167 164 110
171 169 113
168 165 111
168 165 110
171 167 110
173 169 112
167 164 109
164 161 108
167 164 109
169 166 111
166 163 108
167 163 109
169 165 110
172 168 111
172 169 113
173 169 112
172 169 113
167 164 109
170 167 110
167 165 110
168 166 110
168 165 109
173 169 112
170 167 112
169 166 110
171 168 112
171 168 110
166 163 108
169 164 108
167 165 109
167 164 109
171 167 110
172 169 112
170 167 110
170 166 109
162 159 105
169 166 110
168 165 109
173 168 111
164 160 106
168 165 108
171 167 110
169 164 107
162 158 104
170 166 108
166 161 106
162 158 101
163 160 104
170 166 106
167 164 106
164 160 103
166 162 106
160 157 103
164 160 104
158 154 100
163 158 103
159 156 101
168 163 105
159 154 97
166 161 104
162 158 98
165 159 101
160 154 97
157 151 97
156 152 93
148 144 90
160 155 95
159 154 97
156 151 93
155 150 91
156 151 93
163 156 96
149 144 85
155 150 93
153 146 87
149 143 87
151 145 80
149 143 80
158 152 91
155 149 87
144 138 76
149 146 79
147 146 67
148 147 73
151 155 61
160 167 61
153 161 59
158 169 56
157 173 37
163 180 37
165 182 36
166 184 30
168 190 11
173 193 16
173 197 0
174 196 0
172 195 0
173 196 0
172 196 0
174 196 0
173 196 0
174 197 0
175 198 0
175 198 0
171 196 0
174 198 0
174 198 0
174 197 0
175 198 0
174 197 0
174 198 0
174 197 0
172 195 0
174 197 0
174 197 0
173 196 0
172 195 0
172 195 0
174 197 0
174 197 0
173 197 0
174 197 0
174 198 0
174 197 0
173 197 0
173 196 0
172 196 0
174 197 0
173 196 0
174 197 0
173 197 0
170 194 0
172 196 0
174 198 0
172 196 0
174 196 0
175 198 0
172 196 0
173 196 0
173 197 0
176 198 0
171 196 0
172 196 0
171 195 0
172 196 0
173 197 0
173 196 0
175 198 0
173 197 0
172 196 0
174 197 0
174 197 0
171 195 0
173 197 0
172 194 0
174 197 0
175 198 0
172 196 0
174 197 0
171 195 0
173 197 0
173 196 0
173 197 0
170 193 0
173 197 0
172 195 0
174 197 0
173 196 0
175 197 0
174 197 0
174 197 0
173 197 0
174 197 0
171 196 0
174 197 0
172 196 0
174 197 0
172 196 0
174 197 0
175 198 0
171 195 0
174 197 0
175 198 0
170 194 0
174 197 0
172 194 0
173 196 0
172 196 0
173 197 0
171 195 0
173 196 0
173 196 0
174 198 0
174 197 0
172 195 0
172 195 0
172 196 0
174 197 0
173 197 0
174 197 0
173 195 0
173 197 0
173 197 0
173 197 0
172 196 0
173 196 0
173 197 0
173 196 0
174 197 0
173 196 0
172 195 0
173 196 0
173 197 0
173 196 0
173 196 0
172 196 0
174 197 0
173 195 0
171 195 0
174 198 0
174 197 0
173 196 0
174 197 0
173 197 0
172 195 0
173 196 0
174 196 0
173 197 0
173 196 0
174 197 0
175 198 0
173 196 0
172 195 0
172 195 0
172 195 0
173 196 0
173 197 0
171 194 18
163 186 62
119 146 137
91 121 163
64 100 177
61 99 179
61 98 179
63 100 180
62 99 180
61 99 181
61 99 180
62 99 181
61 99 180
61 99 181
62 99 180
61 99 181
61 99 180
62 99 181
62 99 181
62 99 181
62 99 180
62 99 181
62 99 181
61 99 181
62 99 181
61 99 181
62 99 181
61 99 181
61 99 181
61 99 181
61 99 181
62 99 181
61 98 181
61 99 181
62 99 181
62 99 181
61 99 181
62 99 181
61 99 181
61 99 181
61 99 181
61 99 181
62 99 181
62 99 180
62 99 181
61 98 181
61 99 181
61 98 181
62 99 180
62 99 181
61 99 181
62 99 181
62 99 180
62 99 180
61 99 181
62 99 180
62 99 181
62 99 180
62 99 181
62 99 178
61 98 179
61 98 179
62 99 181
62 99 179
62 98 177
61 98 179
62 99 180
61 98 177
61 98 178
62 99 180
84 115 169
119 145 134
146 169 101
165 188 57
171 194 36
173 196 0
174 197 0
172 196 0
172 195 0
172 195 0
171 194 0
173 197 0
174 197 0
171 194 0
172 196 0
172 195 0
175 197 0
167 189 0
174 197 0
171 194 0
167 190 0
173 196 0
172 194 0
173 196 0
169 192 0
168 190 0
166 188 16
167 186 19
165 182 36
167 183 36
159 174 41
161 176 45
157 167 52
153 164 48
150 160 54
162 171 64
159 163 67
147 152 62
156 159 72
144 143 73
149 145 76
138 133 78
140 135 74
138 133 79
142 136 84
144 140 84
141 135 79
145 141 87
148 143 90
141 136 83
144 140 90
150 145 94
148 143 92
140 136 84
152 148 94
150 146 94
156 152 97
151 147 95
154 151 100
148 145 95
152 148 97
154 151 99
145 143 93
153 149 97
155 152 99
155 151 100
157 153 101
155 151 98
156 152 101
161 157 103
155 152 101
159 156 103
163 160 107
160 156 103
163 159 106
160 158 105
164 161 106
159 156 104
166 162 107
165 162 108
162 159 106
165 162 108
163 161 107
160 158 106
161 159 107
164 161 108
168 165 110
160 158 106
161 159 107
166 163 109
169 167 112
169 166 108
167 165 110
166 163 108
171 168 112
168 166 111
168 165 110
164 161 108
169 165 109
164 163 109
171 168 112
172 169 112
165 163 109
172 168 112
167 165 110
167 165 111
171 168 112
172 169 113
170 167 111
172 169 112
174 170 112
172 168 112
169 165 109
167 164 109
170 167 110
169 166 110
169 165 109
169 166 110
165 162 106
168 165 109
172 168 112
170 167 110
171 168 111
175 171 113
172 168 110
171 168 111
169 166 110
170 166 109
164 161 106
167 164 109
166 162 107
165 161 104
167 164 109
167 164 109
171 168 110
171 167 109
167 162 105
166 161 106
168 164 106
169 164 105
166 163 107
165 161 105
164 160 104
172 166 108
169 164 106
167 163 106
167 162 105
168 163 103
161 156 101
171 165 106
161 157 100
160 157 100
160 155 99
160 156 101
162 157 100
157 154 98
159 154 99
158 153 95
162 156 98
159 154 99
162 155 95
153 148 90
150 144 84
155 150 93
161 157 97
159 153 93
155 148 94
158 152 91
154 147 90
145 139 80
151 145 88
149 143 82
154 149 93
150 144 83
150 145 84
142 140 70
153 154 77
147 150 57
144 150 53
162 173 59
155 166 49
161 175 42
167 184 41
158 174 34
169 187 34
169 189 22
170 192 11
173 196 0
172 195 0
174 196 0
174 197 0
175 198 0
175 198 0
175 198 0
173 197 0
174 197 0
174 197 0
174 198 0
174 198 0
176 199 0
174 197 0
175 198 0
174 197 0
174 197 0
173 197 0
173 197 0
174 197 0
173 196 0
172 196 0
174 197 0
173 197 0
172 195 0
171 195 0
172 195 0
173 196 0
175 198 0
174 198 0
174 198 0
175 198 0
172 196 0
175 198 0
172 196 0
173 197 0
172 195 0
174 197 0
174 198 0
175 197 0
173 197 0
174 198 0
174 197 0
174 197 0
169 192 0
175 198 0
175 198 0
173 196 0
173 196 0
174 197 0
173 197 0
174 197 0
175 198 0
174 197 0
172 196 0
173 197 0
175 198 0
171 194 0
174 198 0
171 194 0
174 197 0
173 196 0
173 197 0
175 197 0
172 195 0
173 197 0
175 197 0
171 194 0
174 197 0
172 195 0
173 197 0
169 193 0
175 198 0
174 198 0
173 196 0
173 197 0
173 197 0
174 198 0
175 198 0
172 196 0
174 197 0
172 196 0
175 198 0
174 198 0
171 195 0
173 197 0
175 198 0
172 196 0
172 196 0
174 198 0
173 197 0
172 195 0
173 197 0
174 197 0
173 196 0
174 197 0
174 198 0
171 195 0
173 196 0
172 195 0
171 195 0
173 196 0
170 194 0
176 198 0
172 196 0
173 197 0
172 196 0
174 198 0
173 197 0
172 195 0
175 198 0
173 196 0
172 196 0
172 196 0
172 196 0
174 197 0
173 196 0
174 196 0
175 198 0
175 198 0
174 197 0
172 196 0
174 198 0
172 195 0
170 194 0
172 195 0
172 196 0
173 196 0
174 198 0
168 192 0
171 195 0
172 195 0
173 196 0
172 195 0
175 198 0
173 195 0
174 197 0
171 195 0
172 195 0
175 198 0
174 197 0
168 191 40
153 178 88
106 134 148
80 113 170
62 99 180
62 99 180
62 99 179
62 99 181
62 99 181
62 99 181
63 100 181
62 99 181
62 99 180
61 99 181
62 99 181
62 99 181
62 99 181
62 99 181
62 99 181
62 99 181
61 99 181
62 99 181
61 99 181
61 99 181
61 99 181
62 99 181
61 99 181
62 99 181
61 98 181
62 99 181
61 98 181
62 99 181
61 99 181
61 99 181
62 99 181
62 99 181
61 98 181
61 99 181
61 99 181
61 99 181
62 99 181
61 99 181
61 98 181
61 99 181
62 99 181
61 99 181
61 99 181
61 99 181
62 99 181
61 99 181
62 99 181
61 98 181
61 98 181
62 99 180
62 99 181
61 99 181
61 99 180
61 99 181
61 99 181
62 99 181
62 99 180
61 98 180
61 98 179
62 98 179
62 99 181
61 98 178
62 99 179
61 98 180
61 98 178
61 98 176
62 99 178
62 99 179
62 99 180
60 97 177
77 110 172
109 136 141
136 161 114
160 183 65
169 193 31
173 195 0
174 197 0
175 197 0
173 195 0
172 195 0
174 197 0
172 195 0
170 193 0
172 195 0
173 196 0
173 196 0
171 194 0
173 196 0
173 196 0
173 195 0
171 194 0
174 197 0
170 193 11
172 193 11
168 187 22
167 187 22
162 178 34
165 180 42
161 175 39
159 173 41
155 169 42
158 169 52
159 166 63
148 153 59
154 156 67
147 151 66
153 154 74
137 137 69
136 133 72
142 136 82
142 137 77
153 148 89
138 134 79
144 139 84
149 144 89
146 142 86
145 142 92
146 142 92
135 132 77
151 147 93
154 149 91
148 144 91
153 149 94
152 148 95
149 145 93
154 151 102
147 143 92
156 154 99
152 149 98
153 149 97
150 147 95
156 152 101
163 158 104
153 150 100
155 153 103
161 159 107
159 155 104
157 153 101
157 154 102
160 157 105
151 148 99
159 156 104
157 155 104
157 154 103
167 163 108
157 155 104
163 160 106
159 156 104
165 162 108
165 162 108
157 155 104
162 159 106
157 154 104
167 163 108
168 164 110
164 162 109
162 159 107
166 162 108
161 158 106
169 166 110
171 168 111
171 167 112
167 165 109
163 160 106
168 165 110
168 165 109
165 163 109
169 166 111
168 165 110
168 165 110
166 164 110
169 167 112
169 166 110
163 161 107
172 169 113
166 163 109
167 164 109
172 169 113
170 167 112
170 168 112
172 168 111
170 166 110
168 165 109
173 169 112
170 167 110
173 169 112
175 171 113
171 166 109
168 165 110
171 167 111
170 166 109
168 165 109
171 168 111
170 167 111
168 166 110
171 168 110
166 162 104
170 166 109
167 163 107
168 164 109
169 166 109
166 162 107
166 162 108
166 163 106
170 166 109
170 166 108
165 162 106
170 166 108
171 166 106
165 160 105
167 163 108
169 165 107
168 163 104
170 167 109
167 163 105
164 160 105
164 160 102
161 157 99
170 164 105
168 162 106
162 157 99
165 160 99
159 154 97
166 161 99
163 157 103
161 156 99
160 154 95
168 161 99
160 155 94
154 150 92
162 156 99
156 150 91
160 153 88
159 154 93
165 158 101
155 149 90
151 147 87
155 148 86
159 152 93
147 142 86
137 131 75
154 148 83
152 145 80
140 137 76
153 152 73
147 151 65
154 159 65
152 159 59
154 165 52
160 168 57
158 174 37
165 182 37
165 183 30
167 187 22
167 189 19
172 194 0
172 196 0
174 197 0
174 197 0
174 197 0
174 197 0
170 194 0
173 197 0
174 197 0
173 196 0
176 198 0
174 197 0
172 196 0
174 197 0
174 197 0
175 198 0
175 198 0
173 196 0
172 196 0
175 198 0
175 198 0
172 196 0
174 197 0
172 196 0
172 196 0
176 199 0
173 196 0
174 197 0
174 197 0
175 198 0
173 196 0
173 197 0
172 196 0
173 197 0
174 196 0
175 197 0
175 198 0
173 197 0
174 197 0
171 195 0
174 198 0
173 196 0
174 197 0
173 197 0
171 194 0
172 195 0
172 196 0
172 196 0
174 197 0
174 198 0
174 197 0
173 196 0
174 197 0
173 196 0
173 197 0
172 195 0
174 197 0
173 196 0
173 197 0
173 196 0
172 195 0
173 196 0
174 197 0
174 197 0
174 197 0
174 197 0
174 198 0
174 198 0
174 197 0
174 197 0
173 197 0
175 198 0
172 196 0
171 195 0
170 194 0
171 195 0
175 198 0
175 198 0
173 197 0
174 197 0
172 196 0
174 197 0
172 195 0
171 195 0
174 197 0
172 196 0
173 196 0
170 195 0
170 195 0
174 198 0
173 196 0
173 196 0
175 198 0
174 197 0
173 196 0
174 198 0
174 197 0
176 199 0
174 197 0
172 196 0
173 196 0
172 196 0
174 198 0
172 196 0
171 194 0
172 195 0
173 197 0
175 198 0
175 197 0
173 196 0
172 195 0
175 198 0
173 197 0
170 194 0
173 196 0
173 197 0
172 196 0
173 196 0
173 197 0
173 196 0
173 196 0
173 197 0
173 196 0
173 197 0
172 195 0
174 197 0
173 197 0
170 193 0
171 196 0
171 194 0
172 195 0
173 197 0
172 195 0
172 195 0
174 197 0
171 194 0
171 195 0
173 196 0
171 195 18
167 191 47
152 176 90
109 136 142
69 104 176
62 99 179
61 99 178
62 99 179
62 99 181
61 99 179
61 98 179
62 99 178
61 99 179
62 99 181
63 100 181
62 99 181
62 99 181
61 99 181
61 98 181
62 99 181
61 99 180
61 99 180
61 99 181
61 99 181
61 98 181
61 99 181
62 99 181
61 98 181
61 99 181
61 98 181
61 98 181
61 98 181
61 99 181
61 99 181
61 99 181
61 98 181
61 99 181
62 99 181
61 99 181
62 99 181
61 99 181
62 99 181
61 98 181
61 98 181
62 99 181
61 99 181
61 99 181
61 99 181
61 99 181
61 98 181
61 99 181
62 99 181
61 99 181
61 98 181
62 99 181
61 99 181
61 99 181
62 99 181
61 99 181
62 99 181
62 99 180
62 99 180
62 99 180
61 99 180
61 98 180
61 98 179
62 99 180
61 99 181
61 99 180
61 98 178
61 99 179
62 99 180
61 98 178
62 99 179
61 99 181
61 98 178
62 98 178
61 98 176
61 97 175
70 103 173
107 134 149
135 160 116
148 173 87
166 189 54
170 193 0
173 196 0
173 196 0
172 195 0
174 197 0
171 193 0
171 193 0
173 196 0
172 196 0
173 195 0
171 194 0
173 195 0
172 194 0
173 196 0
170 193 0
170 194 11
169 190 25
166 187 28
154 171 33
162 180 36
165 181 42
159 174 42
158 170 45
161 172 53
155 168 41
149 158 56
150 154 65
147 149 64
155 156 73
147 148 68
147 145 78
145 141 82
140 135 77
141 136 80
150 144 84
150 144 88
137 133 82
138 134 82
137 134 83
156 150 94
147 143 92
132 131 83
152 147 93
141 138 89
155 151 97
152 148 95
150 146 97
153 149 95
149 145 94
153 149 98
145 142 93
154 150 98
158 154 101
148 145 97
146 143 95
154 150 100
145 142 94
158 156 104
149 147 100
153 151 101
153 152 103
162 159 107
150 147 98
155 153 102
158 154 103
159 156 104
156 154 104
157 154 103
165 162 106
157 154 102
162 159 106
163 160 107
163 160 107
162 159 105
164 161 107
167 163 108
160 157 103
153 151 103
164 162 108
163 160 107
165 162 109
168 165 111
169 165 109
166 163 108
170 166 111
168 166 111
169 167 112
168 165 110
168 165 110
169 166 111
168 166 111
169 167 112
167 164 110
173 169 112
172 169 113
167 165 110
172 168 110
165 162 108
168 165 110
168 166 111
170 167 111
169 166 110
174 170 112
167 164 109
170 166 110
170 167 111
173 169 112
170 167 111
171 168 112
170 167 109
172 168 110
173 170 113
167 163 108
170 166 110
174 169 112
171 168 110
168 165 109
163 160 106
169 165 109
172 169 112
169 166 108
169 165 109
168 164 107
166 163 107
166 163 108
172 168 110
171 167 109
162 158 103
168 165 106
171 167 110
169 165 108
168 164 106
167 163 104
168 164 104
169 165 107
165 161 103
163 159 103
168 163 106
168 163 103
172 166 106
164 160 103
165 159 101
159 154 97
161 156 100
168 162 104
167 161 103
165 160 101
159 154 99
158 152 97
168 161 101
162 157 97
160 154 97
165 158 99
157 151 97
158 153 95
158 153 93
154 150 90
166 159 97
152 147 88
154 149 90
161 155 95
152 146 87
143 137 81
151 146 84
152 146 87
139 133 80
141 137 79
155 153 81
151 151 75
150 154 67
153 160 62
156 164 56
158 168 52
161 173 41
159 174 37
164 182 30
161 180 25
172 193 19
174 195 19
173 196 0
172 195 0
172 196 0
175 198 0
174 197 0
172 195 0
174 198 0
171 195 0
173 196 0
174 198 0
175 198 0
172 196 0
172 196 0
175 198 0
174 197 0
174 196 0
174 197 0
173 197 0
175 197 0
174 197 0
175 198 0
174 197 0
173 197 0
174 197 0
173 196 0
174 196 0
174 198 0
172 196 0
175 198 0
174 197 0
174 197 0
174 198 0
173 196 0
175 198 0
173 197 0
173 197 0
173 197 0
173 196 0
174 197 0
175 198 0
173 196 0
171 194 0
174 197 0
173 197 0
174 197 0
174 197 0
173 197 0
175 198 0
174 197 0
174 198 0
172 196 0
175 198 0
173 197 0
175 197 0
174 198 0
174 197 0
173 196 0
174 197 0
172 195 0
175 198 0
174 197 0
174 197 0
172 195 0
174 197 0
172 196 0
174 197 0
171 195 0
175 198 0
174 198 0
175 198 0
174 197 0
173 197 0
172 196 0
174 198 0
173 196 0
173 197 0
173 197 0
171 195 0
175 197 0
175 198 0
173 195 0
173 196 0
172 196 0
172 195 0
172 196 0
174 197 0
174 197 0
174 198 0
173 196 0
171 195 0
173 196 0
173 196 0
174 197 0
173 196 0
173 196 0
171 194 0
175 198 0
173 196 0
172 196 0
174 197 0
172 195 0
173 196 0
171 195 0
175 198 0
171 194 0
174 197 0
174 197 0
169 194 0
172 197 0
174 198 0
172 196 0
172 196 0
171 194 0
171 194 0
169 193 0
170 195 0
174 197 0
172 195 0
171 195 0
172 195 0
173 197 0
174 197 0
174 198 0
175 198 0
171 195 0
173 196 0
172 196 0
173 197 0
171 195 0
172 196 0
173 195 0
173 197 0
171 194 0
171 194 0
171 194 0
173 196 0
168 191 40
150 175 95
116 143 141
63 100 174
62 99 178
62 99 178
62 99 180
63 99 180
62 99 179
62 99 180
61 99 180
62 99 181
61 99 179
61 98 181
62 99 180
61 99 181
62 99 181
62 99 181
62 99 181
61 99 181
61 98 180
62 99 181
61 99 181
61 99 181
61 99 181
61 99 181
62 99 181
61 99 181
61 99 181
61 99 181
62 99 181
61 99 181
61 98 181
61 99 181
62 99 181
61 99 181
61 99 181
61 99 181
61 98 181
61 98 181
62 99 181
61 99 181
61 98 181
61 99 181
61 98 181
61 98 181
61 99 181
61 99 181
61 98 181
61 99 181
61 98 181
62 99 181
61 99 181
61 99 181
61 99 181
62 99 181
62 99 181
62 99 181
61 99 181
62 99 180
61 98 181
61 99 181
61 99 181
61 99 181
62 99 181
62 99 181
61 99 181
62 99 181
62 99 181
62 99 179
61 98 179
61 98 179
61 99 180
62 99 180
62 99 179
62 99 178
61 98 176
61 97 175
60 97 175
61 98 177
62 99 178
61 97 177
64 99 175
102 130 155
129 155 116
154 178 83
169 192 40
171 194 0
174 197 0
173 195 0
170 194 0
169 192 0
172 194 0
172 194 0
172 194 0
174 198 0
174 196 0
172 195 0
173 195 0
172 193 11
168 189 16
169 190 19
159 178 16
163 182 29
163 177 41
168 183 39
162 176 39
161 173 45
162 173 54
148 155 54
157 162 62
147 153 57
143 146 71
153 155 67
147 146 76
138 135 76
144 139 79
136 132 75
136 133 78
137 133 83
144 140 86
148 144 85
146 142 87
139 134 84
147 143 93
139 136 85
145 141 90
143 140 93
141 140 90
151 147 95
154 151 97
148 144 93
141 140 93
143 140 93
152 148 96
154 151 101
152 149 96
152 149 100
152 148 97
149 147 99
149 147 99
153 150 101
153 151 100
154 152 103
151 148 100
158 154 103
157 154 104
152 152 103
155 153 104
154 151 101
156 152 101
155 154 104
152 150 101
157 155 103
156 153 102
165 162 108
153 152 104
163 160 108
166 164 110
167 164 110
163 160 107
164 162 108
166 162 108
169 166 111
164 161 108
161 158 107
167 164 109
168 166 111
167 164 110
168 165 109
165 163 110
168 166 110
163 162 109
169 166 111
169 166 110
170 166 110
170 167 111
169 166 111
165 163 109
171 168 111
169 167 111
171 167 111
168 165 109
171 168 111
170 167 111
171 168 112
172 169 113
172 169 113
171 168 111
170 167 111
171 168 112
172 168 110
171 168 112
169 165 109
172 168 110
170 167 110
171 167 110
170 167 109
170 166 109
168 165 109
171 167 110
172 168 110
169 165 109
169 165 108
172 168 110
174 170 113
169 166 109
169 165 109
167 163 106
169 165 108
171 167 109
167 164 109
168 164 106
167 164 107
168 164 105
164 159 103
161 158 104
165 160 102
166 163 105
163 158 101
167 162 104
157 153 96
165 159 102
166 161 101
161 156 99
167 162 105
167 163 104
159 155 99
161 157 97
161 156 98
165 159 102
160 155 98
161 156 95
159 154 95
159 154 97
154 150 92
155 150 95
163 158 96
159 154 97
161 154 96
160 155 95
159 153 95
153 147 93
157 152 93
153 147 89
153 147 88
149 143 85
154 148 87
153 147 86
148 143 80
145 138 78
141 135 76
144 141 71
136 139 65
150 154 67
149 153 58
159 169 54
157 168 52
158 170 48
157 173 41
162 176 36
167 187 25
171 192 22
171 193 16
171 195 0
172 195 0
175 198 0
175 198 0
174 197 0
173 197 0
172 196 0
174 197 0
174 197 0
173 196 0
173 197 0
174 198 0
170 195 0
173 197 0
175 197 0
172 196 0
175 198 0
174 197 0
173 196 0
173 197 0
173 197 0
173 196 0
174 196 0
173 197 0
173 197 0
174 198 0
174 197 0
174 197 0
176 198 0
173 196 0
173 197 0
172 196 0
174 197 0
173 196 0
171 196 0
176 198 0
174 197 0
172 196 0
173 197 0
174 198 0
172 196 0
174 197 0
172 196 0
172 195 0
173 196 0
175 198 0
174 197 0
174 196 0
175 198 0
171 195 0
174 198 0
173 197 0
174 197 0
173 196 0
173 197 0
174 196 0
172 196 0
174 197 0
173 197 0
174 198 0
172 196 0
173 197 0
172 196 0
172 196 0
172 196 0
172 196 0
176 198 0
172 196 0
172 196 0
173 196 0
173 197 0
172 196 0
172 197 0
173 197 0
174 197 0
174 197 0
171 194 0
172 196 0
172 196 0
171 194 0
173 196 0
174 197 0
175 198 0
172 195 0
172 196 0
174 197 0
172 195 0
173 197 0
176 198 0
173 197 0
174 197 0
175 197 0
172 196 0
173 197 0
172 196 0
172 195 0
171 194 0
173 196 0
175 198 0
174 197 0
171 194 0
172 195 0
174 197 0
171 195 0
172 195 0
174 197 0
174 197 0
174 197 0
175 198 0
175 197 0
172 196 0
173 196 0
173 196 0
174 197 0
173 196 0
172 196 0
172 195 0
173 196 0
174 197 0
173 197 0
170 194 0
174 197 0
175 198 0
173 196 0
172 195 0
169 193 0
172 195 0
172 196 0
174 197 0
174 197 0
174 197 0
175 198 0
173 196 0
174 197 0
168 191 36
157 181 80
108 136 147
70 105 172
62 99 178
62 99 178
62 99 177
62 99 181
62 99 179
62 99 180
62 99 181
61 99 181
61 98 178
62 99 180
62 99 181
62 99 180
62 99 179
62 99 180
62 99 181
62 99 181
62 99 180
61 99 181
62 99 181
61 99 181
61 99 181
62 99 181
62 99 181
61 99 181
61 99 181
61 99 181
61 98 181
61 99 181
61 99 181
61 99 181
61 99 181
61 99 181
61 99 181
61 99 181
62 99 181
61 98 181
61 99 181
61 99 181
62 99 181
61 99 181
61 99 181
61 99 181
62 99 181
62 99 181
61 99 181
61 99 181
61 99 181
61 98 181
61 98 181
62 99 181
61 99 181
62 99 180
62 99 181
61 99 181
62 99 181
61 99 181
61 99 181
62 99 181
62 99 181
62 99 180
61 98 180
62 99 181
62 99 181
61 98 180
61 98 178
62 99 181
62 99 180
62 99 179
62 99 181
61 98 181
61 98 180
62 99 179
62 99 180
61 98 179
61 98 179
62 99 179
62 98 178
61 97 174
61 98 177
62 99 179
61 98 176
62 99 180
70 104 170
101 129 154
140 164 107
160 183 68
171 195 18
171 193 0
171 194 0
171 195 0
173 196 0
170 194 0
172 195 0
172 196 0
171 195 0
173 196 0
172 195 0
170 193 0
167 189 16
164 185 19
164 183 25
165 182 37
159 175 32
165 179 47
160 174 41
158 168 52
155 164 55
151 161 53
147 155 51
147 150 65
143 145 71
145 144 70
148 143 78
142 138 75
138 133 78
144 139 79
134 130 69
150 145 92
150 144 88
140 136 87
137 133 81
142 138 88
149 145 94
139 136 87
142 138 88
151 147 93
142 139 89
144 141 92
145 141 91
152 148 94
156 152 99
160 156 102
145 142 92
143 141 92
139 138 92
152 150 97
147 146 98
149 147 99
156 153 101
159 155 101
149 147 99
148 146 97
158 155 102
158 155 103
158 155 103
158 154 103
157 155 105
156 154 103
157 155 105
158 156 105
157 155 104
159 155 103
162 159 107
165 162 108
158 156 106
165 163 111
163 161 108
164 162 109
159 157 105
166 162 107
165 162 108
161 159 107
162 160 107
161 158 106
168 165 111
168 166 111
166 164 110
167 164 110
172 169 112
166 163 108
169 165 110
169 166 110
168 166 110
171 168 112
167 164 110
168 164 108
169 165 110
169 166 110
169 166 110
171 168 112
168 165 110
171 167 111
171 169 112
172 169 112
167 164 109
168 165 108
167 163 108
173 170 113
171 168 111
174 170 112
172 168 111
170 167 110
174 170 113
170 166 110
171 168 112
176 171 111
169 165 108
171 168 112
169 166 109
172 169 111
170 167 110
169 165 109
169 165 108
171 168 111
170 167 108
170 165 108
169 166 110
168 165 109
170 166 109
164 161 106
169 164 108
169 164 108
166 162 105
163 159 104
163 159 103
169 164 107
164 159 103
167 163 108
169 165 108
169 164 105
168 163 106
167 163 107
168 162 103
168 163 104
159 155 97
156 153 98
165 160 102
166 161 103
159 154 96
169 163 104
151 146 90
164 159 101
162 157 97
164 159 99
161 155 95
153 149 94
157 152 95
163 158 96
156 151 94
160 154 96
154 148 93
151 147 90
159 154 93
155 149 87
152 146 87
142 136 81
149 143 82
149 143 84
157 151 87
147 140 81
154 149 86
148 147 71
150 148 72
154 159 60
149 154 60
161 170 63
160 170 53
160 173 45
160 177 32
168 186 36
166 185 30
165 187 11
170 193 0
174 197 0
173 197 0
172 195 0
174 197 0
174 197 0
172 196 0
173 197 0
173 196 0
171 193 0
173 196 0
173 197 0
173 197 0
173 196 0
174 198 0
173 197 0
172 196 0
173 197 0
172 196 0
172 195 0
172 195 0
173 196 0
173 197 0
174 197 0
175 198 0
173 196 0
171 195 0
174 196 0
173 196 0
173 197 0
172 195 0
174 197 0
174 197 0
172 195 0
174 197 0
172 196 0
173 196 0
173 197 0
172 196 0
173 196 0
173 197 0
175 198 0
175 198 0
175 198 0
174 197 0
171 195 0
174 197 0
174 197 0
171 195 0
174 197 0
174 198 0
172 196 0
172 196 0
172 196 0
172 196 0
172 196 0
173 196 0
172 195 0
174 197 0
172 196 0
172 196 0
172 195 0
174 197 0
173 197 0
173 197 0
174 198 0
172 196 0
174 198 0
174 197 0
172 195 0
174 197 0
173 197 0
174 197 0
173 197 0
175 198 0
174 197 0
173 196 0
173 197 0
172 196 0
174 198 0
172 195 0
172 196 0
174 197 0
173 196 0
174 196 0
172 195 0
173 195 0
173 196 0
172 196 0
170 194 0
173 197 0
175 198 0
171 195 0
172 195 0
173 197 0
172 195 0
174 197 0
171 194 0
172 196 0
173 196 0
172 195 0
173 196 0
172 196 0
172 196 0
170 193 0
173 197 0
172 195 0
173 196 0
174 197 0
176 199 0
173 197 0
173 197 0
174 196 0
171 194 0
172 195 0
173 197 0
171 194 0
172 196 0
172 195 0
172 195 0
171 195 0
173 195 0
171 193 0
169 193 0
171 195 0
172 195 0
172 196 0
174 197 0
171 195 0
174 198 0
173 196 0
173 197 0
170 193 18
159 182 76
118 145 139
73 107 171
62 99 178
62 99 178
62 99 179
62 99 180
62 99 180
62 99 179
62 99 180
62 99 181
61 99 181
61 99 180
62 99 181
61 98 181
62 99 181
61 99 181
61 99 181
62 99 181
62 99 181
61 99 181
62 99 181
62 99 181
62 99 181
61 98 179
61 99 181
61 98 181
62 99 181
62 99 181
61 99 181
61 98 181
61 98 181
61 99 181
62 99 181
61 99 181
61 98 181
61 99 181
61 99 181
62 99 181
62 99 181
61 99 181
61 99 181
61 99 181
61 99 181
61 99 181
61 99 181
62 99 181
61 99 181
61 99 181
61 99 181
61 98 181
62 99 181
61 98 181
62 99 181
61 99 181
62 99 181
62 99 181
62 99 181
61 98 181
61 98 181
61 98 180
62 99 180
62 99 181
62 99 181
61 98 180
61 99 181
62 99 181
61 99 180
62 99 181
62 99 181
62 99 181
61 99 180
61 99 181
61 98 178
62 99 180
62 99 181
62 99 178
62 99 179
61 98 177
62 99 180
62 99 180
61 98 177
62 99 178
62 99 179
61 98 180
61 97 175
62 99 181
61 98 176
60 96 174
75 108 170
111 138 143
147 171 100
163 187 54
171 193 0
172 195 0
173 195 0
172 195 0
173 196 0
170 194 0
173 195 0
170 193 0
171 194 0
171 192 11
168 188 28
167 187 25
163 183 22
167 184 37
159 175 33
161 177 37
155 166 49
158 168 49
155 167 45
153 159 59
142 149 53
144 150 55
137 138 64
139 139 70
144 142 75
142 137 76
139 135 79
142 137 79
127 124 73
140 135 78
145 140 87
146 142 89
135 132 80
151 146 92
144 140 87
149 145 92
140 137 89
136 133 84
154 150 95
154 150 96
132 130 82
151 148 98
152 148 97
144 141 93
151 147 97
152 149 99
152 149 97
147 144 96
145 142 95
158 155 102
154 150 98
151 148 99
153 150 99
163 160 106
156 153 103
160 157 105
155 152 100
151 149 101
152 149 101
157 155 105
159 156 105
162 158 106
148 147 99
162 159 106
160 157 105
159 156 105
160 158 106
157 155 104
162 160 107
167 164 110
156 153 103
169 165 109
165 162 108
166 163 108
164 162 109
167 164 111
168 165 110
165 162 108
167 163 109
167 163 108
167 164 109
174 170 112
169 166 109
166 164 108
168 166 110
173 169 113
175 171 112
166 164 109
172 168 111
167 163 108
167 164 109
173 169 112
170 167 110
171 168 112
173 169 111
173 169 112
171 168 111
170 168 112
171 168 112
172 169 113
171 167 110
174 170 112
173 170 112
169 165 109
170 167 109
172 168 112
171 167 109
173 169 110
173 169 111
170 166 109
170 166 109
174 169 110
172 168 110
168 165 109
170 166 109
167 163 107
172 169 110
173 169 112
173 169 110
168 164 108
170 167 109
171 165 109
167 163 106
167 163 106
165 161 105
167 163 106
168 163 105
167 163 105
165 161 103
167 162 105
170 165 106
162 157 102
169 164 104
161 157 101
163 159 100
171 166 104
166 161 104
162 158 101
155 151 96
162 157 100
165 160 97
162 157 96
169 164 103
162 157 99
164 160 99
161 156 98
155 151 97
153 148 92
160 153 91
167 162 97
161 155 95
150 144 88
160 154 93
153 147 90
161 155 95
156 150 90
160 154 93
157 151 88
149 144 83
145 140 80
150 144 82
144 139 80
142 135 75
147 144 75
144 146 67
149 153 62
148 155 54
155 165 56
155 168 44
162 175 48
158 173 37
166 185 32
164 182 32
167 188 22
172 194 11
172 195 0
174 197 0
174 197 0
173 197 0
175 198 0
174 198 0
175 198 0
174 198 0
174 197 0
173 197 0
173 197 0
171 195 0
173 196 0
172 195 0
174 197 0
174 197 0
174 197 0
175 198 0
173 197 0
174 197 0
173 196 0
173 196 0
174 197 0
172 196 0
173 197 0
172 196 0
173 197 0
173 196 0
172 196 0
174 197 0
174 197 0
174 197 0
172 195 0
172 195 0
171 194 0
173 197 0
172 195 0
173 197 0
171 195 0
171 195 0
175 198 0
171 195 0
174 197 0
172 196 0
174 197 0
172 196 0
174 197 0
175 198 0
174 196 0
175 198 0
173 196 0
174 197 0
175 198 0
174 197 0
173 197 0
174 196 0
174 197 0
171 195 0
174 197 0
172 196 0
172 196 0
172 196 0
171 194 0
173 197 0
172 195 0
172 196 0
175 198 0
173 197 0
173 196 0
172 195 0
172 196 0
171 195 0
173 196 0
174 197 0
172 196 0
172 196 0
173 196 0
173 196 0
171 194 0
172 195 0
173 197 0
174 197 0
173 196 0
172 195 0
170 193 0
172 195 0
172 195 0
173 196 0
175 198 0
173 196 0
175 197 0
173 196 0
171 195 0
172 196 0
173 196 0
172 195 0
174 197 0
173 196 0
172 195 0
173 197 0
175 197 0
172 196 0
173 197 0
171 195 0
173 196 0
172 195 0
173 196 0
175 198 0
173 196 0
173 196 0
173 197 0
171 195 0
174 197 0
172 196 0
171 194 0
174 197 0
171 194 0
172 196 0
172 196 0
173 196 0
174 196 0
171 194 0
172 196 0
172 195 0
174 197 0
173 197 0
173 196 0
175 197 0
172 195 0
173 196 0
169 193 18
130 157 124
90 121 163
62 99 177
62 99 179
61 98 178
62 99 177
61 99 180
61 99 179
61 99 178
61 99 180
62 99 179
62 99 179
62 99 180
62 99 180
62 99 179
62 99 180
62 99 181
62 99 181
61 99 180
61 99 180
62 99 181
62 99 181
62 99 181
61 99 181
61 98 180
61 99 181
62 99 181
62 99 181
61 98 181
62 99 181
62 99 181
61 99 181
61 99 181
61 99 181
61 98 181
61 99 181
61 99 181
62 99 181
61 99 181
62 99 181
61 99 181
61 98 181
62 99 181
61 98 181
61 98 181
61 99 181
61 99 181
62 99 181
62 99 181
62 99 181
61 99 181
61 98 181
61 98 181
62 99 181
62 99 181
61 99 181
62 99 181
62 99 181
61 99 181
62 99 181
62 99 181
61 98 181
61 99 181
61 98 180
61 99 180
62 99 180
62 99 181
62 99 180
62 99 181
61 98 181
62 99 181
61 99 181
62 99 180
61 98 177
62 99 180
62 99 180
62 99 181
62 99 180
61 98 180
62 98 179
61 99 179
63 99 180
61 98 180
62 99 180
62 98 178
62 99 179
61 98 177
62 99 179
61 98 177
62 98 178
61 97 175
62 98 175
73 107 171
121 147 129
152 175 85
169 192 40
172 195 0
172 195 0
171 194 0
170 192 0
171 194 0
175 196 0
169 191 0
167 190 16
171 189 34
162 180 28
161 177 37
159 175 34
161 175 41
148 162 36
161 174 40
162 172 58
150 156 64
153 159 62
154 158 66
144 146 62
145 143 70
142 141 74
139 136 75
123 120 63
142 137 80
132 127 79
146 140 87
125 122 74
137 133 82
132 128 78
132 130 82
143 140 89
144 141 92
143 141 90
137 132 85
141 137 90
141 139 93
153 149 95
143 140 92
140 136 90
143 140 93
151 148 97
151 148 98
146 143 93
148 145 97
156 152 101
145 142 95
146 144 96
156 153 102
157 154 103
146 142 96
155 152 103
154 152 103
156 154 104
153 150 99
148 146 98
164 161 107
157 154 103
156 155 105
158 156 104
152 149 100
160 157 106
155 154 103
154 153 104
166 163 109
168 164 109
166 163 109
165 162 109
162 159 106
166 164 110
162 159 107
166 163 108
161 159 107
164 162 109
164 162 109
164 161 108
163 161 108
167 164 110
167 165 111
169 166 110
170 166 108
166 163 109
168 165 110
166 163 108
173 168 111
170 166 110
173 170 113
167 164 109
172 168 111
171 167 110
173 169 112
173 169 110
172 169 113
172 168 111
171 167 110
167 163 107
174 170 112
173 169 111
173 170 112
173 167 108
173 169 112
172 169 111
173 169 110
172 169 112
169 167 109
172 167 108
172 168 111
173 169 110
171 167 109
172 167 108
172 168 110
173 169 112
171 167 110
171 167 109
173 169 110
169 165 109
169 166 108
173 169 110
172 167 110
167 163 106
168 164 106
171 167 105
170 166 108
171 167 110
168 164 108
170 165 107
169 165 106
167 161 104
172 167 106
170 165 103
167 163 104
170 165 108
167 162 103
165 159 101
168 163 103
167 162 102
169 163 103
162 158 101
167 162 103
169 164 106
163 158 95
159 155 97
167 162 101
157 151 95
165 159 99
154 148 87
162 155 97
154 149 90
157 152 97
166 160 95
164 157 97
151 146 87
154 148 87
156 151 94
163 156 95
156 149 90
156 149 85
149 143 81
141 136 76
152 146 85
137 132 74
143 140 75
143 145 62
159 162 70
156 158 70
142 148 57
161 171 56
162 172 49
152 169 30
162 177 39
159 177 34
168 187 25
170 192 11
173 197 11
174 198 0
175 197 0
173 196 0
172 196 0
173 196 0
175 198 0
175 198 0
173 196 0
174 198 0
173 197 0
174 197 0
174 197 0
174 197 0
173 196 0
171 195 0
173 197 0
175 197 0
174 197 0
175 197 0
174 197 0
172 196 0
173 197 0
173 196 0
172 197 0
173 197 0
174 197 0
174 197 0
171 196 0
175 197 0
173 196 0
172 195 0
172 196 0
172 195 0
175 198 0
173 197 0
174 197 0
174 197 0
173 196 0
175 198 0
172 196 0
174 196 0
173 196 0
175 198 0
175 198 0
173 196 0
174 198 0
173 197 0
172 195 0
174 197 0
174 197 0
174 197 0
174 197 0
174 198 0
174 197 0
171 195 0
172 196 0
171 195 0
173 197 0
174 197 0
174 197 0
174 196 0
170 194 0
173 196 0
173 197 0
175 197 0
172 196 0
174 197 0
173 196 0
172 195 0
175 198 0
171 195 0
174 197 0
173 197 0
173 195 0
173 196 0
172 195 0
174 196 0
173 197 0
176 198 0
174 197 0
174 196 0
173 196 0
173 196 0
174 197 0
175 198 0
172 196 0
173 196 0
172 196 0
173 197 0
174 197 0
172 196 0
173 196 0
172 195 0
174 197 0
171 194 0
171 195 0
172 196 0
173 197 0
172 196 0
172 195 0
174 196 0
171 195 0
171 195 0
174 198 0
170 194 0
174 196 0
172 195 0
172 196 0
171 195 0
169 192 0
171 195 0
171 194 0
171 195 0
175 198 0
173 197 0
173 196 0
173 196 0
175 197 0
174 196 0
174 197 0
172 195 0
173 197 0
172 194 0
172 195 0
174 197 0
171 194 0
173 197 0
172 196 25
154 177 84
110 137 147
64 100 173
62 99 179
62 99 179
62 99 180
62 99 178
62 99 176
62 99 181
62 99 180
62 99 180
62 99 181
62 99 180
62 99 181
62 99 180
62 99 180
62 99 180
62 99 181
62 99 181
62 99 180
62 99 181
62 99 181
61 98 181
62 99 180
62 99 181
62 99 181
61 98 181
62 99 181
61 98 181
61 98 181
61 99 181
62 99 181
61 99 181
61 98 181
61 98 181
62 99 181
61 98 181
62 99 181
62 99 181
61 98 181
62 99 181
61 98 181
61 99 181
61 98 181
62 99 181
62 99 181
61 99 181
61 99 181
62 99 181
61 99 181
62 99 181
62 99 181
62 99 181
61 99 181
61 99 181
61 99 181
61 99 181
62 99 181
61 99 181
61 99 181
61 99 181
62 99 181
62 99 181
61 99 181
61 99 181
61 98 181
61 99 181
61 99 181
61 99 181
61 98 180
61 99 181
62 99 181
61 99 180
62 99 180
62 99 181
62 99 181
62 99 180
62 99 180
62 99 181
61 98 177
62 99 181
61 99 180
62 98 177
61 99 181
62 99 179
62 99 179
61 98 178
62 99 180
62 99 180
61 98 179
62 98 176
62 98 179
62 98 177
62 99 176
61 98 176
63 99 173
82 113 161
130 155 119
155 178 77
168 192 25
172 195 0
173 196 0
170 192 0
172 194 0
170 191 16
167 189 19
167 189 11
168 186 29
158 176 25
156 171 37
160 177 34
157 171 38
152 164 50
156 165 52
153 159 57
142 148 55
152 153 69
146 147 69
147 147 73
149 146 76
135 131 77
138 133 78
136 131 79
139 136 82
144 140 82
148 143 84
143 139 86
137 134 84
149 144 89
140 135 88
137 135 88
140 138 92
146 143 90
145 142 91
141 138 91
142 137 89
152 149 95
139 137 88
142 141 95
141 139 90
150 147 96
143 139 90
150 147 98
151 148 98
148 146 99
150 147 98
154 151 100
151 149 100
151 149 101
147 145 99
145 143 96
150 148 100
147 146 99
157 155 103
151 149 101
159 157 106
154 153 104
157 155 104
161 158 107
155 153 103
159 157 106
160 157 106
164 161 108
163 159 107
157 156 105
161 159 107
162 159 107
166 162 108
164 161 108
168 166 110
165 162 108
168 163 108
165 162 107
168 165 110
164 161 108
169 166 111
166 163 108
160 158 105
169 166 110
171 168 112
169 166 110
165 162 108
166 162 109
172 168 112
173 169 111
169 165 109
174 169 112
170 166 110
172 168 109
170 167 110
168 166 110
171 168 110
174 170 112
175 170 113
171 168 110
175 171 113
174 169 110
172 168 111
173 168 111
172 169 112
175 170 112
172 168 109
171 167 109
171 166 108
170 166 108
170 167 109
172 168 111
175 170 111
173 168 110
171 167 109
171 167 108
172 168 109
170 166 109
172 169 110
169 165 108
170 166 109
173 167 109
170 165 106
173 168 109
166 162 106
166 162 106
169 164 107
166 161 102
168 164 105
163 159 103
172 167 105
167 162 104
172 168 108
165 160 103
164 160 104
158 154 96
166 161 102
162 157 99
166 162 104
165 160 101
165 160 100
164 159 99
164 159 99
167 162 100
165 160 99
161 155 95
163 157 98
161 156 95
163 159 99
163 157 94
168 162 102
158 152 93
162 157 95
151 146 90
158 153 93
154 149 87
157 151 92
156 150 92
152 146 87
149 144 83
145 140 80
145 139 80
144 138 80
152 146 87
146 141 74
150 147 73
140 141 60
159 160 73
153 160 61
152 162 53
160 172 41
161 176 39
159 175 34
165 185 28
167 186 32
172 193 11
171 193 0
172 195 0
173 197 0
175 197 0
172 196 0
174 197 0
173 197 0
174 197 0
173 197 0
173 197 0
173 197 0
174 198 0
175 198 0
174 198 0
174 198 0
173 196 0
174 197 0
174 197 0
172 196 0
175 198 0
174 198 0
173 197 0
174 197 0
174 197 0
171 194 0
173 197 0
172 196 0
172 196 0
173 197 0
174 197 0
172 196 0
174 197 0
174 196 0
174 197 0
172 197 0
174 197 0
173 197 0
176 198 0
175 198 0
173 196 0
173 195 0
174 197 0
172 196 0
173 197 0
174 197 0
173 196 0
174 197 0
174 198 0
174 197 0
175 197 0
174 198 0
175 198 0
173 195 0
176 199 0
174 197 0
174 197 0
176 199 0
172 195 0
173 196 0
173 197 0
172 196 0
173 196 0
174 197 0
173 196 0
172 195 0
173 196 0
175 197 0
174 196 0
174 197 0
171 194 0
174 197 0
171 195 0
172 195 0
174 197 0
174 197 0
174 197 0
175 197 0
173 196 0
172 196 0
176 199 0
173 196 0
174 197 0
174 197 0
172 196 0
170 194 0
172 196 0
172 196 0
172 195 0
170 193 0
172 196 0
173 196 0
172 195 0
173 197 0
172 195 0
173 196 0
174 197 0
173 197 0
173 197 0
174 197 0
173 196 0
171 195 0
171 193 0
174 198 0
173 197 0
175 198 0
173 196 0
174 197 0
171 195 0
173 196 0
173 196 0
172 195 0
173 197 0
171 195 0
171 195 0
173 196 0
171 195 0
172 195 0
171 195 0
173 197 0
173 196 0
169 193 0
172 195 0
174 197 0
172 195 0
171 195 0
174 197 0
172 196 0
166 190 57
129 155 124
77 110 171
62 99 179
62 99 177
62 99 177
62 99 178
61 98 176
62 99 180
62 99 178
61 99 178
62 99 179
61 99 180
61 99 179
61 98 181
62 99 181
63 99 180
62 99 180
62 99 179
61 99 181
62 99 181
62 99 181
62 99 181
62 99 181
62 99 181
62 99 181
62 99 181
61 99 181
62 99 181
61 99 181
61 99 181
62 99 181
61 99 180
61 99 181
62 99 181
62 99 181
62 99 181
62 99 181
62 99 181
61 99 181
62 99 181
61 99 181
62 99 181
62 99 181
62 99 181
62 99 181
61 99 181
62 99 181
61 98 181
61 98 181
61 99 181
61 99 181
61 99 181
61 99 181
62 99 181
61 98 181
61 99 181
61 99 181
62 99 181
61 99 181
62 99 181
62 99 181
61 99 181
61 99 181
61 99 181
61 99 181
61 99 181
62 99 180
61 99 181
61 99 180
61 98 181
61 98 181
61 99 181
62 99 181
62 99 181
61 98 181
62 99 181
62 99 181
61 99 180
61 99 181
62 99 181
61 98 177
61 99 179
61 99 181
61 98 178
62 99 180
62 98 177
61 98 176
61 98 180
62 99 179
62 99 179
61 97 176
62 99 178
61 98 179
62 98 178
62 98 177
62 99 180
62 99 177
61 95 167
71 104 167
102 129 145
147 171 96
159 184 65
172 195 0
170 192 0
171 192 0
169 188 22
166 185 25
163 182 22
164 181 32
161 174 42
159 175 38
166 180 45
157 168 44
150 161 41
146 156 49
151 158 62
152 154 72
149 153 60
154 157 70
145 143 72
136 132 74
134 130 69
136 132 78
148 142 86
142 138 83
144 138 81
146 142 88
125 122 78
143 138 87
146 142 87
146 142 87
143 140 92
139 135 85
138 136 85
140 137 89
137 135 92
146 142 93
142 139 92
156 152 98
140 137 90
144 142 94
134 133 90
151 148 97
147 146 98
143 142 95
147 146 97
156 152 101
147 146 99
152 150 101
151 148 100
151 150 101
155 152 102
147 145 99
151 150 102
156 153 102
159 156 104
162 158 106
157 155 104
156 153 104
154 153 102
157 155 105
161 158 105
157 155 105
155 153 104
167 163 108
164 161 108
163 160 105
166 163 110
159 157 106
163 161 107
157 155 105
167 163 109
165 162 107
164 162 108
164 161 107
172 168 110
164 162 110
167 163 108
173 169 110
168 164 107
170 167 110
169 165 109
166 163 108
171 167 109
168 166 111
169 166 110
171 167 110
167 164 110
172 168 112
170 166 110
173 170 112
169 165 108
173 170 112
171 168 112
173 168 109
171 168 111
169 167 110
171 168 112
174 170 111
172 169 112
175 171 112
171 167 109
175 170 109
169 165 108
171 168 108
171 167 109
168 166 108
172 168 109
174 170 112
174 170 112
170 166 108
175 171 112
172 168 110
171 167 111
173 169 112
171 166 108
174 170 110
168 164 106
168 164 108
168 164 104
167 163 104
170 165 106
170 165 106
172 167 108
169 165 103
169 163 105
167 162 105
164 161 104
168 164 106
171 167 107
170 164 105
167 163 104
164 159 99
162 158 101
151 148 93
170 165 103
167 161 100
167 162 100
162 158 99
169 163 104
166 160 100
163 157 97
161 156 97
162 157 98
163 158 95
161 156 96
158 152 93
161 155 97
154 148 89
158 153 93
161 154 96
165 158 94
157 151 90
150 145 84
158 152 89
153 148 87
152 146 84
149 142 82
138 133 75
146 141 77
146 140 80
144 142 67
142 145 57
152 156 62
156 164 58
163 170 63
162 172 57
154 169 37
160 177 28
160 178 30
170 189 34
168 189 11
172 194 19
171 195 0
173 196 0
173 197 0
174 198 0
174 198 0
172 195 0
172 195 0
175 198 0
173 196 0
173 197 0
172 195 0
175 198 0
175 198 0
170 193 0
174 197 0
174 196 0
174 197 0
173 196 0
174 197 0
174 198 0
172 196 0
173 197 0
173 197 0
175 197 0
173 196 0
174 197 0
172 195 0
172 196 0
173 197 0
174 197 0
172 196 0
174 197 0
173 196 0
174 198 0
174 197 0
173 197 0
172 195 0
175 198 0
174 197 0
172 195 0
171 195 0
173 197 0
174 198 0
174 197 0
173 196 0
173 196 0
172 196 0
173 196 0
173 196 0
171 195 0
172 195 0
173 196 0
174 198 0
172 196 0
171 195 0
173 196 0
171 195 0
174 197 0
173 197 0
175 198 0
173 195 0
170 194 0
173 197 0
174 197 0
172 196 0
171 195 0
174 197 0
172 196 0
174 197 0
175 198 0
172 196 0
170 194 0
175 198 0
176 198 0
175 198 0
174 197 0
174 198 0
175 198 0
173 196 0
171 194 0
170 193 0
175 198 0
171 195 0
174 197 0
173 196 0
171 193 0
173 196 0
175 198 0
174 197 0
172 196 0
171 193 0
173 196 0
174 197 0
174 197 0
172 195 0
172 195 0
175 198 0
173 197 0
172 195 0
173 196 0
174 197 0
173 197 0
174 197 0
173 197 0
174 197 0
175 198 0
170 194 0
173 196 0
170 194 0
174 196 0
172 195 0
172 195 0
173 196 0
170 194 0
173 197 0
174 197 0
172 196 0
172 195 0
171 195 0
173 196 0
169 193 0
171 195 0
172 196 0
170 193 0
171 193 18
153 177 84
111 139 145
62 99 174
62 99 177
62 99 179
62 99 177
62 99 178
61 99 178
62 99 180
62 99 180
62 99 179
62 99 180
62 99 178
62 99 179
62 99 180
62 99 181
62 99 181
61 98 179
62 99 179
61 98 179
62 99 181
62 99 181
62 99 181
62 99 181
62 99 180
62 99 181
61 98 180
61 99 181
61 98 181
61 99 181
62 99 181
61 98 181
61 99 181
61 98 181
62 99 181
62 99 181
62 99 181
61 99 181
62 99 181
62 99 181
61 99 181
62 99 181
61 99 181
61 99 181
62 99 181
61 99 181
61 99 181
62 99 181
61 98 181
61 98 181
61 99 181
61 98 181
62 99 180
61 99 181
61 98 181
62 99 181
61 99 181
61 99 181
61 99 181
62 99 181
61 99 181
62 99 181
61 99 181
62 99 181
61 99 181
61 98 181
62 99 181
61 99 181
62 99 181
61 99 181
62 99 181
62 99 180
62 99 181
61 99 180
62 99 181
62 99 181
62 99 181
61 99 181
62 99 181
61 98 179
61 99 181
61 98 178
62 99 181
61 99 181
62 99 178
62 99 180
62 99 181
62 99 181
62 99 181
62 99 179
61 98 177
61 98 178
61 98 177
62 98 175
62 98 178
61 97 173
62 98 177
61 97 175
62 99 176
62 98 176
61 97 175
62 98 175
87 117 163
133 157 112
162 185 66
168 191 32
172 194 0
169 190 19
166 186 19
166 185 32
160 176 25
157 174 29
157 172 34
154 170 37
157 168 52
152 160 50
149 159 51
151 158 54
140 144 63
142 142 66
144 142 74
126 126 58
133 129 68
129 125 73
124 121 71
149 143 82
137 134 78
135 132 76
142 138 84
132 129 79
133 130 80
141 137 85
137 135 85
140 137 86
134 131 83
144 141 91
141 137 89
139 137 90
139 136 88
142 139 92
148 144 97
143 141 93
136 136 89
140 138 92
144 141 96
147 145 97
143 142 97
149 148 100
141 139 95
142 141 96
148 146 97
155 153 102
153 151 102
154 152 100
156 153 103
147 145 99
150 148 102
155 152 101
159 156 103
163 160 108
162 159 106
155 152 102
160 156 104
161 158 107
150 148 100
163 160 107
154 152 102
163 160 106
163 160 107
158 156 106
166 161 107
165 162 108
162 160 107
166 163 110
163 161 108
166 164 110
164 161 107
166 164 109
168 165 109
172 168 110
166 162 108
166 163 108
171 167 109
170 166 111
173 169 111
170 167 111
173 169 111
171 167 110
167 164 111
171 167 111
175 171 112
172 169 112
174 170 112
171 167 111
172 168 110
173 168 110
173 170 111
173 169 111
174 170 112
173 169 110
173 168 110
174 169 111
176 171 112
172 168 111
171 166 110
171 167 110
174 169 112
174 169 111
172 168 108
171 167 107
173 169 112
168 163 106
172 167 108
175 170 110
171 167 110
172 167 109
173 168 109
171 167 109
172 167 106
172 166 107
174 168 105
170 165 106
166 161 104
170 166 104
170 164 105
171 166 107
167 163 102
170 165 106
167 162 103
165 160 103
157 152 98
169 164 107
164 158 101
169 165 104
172 167 106
170 164 103
167 162 100
167 162 102
159 154 94
170 164 103
163 157 97
157 152 95
164 158 95
160 156 97
163 158 96
157 152 93
160 155 92
162 156 94
167 161 97
158 152 94
162 156 93
160 154 92
151 146 88
157 151 90
147 142 83
161 155 94
150 145 84
156 151 87
151 144 83
150 144 80
150 143 85
152 146 84
154 149 85
148 146 75
145 145 62
147 149 63
157 166 54
149 156 53
155 166 48
157 167 51
156 170 30
165 179 44
166 184 36
169 189 30
170 192 16
173 196 0
174 197 0
173 196 0
174 197 0
174 197 0
172 196 0
174 197 0
174 197 0
172 196 0
173 197 0
173 197 0
173 197 0
172 197 0
174 198 0
171 194 0
173 196 0
173 196 0
175 198 0
171 195 0
174 197 0
172 196 0
173 197 0
171 194 0
174 197 0
172 195 0
174 197 0
173 197 0
172 196 0
173 197 0
172 196 0
171 195 0
175 198 0
174 196 0
173 197 0
173 197 0
173 197 0
173 197 0
175 198 0
175 198 0
174 198 0
173 197 0
173 197 0
172 195 0
171 195 0
174 197 0
174 197 0
171 194 0
171 195 0
174 197 0
174 197 0
173 197 0
173 197 0
173 197 0
172 196 0
172 196 0
173 195 0
171 194 0
172 196 0
170 194 0
174 198 0
172 195 0
175 198 0
173 196 0
171 195 0
172 195 0
172 196 0
175 198 0
170 193 0
174 197 0
172 195 0
174 197 0
173 197 0
174 197 0
174 198 0
174 197 0
174 198 0
173 197 0
170 192 0
172 196 0
174 198 0
172 196 0
171 196 0
172 196 0
173 197 0
172 194 0
171 194 0
171 195 0
172 195 0
174 197 0
172 195 0
172 196 0
171 194 0
172 196 0
175 198 0
174 198 0
175 198 0
171 195 0
173 196 0
173 196 0
173 197 0
176 198 0
171 195 0
174 197 0
172 195 0
173 196 0
171 196 0
172 196 0
174 198 0
173 196 0
173 197 0
172 195 0
173 196 0
174 197 0
173 197 0
172 195 0
174 197 0
174 197 0
174 197 0
175 197 0
171 195 0
174 197 0
171 194 0
173 196 0
168 191 51
131 156 122
74 108 173
62 99 174
62 99 174
62 99 181
62 99 179
61 99 178
62 99 179
62 99 178
62 99 180
61 98 178
62 99 177
62 99 180
62 99 179
62 99 181
62 99 180
62 99 180
62 99 180
62 99 179
61 99 180
62 99 180
62 99 181
62 99 178
62 99 181
62 99 181
61 99 181
61 99 181
62 99 181
62 99 181
61 98 181
62 99 181
61 99 181
62 99 181
62 99 181
61 99 181
61 98 181
61 98 181
61 99 180
61 98 181
61 99 181
62 99 181
61 98 181
61 99 181
61 99 181
62 99 181
62 99 180
61 99 181
61 99 181
61 99 181
62 99 181
62 99 181
62 99 181
62 99 181
62 99 181
61 98 181
62 99 181
62 99 181
61 99 181
61 98 181
62 99 181
61 99 181
61 99 180
61 98 181
62 99 181
62 99 180
62 99 181
62 99 181
62 99 181
61 99 181
61 99 181
61 99 181
62 99 181
61 98 181
61 98 180
61 99 181
62 99 181
62 99 181
61 98 178
63 100 181
62 99 181
61 98 180
62 99 180
62 99 179
62 99 181
61 99 180
62 99 180
62 99 180
62 99 179
62 99 180
62 99 180
62 99 179
62 99 179
62 99 180
61 98 177
61 97 176
61 98 176
62 99 181
61 98 177
62 98 177
62 98 177
61 98 176
62 98 176
62 98 175
61 97 174
72 105 167
114 138 133
147 171 94
165 188 48
166 187 22
170 189 32
162 180 30
164 180 39
161 178 32
158 171 38
160 172 44
158 169 45
147 153 56
149 161 43
151 156 63
144 150 58
148 152 64
135 133 62
142 140 76
138 134 76
133 129 72
145 141 87
128 124 76
136 134 81
136 133 79
141 137 86
147 143 89
134 131 85
132 130 83
136 134 87
138 135 88
138 134 86
144 140 88
140 137 87
135 133 87
146 142 92
146 143 94
147 144 94
144 142 93
141 140 91
145 142 96
145 143 95
145 143 96
144 141 95
142 140 96
139 138 95
151 150 100
153 151 100
155 151 102
149 147 99
142 142 97
150 147 100
149 148 102
155 153 104
151 149 102
156 154 105
150 148 101
157 155 104
154 152 104
158 156 106
152 150 100
156 154 104
158 156 105
159 158 105
156 154 104
159 158 108
158 155 104
164 162 109
166 163 109
157 156 105
165 162 108
161 159 106
165 162 107
164 161 107
172 168 110
164 161 108
165 162 106
168 166 110
170 166 110
169 166 109
165 162 106
168 166 108
165 163 108
170 166 110
172 169 110
169 166 111
167 164 109
170 167 110
172 169 112
168 165 110
172 168 110
174 170 113
172 168 110
174 169 111
168 166 110
170 166 109
174 170 111
172 168 111
172 168 111
172 168 109
173 170 112
172 168 110
169 165 106
172 168 110
175 171 111
172 168 110
176 170 110
169 166 108
171 167 108
171 167 109
172 168 110
176 171 112
175 170 110
175 170 110
170 166 109
169 164 106
176 171 110
173 168 109
169 165 106
173 168 110
166 162 104
172 167 107
170 166 107
169 163 105
172 167 108
171 167 106
168 163 99
168 164 103
169 164 103
170 166 104
167 163 103
161 157 99
164 159 98
165 160 101
158 153 93
172 166 104
166 161 100
162 156 97
161 156 99
160 155 95
165 159 99
164 159 97
162 158 97
166 160 97
159 154 96
158 152 92
159 154 93
155 151 90
155 149 92
164 158 91
156 151 88
156 150 90
154 149 86
157 151 90
154 148 87
149 144 80
159 153 87
145 139 80
152 146 83
147 141 79
152 147 77
147 146 67
144 142 69
154 158 61
157 162 59
150 158 49
154 166 42
163 179 39
162 177 44
164 184 16
162 180 19
173 195 16
173 195 0
175 197 0
172 196 0
174 198 0
173 197 0
171 195 0
175 197 0
176 198 0
172 196 0
171 195 0
174 198 0
174 197 0
173 197 0
172 195 0
173 197 0
173 196 0
172 196 0
172 195 0
174 197 0
173 197 0
172 195 0
173 197 0
173 196 0
173 196 0
171 195 0
174 197 0
174 197 0
171 195 0
175 198 0
173 196 0
174 198 0
173 197 0
172 196 0
172 196 0
175 198 0
173 196 0
173 197 0
173 196 0
175 198 0
172 195 0
175 198 0
170 194 0
175 198 0
173 196 0
171 195 0
173 197 0
173 197 0
172 196 0
175 198 0
171 194 0
174 198 0
173 197 0
173 197 0
173 197 0
171 195 0
173 196 0
173 197 0
172 195 0
171 195 0
174 197 0
172 194 0
173 197 0
170 193 0
174 197 0
172 195 0
174 197 0
170 194 0
173 196 0
173 196 0
176 198 0
175 197 0
172 195 0
175 197 0
173 196 0
172 195 0
174 197 0
174 197 0
171 194 0
173 196 0
174 196 0
172 194 0
174 197 0
170 193 0
173 196 0
173 196 0
172 197 0
172 195 0
172 196 0
174 197 0
173 196 0
172 196 0
173 196 0
174 197 0
173 197 0
173 196 0
172 195 0
173 196 0
172 196 0
174 198 0
173 195 0
170 193 0
171 195 0
172 195 0
173 197 0
172 195 0
173 197 0
174 197 0
173 196 0
174 197 0
172 195 0
173 196 0
172 196 0
173 196 0
173 196 0
172 196 0
172 196 0
172 195 0
173 196 0
171 194 0
173 196 0
175 198 0
172 195 0
162 185 65
103 131 147
62 99 177
61 98 175
61 98 175
62 99 181
62 99 178
62 99 179
62 99 179
62 99 175
61 99 178
61 98 178
62 99 179
62 99 179
63 100 180
63 100 181
62 99 179
61 98 179
62 99 179
61 99 181
61 99 181
62 99 180
61 99 180
61 98 179
62 99 179
61 98 180
61 99 179
62 99 181
62 99 181
62 99 181
62 99 181
62 99 181
62 99 180
61 99 181
61 98 181
62 99 181
62 99 181
61 99 181
62 99 181
61 99 181
62 99 181
62 99 181
61 98 181
62 99 181
62 99 181
61 99 181
61 99 181
61 98 181
61 99 181
62 99 181
62 99 181
62 99 181
62 99 181
61 98 181
61 99 181
61 99 181
61 99 181
62 99 181
61 99 181
61 99 181
61 99 181
61 99 179
61 99 180
61 99 181
62 99 181
62 99 181
62 99 181
61 98 181
62 99 181
62 99 180
61 99 181
61 99 181
61 99 181
61 99 181
62 99 180
61 98 180
61 99 181
61 99 181
61 99 181
62 99 181
62 99 181
62 99 181
62 99 180
61 99 180
62 99 180
61 99 180
62 99 178
62 99 179
62 99 180
62 99 181
62 99 180
61 99 181
62 99 181
61 98 178
61 98 178
61 98 179
62 99 179
62 98 178
61 98 177
62 99 179
62 99 176
62 99 178
61 98 174
61 97 174
62 98 173
61 98 176
61 98 176
63 98 170
92 120 150
147 169 93
158 179 54
166 183 31
167 184 28
162 178 41
157 171 43
156 169 43
152 163 50
159 170 50
132 141 39
149 158 49
150 152 60
140 143 57
131 133 60
141 138 69
135 134 68
126 123 63
133 128 76
141 136 80
144 139 85
123 121 76
143 140 86
130 127 80
132 128 80
134 132 86
121 120 78
130 127 81
150 146 92
143 139 91
134 131 86
133 131 86
146 142 92
148 145 95
142 140 91
142 140 93
143 140 93
144 142 96
146 144 97
139 138 94
141 140 94
150 148 99
147 145 98
145 143 96
141 139 95
141 139 95
143 141 94
152 149 100
151 149 100
141 140 95
153 151 101
151 149 99
154 152 102
151 149 100
151 149 100
157 154 104
154 151 101
155 153 104
155 153 103
147 146 101
162 160 107
159 157 105
151 149 100
161 159 108
167 163 108
157 154 103
159 156 105
168 164 109
162 160 107
168 164 109
169 165 109
163 160 108
173 170 112
162 159 107
168 165 110
166 162 108
167 164 109
172 168 112
168 164 109
171 168 111
170 167 110
168 164 108
171 167 111
169 166 109
168 165 110
173 169 113
166 163 108
174 170 111
173 169 111
168 164 108
174 170 112
170 167 110
171 167 110
172 167 107
172 167 110
171 168 110
174 170 111
175 170 112
175 170 111
175 171 110
172 168 110
172 168 110
175 170 112
175 171 110
174 169 109
176 172 113
173 168 109
173 168 108
172 168 109
168 164 104
175 170 109
167 165 107
174 169 110
174 169 108
169 164 106
171 167 107
173 169 108
171 167 107
172 168 109
171 166 107
173 168 107
168 163 103
168 163 103
170 166 106
168 164 103
166 161 101
168 163 103
166 161 101
169 164 103
165 160 99
170 165 104
163 159 99
165 160 100
162 157 98
164 159 99
168 162 99
162 157 97
162 157 97
164 158 101
164 158 97
168 163 100
156 151 95
156 151 94
159 153 93
163 158 95
157 151 89
160 153 92
158 153 91
152 146 90
148 143 81
157 150 87
161 153 93
157 151 89
158 153 86
152 147 84
150 145 80
151 145 79
145 140 72
149 144 80
145 145 69
141 143 60
155 160 66
153 158 65
147 155 54
158 167 51
159 174 39
162 180 32
167 187 16
168 186 32
167 189 0
173 195 11
176 198 0
172 195 0
173 196 0
172 196 0
174 197 0
173 197 0
175 198 0
174 197 0
173 197 0
173 196 0
171 195 0
172 196 0
172 196 0
174 197 0
173 196 0
173 197 0
171 194 0
174 197 0
172 196 0
172 196 0
173 197 0
172 195 0
173 196 0
172 195 0
171 194 0
174 197 0
174 197 0
175 198 0
173 197 0
174 198 0
174 197 0
171 194 0
172 195 0
172 195 0
175 198 0
175 198 0
173 197 0
174 197 0
174 198 0
172 196 0
171 195 0
174 197 0
176 198 0
172 195 0
171 195 0
172 196 0
174 197 0
173 196 0
172 196 0
172 195 0
172 196 0
171 196 0
173 196 0
173 196 0
172 196 0
174 197 0
173 196 0
174 197 0
172 196 0
173 196 0
173 196 0
174 197 0
172 196 0
172 195 0
174 197 0
173 196 0
171 195 0
172 196 0
175 197 0
171 194 0
174 197 0
174 197 0
173 196 0
173 195 0
172 196 0
173 196 0
173 197 0
173 196 0
175 197 0
171 194 0
172 195 0
174 197 0
170 194 0
173 196 0
174 197 0
172 196 0
173 196 0
171 194 0
174 197 0
173 196 0
173 196 0
172 195 0
171 194 0
172 196 0
169 193 0
169 193 0
172 196 0
173 197 0
172 196 0
174 197 0
172 196 0
172 195 0
172 195 0
172 195 0
171 194 0
172 196 0
172 197 0
174 197 0
172 195 0
173 197 0
174 197 0
172 195 0
173 196 0
169 193 0
175 198 0
173 196 0
173 197 0
172 196 0
170 194 0
172 196 18
151 175 84
88 118 164
62 99 178
62 99 176
62 99 180
62 99 177
62 99 178
62 99 177
62 99 178
62 99 177
62 99 180
62 99 178
62 99 180
62 99 181
62 99 180
62 99 180
62 99 181
61 98 180
62 99 180
62 99 181
61 98 180
62 99 181
62 99 181
63 100 181
62 99 181
61 99 181
62 99 181
62 99 181
61 98 181
62 99 181
62 99 181
61 98 181
62 99 181
62 99 181
61 99 180
61 99 181
61 99 181
62 99 181
62 99 180
62 99 181
62 99 181
61 98 181
61 99 180
62 99 180
61 99 181
61 98 181
61 98 181
61 99 181
61 99 181
62 99 181
61 98 181
61 98 180
62 99 181
61 99 181
61 99 181
62 99 181
62 99 181
61 98 181
62 99 181
62 99 181
61 98 181
61 99 181
62 99 181
61 98 181
61 99 181
62 99 181
61 98 180
61 99 181
62 99 181
62 99 181
61 98 181
61 99 181
62 99 181
61 99 180
62 99 181
62 99 180
61 98 179
62 99 180
61 98 181
61 98 181
61 99 180
62 99 180
61 98 181
61 98 179
61 99 181
62 99 180
62 99 180
61 98 180
62 99 181
62 99 180
62 99 178
62 99 178
61 98 178
62 98 176
62 99 180
62 98 178
62 99 177
62 99 178
62 99 179
62 99 177
62 99 180
62 98 176
62 99 179
62 98 178
61 98 177
62 99 178
62 98 176
61 97 172
61 97 174
61 97 173
79 110 166
123 145 122
156 176 78
166 180 53
159 175 35
161 176 35
160 174 38
151 164 45
143 152 47
149 155 55
148 159 52
147 151 64
151 154 67
136 135 67
130 129 61
139 135 78
153 147 86
129 126 71
138 133 73
136 132 76
133 130 74
138 134 81
124 122 77
133 129 81
128 126 79
134 132 86
139 136 90
135 132 84
132 130 83
136 134 88
125 124 81
122 121 82
148 146 94
132 131 88
136 135 91
138 136 91
147 144 95
136 135 92
133 133 89
146 144 95
145 144 97
149 147 97
142 140 95
145 143 96
142 141 96
144 143 98
146 145 100
156 153 104
148 146 100
145 144 97
144 143 98
151 149 101
147 146 100
158 156 105
151 149 100
151 150 102
156 154 104
159 155 103
160 157 106
157 155 103
162 160 108
154 152 102
163 160 108
167 163 108
159 156 105
152 150 100
164 161 108
163 160 108
166 163 109
166 164 109
162 160 107
165 162 108
163 161 108
164 161 108
167 164 109
170 167 111
169 166 109
168 165 109
170 167 111
171 167 109
171 168 110
170 167 109
169 167 110
169 166 108
171 167 108
166 163 106
171 167 108
173 169 110
174 170 110
170 167 109
173 170 112
171 168 111
173 169 111
175 171 111
172 168 110
171 167 109
173 169 108
175 170 111
171 168 109
175 170 110
169 165 106
172 168 109
173 169 111
173 167 109
171 167 107
174 170 109
173 169 110
171 167 109
172 167 108
171 167 110
174 170 112
170 166 108
170 165 105
170 166 104
173 169 110
165 160 103
168 164 104
169 165 108
172 166 104
172 166 104
169 164 105
171 167 108
169 165 104
168 163 103
169 164 104
175 169 109
164 160 102
165 160 99
170 164 104
166 161 100
169 164 106
160 155 98
164 158 98
171 165 103
157 153 94
163 158 97
164 159 99
155 151 90
157 153 94
164 158 97
164 159 97
163 158 93
159 154 96
155 150 92
163 157 94
165 159 92
148 143 84
156 150 91
151 146 87
157 151 89
152 147 86
160 153 86
155 148 83
145 139 84
147 140 79
149 142 86
147 140 78
147 141 80
151 148 75
139 138 63
147 151 57
154 160 57
156 166 53
148 158 47
162 175 48
156 172 32
168 187 25
162 180 19
169 191 11
172 195 0
173 196 0
173 195 0
172 196 0
173 197 0
175 198 0
174 197 0
174 198 0
173 197 0
173 197 0
173 196 0
174 197 0
177 199 0
172 195 0
174 196 0
173 197 0
174 197 0
172 196 0
175 198 0
172 196 0
174 197 0
170 194 0
172 196 0
175 198 0
172 196 0
173 196 0
175 198 0
170 195 0
173 196 0
174 198 0
169 193 0
174 197 0
171 194 0
172 195 0
172 195 0
175 198 0
171 194 0
171 194 0
173 196 0
173 196 0
173 197 0
172 196 0
171 195 0
173 196 0
173 197 0
172 196 0
173 196 0
173 196 0
171 195 0
173 197 0
172 196 0
175 198 0
174 197 0
174 198 0
173 196 0
172 195 0
172 196 0
175 198 0
174 197 0
175 198 0
170 194 0
174 197 0
172 195 0
173 197 0
172 195 0
173 196 0
174 198 0
173 197 0
172 195 0
170 194 0
172 195 0
172 195 0
174 197 0
171 194 0
173 196 0
173 196 0
172 196 0
173 196 0
173 196 0
174 198 0
172 195 0
172 196 0
174 198 0
172 195 0
173 196 0
172 196 0
174 197 0
173 197 0
172 195 0
173 196 0
172 195 0
173 197 0
172 195 0
170 193 0
172 195 0
174 197 0
173 196 0
170 194 0
171 195 0
173 196 0
174 196 0
173 197 0
171 195 0
172 196 0
172 195 0
175 198 0
173 197 0
171 195 0
174 197 0
172 196 0
173 197 0
176 199 0
172 195 0
169 193 0
173 195 0
172 195 0
170 193 0
172 195 0
172 195 0
169 192 40
131 157 125
75 109 169
62 99 176
61 98 174
62 99 181
62 99 178
62 99 178
61 98 177
62 99 179
61 99 179
62 99 179
61 99 179
61 98 179
62 99 177
63 99 178
61 98 178
62 99 180
62 99 180
62 99 179
62 99 181
62 99 180
62 99 180
62 99 181
62 99 181
62 99 180
62 99 181
61 99 181
61 99 181
61 99 180
62 99 181
62 99 180
62 99 181
61 99 181
61 99 180
62 99 181
62 99 181
62 99 181
62 99 181
61 99 181
62 99 180
61 98 181
61 99 181
61 99 181
61 99 181
62 99 181
61 99 181
61 99 181
62 99 181
62 99 181
62 99 181
62 99 181
62 99 181
62 99 180
62 99 181
61 99 181
62 99 181
61 98 181
62 99 181
61 99 181
61 99 181
61 99 181
62 99 181
62 99 181
61 99 181
61 99 181
62 99 181
62 99 180
62 99 181
62 99 181
62 99 181
62 99 180
61 98 180
62 99 181
62 99 181
62 99 181
61 99 181
61 99 180
61 98 181
62 99 180
62 99 181
61 99 181
62 99 181
62 99 180
61 98 179
61 98 179
62 99 180
62 99 179
62 99 179
62 99 179
61 98 176
62 99 178
61 98 178
61 99 179
61 98 180
61 98 179
62 99 181
62 99 181
62 99 178
62 98 174
61 98 178
61 98 177
62 98 175
62 98 177
60 96 173
61 98 177
62 98 175
62 99 178
61 97 174
62 98 176
60 97 173
61 97 171
60 95 170
66 99 166
116 138 135
140 158 95
157 170 50
159 172 42
157 171 36
153 163 46
142 153 41
146 157 47
139 145 57
140 142 65
140 141 63
147 150 69
140 138 75
134 130 74
133 129 77
134 131 74
137 134 80
133 130 79
128 126 77
127 124 75
128 125 79
134 132 84
129 128 83
125 123 81
129 126 80
126 124 79
130 129 80
127 127 82
138 135 88
138 134 85
132 131 88
123 122 83
137 135 90
143 140 95
124 123 85
139 137 93
149 146 98
146 144 96
140 139 96
140 138 94
141 139 95
143 141 95
146 144 98
147 146 100
138 137 94
152 150 102
153 151 102
156 153 103
154 151 102
149 146 97
148 147 99
152 150 101
148 147 101
153 150 101
156 154 104
156 155 105
161 157 105
159 158 106
165 162 108
157 155 104
158 156 106
166 162 107
160 157 103
161 159 106
162 159 107
167 164 109
166 163 110
161 159 105
164 162 106
168 165 108
167 163 110
167 164 109
170 166 109
167 164 109
172 168 111
170 167 110
171 166 110
170 166 111
172 168 108
171 168 108
173 169 112
170 166 108
171 167 109
173 169 111
169 167 110
166 163 107
169 165 108
171 168 110
175 170 112
176 171 112
171 167 108
174 170 113
172 168 110
173 168 110
174 170 111
172 168 106
174 170 110
173 168 109
174 170 111
170 167 109
173 169 111
172 168 108
175 170 110
174 170 110
171 167 108
171 167 108
172 167 107
174 170 111
173 168 109
172 168 109
173 168 108
173 170 111
173 167 109
173 167 106
175 170 109
171 166 105
170 166 105
168 163 104
168 164 106
172 167 105
173 167 108
170 166 108
167 162 103
166 160 102
172 168 108
164 159 101
165 161 102
165 160 103
170 165 103
168 162 101
169 164 101
167 162 99
161 156 96
165 160 99
164 158 95
158 152 93
166 160 98
163 158 99
164 158 97
153 149 89
156 150 90
163 157 92
161 156 93
147 142 83
156 150 89
160 155 90
149 143 86
158 152 92
154 149 85
153 147 84
148 142 80
148 143 84
146 142 75
152 145 85
147 141 80
135 131 68
143 138 74
151 148 79
153 156 60
150 152 63
155 163 56
147 157 49
162 175 42
159 171 45
166 183 41
166 184 30
166 187 16
171 191 16
174 196 0
173 196 0
174 197 0
173 196 0
172 195 0
173 196 0
174 197 0
173 197 0
171 195 0
175 198 0
172 196 0
174 197 0
173 196 0
174 197 0
173 197 0
171 195 0
173 196 0
173 196 0
172 195 0
171 195 0
172 195 0
174 197 0
172 195 0
173 196 0
171 195 0
173 197 0
174 197 0
174 197 0
173 197 0
173 196 0
174 197 0
171 195 0
173 196 0
172 196 0
173 197 0
172 196 0
172 195 0
173 196 0
171 195 0
174 197 0
172 196 0
171 194 0
175 198 0
173 196 0
172 196 0
172 196 0
173 197 0
173 197 0
173 197 0
175 198 0
173 197 0
174 197 0
172 196 0
172 195 0
173 196 0
171 195 0
173 196 0
174 197 0
173 196 0
171 195 0
172 196 0
173 197 0
174 197 0
174 197 0
171 195 0
169 193 0
172 196 0
172 195 0
172 196 0
171 194 0
172 196 0
173 196 0
172 196 0
174 197 0
173 197 0
174 198 0
174 197 0
172 196 0
173 197 0
174 197 0
173 197 0
173 196 0
174 196 0
175 197 0
172 196 0
173 195 0
173 197 0
172 194 0
172 195 0
170 194 0
174 197 0
173 196 0
173 196 0
172 195 0
173 197 0
174 197 0
172 194 0
172 195 0
172 195 0
174 197 0
171 195 0
170 194 0
173 196 0
172 194 0
173 197 0
174 196 0
171 194 0
172 195 0
171 193 0
171 194 0
173 196 0
170 194 0
173 196 0
172 196 0
171 194 0
174 197 0
172 195 0
164 187 57
123 149 130
64 100 173
62 99 174
62 99 175
62 99 180
62 99 176
62 99 178
62 99 174
61 98 177
62 99 179
61 98 174
62 99 178
62 99 178
62 99 180
62 99 178
62 99 177
62 99 179
62 99 180
62 99 180
62 99 180
62 99 180
62 99 180
62 99 181
62 99 178
61 99 179
62 99 181
61 99 181
62 99 181
62 99 181
62 99 180
62 99 181
61 98 180
61 98 181
61 99 181
61 99 181
61 99 179
62 99 181
61 99 180
61 99 181
61 99 181
62 99 181
62 99 180
62 99 180
62 99 181
61 99 180
62 99 181
62 99 181
61 99 181
61 98 181
61 99 181
62 99 181
61 98 181
61 99 181
62 99 181
61 98 181
62 99 181
62 99 181
61 99 181
62 99 181
61 98 181
62 99 181
62 99 181
62 99 181
61 98 181
62 99 181
62 99 181
61 99 181
61 99 181
61 99 181
61 99 181
62 99 181
61 99 180
62 99 181
61 99 180
61 99 181
61 99 181
61 99 181
61 99 181
61 98 181
61 98 179
62 99 181
62 99 181
62 99 180
62 99 180
61 98 181
62 99 179
62 99 179
62 99 179
61 98 179
62 99 179
62 99 180
62 99 180
62 99 179
61 98 177
62 99 180
62 99 178
62 99 181
62 99 181
63 99 178
61 98 177
61 98 177
62 99 181
62 99 181
61 98 178
61 98 177
61 98 176
61 98 177
62 98 177
60 96 171
60 97 174
62 98 174
61 97 174
61 97 173
60 95 170
61 96 168
103 126 148
124 141 95
154 166 58
156 170 44
147 156 43
149 160 51
148 154 57
145 151 55
147 148 70
143 142 67
136 137 64
125 122 64
134 130 73
132 127 68
135 132 78
129 126 75
135 131 78
121 119 72
134 131 81
132 128 81
132 128 79
139 135 84
139 136 87
136 135 88
142 139 92
141 138 88
127 127 85
142 140 92
147 144 94
141 138 91
138 137 92
129 128 86
134 135 92
129 127 88
136 135 89
136 135 91
141 139 95
140 138 94
139 137 92
148 145 97
145 143 98
146 145 99
150 148 99
143 141 95
143 142 96
148 145 98
141 139 95
150 149 100
141 141 97
151 150 101
151 150 102
155 153 103
159 156 103
157 154 104
151 149 99
157 154 103
160 158 107
159 157 104
160 158 106
160 158 105
163 161 107
162 159 105
163 160 106
162 159 105
166 164 108
167 163 106
168 164 109
159 157 104
164 161 105
169 165 109
161 158 105
168 164 109
167 163 107
163 160 105
167 163 105
171 167 110
169 166 109
170 166 110
172 168 109
172 168 109
169 165 108
176 171 110
173 169 111
172 169 110
171 168 109
173 168 111
172 169 110
172 168 109
173 170 111
174 169 109
170 165 107
175 170 110
174 170 110
174 168 110
176 172 110
172 168 109
173 169 108
174 170 111
173 169 109
172 168 108
175 170 110
173 168 109
171 167 107
170 166 107
172 168 107
172 167 108
170 165 105
170 165 104
170 166 106
174 169 109
171 167 108
171 167 104
170 166 106
174 169 108
167 163 103
171 166 105
172 166 104
171 166 106
168 164 103
161 157 99
169 164 105
164 158 99
174 168 108
166 162 103
165 160 98
167 163 103
165 161 100
170 164 103
169 163 104
160 156 92
161 155 93
162 156 97
166 160 97
162 156 99
161 155 94
168 162 99
167 161 102
163 157 95
164 159 98
164 159 98
158 153 87
162 156 95
160 154 94
154 148 92
155 150 90
155 149 90
155 149 88
154 149 87
154 148 84
150 144 84
149 144 80
152 146 87
157 151 84
150 144 80
140 135 76
142 137 75
142 141 69
152 151 72
154 159 64
152 157 61
158 167 56
155 170 39
163 174 48
163 177 44
165 183 28
162 182 22
173 193 22
172 195 0
173 196 0
174 198 0
174 197 0
174 197 0
173 196 0
173 196 0
175 197 0
174 197 0
172 196 0
174 197 0
172 197 0
173 197 0
173 196 0
174 198 0
173 196 0
174 197 0
173 196 0
175 198 0
175 198 0
172 196 0
171 194 0
173 196 0
174 197 0
172 196 0
172 195 0
171 195 0
175 198 0
172 196 0
172 196 0
172 196 0
174 198 0
175 198 0
172 196 0
172 196 0
173 197 0
174 197 0
174 197 0
173 196 0
172 196 0
171 195 0
174 198 0
174 198 0
174 197 0
174 198 0
173 196 0
174 197 0
172 196 0
172 195 0
175 198 0
172 195 0
174 197 0
174 197 0
173 196 0
175 198 0
174 197 0
174 198 0
173 196 0
173 197 0
172 196 0
172 195 0
173 197 0
174 196 0
173 197 0
175 198 0
172 195 0
173 196 0
173 197 0
170 194 0
174 197 0
171 195 0
172 196 0
175 198 0
172 195 0
174 197 0
172 195 0
175 198 0
171 195 0
172 196 0
173 197 0
175 198 0
174 196 0
171 195 0
173 196 0
173 197 0
171 195 0
172 195 0
173 196 0
173 197 0
174 197 0
169 192 0
172 196 0
173 196 0
172 196 0
173 196 0
170 193 0
175 197 0
171 194 0
172 196 0
171 195 0
172 196 0
171 194 0
171 195 0
171 194 0
169 193 0
172 196 0
171 194 0
170 194 0
173 196 0
171 194 0
175 198 0
173 197 0
170 194 0
170 193 0
174 197 0
169 192 18
162 185 51
110 138 144
64 100 174
61 98 172
62 99 176
62 99 178
62 99 178
62 99 177
62 99 178
62 99 178
62 99 179
63 100 179
62 99 175
61 98 176
62 99 180
62 99 179
62 99 180
62 99 179
61 99 180
62 99 180
61 99 180
61 99 180
61 98 179
62 99 180
62 99 181
62 99 181
62 99 181
62 99 179
62 99 181
62 99 180
61 99 181
62 99 180
62 99 180
62 99 181
62 99 181
62 99 181
62 99 181
61 99 181
62 99 180
62 99 181
61 99 181
61 99 181
62 99 181
62 99 181
60 98 181
62 99 181
61 98 181
62 99 181
61 98 181
61 99 181
62 99 181
61 98 181
61 99 181
61 99 181
62 99 181
61 99 181
61 99 181
61 99 180
62 99 181
61 99 181
62 99 181
61 99 181
61 98 181
62 99 181
61 98 180
62 99 180
61 99 181
61 98 181
62 99 180
62 99 181
62 99 181
62 99 181
61 99 181
62 99 181
62 99 181
62 99 181
61 99 181
62 99 180
62 99 181
61 98 180
61 99 181
62 99 181
62 99 181
61 99 181
61 98 181
62 99 181
62 99 180
62 99 181
62 99 181
62 99 179
61 98 179
62 99 180
61 99 181
61 98 181
61 98 179
62 99 180
61 99 179
62 99 180
62 99 180
62 99 180
62 99 180
61 98 178
62 99 180
62 99 178
62 99 176
62 99 176
61 98 175
62 99 177
61 98 175
61 97 172
61 98 175
61 98 174
62 98 175
62 98 175
61 98 176
61 97 169
61 97 172
60 96 170
87 111 147
122 136 106
153 161 70
151 162 47
152 160 56
140 148 50
151 157 51
136 139 56
139 141 56
141 140 67
128 126 70
137 133 74
145 140 81
129 125 74
131 128 77
133 129 74
131 129 78
127 124 79
134 130 78
128 125 81
140 137 89
134 131 85
128 126 82
141 138 89
125 123 80
135 133 86
136 134 87
125 125 85
133 131 87
126 127 88
147 145 96
137 136 93
144 143 96
144 142 95
139 138 94
142 140 94
138 137 94
134 135 94
140 139 97
134 134 92
124 125 88
144 143 97
147 145 98
147 144 96
147 145 97
148 147 100
147 146 99
149 148 101
141 140 96
149 148 100
151 150 101
156 153 103
152 149 101
149 148 101
157 155 105
160 157 105
157 155 104
159 156 105
166 162 107
156 154 103
162 159 105
153 152 103
158 157 105
169 165 108
161 158 105
159 156 104
164 161 107
170 167 110
167 164 108
166 162 106
169 166 109
170 166 109
169 165 107
165 162 105
170 166 108
172 167 108
173 169 110
168 164 108
168 164 108
171 166 109
174 168 109
167 164 107
172 169 110
168 165 107
170 166 105
172 169 110
171 168 109
171 167 107
173 168 108
175 170 108
173 170 110
173 170 112
178 172 110
170 166 107
174 168 109
175 170 110
174 169 110
171 167 106
171 166 109
171 167 108
174 169 109
171 167 106
175 170 109
175 170 109
174 169 108
172 167 105
168 165 105
171 165 106
169 164 101
172 166 105
172 167 108
173 168 105
170 165 105
169 165 106
172 168 106
169 164 105
169 165 103
176 170 110
173 169 109
169 164 103
170 164 101
168 164 102
165 161 99
167 163 102
169 163 103
166 161 104
166 160 99
165 160 99
165 160 101
171 163 101
165 159 98
164 159 99
161 155 93
159 154 93
164 159 95
160 155 96
152 147 86
158 152 93
162 155 93
161 155 94
153 147 88
162 157 93
158 152 90
161 155 94
159 152 88
156 151 87
158 152 88
149 143 80
156 151 85
149 144 81
150 144 82
151 146 80
150 144 83
144 137 75
149 143 75
148 146 71
144 145 58
151 156 57
151 158 54
149 157 53
152 162 49
165 177 54
169 185 42
168 187 28
168 187 30
167 188 11
169 192 0
173 197 0
173 196 0
173 197 0
174 197 0
172 194 0
174 197 0
174 197 0
173 196 0
174 197 0
176 198 0
173 197 0
171 195 0
173 196 0
173 197 0
172 196 0
173 196 0
171 196 0
173 197 0
173 197 0
175 198 0
173 196 0
175 198 0
174 198 0
174 197 0
176 198 0
173 196 0
174 197 0
175 197 0
167 191 0
173 197 0
171 195 0
173 196 0
173 196 0
172 195 0
174 197 0
172 195 0
172 195 0
171 196 0
173 197 0
171 195 0
172 195 0
174 197 0
173 197 0
173 196 0
173 196 0
171 195 0
176 198 0
174 197 0
171 195 0
171 195 0
167 191 0
172 195 0
174 197 0
172 195 0
170 194 0
174 198 0
172 196 0
174 197 0
172 195 0
174 197 0
172 196 0
171 194 0
172 196 0
172 196 0
173 196 0
173 196 0
172 195 0
173 196 0
172 196 0
174 197 0
172 195 0
174 198 0
173 197 0
174 197 0
172 195 0
171 194 0
172 196 0
174 196 0
174 197 0
174 197 0
173 195 0
175 198 0
173 197 0
172 195 0
173 196 0
172 196 0
174 198 0
170 193 0
170 193 0
174 197 0
174 197 0
173 196 0
173 196 0
173 196 0
172 196 0
173 196 0
172 196 0
171 195 0
171 194 0
173 197 0
173 196 0
173 197 0
172 196 0
172 195 0
171 195 0
171 195 0
172 195 0
173 196 0
173 196 0
171 194 0
170 193 0
170 194 0
174 197 0
173 196 0
163 187 62
97 126 152
61 98 171
62 99 180
63 99 176
62 99 175
61 98 175
62 99 175
62 99 177
62 99 175
63 100 179
62 99 179
62 99 179
61 99 179
62 99 179
62 99 181
62 99 177
62 99 179
61 99 178
61 99 181
62 99 180
61 98 179
63 100 181
61 99 181
62 99 180
62 99 180
61 99 181
62 99 181
62 99 179
62 99 180
61 99 181
62 99 180
62 99 180
62 99 181
61 99 181
61 99 181
61 98 181
62 99 181
62 99 181
61 99 181
62 99 180
62 99 180
61 99 181
62 99 181
62 99 181
62 99 181
62 99 180
62 99 179
62 99 181
62 99 181
62 99 181
62 99 181
62 99 181
61 99 181
61 99 181
62 99 181
62 99 181
62 99 181
61 98 181
61 98 181
61 99 181
62 99 180
61 99 181
61 98 180
62 99 180
62 99 181
62 99 181
62 99 181
62 99 180
62 99 181
62 99 181
61 98 181
61 99 181
62 99 180
61 99 181
62 99 180
62 99 179
61 99 181
61 98 181
62 99 180
62 99 181
62 99 180
62 99 181
62 99 181
62 99 180
62 99 180
61 99 180
61 98 180
62 99 180
61 98 177
62 99 179
62 99 180
62 99 179
62 99 181
62 99 180
62 99 178
62 99 179
62 99 181
62 99 180
61 98 177
62 99 181
62 99 180
62 99 176
61 98 177
62 99 179
62 99 179
61 98 175
61 97 174
61 98 179
63 99 179
62 99 179
62 99 177
62 99 177
62 98 176
60 97 173
62 99 178
61 97 172
61 97 175
60 96 172
59 95 167
88 111 156
120 135 120
146 158 59
150 155 57
133 138 55
153 158 63
136 137 57
137 138 66
132 130 65
128 126 73
141 137 77
138 134 77
127 123 72
130 127 76
136 133 83
127 124 80
132 129 80
127 124 76
134 132 79
131 128 81
125 123 79
126 124 80
121 119 80
129 129 86
124 124 83
134 132 88
139 136 93
126 124 85
133 131 86
137 136 93
133 131 89
132 131 90
137 136 92
140 138 92
130 129 89
134 134 91
128 128 91
139 137 93
131 131 92
133 133 92
144 143 97
144 143 97
152 149 100
147 145 99
148 147 101
140 139 96
141 141 97
145 144 99
149 147 99
148 147 102
154 152 102
156 154 104
154 152 102
155 152 102
151 150 102
149 147 101
152 151 102
160 158 106
153 151 102
163 160 105
163 160 107
161 158 105
157 155 104
160 157 105
162 159 107
164 161 107
169 165 110
167 164 107
166 162 106
171 167 109
164 160 105
168 165 110
165 161 106
168 164 108
168 165 108
166 163 106
171 167 109
171 168 110
174 169 111
171 168 110
167 164 107
172 168 109
172 168 108
170 166 107
173 168 110
169 166 109
170 167 109
173 168 109
179 173 112
174 171 109
175 170 109
174 169 108
175 169 111
172 167 108
170 166 104
177 171 109
175 170 110
173 168 110
171 166 106
174 170 110
171 167 105
169 165 107
169 166 107
172 167 107
171 166 102
172 167 108
176 170 108
172 167 104
174 169 110
169 165 103
173 168 108
174 168 105
175 169 109
171 166 104
173 167 106
171 166 103
173 167 105
173 168 104
166 162 101
169 162 103
170 165 104
165 161 99
167 161 99
176 169 106
167 161 99
166 162 98
172 166 102
166 160 97
169 163 101
162 157 99
161 156 98
165 160 95
162 157 96
159 155 93
165 159 95
160 155 91
158 153 90
166 161 99
159 154 94
156 150 85
159 153 93
155 149 87
158 152 87
163 157 95
149 144 81
157 150 87
153 147 87
152 146 84
153 147 84
159 151 87
152 145 82
147 143 75
155 147 89
141 135 75
143 141 73
153 152 72
154 157 66
154 160 57
155 163 52
161 171 52
155 168 41
161 172 48
167 186 30
166 184 30
170 189 22
172 193 11
170 194 0
171 195 0
174 197 0
173 197 0
174 197 0
173 197 0
174 197 0
175 198 0
173 196 0
174 198 0
175 198 0
172 196 0
174 196 0
174 197 0
175 198 0
174 197 0
172 195 0
174 197 0
174 197 0
174 197 0
172 196 0
175 197 0
175 198 0
172 195 0
172 196 0
173 197 0
173 196 0
173 196 0
171 193 0
173 197 0
172 196 0
172 196 0
174 198 0
172 196 0
175 198 0
173 197 0
174 196 0
173 196 0
173 196 0
174 197 0
172 195 0
173 196 0
174 197 0
171 195 0
172 196 0
173 197 0
172 195 0
173 195 0
173 197 0
173 196 0
173 197 0
175 197 0
172 196 0
174 196 0
175 198 0
172 195 0
171 194 0
172 195 0
172 196 0
170 194 0
175 197 0
173 196 0
172 196 0
173 197 0
175 197 0
172 195 0
174 197 0
172 195 0
173 196 0
172 195 0
175 198 0
174 197 0
171 194 0
172 195 0
173 196 0
173 196 0
172 196 0
172 195 0
170 194 0
172 195 0
172 196 0
173 196 0
173 197 0
171 195 0
173 196 0
173 196 0
174 198 0
174 197 0
174 196 0
171 193 0
173 197 0
175 197 0
176 198 0
172 196 0
171 194 0
171 194 0
171 195 0
171 195 0
172 195 0
171 194 0
171 193 0
173 197 0
173 196 0
173 196 0
172 195 0
173 197 0
172 196 0
175 198 0
171 195 0
171 194 0
173 197 0
173 196 0
172 194 0
156 180 74
102 131 150
62 99 175
62 99 173
62 99 177
62 99 179
62 99 178
62 99 177
62 99 179
63 100 179
61 98 177
62 99 176
63 100 177
62 99 174
62 99 179
61 98 177
62 99 179
61 99 180
62 99 180
62 99 176
62 99 180
62 99 180
61 98 179
62 99 179
61 98 179
62 99 181
62 99 181
62 99 181
61 98 179
62 99 180
62 99 181
63 100 181
62 99 181
62 99 181
62 99 180
62 99 181
62 99 179
62 99 181
62 99 181
62 99 180
62 99 181
61 99 181
62 99 180
62 99 181
62 99 181
61 99 181
61 98 181
61 99 181
61 99 181
62 99 181
61 99 181
62 99 181
61 99 181
61 98 181
62 99 181
62 99 181
61 99 181
62 99 181
61 99 181
62 99 181
62 99 181
62 99 181
61 99 181
62 99 181
61 99 181
62 99 181
62 99 181
61 99 181
62 99 181
61 98 181
61 99 180
62 99 181
62 99 181
62 99 180
62 99 180
62 99 180
62 99 181
62 99 181
61 99 181
62 99 181
62 99 181
62 99 181
61 99 181
62 99 181
61 98 179
62 99 180
62 99 179
61 99 180
62 99 180
62 99 178
61 98 179
62 99 180
62 99 180
62 99 181
62 99 178
61 99 180
61 98 178
62 99 181
61 98 178
61 98 179
62 99 178
62 99 180
61 99 180
62 99 176
63 100 179
62 99 180
61 98 176
61 98 177
62 99 177
62 99 178
62 99 176
62 99 176
61 98 173
62 99 175
61 98 174
61 98 175
61 98 175
62 99 176
62 98 175
61 96 169
61 97 173
61 97 171
74 102 160
114 129 119
143 150 74
141 146 59
142 147 61
142 146 65
129 130 65
137 137 65
122 121 67
117 115 63
127 125 76
127 124 69
126 123 71
121 119 71
129 127 79
127 125 79
117 116 74
124 123 78
122 121 77
132 130 84
130 129 86
132 130 83
130 129 86
111 112 77
140 138 92
135 132 87
131 130 83
128 127 87
126 125 84
130 129 86
141 138 94
133 133 91
131 131 92
135 135 93
135 134 92
140 139 95
127 128 90
136 134 93
148 146 99
147 145 97
147 146 100
148 146 99
144 142 97
148 147 102
151 149 100
148 145 98
151 150 102
150 148 99
151 149 102
156 153 103
151 150 101
152 150 100
160 157 105
152 151 102
159 157 105
157 155 105
159 156 104
161 158 105
163 160 105
159 157 105
159 157 106
161 157 103
163 160 106
169 165 108
167 164 108
170 165 108
165 161 107
164 161 107
171 167 109
162 160 106
166 163 106
169 166 109
167 163 108
171 166 108
171 167 109
170 166 107
167 164 108
171 167 108
171 168 110
174 169 108
170 166 109
173 168 109
170 166 104
171 168 108
169 165 108
174 169 108
175 171 109
175 171 109
174 169 109
174 170 109
176 171 109
174 169 107
172 168 106
173 168 108
177 171 109
174 169 109
176 171 110
177 172 111
175 170 107
175 169 109
172 167 107
173 169 108
175 170 106
170 165 105
173 169 106
171 166 106
176 170 110
172 167 106
175 170 108
173 168 108
177 171 106
172 168 108
171 165 101
167 163 101
173 166 103
170 165 103
172 166 104
166 161 99
170 165 104
174 168 105
166 160 100
172 167 108
170 164 104
166 161 101
167 161 101
168 162 99
172 166 103
164 158 100
163 158 97
163 158 96
162 156 97
165 160 95
154 150 90
157 152 90
160 155 93
162 156 93
165 159 94
160 154 91
162 156 93
157 152 87
155 150 89
162 155 91
159 153 84
152 146 90
162 156 90
159 152 86
151 146 85
149 143 78
151 145 84
142 136 76
148 141 79
142 137 79
136 131 75
153 148 80
138 137 61
146 147 60
153 160 59
154 163 52
154 167 47
165 177 52
163 174 52
166 183 41
165 184 25
171 191 28
169 191 11
172 196 0
175 198 0
174 197 0
173 197 0
174 196 0
173 197 0
173 197 0
172 195 0
173 196 0
174 198 0
175 198 0
174 198 0
174 197 0
173 197 0
174 197 0
174 197 0
174 197 0
174 197 0
172 195 0
174 198 0
174 197 0
172 195 0
173 197 0
172 196 0
171 195 0
172 195 0
171 194 0
175 198 0
174 197 0
172 196 0
172 195 0
175 198 0
174 197 0
175 198 0
174 197 0
174 197 0
173 197 0
174 198 0
170 194 0
174 197 0
174 197 0
174 196 0
172 196 0
173 197 0
173 197 0
174 197 0
173 196 0
173 195 0
172 195 0
171 195 0
172 195 0
173 196 0
173 196 0
173 196 0
175 198 0
172 196 0
169 193 0
172 196 0
172 196 0
173 197 0
174 197 0
174 197 0
174 197 0
172 194 0
173 197 0
173 196 0
173 197 0
175 198 0
173 196 0
175 198 0
171 194 0
173 195 0
172 195 0
171 195 0
173 196 0
168 191 0
174 198 0
172 197 0
171 195 0
172 195 0
172 195 0
173 196 0
174 197 0
172 196 0
173 197 0
172 193 0
171 195 0
170 193 0
173 196 0
173 197 0
172 194 0
169 193 0
174 198 0
173 196 0
173 197 0
170 194 0
175 198 0
173 196 0
171 195 0
174 197 0
172 195 0
172 195 0
172 195 0
172 195 0
173 197 0
171 194 0
174 197 0
171 194 0
172 195 0
172 196 0
172 194 0
172 196 0
154 178 78
93 122 154
62 99 175
62 99 175
62 99 177
62 99 172
63 99 178
62 99 178
63 99 178
62 99 176
61 98 174
62 99 181
62 99 178
62 99 177
62 99 178
62 99 180
62 99 181
62 99 180
62 99 179
62 99 180
62 99 180
62 99 181
62 99 179
61 98 178
62 99 181
62 99 181
62 99 180
62 99 181
61 98 180
61 99 181
62 99 180
62 99 181
61 99 180
62 99 179
62 99 179
61 99 180
61 99 181
62 99 181
62 99 181
62 99 180
62 99 181
62 99 181
62 99 181
62 99 181
62 99 181
61 99 180
62 99 181
62 99 181
61 99 181
62 99 181
61 99 181
61 99 181
62 99 180
61 99 180
61 99 181
61 99 181
62 99 181
61 98 181
62 99 181
61 99 181
62 99 181
62 99 181
62 99 181
62 99 181
61 99 181
62 99 181
61 99 181
62 99 181
61 99 180
61 99 180
61 98 180
62 99 181
61 99 181
62 99 181
61 99 181
62 99 181
62 99 180
62 99 180
61 99 180
62 99 181
62 99 179
62 99 181
61 98 177
61 98 177
61 99 179
61 99 180
62 99 178
62 99 180
62 99 181
62 99 179
62 99 179
62 99 179
62 99 178
62 99 180
62 99 181
62 99 178
61 99 180
62 99 179
62 99 181
62 99 180
62 99 180
62 99 178
62 99 181
62 98 176
62 99 176
62 98 177
62 99 179
61 98 178
62 99 178
62 99 180
62 99 180
62 99 178
62 98 173
61 97 168
62 98 175
62 98 174
61 98 177
60 96 170
62 98 173
61 96 172
61 97 174
61 96 170
62 98 176
60 96 169
69 99 162
103 119 140
129 138 101
142 150 53
130 131 54
136 133 68
130 128 62
122 119 70
132 128 73
130 126 73
132 127 76
123 121 74
137 134 84
128 125 75
122 120 76
131 128 79
115 113 74
124 123 78
137 135 89
118 116 76
131 129 86
131 129 85
140 137 90
121 120 82
125 124 83
128 127 86
141 139 94
136 134 91
131 131 89
121 122 83
126 126 85
138 137 94
136 136 93
127 127 88
132 131 90
137 135 91
138 137 94
132 131 90
137 138 96
144 142 98
149 147 100
142 140 93
148 146 97
154 152 103
141 139 96
150 148 100
150 149 103
149 149 102
151 149 101
151 149 102
150 147 97
152 151 101
154 152 101
158 155 103
160 158 105
166 163 108
155 153 104
159 157 105
164 162 108
161 159 104
159 157 105
166 164 110
164 162 108
166 163 105
163 160 104
167 163 108
164 161 107
166 163 107
170 166 108
172 167 111
167 164 108
168 164 107
171 167 110
172 168 111
169 165 109
174 170 111
174 170 111
169 165 107
173 169 110
171 168 108
172 168 109
172 168 109
175 170 108
173 169 109
173 168 108
173 168 109
170 167 108
174 170 110
174 170 110
173 169 107
174 170 109
170 166 104
174 169 105
176 171 109
176 171 109
174 169 108
172 168 107
176 171 109
172 168 106
171 166 105
172 167 108
171 166 104
174 169 108
173 168 106
171 167 106
174 169 109
173 168 103
174 168 104
170 165 104
170 164 106
174 168 106
169 164 100
171 166 104
174 167 106
174 168 103
169 164 101
168 162 99
172 165 104
168 162 100
167 162 103
172 166 104
170 164 104
172 166 104
167 162 100
166 161 101
172 165 102
164 159 95
166 161 95
166 161 99
169 164 97
159 153 90
160 155 95
161 156 93
170 164 97
163 156 90
168 162 94
156 151 89
159 153 91
160 154 88
159 153 92
156 150 86
165 158 93
159 153 89
148 142 79
156 149 89
157 150 87
157 150 82
153 146 84
149 144 80
154 148 80
149 144 72
136 130 68
141 137 69
145 145 65
154 158 66
142 145 57
158 165 54
155 166 47
160 171 42
164 179 47
166 180 44
166 184 30
169 189 22
170 191 22
173 196 0
171 195 0
173 196 0
172 196 0
171 196 0
174 197 0
172 196 0
173 197 0
174 198 0
175 198 0
172 195 0
175 198 0
175 198 0
174 197 0
171 195 0
171 194 0
172 196 0
173 196 0
174 197 0
174 197 0
173 196 0
174 198 0
173 196 0
174 198 0
175 198 0
173 197 0
174 197 0
173 196 0
175 198 0
172 196 0
173 196 0
171 193 0
172 195 0
173 196 0
173 197 0
173 197 0
172 196 0
173 196 0
174 197 0
174 197 0
173 196 0
177 199 0
172 196 0
172 195 0
175 198 0
174 198 0
173 196 0
174 197 0
170 194 0
171 195 0
171 195 0
172 195 0
173 197 0
172 195 0
172 196 0
172 196 0
172 195 0
174 197 0
173 196 0
171 195 0
173 197 0
172 195 0
174 198 0
173 197 0
173 196 0
172 195 0
172 196 0
172 196 0
171 195 0
173 196 0
174 197 0
173 196 0
174 197 0
175 197 0
171 195 0
168 192 0
174 196 0
170 193 0
174 197 0
172 195 0
171 194 0
172 195 0
173 197 0
173 195 0
174 197 0
174 197 0
172 196 0
172 195 0
174 197 0
173 197 0
173 196 0
172 195 0
171 194 0
174 197 0
173 196 0
174 197 0
173 196 0
169 194 0
171 194 0
171 195 0
167 191 0
174 197 0
170 193 0
172 196 0
173 197 0
172 195 0
173 196 0
173 197 0
173 196 0
173 196 0
169 193 18
154 177 90
74 107 165
62 98 173
62 99 176
61 98 173
62 99 172
62 99 175
62 99 177
63 99 177
62 99 177
62 99 174
62 99 176
62 99 178
61 98 178
62 99 180
62 99 179
61 99 176
62 99 178
62 99 180
62 99 177
62 99 178
62 99 179
62 99 180
63 100 181
62 99 179
62 99 181
62 99 180
62 99 180
62 99 179
62 99 179
61 99 181
62 99 181
62 99 179
62 99 181
62 99 181
61 99 179
62 99 180
61 99 180
62 99 179
61 99 180
62 99 181
62 99 181
62 99 180
61 99 181
62 99 181
62 99 180
61 99 181
62 99 181
62 99 181
62 99 181
62 99 181
62 99 181
62 99 181
62 99 180
61 99 181
62 99 180
62 99 181
62 99 180
62 99 181
61 98 179
62 99 180
62 99 181
61 99 181
62 99 181
62 99 181
62 99 181
62 99 180
61 98 180
62 99 180
62 99 179
61 98 179
61 99 181
62 99 181
62 99 181
62 99 180
62 99 181
61 98 181
62 99 180
62 99 181
62 99 181
61 99 181
62 99 180
62 99 179
61 99 179
62 99 180
61 99 179
62 99 181
61 98 179
62 99 181
62 99 179
61 99 180
62 99 180
62 99 181
62 99 179
62 99 181
62 99 181
62 99 180
62 99 180
62 99 180
61 99 178
62 99 179
62 99 179
62 98 175
61 98 176
61 99 180
62 98 176
61 98 176
62 98 177
62 99 180
61 98 176
61 98 176
62 99 179
62 98 175
62 98 174
62 99 179
62 99 177
62 98 175
62 98 177
61 97 174
62 98 170
61 97 170
61 97 176
61 97 175
61 97 172
61 96 169
60 96 169
71 100 159
106 119 125
125 132 84
137 141 61
128 130 61
125 123 57
128 125 76
136 132 79
128 126 76
130 126 72
132 130 76
128 125 77
123 121 76
133 131 76
131 129 81
126 124 79
135 132 81
126 125 82
132 130 82
129 128 83
118 117 77
129 127 83
121 121 85
124 124 84
133 131 87
128 127 85
124 125 87
131 131 92
137 135 90
131 131 92
132 132 91
140 139 96
133 133 91
127 127 89
133 133 92
135 135 95
137 136 94
136 136 92
140 138 93
144 143 97
145 145 99
140 140 96
149 147 99
140 139 96
142 140 96
141 140 94
148 146 100
155 153 103
151 149 100
148 147 98
153 151 100
151 150 101
152 150 101
157 155 105
153 152 104
151 148 98
155 153 102
163 159 105
161 159 106
162 160 107
160 158 105
163 159 106
165 161 104
163 159 102
164 161 104
170 166 109
165 162 108
170 165 109
167 164 109
168 165 109
171 167 110
170 166 108
166 163 106
168 165 108
169 165 106
169 165 106
172 168 110
174 169 109
167 163 104
172 168 110
174 169 109
171 167 108
170 167 104
174 169 108
170 165 106
173 168 108
171 168 107
172 168 107
174 169 109
171 166 105
176 171 110
174 169 106
176 171 108
170 166 106
175 169 107
173 168 108
174 169 106
175 170 109
175 170 106
173 168 109
175 170 108
174 169 107
168 164 104
172 167 106
171 166 106
170 166 103
170 166 107
172 167 104
172 167 106
170 165 99
171 166 106
171 166 104
170 165 101
170 165 101
174 168 107
170 165 103
164 160 97
166 160 95
170 165 103
172 167 99
169 164 101
168 162 100
170 165 101
171 165 100
170 164 100
162 157 95
166 162 97
162 157 97
162 157 93
162 156 94
165 159 93
163 158 91
164 158 96
156 151 89
166 160 94
158 153 91
161 156 92
162 156 91
161 155 95
156 151 89
161 155 94
151 146 84
159 152 90
159 152 90
144 138 79
157 150 87
150 145 81
150 143 79
144 138 73
140 136 74
148 142 82
147 141 71
138 136 60
144 151 52
146 151 53
150 154 58
157 164 54
150 161 36
167 180 44
165 181 41
160 176 34
167 187 28
168 189 19
174 197 11
172 197 0
174 197 0
175 198 0
173 197 0
174 196 0
174 197 0
175 198 0
175 198 0
174 197 0
175 198 0
173 197 0
173 196 0
175 198 0
174 197 0
172 195 0
173 196 0
171 195 0
175 197 0
174 198 0
172 196 0
172 195 0
172 196 0
172 195 0
174 197 0
173 197 0
173 197 0
173 196 0
172 196 0
175 198 0
175 198 0
172 197 0
172 196 0
172 196 0
174 197 0
168 192 0
172 195 0
173 197 0
172 196 0
174 197 0
174 196 0
172 196 0
174 197 0
174 198 0
172 196 0
167 190 0
173 195 0
173 197 0
173 197 0
170 194 0
170 193 0
171 196 0
172 195 0
173 197 0
175 198 0
173 197 0
171 194 0
172 195 0
174 197 0
172 195 0
174 198 0
171 194 0
171 194 0
174 196 0
173 196 0
173 196 0
171 195 0
173 196 0
175 198 0
173 196 0
172 195 0
173 196 0
172 195 0
169 193 0
173 196 0
171 193 0
174 198 0
173 196 0
172 195 0
173 196 0
172 195 0
174 197 0
173 196 0
171 195 0
175 197 0
171 194 0
172 195 0
170 194 0
175 198 0
170 194 0
172 195 0
173 196 0
173 196 0
173 197 0
172 196 0
175 198 0
171 194 0
172 195 0
173 197 0
173 196 0
172 196 0
171 195 0
170 194 0
170 194 0
171 194 0
173 195 0
171 195 0
176 198 0
169 193 0
172 196 0
163 187 65
75 108 163
62 98 171
62 99 173
62 99 176
62 99 176
61 99 177
62 99 175
62 99 179
62 99 178
62 99 179
62 99 173
62 99 178
61 98 179
62 99 176
62 99 181
62 99 178
62 99 181
62 99 178
62 99 180
62 99 180
62 99 178
62 99 178
62 99 179
62 99 179
63 100 180
62 99 180
61 99 178
62 99 180
61 99 179
61 99 181
62 99 180
62 99 179
62 99 180
61 99 181
62 99 181
62 99 180
62 99 180
61 99 179
62 99 181
62 99 181
61 98 180
61 98 180
62 99 181
62 99 181
61 99 181
62 99 181
62 99 181
62 99 181
62 99 181
62 99 181
61 99 181
61 98 181
61 99 181
62 99 181
61 98 180
61 98 181
62 99 180
62 99 181
62 99 180
62 99 181
62 99 180
61 99 181
62 99 181
62 99 181
62 99 180
62 99 179
62 99 180
61 99 181
61 99 181
61 99 181
61 98 179
62 99 180
62 99 181
62 99 180
61 98 180
62 99 181
62 99 181
61 99 180
61 99 180
62 99 181
62 99 181
62 99 181
62 99 181
62 99 180
62 99 180
63 100 181
62 99 180
62 99 181
61 99 180
62 99 180
62 99 179
62 99 179
62 99 180
61 99 179
61 99 180
61 99 178
62 99 178
62 99 181
62 99 181
62 99 180
62 99 180
61 98 177
62 99 180
62 99 179
62 99 179
62 99 179
62 99 180
62 99 178
61 99 179
62 98 176
62 98 174
62 99 180
62 99 178
61 98 173
62 99 179
62 98 175
62 99 176
61 97 174
62 99 176
61 98 176
61 97 170
62 98 174
62 99 175
61 96 170
61 97 168
60 95 165
61 97 171
66 97 161
119 124 107
130 134 82
131 131 68
128 127 66
121 118 69
121 118 67
121 120 68
124 121 70
129 127 75
124 122 71
125 124 81
124 122 74
117 116 77
117 116 74
126 125 81
121 119 75
136 134 90
120 120 80
114 114 75
127 126 86
120 119 79
129 128 85
131 129 86
135 133 91
121 122 84
137 137 94
127 128 90
129 128 88
132 132 92
128 127 88
136 136 93
139 138 96
113 115 81
140 140 95
130 130 91
142 142 97
144 142 96
134 133 89
137 136 92
149 146 98
142 141 95
145 143 99
143 143 98
144 142 96
154 152 102
153 151 100
150 148 101
153 150 99
144 143 98
154 151 102
150 149 101
148 148 102
151 149 101
160 157 104
159 155 102
155 153 100
160 157 103
165 161 106
163 160 106
164 161 108
166 163 107
168 164 109
168 164 107
164 160 104
162 159 105
158 155 101
167 164 106
164 160 104
168 165 108
169 165 106
161 159 106
170 165 107
166 163 108
172 167 107
168 164 106
170 166 107
171 166 108
170 166 107
176 170 107
171 167 108
173 169 108
174 169 108
176 171 109
175 170 109
173 168 108
174 168 108
173 169 108
174 169 108
176 170 107
172 168 108
174 170 109
176 170 108
174 169 105
175 170 106
174 169 104
175 170 107
174 168 105
173 168 104
173 168 106
178 171 108
172 167 106
171 165 101
177 172 111
171 167 108
175 169 106
171 167 106
172 167 104
169 164 104
168 163 102
168 164 101
170 165 103
169 164 104
165 160 99
166 162 103
169 164 103
168 162 101
168 163 101
173 166 99
162 156 95
168 163 101
169 164 103
166 161 101
164 159 95
163 158 96
169 162 95
164 157 97
166 160 96
162 156 97
172 165 100
168 162 99
162 156 96
166 159 93
162 156 95
159 153 89
159 153 90
156 150 86
159 154 91
159 154 90
157 152 89
152 146 79
150 144 83
156 149 85
152 147 80
148 142 79
154 147 82
151 146 79
158 152 80
152 146 76
146 141 72
146 140 71
141 139 65
147 149 63
153 156 59
151 157 52
156 163 56
152 165 36
155 169 34
161 174 42
164 185 30
169 187 28
172 194 22
173 196 0
175 198 0
174 197 0
172 195 0
174 197 0
174 197 0
174 198 0
172 196 0
174 197 0
173 197 0
173 196 0
175 198 0
174 198 0
174 197 0
173 196 0
171 195 0
173 196 0
174 197 0
173 197 0
171 195 0
172 197 0
172 196 0
174 197 0
173 196 0
173 196 0
173 196 0
170 194 0
173 196 0
175 198 0
172 196 0
172 195 0
173 196 0
174 197 0
173 197 0
174 198 0
175 197 0
175 198 0
171 195 0
174 198 0
173 196 0
174 197 0
176 198 0
174 197 0
173 196 0
173 196 0
173 196 0
173 196 0
173 197 0
171 195 0
174 197 0
173 197 0
173 196 0
173 196 0
172 196 0
173 197 0
173 197 0
172 196 0
171 194 0
171 195 0
173 197 0
173 196 0
175 198 0
174 197 0
172 196 0
174 197 0
173 196 0
171 195 0
170 193 0
172 196 0
173 195 0
171 194 0
172 196 0
173 196 0
172 195 0
173 197 0
172 195 0
173 197 0
172 195 0
174 197 0
173 195 0
172 196 0
172 195 0
173 197 0
173 196 0
173 197 0
173 196 0
173 196 0
174 197 0
173 196 0
172 195 0
171 195 0
173 195 0
175 198 0
173 197 0
169 192 0
170 193 0
173 197 0
172 194 0
172 196 0
173 197 0
171 195 0
173 197 0
172 196 0
171 194 0
171 195 0
172 195 0
173 196 0
171 194 0
172 194 18
160 184 72
90 120 159
62 98 169
62 99 171
62 98 169
62 99 176
62 99 175
63 99 174
62 99 177
62 99 174
62 99 179
62 99 177
61 98 177
62 99 178
61 98 178
62 99 179
62 99 178
62 99 179
61 98 177
63 99 178
63 100 179
62 99 181
62 99 180
63 100 180
62 99 179
62 99 180
62 99 180
62 99 178
62 99 181
62 99 181
62 99 178
61 99 180
61 99 179
62 99 181
61 99 180
62 99 181
61 99 180
62 99 181
62 99 180
61 98 180
62 99 180
61 99 181
62 99 179
62 99 181
61 99 180
62 99 179
62 99 180
62 99 181
61 99 181
61 98 180
62 99 180
62 99 180
62 99 180
62 99 180
62 99 180
62 99 180
61 99 181
63 100 180
62 99 180
62 99 180
61 99 181
62 99 181
62 99 181
61 98 180
61 99 180
62 99 181
61 99 181
62 99 181
62 99 181
62 99 181
62 99 180
61 99 180
62 99 180
61 98 181
62 99 181
62 99 180
62 99 180
61 99 180
62 99 181
62 99 181
61 99 181
61 98 178
62 99 181
62 99 181
62 99 180
61 99 179
61 99 179
62 99 181
61 98 180
62 99 179
62 99 181
61 98 179
62 99 179
62 99 179
61 99 180
62 99 181
62 99 178
61 98 180
63 99 179
62 99 178
62 99 180
62 99 179
62 99 180
62 99 179
62 99 178
61 97 175
61 98 177
62 99 178
62 99 179
62 99 178
61 98 177
62 99 180
62 99 177
61 97 173
62 99 177
62 99 177
62 98 176
61 98 175
61 98 177
62 99 176
62 98 177
60 96 170
62 98 173
61 98 175
62 98 174
60 95 167
61 98 174
61 97 173
60 95 168
60 95 165
67 98 163
104 114 127
118 117 75
120 118 67
133 129 74
118 116 70
121 119 71
126 123 76
132 130 80
116 114 68
130 127 76
127 126 80
117 116 74
109 108 70
113 113 74
122 122 82
112 113 77
122 120 80
125 123 80
120 120 81
124 125 85
120 120 83
125 124 84
131 131 89
127 126 84
118 119 85
127 128 89
125 125 86
131 131 90
126 126 89
139 139 94
123 124 88
134 134 93
149 148 100
136 134 90
129 130 92
139 138 94
143 142 97
138 137 95
145 145 100
142 141 97
141 141 96
141 140 96
141 141 95
151 149 102
149 148 98
150 148 99
149 147 99
154 152 102
146 145 99
161 158 105
161 158 105
159 157 104
160 158 105
162 158 104
151 149 99
160 157 102
161 158 105
164 160 105
165 161 104
162 159 104
164 160 103
165 162 107
167 164 107
169 165 109
167 164 105
165 161 105
164 162 105
168 165 109
167 164 108
166 163 107
169 164 107
173 169 108
169 165 105
170 166 106
171 167 104
168 164 106
174 169 108
173 169 108
173 169 108
175 170 106
175 170 110
171 167 108
175 170 106
176 171 111
170 166 105
175 168 104
171 167 105
175 170 109
174 170 108
172 168 103
175 170 106
174 168 106
174 169 108
173 168 103
175 169 103
175 170 106
175 169 106
172 167 102
171 166 105
173 167 106
173 168 104
174 169 105
170 165 103
169 164 97
172 167 106
168 164 104
170 165 106
170 165 101
166 162 97
168 162 101
178 172 108
168 163 99
172 167 106
168 162 101
170 164 101
166 161 97
172 166 97
164 158 95
161 156 94
165 160 96
166 161 95
168 163 96
170 164 99
160 156 92
163 158 90
167 161 97
165 158 97
158 153 93
170 164 99
170 164 97
161 155 89
157 151 87
165 159 98
160 153 90
154 148 89
161 156 87
157 151 90
154 149 84
153 148 84
164 157 92
155 149 83
157 151 87
142 137 80
149 143 77
148 142 80
142 136 70
140 135 66
125 120 64
140 134 71
143 140 69
146 146 66
152 156 61
157 162 63
154 160 56
148 159 42
156 169 42
159 173 37
164 179 30
168 187 25
171 191 25
172 194 11
176 198 0
171 195 0
171 194 0
173 196 0
171 195 0
172 196 0
172 196 0
176 199 0
174 197 0
174 197 0
173 197 0
171 195 0
175 198 0
174 197 0
171 195 0
174 198 0
172 196 0
172 194 0
172 195 0
174 196 0
174 197 0
173 197 0
173 197 0
173 197 0
172 195 0
173 196 0
174 197 0
174 197 0
173 197 0
174 197 0
171 195 0
175 197 0
174 197 0
175 198 0
172 196 0
174 197 0
173 196 0
172 195 0
173 197 0
173 197 0
172 195 0
173 196 0
173 197 0
174 197 0
174 196 0
173 196 0
174 198 0
172 195 0
174 197 0
174 197 0
173 196 0
174 197 0
171 193 0
172 195 0
175 198 0
173 197 0
173 196 0
172 195 0
172 195 0
172 195 0
172 196 0
173 197 0
172 195 0
173 197 0
173 197 0
173 196 0
173 196 0
172 196 0
173 197 0
173 196 0
171 195 0
172 195 0
172 195 0
171 195 0
171 194 0
173 197 0
173 196 0
171 194 0
176 198 0
172 194 0
172 196 0
171 194 0
174 197 0
173 196 0
175 197 0
174 197 0
172 196 0
173 197 0
175 198 0
172 196 0
172 195 0
169 192 0
173 197 0
173 197 0
170 194 0
174 196 0
171 194 0
174 197 0
174 197 0
174 197 0
173 196 0
172 196 0
171 194 0
172 195 0
171 194 0
172 195 0
174 197 0
163 187 60
96 124 154
63 99 172
61 97 163
62 99 178
62 99 179
62 99 172
62 99 175
62 99 176
62 99 177
62 99 177
63 100 179
62 99 174
62 99 178
62 99 179
62 99 177
62 99 177
62 99 176
62 99 179
62 99 178
62 99 180
61 99 179
62 99 175
62 99 179
61 99 178
62 99 178
63 100 180
61 99 180
61 99 180
62 99 180
62 99 181
62 99 179
62 99 181
61 98 180
62 99 181
62 99 178
62 99 181
61 99 180
62 99 181
61 99 179
62 99 181
61 99 180
62 99 180
62 99 180
62 99 181
62 99 181
62 99 181
62 99 180
62 99 181
62 99 181
62 99 180
62 99 181
62 99 181
61 99 181
62 99 181
62 99 181
62 99 181
62 99 180
61 99 181
61 99 180
61 99 180
61 99 181
62 99 179
62 99 181
61 99 179
62 99 180
62 99 181
61 98 180
62 99 181
62 99 181
61 99 181
62 99 181
62 99 181
61 99 180
62 99 181
62 99 180
61 99 181
62 99 181
62 99 179
61 99 180
62 99 180
62 99 181
62 99 181
62 99 181
62 99 178
62 99 181
61 99 181
61 99 181
62 99 178
62 99 180
62 99 180
61 99 180
62 99 180
62 99 179
62 99 180
62 99 179
62 99 179
62 99 177
62 99 179
62 99 179
62 99 179
62 99 179
62 99 181
62 99 178
62 98 176
62 99 177
62 99 179
62 99 180
61 99 180
62 99 178
62 99 181
62 99 178
62 99 176
62 99 178
61 98 177
61 99 179
62 99 176
62 98 173
62 98 176
61 98 178
62 99 177
61 97 174
62 98 176
61 97 166
61 98 173
61 97 171
62 98 173
61 97 168
61 96 167
60 95 165
61 96 167
60 95 166
65 97 161
99 107 112
124 123 81
120 117 67
132 129 76
128 126 75
133 129 76
131 128 80
117 117 76
116 116 72
126 124 78
120 119 74
124 122 78
109 110 74
116 116 79
110 109 70
122 122 83
122 122 81
123 122 79
115 115 78
129 127 89
133 132 89
120 119 80
129 127 84
117 118 83
117 119 84
117 118 82
117 119 83
132 131 89
135 135 94
125 126 88
130 131 92
134 133 92
136 135 94
137 137 94
141 140 97
134 134 92
133 134 93
136 135 93
142 141 96
143 142 97
146 145 99
145 144 97
145 143 94
142 141 95
148 147 100
143 142 98
153 150 99
149 147 99
160 157 104
162 159 104
159 156 103
156 153 101
157 155 104
156 154 104
153 151 100
157 155 102
168 163 106
162 160 104
163 159 105
163 160 103
157 155 102
168 164 105
163 160 102
170 165 105
163 159 103
171 167 106
172 167 106
167 164 107
170 165 107
167 163 105
168 164 105
170 165 109
169 165 106
173 168 108
171 166 106
176 171 110
173 167 105
175 170 110
176 171 109
172 168 107
174 169 105
175 171 108
176 170 107
173 168 106
172 167 106
173 168 108
176 171 110
173 169 108
174 169 108
175 170 107
177 171 108
178 173 112
175 170 109
174 168 106
175 169 106
175 169 108
176 170 104
175 170 109
174 168 105
171 166 102
173 168 105
172 167 104
173 168 106
172 167 104
173 168 103
171 166 101
173 168 104
173 169 106
167 162 99
173 167 104
172 165 100
173 167 105
165 159 99
168 163 103
164 159 97
168 162 99
168 163 101
166 160 95
169 163 98
170 164 100
164 158 97
158 152 92
166 160 95
167 161 96
164 158 95
159 154 94
161 156 95
171 163 97
161 155 87
168 161 97
160 154 87
158 152 90
157 151 84
161 155 90
159 152 90
159 154 87
167 160 90
157 151 84
155 150 83
152 145 80
156 150 84
141 136 77
158 151 85
150 143 83
154 148 82
143 137 76
139 134 69
133 128 66
147 142 75
138 137 56
158 162 63
156 165 53
158 168 54
160 172 45
155 168 42
163 177 42
158 175 25
168 186 28
169 190 11
172 194 0
174 197 0
174 196 0
173 196 0
175 198 0
171 194 0
175 197 0
173 196 0
171 195 0
175 198 0
174 198 0
173 197 0
173 196 0
173 197 0
170 193 0
175 198 0
173 196 0
172 195 0
173 197 0
172 196 0
173 196 0
173 197 0
173 196 0
175 198 0
173 196 0
173 196 0
172 196 0
173 196 0
173 196 0
171 194 0
171 195 0
173 195 0
175 198 0
171 194 0
171 195 0
172 195 0
173 197 0
172 196 0
174 197 0
173 196 0
173 196 0
172 195 0
174 198 0
174 197 0
171 195 0
170 194 0
173 196 0
173 196 0
171 195 0
173 197 0
172 196 0
169 194 0
173 196 0
172 196 0
167 191 0
172 195 0
174 197 0
172 194 0
172 196 0
173 196 0
174 197 0
172 195 0
172 196 0
173 196 0
173 197 0
174 197 0
172 195 0
175 198 0
172 196 0
173 197 0
173 196 0
174 196 0
171 194 0
171 194 0
173 196 0
173 197 0
169 193 0
172 196 0
173 196 0
173 197 0
171 194 0
170 194 0
174 197 0
170 194 0
171 194 0
173 196 0
175 198 0
172 196 0
175 198 0
170 193 0
170 194 0
171 195 0
170 194 0
172 195 0
172 195 0
172 195 0
173 196 0
173 196 0
170 193 0
171 194 0
171 194 0
169 193 0
174 198 0
174 197 0
169 193 0
170 194 0
167 192 0
165 189 54
100 128 148
63 99 178
62 99 171
62 99 175
62 99 176
62 98 173
63 99 173
62 99 173
63 100 178
62 99 175
62 99 179
62 98 173
62 99 178
61 98 175
62 99 173
62 99 178
62 99 180
62 99 179
62 99 180
62 99 179
62 99 180
63 100 178
62 99 181
61 98 176
62 99 180
62 99 179
62 99 179
61 98 178
62 99 181
63 100 180
61 99 178
62 99 181
62 99 181
62 99 181
62 99 181
62 99 180
61 98 180
61 98 180
62 99 181
61 99 181
61 99 181
62 99 180
61 99 180
62 99 179
62 99 180
62 99 181
62 99 181
61 99 180
62 99 181
62 99 180
61 99 181
62 99 180
62 99 180
62 99 180
62 99 180
62 99 181
62 99 181
62 99 181
62 99 179
61 98 180
62 99 181
61 99 181
62 99 181
62 99 179
62 99 180
62 99 178
61 99 180
62 99 181
62 99 180
62 99 181
62 99 180
62 99 180
63 100 181
61 99 180
62 99 179
62 99 181
61 98 180
62 99 179
62 99 181
62 99 180
62 99 179
62 99 180
61 99 180
61 99 181
63 100 181
61 99 179
62 99 181
61 99 179
62 99 179
62 99 178
62 99 180
62 99 181
62 99 179
61 99 179
62 99 180
62 99 181
62 99 178
62 99 178
62 99 181
62 99 179
62 99 179
62 99 179
62 98 178
62 99 179
63 100 181
62 99 178
62 99 179
62 99 178
61 98 177
62 99 177
62 99 179
62 99 176
62 99 177
62 99 178
62 98 177
62 99 178
61 98 174
62 98 175
62 98 176
62 98 175
62 98 175
61 98 177
62 98 173
61 98 173
61 97 171
62 98 176
61 98 175
62 98 172
61 96 168
62 98 173
60 95 166
61 96 166
62 98 174
78 102 155
93 103 116
116 117 80
126 122 74
121 118 69
121 119 71
127 123 73
114 113 68
115 114 73
126 124 76
120 118 76
119 118 75
111 110 75
105 106 71
110 111 73
121 120 79
123 121 82
111 112 74
112 113 79
124 124 84
119 119 83
115 117 82
129 129 87
125 123 83
129 128 86
130 131 90
122 123 86
137 136 91
131 131 91
136 135 93
133 133 92
142 141 95
130 129 88
136 135 94
138 138 93
136 134 91
140 138 95
135 134 91
143 142 96
147 147 100
139 138 94
134 133 92
150 149 100
150 148 97
150 147 98
139 139 95
155 153 101
159 155 101
159 156 102
157 155 103
151 149 99
155 152 99
154 152 101
160 157 103
161 158 105
165 161 103
162 159 104
166 162 106
171 166 106
163 160 105
163 159 104
165 160 104
162 158 102
165 161 104
169 165 108
169 164 103
169 165 108
171 166 106
169 164 104
170 166 108
171 167 108
171 166 109
168 165 107
171 167 106
168 165 103
172 168 108
171 167 105
170 166 105
170 167 106
171 167 108
173 168 104
174 169 109
174 169 106
178 171 108
173 169 108
172 167 106
176 170 107
176 170 104
177 171 109
176 170 108
175 170 105
172 168 107
172 167 106
172 167 104
176 169 104
171 166 100
171 167 104
172 167 104
175 169 103
174 169 104
174 169 105
174 168 101
170 165 103
172 166 103
172 166 106
176 170 106
174 168 105
168 162 98
169 163 101
168 163 102
172 165 103
169 164 100
165 160 99
174 168 107
170 164 101
161 156 94
172 166 100
166 160 98
166 160 95
172 165 101
166 160 95
168 162 94
168 162 94
168 161 95
174 167 101
166 159 95
167 161 94
159 153 92
159 154 88
160 154 91
157 151 88
158 152 90
163 156 93
161 155 82
157 152 83
152 145 86
159 154 88
154 149 81
150 144 80
162 155 88
162 155 90
156 150 85
151 144 77
148 142 82
140 135 71
150 143 80
149 142 80
145 139 75
150 147 70
147 147 59
151 155 58
145 148 58
152 161 47
148 156 51
159 171 44
160 175 34
157 171 37
167 187 19
170 190 25
175 197 11
174 198 0
172 196 0
173 196 0
172 195 0
174 197 0
174 197 0
171 194 0
171 194 0
173 197 0
173 197 0
173 196 0
173 196 0
174 197 0
172 195 0
173 196 0
173 196 0
173 197 0
171 195 0
172 196 0
173 196 0
172 195 0
172 196 0
173 197 0
173 197 0
174 197 0
172 195 0
174 198 0
173 197 0
171 194 0
174 197 0
175 198 0
173 197 0
170 194 0
173 197 0
172 196 0
175 198 0
173 196 0
173 196 0
174 197 0
171 194 0
171 194 0
171 195 0
172 196 0
173 196 0
171 194 0
174 197 0
173 196 0
174 196 0
172 196 0
173 196 0
172 196 0
174 196 0
173 197 0
174 197 0
171 194 0
172 196 0
170 194 0
172 197 0
173 196 0
173 196 0
174 196 0
171 195 0
171 195 0
170 194 0
174 196 0
174 197 0
172 195 0
171 195 0
172 196 0
174 196 0
174 196 0
172 195 0
171 195 0
170 194 0
171 195 0
173 196 0
172 195 0
173 197 0
174 196 0
172 195 0
168 192 0
176 198 0
171 194 0
175 198 0
172 195 0
173 195 0
172 195 0
171 194 0
172 195 0
171 194 0
174 197 0
169 193 0
174 196 0
167 190 0
171 194 0
173 197 0
173 196 0
173 197 0
173 196 0
173 195 0
173 196 0
171 193 0
173 196 0
172 196 0
172 196 0
165 189 47
104 132 148
61 98 173
62 99 169
62 99 172
62 98 170
63 99 175
62 98 173
62 99 180
62 99 174
62 99 176
62 99 178
62 99 178
62 99 178
62 99 178
62 99 179
62 99 179
62 99 177
62 99 177
62 99 180
62 99 177
62 99 180
62 99 180
62 99 181
62 99 180
62 99 177
62 99 179
62 99 180
62 99 178
62 99 178
62 99 179
62 99 180
62 99 181
62 99 178
61 99 179
62 99 180
63 100 180
61 99 180
62 99 180
62 99 181
62 99 181
62 99 181
62 99 181
62 99 178
62 99 181
62 99 181
62 99 181
61 99 180
62 99 181
62 99 180
62 99 181
62 99 180
61 99 181
62 99 179
61 99 181
61 99 181
62 99 179
61 99 179
62 99 180
62 99 181
62 99 181
61 99 180
61 99 181
62 99 181
62 99 181
62 99 179
61 99 181
62 99 181
61 99 181
62 99 180
62 99 181
61 99 180
61 98 179
61 99 181
61 99 179
61 99 180
62 99 181
61 98 180
62 99 181
61 99 180
62 99 180
61 99 178
62 99 179
62 99 177
62 99 178
62 99 180
61 98 178
62 99 179
62 99 181
61 99 178
62 99 175
61 99 181
62 99 181
61 98 176
61 99 179
62 99 178
62 99 179
62 99 178
61 98 177
61 99 179
62 99 179
62 99 179
62 99 181
62 99 178
62 99 180
61 99 178
62 99 178
60 98 175
62 99 174
62 99 176
61 98 175
62 99 176
61 98 174
61 98 175
61 98 178
62 99 178
62 99 179
62 99 177
62 99 178
62 98 174
62 98 176
63 100 179
62 98 175
62 98 174
62 98 172
62 98 176
61 97 169
60 96 173
62 98 176
61 98 175
61 97 172
61 97 170
61 97 169
60 96 169
60 96 165
61 96 166
77 101 157
97 105 110
123 122 80
125 121 69
118 115 70
133 130 78
126 123 72
120 118 74
119 118 73
117 115 75
114 114 79
114 114 73
117 116 77
107 107 71
112 112 72
116 116 78
115 116 78
124 124 83
126 125 83
117 119 85
127 127 86
122 121 83
126 126 87
118 119 82
121 122 85
120 121 84
128 128 88
122 124 88
133 133 90
124 125 85
122 123 87
124 125 88
126 126 87
129 129 91
144 142 97
138 137 94
143 141 95
139 138 95
142 141 94
140 140 96
146 144 98
145 145 98
150 148 98
145 143 97
146 144 96
147 145 98
154 151 100
156 153 101
152 150 99
154 151 100
151 149 100
153 150 99
152 149 100
158 156 102
161 158 104
162 159 102
159 156 104
163 160 103
162 159 106
156 153 102
163 160 105
163 159 105
159 157 101
167 163 105
167 163 105
168 164 107
170 165 104
168 163 103
172 167 107
171 166 106
169 165 103
169 164 103
170 165 105
171 166 104
174 169 107
169 165 106
174 169 109
173 168 107
173 168 105
171 166 107
171 167 106
175 170 108
173 169 110
173 168 104
173 168 108
173 168 105
176 170 106
175 169 106
174 168 106
175 170 107
176 171 107
176 171 110
173 168 104
175 169 106
172 167 103
176 171 107
175 169 104
175 169 104
174 168 104
172 167 103
173 168 104
173 167 103
172 167 105
169 163 99
172 165 101
171 165 101
172 167 103
175 168 103
168 162 99
172 167 103
173 167 105
168 163 98
168 162 97
163 158 95
171 165 101
168 163 101
174 168 104
166 160 95
167 161 98
174 167 103
165 160 86
161 155 94
165 160 92
168 162 97
155 150 89
169 163 95
165 159 91
171 165 101
163 157 94
162 156 88
157 151 88
166 160 95
160 153 86
160 155 87
157 151 87
161 155 88
154 147 84
155 149 85
154 148 78
161 155 86
154 148 84
143 137 77
148 143 78
150 144 78
143 137 78
145 139 72
152 145 77
142 138 72
143 145 58
154 158 60
149 156 53
154 163 49
158 163 58
158 171 41
161 175 36
166 183 37
167 186 19
171 191 16
169 191 0
175 198 0
174 197 0
174 197 0
174 197 0
173 197 0
172 196 0
174 197 0
174 197 0
175 198 0
173 196 0
173 197 0
174 197 0
174 198 0
174 197 0
173 197 0
173 197 0
173 196 0
174 197 0
172 196 0
172 196 0
173 196 0
172 196 0
171 194 0
173 197 0
171 195 0
173 196 0
173 197 0
172 196 0
173 197 0
173 196 0
174 197 0
173 197 0
174 197 0
171 194 0
173 196 0
174 198 0
172 196 0
173 196 0
175 198 0
173 196 0
170 195 0
171 195 0
173 196 0
172 196 0
171 194 0
172 196 0
174 196 0
172 196 0
172 195 0
173 197 0
174 197 0
171 194 0
170 194 0
174 197 0
174 197 0
172 196 0
173 197 0
175 197 0
174 197 0
169 193 0
173 196 0
172 195 0
174 197 0
171 195 0
174 197 0
172 196 0
172 194 0
172 195 0
174 197 0
173 196 0
171 194 0
171 194 0
171 194 0
173 197 0
171 195 0
173 196 0
170 193 0
170 194 0
172 196 0
173 196 0
171 195 0
171 195 0
172 196 0
173 197 0
171 195 0
173 196 0
168 191 0
172 195 0
173 196 0
169 192 0
173 196 0
172 196 0
174 197 0
173 196 0
172 194 0
173 196 0
172 196 0
173 195 0
171 194 0
173 195 0
170 194 0
171 194 0
172 195 0
172 195 0
170 194 25
107 135 142
62 99 175
62 99 174
62 99 174
62 99 176
62 99 172
62 99 170
62 99 174
62 99 175
62 99 175
62 99 174
62 99 181
62 99 172
63 99 177
62 99 177
61 99 179
62 99 178
62 99 178
62 99 176
62 99 179
62 99 178
62 99 180
63 100 180
62 99 180
62 99 177
62 99 178
62 99 179
61 98 178
62 99 181
62 99 180
61 99 179
62 99 180
61 98 179
62 99 181
61 99 180
62 99 178
62 99 180
62 99 179
62 99 180
62 99 180
62 99 179
61 99 179
62 99 181
62 99 181
62 99 181
62 99 181
62 99 181
62 99 181
62 99 181
62 99 180
61 99 180
62 99 181
62 99 179
61 99 179
62 99 179
62 99 181
62 99 181
61 98 180
60 98 180
62 99 181
62 99 180
62 99 180
63 100 180
61 99 180
62 99 181
62 99 180
62 100 181
62 100 181
62 99 181
62 99 179
62 99 181
62 99 180
62 99 181
62 99 181
62 99 181
62 99 181
62 99 180
62 99 179
61 99 180
62 99 179
62 99 181
62 99 180
61 99 180
61 99 180
62 99 181
62 99 180
62 99 180
62 99 180
62 99 179
61 99 179
62 99 181
62 99 179
62 99 179
62 99 181
62 99 181
61 99 179
61 99 180
62 99 180
62 99 180
62 99 178
62 99 175
62 99 178
62 99 178
62 99 178
61 98 174
62 99 176
62 99 180
62 99 178
63 100 181
62 99 178
62 99 179
62 99 179
62 99 178
62 99 178
62 99 176
61 98 175
62 99 180
62 99 178
62 98 173
62 99 176
62 98 174
62 98 176
61 97 170
62 98 177
62 99 174
62 98 176
61 98 176
61 98 174
62 98 173
60 96 166
61 98 172
61 97 172
62 98 172
61 96 165
61 97 170
60 94 163
61 96 169
83 105 154
100 107 107
120 117 70
113 112 66
117 115 70
119 118 74
119 117 73
124 122 75
113 112 73
116 114 73
105 106 73
102 103 70
117 117 79
114 116 79
111 112 73
120 120 83
114 116 79
108 110 74
125 125 85
109 111 80
117 118 83
115 117 84
129 128 87
121 122 86
122 123 86
125 125 84
113 116 83
130 129 90
128 128 90
131 130 88
129 128 89
132 132 89
130 129 89
119 122 88
127 128 89
135 135 92
145 144 99
137 137 94
143 142 96
152 149 100
137 137 94
148 147 100
138 137 91
147 145 96
144 143 96
148 146 96
147 145 97
144 144 98
159 155 103
150 148 99
158 156 105
161 158 103
159 156 102
159 155 101
159 156 101
162 158 103
160 157 101
160 156 102
163 159 103
166 162 103
165 162 101
171 167 107
168 164 106
167 163 106
172 168 106
164 160 100
170 165 105
169 165 108
171 166 106
170 165 105
169 165 108
171 166 102
168 164 102
173 168 107
172 167 107
175 169 106
173 169 104
172 168 105
170 165 105
169 166 104
177 172 110
175 169 105
173 168 102
176 170 107
174 169 104
173 168 105
176 170 106
174 169 106
175 169 107
174 169 105
176 171 108
171 166 99
170 165 103
176 170 106
171 167 102
172 167 108
175 170 106
171 166 100
172 166 104
172 166 105
167 162 99
169 164 95
171 166 100
172 166 101
171 165 102
169 162 98
169 164 102
171 165 100
171 165 102
168 163 102
171 165 100
169 164 99
167 161 95
170 165 101
169 164 102
170 164 98
164 158 96
172 165 98
170 164 99
168 162 99
165 159 93
158 152 93
166 159 99
168 162 94
169 163 99
170 164 95
166 160 92
155 149 86
162 156 90
165 158 92
162 155 92
159 153 90
159 153 87
159 153 84
164 157 91
160 154 92
156 150 87
159 152 87
149 143 77
157 151 84
153 147 79
155 148 84
148 142 76
147 142 75
138 133 64
143 137 75
142 138 64
156 154 70
145 145 64
154 160 54
149 160 42
154 163 45
158 170 45
161 174 37
162 177 36
166 183 34
164 185 11
168 190 0
171 195 0
171 195 0
173 197 0
173 197 0
175 198 0
174 197 0
173 196 0
174 197 0
173 197 0
169 193 0
172 196 0
174 197 0
173 197 0
172 195 0
174 196 0
171 195 0
172 196 0
174 196 0
173 195 0
173 197 0
172 195 0
174 196 0
169 193 0
171 194 0
173 197 0
173 196 0
174 198 0
175 197 0
170 194 0
174 198 0
173 197 0
172 196 0
174 197 0
171 195 0
170 194 0
171 194 0
172 195 0
173 196 0
173 196 0
174 197 0
172 195 0
173 196 0
169 194 0
174 196 0
173 197 0
173 197 0
172 195 0
172 195 0
173 196 0
174 197 0
171 195 0
173 196 0
173 197 0
173 196 0
174 197 0
171 195 0
173 195 0
173 196 0
173 196 0
173 196 0
173 196 0
173 195 0
174 197 0
172 195 0
172 195 0
171 195 0
174 197 0
173 196 0
170 194 0
173 195 0
174 197 0
171 195 0
174 197 0
173 196 0
173 196 0
171 195 0
174 197 0
169 192 0
171 194 0
174 196 0
169 193 0
175 198 0
173 196 0
173 196 0
172 195 0
174 198 0
171 194 0
170 193 0
173 197 0
172 196 0
172 196 0
173 196 0
174 197 0
170 195 0
170 193 0
169 193 0
171 195 0
170 193 0
173 196 0
172 195 0
171 194 0
171 193 0
172 196 0
165 188 25
122 149 128
64 100 170
62 99 173
62 99 172
63 99 173
62 99 175
63 99 175
63 100 177
62 99 174
61 98 174
62 98 173
62 99 178
61 98 176
62 99 171
63 100 178
63 100 177
62 99 179
63 99 178
62 99 177
61 98 178
62 99 179
62 99 180
62 99 179
62 99 181
62 99 179
62 99 177
62 99 179
62 99 180
62 99 181
62 99 181
62 99 180
61 98 178
63 100 180
62 99 180
62 99 179
62 99 178
61 99 180
61 98 178
62 99 180
62 99 180
62 99 180
62 99 180
62 99 181
62 99 181
62 99 179
62 99 181
62 99 181
62 99 181
62 99 180
62 99 181
62 99 181
62 99 180
63 100 181
62 99 181
62 99 180
62 99 180
62 99 180
62 99 181
62 99 180
62 99 181
62 99 179
61 99 180
61 98 181
62 99 181
62 99 181
61 99 181
62 99 181
63 100 181
62 99 180
62 99 179
61 99 180
62 99 179
62 99 181
62 99 178
62 99 178
63 100 181
62 99 181
62 99 181
61 99 181
62 99 181
61 99 179
61 99 181
62 99 181
62 99 180
62 99 181
61 99 180
62 99 179
62 99 180
61 99 180
62 99 180
62 99 181
62 99 180
62 99 181
62 99 179
62 99 179
62 99 180
61 99 181
61 98 176
62 99 178
62 99 176
62 99 177
62 99 177
61 98 178
62 98 176
61 98 179
62 99 177
61 98 178
62 99 181
62 99 176
62 99 180
62 99 177
63 99 177
61 98 177
62 99 175
62 99 178
62 98 174
63 99 179
61 97 170
62 98 174
62 98 176
62 99 175
62 99 175
62 99 179
62 99 176
62 99 177
63 99 178
62 99 178
62 98 171
61 97 167
61 98 172
62 98 175
61 97 169
61 96 166
62 98 176
60 96 166
62 97 170
61 97 170
61 97 170
61 96 169
77 99 143
118 120 97
126 124 77
116 114 70
120 118 73
104 104 67
105 104 67
117 116 76
110 110 71
110 110 71
118 117 78
128 126 83
110 109 74
102 105 73
113 113 77
117 118 81
112 111 75
109 110 76
124 124 87
127 126 87
112 113 79
121 121 83
121 121 83
121 122 85
136 134 91
120 122 88
121 121 84
130 130 90
119 121 86
141 141 97
129 129 88
130 129 88
134 133 90
126 126 87
137 136 93
146 144 98
134 134 91
139 138 94
135 135 92
148 146 97
144 142 95
149 147 98
145 144 96
145 144 95
145 142 94
149 148 101
152 150 99
151 148 99
152 150 100
160 156 101
153 150 98
158 155 101
165 162 105
155 153 100
147 146 96
152 150 100
165 161 103
161 158 102
161 158 100
162 159 99
164 161 106
168 164 102
168 164 103
164 161 101
169 165 106
166 162 107
172 167 107
170 166 106
168 164 103
171 166 107
168 165 105
172 168 108
172 167 106
174 169 107
173 168 103
174 168 106
171 166 103
176 171 109
170 165 99
173 168 105
174 169 109
170 166 103
175 170 105
176 170 108
176 170 106
173 169 105
175 169 107
174 169 107
173 168 104
174 169 106
173 168 105
175 169 106
174 168 103
173 168 106
173 167 100
175 169 106
175 169 108
174 168 104
171 166 102
172 167 102
170 164 102
167 161 99
171 165 103
170 164 100
171 164 98
168 163 97
169 165 101
169 164 101
168 163 102
171 165 99
167 162 95
172 165 103
165 159 95
171 165 98
171 165 102
164 158 97
166 161 93
168 162 99
167 159 94
170 164 100
166 159 93
164 157 94
160 154 92
161 155 91
161 157 92
157 151 88
159 153 93
158 152 86
161 155 91
155 150 85
155 150 81
161 154 84
157 152 89
150 144 84
166 159 90
152 146 81
152 148 86
150 145 79
146 141 75
152 146 75
153 147 81
148 142 71
152 146 77
156 150 80
133 128 65
134 131 64
151 152 64
146 148 59
138 146 41
156 163 54
155 167 36
154 167 36
157 170 39
156 172 28
164 182 25
170 189 22
172 192 19
172 196 0
174 197 0
174 197 0
174 197 0
175 198 0
173 196 0
173 196 0
172 195 0
174 198 0
174 197 0
173 196 0
175 198 0
175 198 0
175 198 0
172 195 0
170 194 0
174 198 0
174 197 0
173 196 0
173 197 0
172 196 0
173 195 0
172 196 0
173 196 0
171 195 0
171 195 0
173 197 0
175 198 0
170 194 0
171 194 0
174 198 0
173 196 0
172 195 0
175 198 0
169 193 0
173 197 0
171 195 0
172 195 0
173 197 0
172 196 0
172 195 0
171 195 0
171 194 0
172 196 0
172 195 0
174 197 0
172 197 0
173 197 0
171 195 0
173 196 0
170 194 0
172 194 0
171 196 0
171 195 0
172 195 0
173 197 0
173 197 0
173 195 0
173 196 0
169 193 0
173 195 0
174 197 0
171 195 0
172 196 0
170 194 0
174 197 0
172 196 0
172 196 0
175 198 0
174 197 0
171 195 0
172 196 0
173 196 0
171 195 0
175 197 0
172 195 0
173 196 0
171 195 0
173 195 0
167 191 0
174 196 0
174 197 0
169 192 0
171 194 0
173 196 0
173 196 0
175 198 0
172 196 0
171 195 0
173 196 0
176 198 0
173 196 0
171 194 0
170 192 0
170 193 0
173 196 0
172 196 0
173 196 0
172 196 0
171 195 0
172 196 0
171 194 0
169 191 0
141 166 105
68 103 164
62 99 173
63 99 172
62 99 177
62 99 173
63 99 176
63 100 177
61 98 170
62 99 174
62 99 173
62 99 175
62 99 174
62 99 176
62 99 176
62 98 175
62 99 176
62 99 178
62 99 179
62 99 181
62 99 175
62 99 178
62 99 177
62 99 179
62 99 177
63 100 180
62 99 181
61 99 179
62 99 178
62 99 180
61 98 178
62 99 180
62 99 180
63 100 178
63 100 180
61 98 180
61 99 180
62 99 181
62 99 180
62 99 178
62 99 179
62 99 181
62 100 181
62 99 180
62 99 181
62 99 181
62 99 181
62 99 181
61 98 179
62 99 181
62 99 181
62 99 181
62 99 179
61 99 177
62 99 180
62 99 181
62 99 178
62 99 181
62 99 180
61 99 179
61 99 180
62 99 180
61 99 181
62 99 178
62 99 179
62 99 181
62 99 181
62 99 180
62 99 181
62 99 180
62 99 179
61 99 180
62 99 180
62 99 181
62 99 179
61 99 181
62 99 180
61 99 180
62 99 181
62 99 181
62 99 179
62 99 178
62 99 179
62 99 178
62 99 181
62 99 181
63 100 181
62 99 180
62 99 180
62 99 181
62 99 178
63 99 179
62 99 177
62 99 180
62 99 180
62 99 179
62 99 179
63 100 179
61 98 179
62 99 178
62 99 179
62 99 179
62 99 180
62 99 180
62 99 178
61 98 178
62 99 180
62 99 179
62 99 180
62 99 173
62 99 179
61 99 178
61 98 174
62 99 177
62 99 177
62 99 179
62 99 175
62 99 179
61 98 175
61 98 176
62 99 178
61 98 176
61 97 170
62 99 176
62 99 174
61 97 174
62 99 172
62 99 174
62 99 176
61 97 172
61 97 169
61 97 170
60 96 164
61 98 170
60 96 171
61 98 170
62 98 174
60 96 167
62 98 174
60 95 163
64 96 162
86 105 143
112 114 97
105 104 60
117 116 73
123 121 75
117 116 74
124 121 75
108 108 69
111 111 75
108 109 75
95 97 66
102 104 74
111 111 75
103 104 74
102 105 73
110 109 76
110 110 74
116 116 81
108 109 76
125 126 88
111 112 79
115 117 84
123 125 87
113 115 82
124 123 85
124 125 90
127 127 88
123 124 86
125 125 87
132 132 92
133 133 93
130 131 91
132 131 87
126 127 90
132 132 91
141 140 96
139 138 93
146 144 96
139 138 94
141 141 95
144 143 99
148 147 101
154 152 101
152 150 100
153 152 102
155 153 101
153 151 99
156 153 102
152 150 100
149 148 96
156 153 95
157 154 102
157 154 102
154 152 96
162 159 101
164 160 103
161 157 101
160 157 101
158 155 98
161 159 104
161 157 102
171 167 106
165 161 105
169 164 101
168 165 106
171 166 107
161 158 100
170 166 105
168 163 102
169 166 108
170 165 104
171 166 103
171 167 108
177 171 107
170 166 105
174 169 108
171 165 104
174 169 106
171 167 106
172 167 104
177 171 108
175 170 108
169 164 103
177 171 107
174 169 105
176 170 108
173 167 106
177 171 109
175 170 104
172 167 102
174 169 103
174 168 104
174 169 103
169 165 102
171 166 99
174 168 104
175 169 100
174 169 104
172 167 101
170 166 99
168 164 101
171 166 103
171 165 103
170 165 102
174 167 101
168 163 98
179 172 106
170 165 98
170 165 103
172 166 99
165 159 98
169 163 95
172 167 99
167 160 97
164 158 95
163 158 84
165 160 95
170 164 98
165 159 97
169 162 98
167 159 92
167 161 95
167 161 94
161 155 91
163 157 85
165 159 91
168 161 95
161 155 87
168 161 91
159 153 82
158 153 86
154 146 83
163 157 90
155 150 84
155 149 84
150 144 76
152 146 80
156 151 82
140 135 69
141 135 73
148 142 75
142 137 72
132 127 60
132 126 63
148 142 71
153 149 75
143 145 61
149 156 48
146 153 47
148 156 48
158 170 45
164 177 39
164 178 44
166 183 32
165 184 22
171 192 22
174 198 0
173 197 0
172 195 0
175 198 0
173 196 0
173 197 0
172 196 0
174 197 0
174 197 0
170 195 0
173 196 0
174 197 0
171 195 0
172 195 0
173 196 0
172 195 0
170 193 0
173 197 0
172 196 0
174 197 0
174 198 0
172 196 0
173 197 0
174 197 0
174 196 0
173 196 0
175 198 0
175 197 0
172 196 0
175 198 0
172 196 0
174 197 0
172 196 0
171 194 0
172 196 0
175 198 0
173 197 0
170 193 0
173 196 0
171 194 0
171 194 0
171 195 0
173 195 0
172 196 0
172 195 0
173 196 0
171 194 0
173 197 0
174 197 0
172 196 0
174 197 0
174 197 0
172 195 0
169 192 0
173 196 0
170 194 0
174 197 0
175 198 0
173 197 0
173 197 0
169 192 0
174 197 0
172 194 0
173 196 0
172 196 0
171 195 0
170 194 0
175 197 0
172 196 0
174 197 0
174 197 0
172 196 0
171 195 0
173 196 0
171 194 0
172 196 0
172 194 0
174 198 0
170 194 0
168 192 0
170 193 0
171 195 0
174 197 0
173 196 0
172 195 0
170 193 0
171 195 0
173 196 0
173 196 0
170 193 0
171 195 0
171 194 0
171 194 0
169 193 0
171 194 0
174 197 0
172 195 0
172 195 0
173 196 0
169 193 0
172 195 0
172 196 0
159 183 72
80 111 157
62 99 172
62 99 172
62 99 173
62 98 164
62 99 172
61 98 172
62 99 178
63 100 179
63 99 176
62 99 175
62 99 177
62 99 178
62 99 177
62 99 176
62 99 175
62 99 176
61 98 175
62 99 181
62 99 178
62 99 179
62 99 181
61 99 180
62 99 175
62 99 178
61 99 179
62 99 176
62 99 179
62 99 180
62 99 177
62 99 179
62 99 179
62 99 180
61 98 178
61 99 181
62 99 180
61 98 181
62 99 180
62 99 179
63 99 179
62 99 180
62 99 181
62 99 180
62 99 179
61 99 180
62 99 181
62 99 180
62 99 181
62 99 180
62 99 181
62 99 181
61 99 181
62 99 180
62 99 180
61 99 180
62 99 179
62 99 180
62 99 181
62 99 180
62 99 180
62 99 180
61 99 180
62 99 177
62 99 181
62 99 181
62 99 180
62 99 180
62 99 179
62 99 181
61 99 177
62 99 179
62 99 178
62 99 180
62 99 181
62 99 180
62 99 180
61 99 181
62 100 181
61 99 179
62 99 180
62 99 181
62 99 179
62 99 181
62 99 181
61 98 178
62 99 179
62 99 179
62 99 180
61 99 180
62 99 181
61 99 181
62 99 179
61 99 180
62 99 177
61 98 178
61 98 178
63 100 180
61 98 178
62 99 180
62 99 180
62 99 179
62 99 176
62 99 176
62 99 179
62 99 179
62 99 179
63 99 180
61 98 178
62 99 176
63 99 177
63 99 178
62 99 175
61 98 174
62 99 175
62 99 176
61 98 175
62 98 174
62 99 176
61 98 176
62 99 180
62 99 178
61 98 174
61 98 175
62 99 178
62 99 178
62 98 173
61 97 171
61 98 176
62 98 176
61 98 174
61 97 173
62 99 177
62 98 174
61 96 166
62 97 172
61 97 171
61 97 170
61 96 164
60 96 166
60 95 165
61 95 162
64 96 158
93 107 133
118 119 92
119 118 73
97 98 63
110 110 67
111 110 73
103 104 68
112 112 76
113 112 73
118 118 81
116 116 77
109 109 76
99 99 68
113 114 75
102 103 73
105 108 78
114 114 77
95 98 70
109 109 73
118 119 82
113 114 81
124 124 85
126 126 88
126 126 87
124 125 86
125 125 87
127 127 88
129 129 90
127 126 87
126 128 91
122 123 86
138 137 92
130 129 89
138 138 94
136 136 94
141 140 93
138 138 94
129 129 89
143 143 96
158 155 103
141 140 92
153 150 100
142 141 92
145 145 96
146 145 95
153 151 100
148 146 95
155 153 99
153 152 103
159 155 98
155 153 99
156 154 101
163 159 102
156 154 98
163 159 103
158 155 102
163 160 102
159 156 103
162 159 104
162 158 103
164 160 100
166 162 106
167 163 101
165 161 103
169 165 104
171 166 106
169 164 104
169 165 104
173 168 104
172 167 103
170 166 102
174 169 108
170 165 103
173 168 104
174 168 105
172 168 103
174 169 104
173 168 105
176 169 105
175 170 104
174 169 107
175 169 104
171 166 101
176 169 104
173 167 104
175 169 104
177 171 103
177 171 106
173 167 100
176 170 104
171 166 102
173 167 100
172 167 102
174 168 103
172 166 99
170 165 99
170 165 104
173 167 103
175 168 100
173 167 102
170 165 101
169 163 99
172 166 103
172 166 102
170 164 97
174 168 100
171 164 99
167 161 95
170 164 98
166 161 98
168 161 95
164 159 97
171 165 95
170 163 99
162 156 92
164 159 95
164 158 96
167 161 95
161 156 90
161 156 93
164 158 89
160 154 88
158 151 87
164 158 93
162 157 92
157 152 90
157 151 87
158 152 84
163 157 89
158 152 84
157 152 87
159 154 85
156 151 83
147 142 78
139 134 75
152 146 81
153 147 77
156 150 83
153 147 79
145 139 75
147 141 78
136 131 65
150 144 70
146 142 67
144 143 64
154 157 63
153 160 59
156 164 45
154 162 48
159 171 47
154 166 44
158 173 34
168 187 22
168 188 32
165 186 11
172 196 0
174 196 0
173 196 0
174 197 0
175 197 0
174 198 0
175 198 0
174 197 0
172 196 0
175 198 0
171 195 0
174 197 0
173 197 0
170 195 0
171 195 0
171 195 0
174 197 0
174 197 0
173 197 0
174 197 0
173 196 0
172 195 0
173 196 0
173 196 0
173 196 0
170 193 0
174 197 0
173 197 0
171 195 0
174 197 0
172 195 0
171 195 0
172 195 0
173 197 0
172 196 0
173 196 0
173 196 0
173 197 0
170 194 0
172 195 0
174 197 0
171 194 0
174 197 0
172 195 0
173 196 0
174 197 0
172 196 0
172 196 0
173 197 0
172 195 0
174 197 0
175 198 0
173 196 0
174 198 0
174 197 0
174 198 0
172 195 0
171 194 0
173 196 0
172 195 0
170 194 0
173 197 0
174 197 0
170 194 0
174 196 0
173 196 0
171 193 0
172 194 0
171 194 0
173 196 0
172 195 0
172 195 0
171 194 0
173 197 0
169 193 0
169 192 0
172 194 0
170 194 0
173 196 0
171 195 0
175 198 0
173 196 0
172 195 0
169 193 0
171 194 0
171 195 0
171 194 0
170 193 0
170 193 0
174 197 0
173 196 0
172 195 0
169 193 0
173 195 0
173 196 0
170 193 0
172 196 0
173 197 0
171 195 0
170 193 0
172 194 0
165 189 51
98 126 147
62 99 167
62 99 172
63 100 172
62 99 173
61 98 170
61 98 174
63 99 170
62 99 176
61 98 173
62 99 177
62 99 174
62 99 175
62 99 178
62 99 176
63 100 180
61 98 175
62 99 177
62 99 178
62 99 177
61 98 172
62 99 178
62 99 181
62 99 178
63 100 180
62 99 178
62 99 176
62 99 178
62 99 175
62 99 178
62 99 178
62 99 181
61 99 180
62 99 181
62 99 179
62 99 179
62 99 178
62 99 179
62 99 180
62 99 181
62 99 181
62 99 177
61 99 179
62 99 180
61 99 179
62 99 179
62 99 180
61 99 181
62 99 181
62 99 180
62 99 180
62 99 180
62 99 180
61 99 180
62 99 180
61 99 181
62 99 180
62 99 180
62 99 180
62 99 181
62 99 180
62 99 181
63 100 181
62 99 180
62 99 181
62 99 179
62 99 179
61 98 180
61 99 180
62 99 180
61 99 180
62 99 180
62 99 181
62 99 181
62 99 181
63 100 181
62 99 180
62 99 178
61 99 179
62 99 181
61 98 178
62 99 180
62 99 179
62 99 181
61 98 180
62 99 180
62 99 180
61 99 180
61 99 179
61 98 180
62 99 181
62 99 181
62 99 179
62 99 178
62 99 180
62 99 179
62 99 179
63 100 181
61 99 179
62 99 178
62 99 178
61 98 178
62 99 179
62 99 181
62 99 180
62 99 176
62 99 179
62 99 180
62 99 179
62 99 179
61 98 178
62 99 177
62 99 180
62 99 178
62 99 179
62 99 176
62 99 178
63 100 179
62 99 177
61 98 175
61 98 175
62 99 178
62 99 176
63 99 178
61 98 175
62 98 174
62 98 174
62 98 170
61 98 172
61 97 167
61 97 172
62 99 174
62 99 173
62 98 171
61 97 165
61 96 168
62 98 170
62 98 172
61 97 170
61 97 164
61 96 169
60 95 166
61 95 165
67 95 152
101 109 116
100 101 67
110 110 68
117 116 73
110 108 71
100 100 65
109 108 71
113 112 74
98 99 66
95 96 66
106 108 75
106 108 75
104 104 72
102 103 71
103 104 73
120 120 81
107 108 77
108 110 79
107 109 77
116 117 82
111 113 83
107 109 77
111 114 81
114 115 82
128 129 90
118 120 85
122 123 86
124 125 85
124 124 84
127 128 89
133 132 89
128 129 87
138 138 94
138 137 93
133 134 93
144 142 95
129 130 89
144 142 95
139 139 95
150 148 98
147 145 95
148 147 98
145 144 92
145 145 97
152 149 95
162 159 102
156 154 99
148 146 99
156 153 99
150 148 100
149 147 98
157 154 98
161 156 98
162 158 100
161 159 103
167 163 105
156 154 99
161 158 100
162 158 98
167 162 102
162 158 100
169 165 107
170 166 104
168 164 102
167 163 103
169 164 100
167 163 102
167 163 103
165 162 101
172 167 101
169 165 105
174 168 105
172 167 105
171 167 103
173 168 107
172 167 103
174 169 103
171 166 104
173 168 104
172 167 103
172 167 104
174 168 104
173 168 104
170 165 97
175 169 103
174 168 103
172 167 103
177 170 103
176 170 105
173 168 101
176 170 106
176 170 104
174 168 103
173 168 103
174 169 104
174 168 101
175 169 104
172 165 101
173 167 104
178 171 106
169 163 96
174 168 106
175 168 99
173 166 99
175 168 103
172 166 101
174 167 106
166 160 95
166 160 97
169 164 97
169 163 100
161 156 90
159 154 90
173 166 103
169 164 97
164 158 93
164 158 95
168 161 94
163 157 91
161 155 86
168 161 96
162 155 93
162 156 93
164 158 87
157 152 87
161 155 86
160 155 85
159 152 87
161 155 92
152 147 82
153 148 80
161 154 87
155 150 81
149 144 76
154 149 81
152 146 80
144 139 72
153 145 81
151 145 75
146 140 75
153 147 74
152 145 79
141 135 62
147 146 68
152 153 65
151 159 45
156 161 51
158 170 42
154 165 39
164 176 44
160 179 25
163 179 36
165 185 22
172 194 11
174 197 0
172 195 0
173 196 0
171 196 0
172 196 0
174 198 0
174 197 0
174 197 0
170 194 0
172 196 0
172 196 0
174 197 0
171 194 0
171 194 0
173 196 0
171 194 0
171 195 0
173 197 0
171 195 0
173 196 0
171 195 0
173 197 0
174 197 0
171 195 0
172 195 0
174 197 0
172 196 0
170 194 0
174 198 0
173 196 0
174 197 0
172 196 0
174 197 0
170 193 0
172 196 0
174 197 0
173 197 0
174 197 0
169 193 0
173 196 0
174 198 0
172 195 0
170 194 0
171 195 0
172 195 0
172 196 0
172 195 0
173 196 0
173 196 0
172 196 0
170 193 0
171 196 0
171 194 0
173 195 0
174 196 0
172 196 0
171 195 0
172 196 0
172 196 0
172 194 0
172 196 0
170 193 0
169 192 0
170 194 0
171 196 0
170 194 0
171 194 0
173 196 0
172 196 0
174 197 0
172 196 0
172 196 0
170 193 0
172 196 0
172 195 0
172 195 0
173 196 0
171 194 0
173 197 0
171 195 0
173 196 0
172 195 0
172 195 0
173 195 0
171 194 0
174 197 0
175 197 0
172 196 0
169 193 0
171 195 0
171 195 0
171 194 0
170 192 0
172 195 0
175 197 0
172 195 0
172 196 0
172 196 0
174 197 0
170 193 0
171 194 18
118 144 129
63 99 174
62 98 170
62 98 170
62 99 175
62 99 173
62 99 170
62 99 174
62 99 172
62 99 176
63 100 177
62 99 178
62 99 177
62 99 176
62 99 178
63 99 177
64 100 178
62 99 176
62 99 177
62 99 178
63 99 178
62 99 179
62 99 180
62 99 181
62 99 178
61 99 180
62 99 180
62 99 176
62 99 180
62 99 174
62 99 177
62 99 180
62 99 178
62 99 178
62 99 180
62 99 181
62 99 181
61 99 179
62 99 179
61 99 179
62 99 179
62 99 181
62 99 181
62 99 181
62 99 179
62 99 181
62 99 180
61 98 181
62 99 180
62 99 180
62 99 179
62 99 179
62 99 177
63 100 181
62 99 180
62 99 180
62 99 179
62 99 181
62 99 181
61 99 181
62 99 181
62 99 181
62 99 181
62 99 179
62 99 179
62 99 181
62 99 181
61 98 180
62 99 180
62 99 181
63 100 180
61 99 181
62 99 181
62 99 178
61 98 179
62 99 180
62 99 179
61 99 179
62 99 180
62 99 180
61 99 180
61 99 180
62 99 180
62 99 181
62 99 181
62 99 180
62 99 178
62 99 176
62 99 178
62 99 179
62 99 180
61 98 176
62 99 177
63 100 180
62 99 178
62 99 179
62 99 180
62 99 180
62 99 177
61 99 179
62 99 177
62 99 180
63 100 179
63 99 179
62 99 176
62 99 174
61 98 173
62 99 175
62 99 180
62 99 178
62 99 178
62 99 180
62 99 175
62 99 176
62 99 178
62 99 178
62 99 178
61 98 175
61 98 175
61 98 175
62 99 179
61 98 171
62 99 177
62 99 174
61 98 172
61 98 171
61 98 174
63 99 177
62 99 177
62 99 174
62 99 172
61 98 173
61 97 169
61 98 176
61 97 169
61 97 170
61 97 169
61 97 168
61 98 173
60 95 164
60 94 160
61 96 171
61 97 168
62 98 174
60 95 165
76 99 146
96 104 111
109 109 73
112 112 70
110 111 70
99 99 66
92 94 62
104 104 72
108 109 72
103 103 69
113 114 78
98 100 71
108 109 78
99 102 73
91 95 70
98 100 68
123 123 84
103 105 76
110 112 82
115 116 83
109 110 76
100 103 74
110 111 79
109 111 78
127 126 88
115 117 82
133 132 91
121 121 83
110 113 84
131 131 92
128 128 87
125 125 87
135 134 92
136 135 89
129 129 88
141 139 94
141 139 92
147 145 95
134 134 88
139 137 90
135 136 93
149 147 97
154 152 97
152 151 101
152 150 100
151 148 98
160 156 100
147 145 95
156 153 101
156 153 98
157 154 100
158 155 101
156 153 98
158 156 100
161 159 101
159 156 100
161 156 100
168 163 103
169 165 104
161 158 100
161 158 98
169 164 102
168 163 104
162 158 99
173 167 106
167 163 102
170 164 102
171 166 104
172 166 105
172 169 107
175 170 107
168 163 102
171 166 102
171 167 103
174 169 104
173 168 106
173 168 103
177 171 107
174 168 103
174 168 102
174 168 102
177 171 108
171 166 103
175 169 104
178 172 108
170 165 102
175 170 104
173 168 102
174 167 102
177 171 104
172 167 102
173 167 105
170 164 97
173 168 101
172 166 99
170 164 98
172 166 101
174 168 101
176 169 99
174 167 101
169 163 100
172 165 99
170 165 99
176 169 103
168 163 100
170 165 97
173 167 101
165 159 91
170 165 99
168 162 95
168 162 96
166 161 95
166 160 92
169 163 96
173 166 101
166 160 92
161 155 90
162 157 87
169 162 95
160 153 87
165 160 93
161 155 87
157 151 86
160 154 90
158 152 85
154 148 84
162 156 87
161 154 90
162 156 83
153 146 81
154 150 89
156 150 84
147 141 75
149 143 77
155 149 85
155 149 80
152 147 74
143 137 70
148 141 75
138 133 69
143 138 68
146 141 70
148 143 73
141 138 66
144 145 57
137 144 42
149 155 53
158 166 47
158 171 44
155 169 34
154 169 36
164 182 25
167 185 34
169 190 0
172 195 0
173 197 0
171 196 0
173 196 0
172 196 0
171 194 0
174 197 0
173 196 0
172 195 0
174 197 0
173 197 0
174 196 0
174 197 0
173 196 0
174 196 0
172 196 0
171 195 0
173 196 0
173 196 0
173 196 0
173 195 0
169 192 0
171 195 0
172 195 0
171 195 0
173 196 0
173 197 0
173 196 0
171 195 0
173 196 0
170 194 0
173 196 0
171 194 0
171 195 0
171 194 0
174 197 0
172 194 0
174 197 0
172 196 0
173 196 0
172 195 0
172 195 0
171 195 0
172 196 0
171 194 0
175 198 0
173 196 0
175 198 0
171 195 0
173 196 0
173 196 0
173 196 0
173 196 0
172 195 0
172 195 0
171 194 0
172 196 0
171 194 0
171 195 0
172 196 0
173 195 0
171 194 0
172 196 0
173 196 0
172 196 0
173 196 0
171 194 0
172 195 0
175 197 0
171 194 0
173 196 0
170 194 0
173 196 0
171 195 0
171 195 0
173 195 0
173 195 0
171 195 0
173 197 0
171 195 0
173 196 0
171 195 0
168 192 0
172 195 0
169 192 0
172 195 0
171 195 0
172 194 0
171 193 0
170 194 0
170 193 0
172 196 0
173 195 0
173 196 0
169 192 0
169 192 0
168 192 0
171 194 0
174 197 0
175 198 0
149 174 88
63 99 160
62 98 166
62 98 168
63 99 172
62 99 173
62 99 171
63 100 173
62 99 176
62 99 172
62 99 172
61 98 173
62 99 175
62 99 175
62 99 177
62 99 177
63 99 178
62 99 177
63 99 178
62 99 177
62 99 178
62 99 179
62 99 180
62 99 180
62 99 178
62 99 178
63 100 179
62 99 178
63 99 178
62 99 181
63 99 178
62 100 181
62 99 180
61 98 177
62 99 177
62 99 178
62 99 179
62 99 180
62 99 179
62 99 179
62 99 180
62 99 179
62 99 179
62 99 179
62 99 180
62 99 180
62 99 180
62 99 181
62 99 180
62 99 181
63 100 180
62 99 178
62 99 180
62 99 180
62 99 179
61 99 180
62 99 178
62 99 179
62 99 177
62 99 178
62 99 177
62 99 179
62 99 180
62 99 180
62 99 180
61 99 178
62 99 180
62 99 179
62 99 179
62 99 181
62 99 180
62 99 180
62 99 180
61 99 179
62 99 180
62 99 178
62 99 179
62 99 180
62 99 180
61 99 179
62 99 178
62 99 179
62 99 179
62 99 179
62 99 180
62 99 178
61 99 180
62 99 178
62 99 180
62 99 180
62 99 179
62 99 179
62 99 178
63 99 179
62 99 180
62 99 178
62 99 180
62 99 179
62 99 181
62 99 178
62 99 177
62 98 175
62 99 178
62 99 180
62 99 180
62 99 180
62 99 179
63 99 178
62 99 178
61 98 176
62 99 177
62 99 178
62 99 176
62 99 178
62 99 177
62 99 176
61 98 177
62 99 177
61 98 176
62 99 175
61 98 173
62 99 175
62 99 178
62 98 173
62 99 176
62 99 177
61 97 171
62 99 178
61 97 171
62 99 179
62 98 174
62 98 173
61 98 174
62 99 177
61 97 169
62 98 170
61 98 173
61 97 170
61 97 169
62 99 174
62 98 172
62 98 171
62 98 174
61 96 169
59 94 163
61 96 166
60 95 165
76 94 127
104 107 93
112 111 71
108 108 68
93 93 62
102 103 71
93 96 66
113 112 74
101 102 69
99 101 74
97 99 69
94 97 69
98 101 73
98 101 71
102 103 72
100 103 74
109 111 82
102 105 76
114 116 80
120 121 87
110 112 80
126 127 89
113 113 79
120 121 85
112 115 80
116 118 83
120 122 86
112 114 79
127 127 88
123 124 85
131 130 86
130 131 89
146 145 95
118 119 83
131 132 91
134 133 89
133 132 88
138 138 93
133 133 88
145 143 96
136 135 89
152 150 97
140 139 92
149 148 99
156 154 103
146 144 93
151 149 96
151 148 98
151 150 96
154 151 98
150 149 94
153 150 94
154 152 98
153 150 96
162 159 103
165 161 100
163 159 100
160 157 100
165 162 100
166 163 103
161 158 100
166 162 101
170 164 105
168 163 103
162 160 103
165 162 103
167 163 102
171 166 104
171 166 104
170 165 99
172 167 99
173 167 103
170 166 102
174 168 106
177 172 109
171 166 100
173 168 108
171 166 96
172 167 101
171 167 100
175 168 104
171 166 105
175 169 102
170 165 98
174 169 103
178 171 105
175 169 103
171 165 97
173 168 104
174 168 97
178 171 104
173 167 102
174 169 103
174 168 101
177 170 104
175 169 102
171 167 101
171 166 101
171 165 99
170 164 98
170 165 100
170 164 96
175 167 97
171 165 100
170 165 99
171 166 99
164 159 94
172 166 100
165 161 90
168 162 99
170 164 98
166 160 95
168 162 101
159 154 88
164 158 92
169 162 96
167 162 94
163 158 92
168 161 90
162 156 93
164 158 92
163 157 90
161 155 86
157 150 84
151 146 80
154 148 80
150 144 85
160 154 84
156 150 79
161 155 84
157 151 83
153 147 83
153 147 82
152 147 83
157 151 84
150 143 78
164 156 87
155 148 84
153 148 75
144 138 68
142 136 72
136 133 64
152 148 73
155 156 64
142 143 57
155 161 58
152 163 42
159 173 36
160 175 41
167 179 42
165 181 28
166 185 25
168 189 0
174 198 0
174 197 0
174 197 0
174 197 0
172 196 0
169 192 0
173 197 0
174 198 0
174 198 0
174 197 0
173 196 0
171 194 0
173 197 0
173 196 0
173 196 0
171 195 0
171 195 0
174 197 0
174 197 0
171 195 0
172 195 0
172 195 0
174 198 0
171 195 0
174 197 0
175 198 0
175 198 0
171 194 0
171 194 0
171 194 0
174 197 0
172 196 0
172 196 0
173 196 0
174 197 0
172 195 0
169 192 0
170 193 0
174 196 0
172 195 0
172 196 0
171 194 0
174 197 0
173 196 0
171 194 0
169 193 0
171 195 0
173 196 0
171 195 0
170 194 0
172 196 0
170 193 0
172 195 0
173 197 0
172 196 0
171 194 0
172 195 0
175 198 0
171 194 0
174 197 0
172 195 0
175 197 0
170 193 0
168 192 0
173 196 0
170 193 0
171 195 0
173 196 0
170 193 0
172 196 0
172 196 0
172 195 0
173 196 0
171 195 0
170 193 0
173 196 0
173 197 0
170 194 0
171 195 0
173 197 0
171 194 0
172 196 0
172 195 0
166 190 0
172 195 0
170 193 0
171 195 0
169 192 0
172 195 0
170 195 0
170 193 0
173 196 0
169 193 0
170 193 0
169 193 0
170 194 0
172 195 0
173 195 0
173 196 0
164 188 57
81 113 160
63 100 173
62 99 167
62 99 174
62 98 168
62 98 173
62 99 173
63 99 173
62 99 172
61 98 173
62 99 175
62 99 176
62 99 175
62 99 179
63 99 175
61 98 175
62 98 173
63 99 176
62 99 174
62 99 175
62 99 176
62 99 178
62 99 180
63 99 179
62 99 179
62 99 178
62 99 178
61 98 175
61 99 176
62 99 175
62 99 175
62 99 177
62 99 179
62 99 177
62 99 177
62 99 179
63 100 181
62 99 179
62 99 179
62 99 178
62 99 180
62 99 177
62 99 180
62 99 177
62 99 181
62 99 178
62 99 180
62 99 179
62 99 180
62 99 181
62 99 178
62 99 181
62 99 179
61 99 180
62 99 180
63 100 179
62 99 180
61 98 178
61 99 179
62 99 179
62 99 180
62 99 177
62 99 179
62 99 180
62 99 181
61 99 180
62 99 181
62 99 179
62 99 181
63 100 180
62 99 179
62 99 179
62 99 181
61 99 179
62 99 178
62 99 180
62 99 179
61 98 177
62 99 181
62 99 179
62 99 180
62 99 180
62 99 179
62 99 181
62 99 180
63 99 179
62 99 179
61 98 177
62 99 177
62 99 180
62 99 179
61 98 175
62 99 173
61 99 179
62 99 181
62 99 177
61 98 179
62 99 180
62 99 180
61 99 178
62 99 181
63 100 179
62 99 177
61 98 177
62 99 177
62 99 180
61 98 176
62 99 179
62 99 177
61 98 175
62 99 179
62 99 177
62 99 175
62 99 180
62 99 176
62 99 177
61 98 175
62 99 180
62 99 178
63 100 177
62 99 172
62 99 177
62 99 176
62 98 172
63 100 177
62 98 176
61 98 176
61 98 173
62 98 173
62 98 172
63 99 176
62 99 173
62 99 174
62 99 175
62 98 173
61 98 169
62 98 170
62 99 174
62 98 174
62 98 173
62 98 173
62 98 172
62 97 167
60 96 166
61 96 163
60 95 162
61 95 165
61 93 156
79 90 101
88 93 84
107 106 68
102 102 68
110 109 74
88 91 64
104 104 70
105 106 74
100 101 71
98 99 69
98 100 72
103 104 71
107 108 77
98 101 72
106 108 78
92 96 72
112 114 81
111 114 83
118 117 80
106 106 76
117 118 82
127 127 86
122 123 86
115 116 80
124 125 86
116 118 84
125 127 88
113 115 78
119 119 83
127 127 85
126 126 82
135 134 91
147 144 95
129 130 89
138 138 90
126 128 88
139 137 91
149 147 96
149 147 96
145 143 97
141 140 91
146 145 96
156 153 99
153 150 99
148 147 93
148 146 96
151 150 100
156 153 97
158 154 99
169 164 104
159 155 99
157 154 98
167 162 104
163 159 102
163 159 101
163 159 96
165 161 102
165 160 99
167 162 100
166 162 101
169 164 101
166 161 100
168 163 104
170 165 103
170 165 102
169 163 99
171 166 105
171 167 101
168 164 103
172 167 103
167 163 100
174 169 105
171 166 98
175 170 105
171 166 99
171 166 101
169 164 101
174 168 105
171 167 101
172 167 101
173 168 101
174 169 106
174 168 105
173 168 104
172 166 97
176 170 103
172 166 100
176 170 103
170 165 99
173 168 102
172 166 102
175 168 101
170 165 98
170 164 100
174 167 97
171 165 102
173 166 100
170 164 99
173 167 102
169 164 95
174 168 97
171 166 97
174 167 99
173 166 97
168 162 95
174 168 104
165 159 93
169 163 97
162 156 88
170 165 101
170 164 93
165 159 93
170 163 92
167 160 92
165 159 90
163 157 89
161 156 80
160 154 91
163 157 89
159 154 89
165 160 90
158 153 85
164 158 91
160 153 90
156 151 84
157 151 83
156 151 87
154 148 77
151 144 78
153 147 78
153 147 83
166 160 90
153 147 80
151 146 81
158 152 85
149 143 77
141 136 67
150 143 79
147 141 75
138 133 68
144 140 68
149 150 59
147 150 51
154 156 63
150 159 45
155 165 47
159 169 48
157 171 34
160 176 32
166 184 22
165 185 16
168 190 19
174 197 0
172 197 0
171 195 0
172 195 0
170 193 0
171 195 0
172 195 0
172 196 0
174 197 0
174 197 0
171 194 0
173 196 0
172 196 0
174 197 0
171 195 0
173 197 0
171 195 0
173 196 0
174 197 0
173 197 0
170 194 0
171 194 0
171 195 0
171 194 0
175 198 0
175 197 0
172 195 0
170 193 0
172 195 0
172 195 0
174 197 0
173 197 0
172 196 0
172 195 0
171 195 0
174 197 0
173 196 0
173 196 0
171 194 0
172 196 0
169 193 0
172 195 0
170 194 0
173 197 0
173 195 0
172 195 0
174 198 0
171 195 0
170 194 0
172 196 0
173 196 0
173 196 0
172 196 0
173 196 0
173 196 0
170 192 0
172 195 0
170 193 0
171 194 0
171 194 0
175 198 0
173 196 0
172 196 0
172 195 0
171 195 0
173 197 0
173 196 0
170 194 0
170 192 0
173 196 0
172 196 0
173 196 0
170 194 0
173 197 0
174 197 0
171 194 0
170 194 0
170 195 0
170 193 0
172 196 0
172 195 0
171 194 0
173 196 0
170 193 0
172 195 0
172 195 0
171 195 0
171 195 0
170 193 0
173 196 0
171 195 0
171 195 0
172 196 0
176 198 0
168 191 0
169 191 0
174 196 0
171 194 0
162 187 54
118 144 133
62 98 166
62 98 169
62 98 163
63 99 174
62 99 174
62 98 170
62 98 170
62 99 165
62 99 174
62 98 170
62 98 168
62 98 173
63 100 178
61 98 171
62 99 172
62 99 179
62 99 178
62 99 178
62 99 174
62 99 177
62 99 178
63 100 179
62 99 177
61 98 179
62 99 178
62 99 176
62 99 180
61 99 178
62 99 178
62 99 177
62 99 179
62 99 177
61 98 174
61 98 176
62 99 180
62 99 179
62 99 179
62 99 178
62 99 179
62 99 180
62 99 180
62 99 180
62 99 177
62 99 180
62 99 181
62 99 180
62 99 178
62 99 178
62 99 181
62 99 181
62 99 179
62 99 179
62 99 178
62 99 181
62 99 180
62 99 179
62 99 181
62 99 181
62 99 181
62 99 177
62 99 180
63 99 178
61 99 177
62 99 179
62 99 180
62 99 178
62 99 179
62 99 180
62 99 180
62 99 180
62 99 181
62 99 179
62 99 180
61 98 180
63 100 181
62 99 179
61 99 180
62 99 180
62 99 180
62 99 180
61 99 180
62 99 181
62 99 180
62 99 178
62 99 177
62 99 180
62 99 180
62 99 180
62 99 179
62 99 178
62 99 178
62 99 178
62 99 177
62 99 180
62 99 178
61 98 177
62 99 179
62 99 175
62 99 180
61 99 178
62 99 178
62 99 179
62 99 180
62 99 181
62 99 176
61 98 176
61 98 175
61 99 181
62 99 181
62 99 178
62 99 176
62 99 177
62 99 178
62 99 175
63 99 177
62 99 174
62 99 176
62 99 176
62 98 172
63 99 177
62 99 176
62 99 176
61 98 173
61 98 171
62 99 178
62 99 174
63 99 179
62 98 170
63 100 177
62 99 176
62 98 176
61 98 175
62 99 170
62 99 174
61 97 169
61 97 170
61 97 170
61 97 173
62 99 177
62 98 171
61 97 170
61 96 166
61 97 168
61 96 169
62 98 170
59 93 159
62 97 167
61 96 167
69 96 146
99 105 99
104 103 71
106 106 66
89 91 62
90 91 59
107 107 73
91 95 70
97 98 68
87 90 64
85 89 66
106 107 76
99 101 74
94 96 70
104 106 77
109 111 78
95 98 69
100 103 72
113 114 81
98 100 71
122 121 82
107 110 80
116 117 83
113 116 82
117 120 85
126 126 87
126 125 85
117 118 83
125 126 88
131 130 88
128 127 82
132 133 92
126 127 88
136 135 92
137 138 93
129 130 87
140 140 93
142 141 95
141 142 92
143 142 92
150 147 93
148 146 94
148 146 95
148 145 91
154 151 98
145 144 97
156 154 100
151 148 96
159 155 100
159 155 99
160 157 100
162 158 100
158 156 99
163 158 101
158 155 97
160 156 97
164 160 101
164 160 102
168 163 103
163 160 98
157 154 96
171 166 103
166 163 102
164 161 101
173 167 103
172 166 103
169 164 97
169 165 103
171 166 102
172 167 104
169 164 100
170 165 102
172 167 103
171 166 98
171 166 104
169 165 101
171 166 98
173 168 102
172 166 101
171 167 97
169 164 102
170 165 100
171 165 102
170 165 99
170 165 95
174 168 101
178 171 103
173 168 97
180 172 105
175 169 102
176 170 105
171 164 99
175 168 98
172 167 102
173 167 103
173 167 101
170 164 94
169 164 95
170 164 99
167 162 98
172 166 101
172 166 100
171 165 97
169 163 97
167 161 97
173 167 97
167 161 96
171 166 97
171 165 96
173 166 98
166 160 93
164 159 91
166 160 97
170 164 93
165 159 86
170 163 95
166 160 90
167 162 91
159 152 84
165 159 87
169 160 92
161 155 92
156 151 80
162 155 89
168 161 90
156 150 80
153 147 72
160 153 83
156 151 79
153 147 76
157 152 83
164 156 90
157 151 84
149 143 76
140 136 65
140 135 66
146 141 71
144 137 69
135 129 63
145 139 74
140 135 64
141 142 57
146 147 57
154 161 52
153 159 48
156 166 47
155 165 44
161 175 42
162 178 30
163 179 36
164 184 11
170 191 11
172 196 0
173 197 0
171 194 0
173 197 0
171 194 0
173 196 0
172 196 0
172 196 0
170 195 0
170 194 0
173 197 0
171 194 0
172 196 0
170 193 0
174 197 0
174 197 0
174 196 0
171 195 0
171 195 0
170 194 0
171 194 0
171 195 0
172 196 0
173 197 0
171 195 0
172 196 0
175 198 0
173 196 0
173 196 0
173 196 0
172 196 0
172 195 0
171 194 0
172 195 0
170 194 0
174 196 0
173 196 0
169 193 0
173 197 0
171 194 0
173 196 0
172 196 0
175 198 0
173 196 0
168 192 0
172 195 0
173 196 0
171 195 0
172 195 0
174 197 0
171 194 0
174 197 0
173 197 0
172 195 0
173 197 0
171 194 0
174 197 0
171 195 0
172 197 0
169 194 0
171 194 0
173 195 0
170 193 0
171 195 0
170 194 0
173 196 0
173 197 0
170 193 0
167 192 0
172 195 0
170 194 0
170 193 0
170 195 0
172 196 0
175 198 0
168 192 0
170 194 0
173 196 0
171 195 0
170 194 0
171 195 0
173 196 0
172 195 0
173 196 0
172 194 0
172 195 0
167 190 0
172 195 0
171 193 0
174 197 0
174 197 0
172 194 0
171 194 0
173 196 0
172 196 0
173 197 0
172 196 0
170 192 18
141 165 97
70 104 163
62 99 172
62 98 168
62 99 174
63 99 173
62 98 170
62 99 169
62 99 170
62 99 172
62 98 167
62 99 175
62 99 170
62 99 179
62 99 173
62 99 175
62 98 172
62 99 173
62 99 176
63 99 177
62 99 175
62 99 172
62 99 174
62 99 177
62 99 180
62 99 177
62 99 177
62 99 179
63 99 176
62 99 176
62 99 179
62 99 179
62 99 179
62 99 181
62 99 179
62 99 178
62 99 178
62 99 178
62 99 180
62 99 177
62 99 180
62 99 178
62 99 181
63 100 180
62 99 180
62 99 181
62 99 179
62 99 181
62 99 180
62 99 181
61 99 177
62 99 179
62 99 178
62 99 179
61 99 179
63 100 179
61 99 181
62 99 178
62 99 180
62 99 179
62 99 178
62 99 180
62 99 181
62 99 179
62 99 180
62 99 180
63 99 180
62 99 180
61 99 179
62 99 181
62 99 179
62 99 180
61 99 179
62 99 177
62 99 179
61 99 180
62 99 178
62 99 181
61 98 179
62 99 177
62 99 180
61 99 181
62 99 178
62 99 177
63 100 180
62 99 179
62 99 180
61 98 176
61 98 178
62 99 180
62 99 181
62 99 178
61 98 179
62 99 181
62 99 180
62 99 180
62 99 177
61 98 177
61 98 176
61 98 176
62 99 179
61 99 178
62 99 178
62 99 176
62 99 177
61 99 178
62 99 179
62 99 174
61 98 174
62 99 177
62 99 178
62 99 178
61 98 175
61 98 175
62 99 176
62 98 175
62 99 177
62 98 173
62 98 173
61 98 177
62 99 178
62 98 174
62 99 170
63 99 179
62 99 177
61 98 171
61 98 173
62 99 177
62 98 175
62 98 172
62 99 176
62 99 172
61 97 168
61 98 174
61 97 171
63 99 175
62 99 172
62 98 172
63 99 173
62 98 172
62 98 170
62 98 172
62 98 169
61 96 163
62 99 176
61 95 164
59 94 165
61 96 162
60 95 162
59 94 158
63 96 161
78 98 133
90 96 86
99 100 64
95 96 65
101 101 68
91 93 65
97 98 70
98 97 66
87 92 69
89 90 63
89 93 67
97 100 70
95 98 69
95 98 70
100 103 74
98 101 73
101 105 76
108 110 78
105 108 78
122 122 87
112 114 80
110 113 80
116 117 81
119 120 82
120 119 80
122 121 83
124 125 85
120 121 84
124 125 85
119 121 85
132 131 88
129 129 88
128 128 85
132 131 88
130 131 88
138 138 94
135 134 90
137 137 88
145 143 93
156 153 98
145 143 91
148 145 93
149 146 93
151 149 98
147 145 93
154 151 95
155 152 96
155 152 94
154 151 96
157 154 100
158 155 100
153 150 95
157 154 98
164 159 103
161 158 99
157 155 96
165 162 101
163 158 99
168 164 103
164 161 100
163 160 98
168 164 103
166 162 100
169 165 102
171 166 106
168 164 103
169 163 96
168 164 100
172 166 101
172 167 103
171 166 100
174 169 102
172 166 101
174 168 105
173 167 99
170 165 102
171 166 100
173 167 100
172 166 99
171 166 97
170 165 95
173 168 99
171 166 99
174 168 103
172 166 97
171 165 102
174 168 104
173 167 98
174 168 97
171 166 97
174 167 100
167 162 95
174 167 102
174 167 101
174 167 99
171 165 97
171 164 96
170 163 99
171 165 97
174 168 102
169 164 95
170 163 96
169 163 90
176 169 102
165 160 93
161 156 87
170 164 96
166 161 93
171 164 95
173 166 98
166 161 92
161 155 83
158 152 85
168 162 95
158 153 84
167 160 93
165 159 92
166 159 94
163 156 87
164 157 81
168 161 96
166 159 90
156 151 86
157 149 83
152 147 77
165 158 88
154 148 80
162 155 89
157 151 84
155 150 77
148 143 77
151 145 76
157 149 85
146 140 74
143 138 75
155 149 83
146 141 67
139 135 62
132 127 59
140 134 67
149 148 53
151 152 61
156 160 60
138 145 42
160 168 52
154 167 41
166 183 34
165 180 37
165 185 16
168 188 19
169 189 19
172 196 0
172 196 0
172 195 0
173 196 0
172 196 0
174 197 0
174 198 0
172 196 0
173 197 0
173 197 0
173 195 0
172 195 0
170 193 0
174 197 0
173 196 0
176 199 0
173 197 0
173 196 0
173 197 0
171 195 0
173 197 0
170 194 0
173 197 0
172 195 0
171 194 0
171 195 0
173 196 0
172 195 0
173 196 0
170 194 0
171 195 0
173 196 0
172 196 0
169 194 0
172 196 0
174 197 0
171 194 0
169 193 0
169 192 0
173 196 0
171 196 0
174 197 0
171 195 0
174 197 0
172 195 0
172 195 0
172 195 0
174 197 0
170 194 0
173 196 0
174 196 0
171 194 0
172 195 0
172 195 0
171 194 0
174 197 0
172 195 0
173 196 0
171 195 0
173 196 0
171 194 0
173 197 0
172 196 0
172 195 0
175 197 0
173 196 0
171 195 0
172 196 0
171 194 0
172 196 0
172 195 0
171 194 0
172 195 0
174 198 0
170 193 0
171 194 0
173 196 0
173 196 0
172 194 0
170 194 0
170 193 0
172 196 0
171 194 0
172 194 0
169 193 0
172 195 0
172 194 0
173 197 0
170 193 0
171 195 0
171 195 0
173 196 0
170 193 0
171 193 0
170 194 0
171 195 0
170 193 0
162 185 65
90 120 152
62 98 168
61 98 168
61 98 164
62 98 168
62 98 168
62 99 169
62 98 168
63 99 175
62 99 175
62 98 169
63 99 174
63 99 175
62 99 175
62 98 169
63 99 175
62 99 170
62 99 175
62 99 175
62 99 179
62 99 173
62 99 177
62 99 178
62 99 175
63 99 178
63 99 174
63 100 179
62 99 178
63 100 179
62 99 177
62 99 177
62 99 177
62 99 180
62 99 180
62 99 176
62 99 179
62 99 181
62 99 177
62 99 178
62 99 180
62 99 180
62 99 178
63 100 179
62 99 180
62 99 176
62 99 178
62 99 179
62 99 176
62 99 181
62 99 178
62 99 177
62 99 179
62 99 181
62 99 181
62 99 181
62 99 178
62 99 178
62 99 180
62 99 180
62 99 180
62 99 179
62 99 181
62 99 181
62 99 177
62 99 181
62 99 178
62 99 180
62 99 179
61 99 181
62 99 179
62 99 178
63 99 177
63 100 180
62 99 180
63 100 180
62 99 178
62 99 178
62 99 181
62 99 177
62 99 179
62 99 180
62 99 178
62 99 180
62 99 181
62 99 179
62 99 181
62 98 175
63 99 178
62 99 180
62 99 180
62 99 179
62 99 180
63 99 179
62 99 179
62 99 178
62 99 178
62 99 177
62 99 178
61 98 174
62 99 176
62 99 180
62 99 177
62 99 177
61 98 175
62 99 179
62 99 177
62 99 178
62 99 179
62 99 175
61 98 178
62 99 178
61 99 177
61 99 177
62 99 176
62 99 178
62 98 175
61 98 176
63 100 180
63 99 180
62 99 175
61 98 178
62 99 180
63 100 177
62 99 177
62 99 171
62 99 175
62 99 177
62 98 172
61 98 174
62 99 175
62 99 175
62 99 176
61 98 173
62 99 174
62 98 170
62 99 176
62 98 173
62 99 174
62 98 174
61 97 164
62 98 174
61 96 162
61 97 171
61 97 170
61 96 167
61 96 164
62 97 169
61 96 160
61 96 165
60 95 162
59 94 158
57 90 149
83 91 92
88 92 75
77 80 56
93 93 60
90 91 65
101 102 71
88 90 62
91 92 66
83 88 63
94 97 70
89 93 69
92 97 69
88 93 71
101 103 73
93 96 70
109 111 79
83 88 67
109 111 75
113 114 80
106 108 77
114 117 82
104 107 74
110 112 79
116 117 79
118 118 81
115 116 79
116 117 82
123 124 84
120 122 84
129 130 86
136 136 90
120 121 80
133 132 86
134 134 89
145 144 93
137 136 88
151 149 98
136 136 89
140 140 90
147 145 94
144 143 93
146 144 92
148 146 93
150 148 93
153 150 96
154 151 96
158 154 98
157 153 94
160 156 95
160 156 95
159 157 99
157 153 92
156 153 93
162 159 98
159 155 96
164 160 101
167 163 101
171 166 105
165 160 99
169 163 101
171 165 101
170 165 96
168 162 101
170 165 101
169 165 100
170 165 99
174 168 103
166 162 98
172 166 101
170 165 99
172 166 98
174 169 98
171 166 102
176 169 102
173 166 103
171 166 99
171 166 101
175 169 102
171 165 99
173 168 102
174 168 97
175 169 102
177 170 106
176 170 103
173 167 98
173 167 98
170 164 96
173 168 103
173 168 101
170 165 101
171 165 95
170 165 94
173 167 98
169 164 99
173 166 97
168 163 99
169 164 93
171 165 97
176 168 99
170 164 93
168 162 93
166 161 97
171 165 97
168 162 93
173 167 101
167 161 95
167 161 94
164 158 92
163 158 92
171 165 93
166 160 93
157 152 86
161 155 89
166 160 89
166 160 90
168 161 92
169 163 90
171 164 93
167 160 90
161 155 86
160 154 78
170 162 95
152 147 80
162 156 84
158 153 82
157 150 82
158 151 86
151 145 79
156 150 79
149 144 78
149 143 75
144 138 75
142 136 70
158 152 82
153 146 74
153 146 77
140 136 68
143 137 71
137 133 60
142 141 59
143 143 59
156 160 62
149 154 57
159 168 37
156 167 44
165 177 51
162 181 22
163 182 22
168 186 22
169 189 16
171 194 0
172 196 0
171 194 0
173 197 0
174 197 0
169 192 0
172 196 0
173 197 0
174 198 0
168 192 0
174 197 0
174 196 0
172 195 0
173 196 0
172 196 0
170 194 0
173 196 0
175 198 0
174 198 0
172 196 0
173 197 0
172 196 0
171 194 0
174 197 0
174 196 0
172 195 0
171 195 0
173 196 0
174 197 0
172 196 0
171 195 0
174 197 0
173 197 0
174 196 0
174 197 0
173 196 0
170 193 0
171 194 0
171 195 0
173 196 0
172 196 0
172 195 0
172 196 0
173 196 0
171 196 0
171 193 0
175 198 0
172 195 0
171 195 0
172 196 0
174 197 0
174 196 0
172 195 0
170 193 0
174 198 0
173 196 0
172 196 0
172 195 0
172 196 0
174 197 0
173 196 0
168 191 0
171 195 0
171 194 0
169 193 0
173 196 0
173 196 0
173 197 0
170 194 0
171 194 0
175 197 0
174 196 0
173 197 0
169 191 0
173 196 0
174 197 0
172 195 0
173 195 0
173 196 0
173 197 0
167 191 0
171 195 0
173 196 0
171 194 0
169 192 0
168 192 0
169 193 0
173 196 0
172 195 0
174 197 0
172 194 0
172 196 0
169 192 0
171 194 0
170 193 0
167 190 0
169 193 25
120 146 133
63 99 173
62 98 169
63 99 170
62 99 171
62 99 168
61 98 168
62 99 169
62 99 175
62 98 172
62 99 174
62 99 170
62 99 172
61 98 170
63 99 173
63 99 178
62 99 175
62 99 171
62 99 177
62 99 175
62 99 176
63 100 175
62 99 178
62 99 174
62 99 175
63 100 178
63 100 178
61 99 177
61 98 175
61 98 178
63 99 179
62 99 179
63 99 177
62 99 179
62 99 178
62 99 179
62 99 177
62 99 178
62 99 180
63 100 180
62 99 178
62 99 178
62 99 178
62 99 179
62 99 180
61 98 178
62 99 178
62 99 181
62 99 180
62 99 180
62 99 179
63 100 180
62 99 179
62 99 178
62 99 179
62 99 178
62 99 175
63 100 179
62 99 177
62 99 181
62 99 179
62 99 180
62 99 179
62 99 179
62 99 179
61 98 178
61 98 176
62 99 179
62 99 179
61 98 180
62 99 180
61 99 180
62 99 179
61 98 177
62 99 180
61 99 177
62 99 180
62 99 178
62 99 174
62 99 178
62 99 179
62 99 177
62 99 180
62 99 180
62 99 179
62 99 180
62 99 178
62 99 177
62 99 178
63 100 179
61 99 181
62 99 179
63 100 179
62 99 179
62 99 180
62 99 177
62 99 177
61 98 176
62 99 177
62 99 180
62 99 178
61 99 177
62 99 176
62 99 178
62 99 176
62 99 178
62 99 178
63 100 180
62 99 175
63 100 178
62 99 173
62 99 174
62 99 176
62 99 176
62 99 175
62 99 179
62 99 175
62 99 173
62 99 180
61 99 178
61 98 175
62 99 176
61 98 173
62 99 177
62 99 176
61 98 176
62 99 176
61 98 177
62 98 173
63 99 174
62 99 174
62 98 176
61 98 175
62 98 174
62 98 170
62 98 172
62 98 172
61 98 172
62 98 174
62 97 169
61 97 167
62 98 172
62 98 172
61 97 170
61 97 167
62 97 165
62 98 170
61 96 164
61 96 168
60 94 159
60 95 164
60 94 163
60 94 160
69 93 138
83 93 99
100 100 61
85 86 58
88 90 63
82 86 61
92 93 66
102 102 70
90 94 66
93 94 64
89 90 61
98 100 70
89 93 66
105 106 74
85 91 69
94 97 70
99 102 76
106 108 75
116 116 81
116 116 79
115 117 83
117 119 83
110 112 78
109 110 78
118 119 81
123 123 84
121 121 83
118 118 81
139 138 90
128 128 85
122 124 79
125 125 79
133 132 88
123 123 82
132 133 91
135 134 88
140 138 89
142 141 91
144 143 93
147 145 90
149 147 95
142 140 91
144 142 94
150 147 96
145 144 94
145 144 88
161 157 100
158 155 97
159 156 97
158 155 97
158 155 96
162 158 100
168 163 101
163 159 100
161 157 96
168 164 105
157 154 94
167 163 101
166 160 99
161 157 94
168 163 105
170 164 100
168 163 97
167 163 102
172 167 102
170 165 104
168 163 97
167 163 101
168 164 99
172 167 103
175 169 106
170 165 101
174 168 103
173 168 97
172 166 98
176 170 103
173 167 98
177 170 103
176 170 103
169 163 96
170 165 98
170 164 98
174 168 100
173 167 99
175 168 101
175 169 98
173 167 93
174 168 99
168 162 93
171 165 95
172 166 97
174 168 101
173 166 97
171 166 95
173 168 101
174 168 98
165 160 90
171 165 101
171 165 97
164 159 89
173 167 99
170 163 95
169 163 96
171 164 95
165 159 91
163 157 89
169 163 95
168 161 93
166 158 90
169 163 95
170 163 94
165 158 84
162 155 88
169 162 90
162 156 88
163 156 87
165 158 87
157 150 84
165 159 91
159 154 83
169 162 93
163 156 90
157 152 80
162 155 87
159 152 84
161 154 81
147 141 74
149 143 74
151 146 76
147 141 77
157 150 87
145 140 71
143 138 68
151 145 69
156 149 81
141 136 66
138 133 65
139 133 65
144 138 66
137 139 52
154 159 54
143 149 48
158 164 60
146 153 51
150 161 34
156 170 30
163 180 34
165 182 32
164 184 19
170 192 11
171 196 0
171 193 0
172 196 0
174 197 0
173 197 0
172 196 0
171 194 0
173 196 0
172 196 0
172 195 0
173 196 0
171 195 0
173 196 0
171 194 0
173 197 0
172 196 0
171 195 0
172 195 0
173 197 0
173 196 0
173 197 0
171 195 0
170 194 0
171 194 0
171 195 0
173 196 0
173 196 0
173 195 0
173 197 0
172 196 0
173 196 0
170 195 0
173 197 0
171 195 0
171 194 0
171 195 0
173 197 0
172 196 0
174 196 0
172 196 0
171 195 0
173 196 0
166 190 0
166 189 0
172 196 0
172 196 0
173 196 0
172 196 0
173 196 0
173 196 0
169 193 0
172 195 0
173 196 0
171 195 0
170 194 0
171 194 0
170 193 0
170 193 0
171 195 0
171 194 0
172 196 0
172 196 0
172 196 0
171 194 0
170 194 0
172 195 0
166 190 0
170 194 0
173 197 0
171 194 0
170 193 0
172 195 0
171 195 0
172 195 0
173 196 0
172 195 0
169 192 0
169 193 0
172 195 0
172 195 0
169 192 0
169 193 0
173 197 0
170 193 0
172 195 0
174 197 0
174 196 0
172 195 0
171 195 0
172 195 0
168 191 0
171 194 0
171 195 0
169 193 0
171 194 0
172 194 0
155 178 72
71 105 163
63 99 167
63 99 172
62 98 166
62 98 168
63 99 171
62 99 173
62 99 172
62 99 173
62 99 178
62 99 173
62 98 168
62 99 175
62 99 176
62 99 172
62 99 174
62 99 175
62 99 173
62 99 177
62 99 174
62 98 172
62 99 176
62 99 177
62 99 177
62 99 177
62 99 177
62 99 179
62 99 174
62 99 179
62 99 178
63 99 180
62 99 179
61 99 178
62 99 176
63 100 179
63 99 180
62 99 179
62 99 179
62 99 179
62 99 179
62 99 178
62 99 179
62 99 179
62 99 179
62 99 177
62 99 180
62 99 179
62 99 178
62 99 175
62 99 177
62 99 179
62 99 181
62 99 179
62 99 181
63 99 179
62 99 180
62 99 176
62 99 178
62 99 180
62 99 181
61 99 179
62 99 179
62 99 177
63 100 181
61 98 174
62 99 177
62 99 180
62 99 177
62 99 179
62 99 180
62 99 177
62 99 180
62 99 180
62 99 177
61 99 179
61 98 178
62 99 180
62 99 180
62 99 179
62 99 178
61 99 179
62 99 176
62 99 179
61 99 177
61 98 176
62 99 179
62 99 178
62 99 179
62 99 176
61 98 178
62 99 179
62 99 180
62 99 181
61 98 177
61 99 177
61 99 179
62 99 180
62 99 178
62 99 178
62 99 179
62 99 180
62 99 178
62 99 175
62 99 178
62 99 176
62 99 178
61 98 171
62 99 177
63 100 177
62 99 173
62 99 181
62 99 175
62 99 175
62 99 176
62 99 174
63 100 178
62 99 177
62 99 177
63 100 179
62 99 178
61 98 171
61 98 175
62 99 176
62 99 175
62 98 176
62 98 172
63 99 176
62 99 178
63 100 178
62 99 173
62 98 169
62 99 180
62 98 167
62 98 175
62 99 174
62 99 175
62 99 174
61 97 171
62 99 174
62 98 172
61 98 166
62 97 167
62 98 171
61 97 166
62 98 170
60 96 165
61 97 169
61 98 167
61 96 166
63 99 171
61 97 169
61 96 160
61 97 166
61 94 158
74 90 115
82 90 87
78 81 57
85 88 59
98 99 68
96 98 68
88 91 62
70 75 58
85 88 61
92 93 66
96 99 69
92 95 68
94 97 72
96 100 73
89 93 66
99 102 74
99 102 72
98 103 75
108 109 77
108 111 77
110 112 79
111 113 79
117 118 78
121 122 83
119 119 79
117 120 84
128 128 89
123 123 84
120 120 81
126 127 84
135 134 86
126 127 84
123 124 84
136 134 87
136 136 89
133 133 88
138 137 88
141 140 94
147 145 93
144 142 89
140 139 93
139 137 84
147 144 94
147 145 95
152 149 89
146 145 93
159 156 96
155 152 96
157 154 96
159 155 97
158 155 97
164 160 97
161 157 94
162 158 99
162 159 99
164 160 98
157 154 98
167 161 99
160 157 96
165 161 100
170 163 99
170 165 97
169 164 102
168 163 100
167 162 98
173 167 98
171 166 99
172 166 102
171 166 101
171 166 100
173 167 101
170 166 101
169 164 95
171 166 98
170 165 102
168 163 96
170 164 98
174 169 99
170 165 96
171 166 97
170 165 98
176 169 103
175 169 103
171 166 97
172 167 97
176 169 101
177 170 102
173 168 98
175 168 98
174 167 95
168 163 93
172 166 98
171 164 95
168 162 93
171 165 99
171 165 96
173 167 98
167 161 91
170 164 95
168 161 92
169 162 91
171 165 96
168 162 87
167 160 90
170 163 96
163 157 93
163 157 93
169 163 93
168 161 90
168 162 93
166 160 90
166 159 90
163 158 87
164 158 88
162 156 89
162 156 89
160 155 87
156 150 81
158 151 81
159 153 83
159 153 80
157 151 81
156 150 79
154 147 77
160 154 85
154 148 80
152 146 80
159 152 80
158 152 74
151 145 73
153 147 75
147 142 71
154 148 78
152 145 78
146 139 69
143 137 71
136 131 63
142 137 61
146 147 56
136 137 49
148 154 51
150 156 48
150 158 42
145 158 37
155 169 28
159 176 28
162 179 30
163 181 19
171 194 0
171 195 0
174 198 0
174 197 0
174 197 0
172 196 0
172 195 0
173 196 0
172 196 0
171 194 0
171 195 0
173 196 0
170 194 0
173 196 0
174 197 0
173 196 0
172 195 0
172 195 0
172 194 0
173 197 0
173 196 0
173 197 0
174 197 0
171 195 0
171 195 0
171 195 0
172 196 0
172 196 0
169 193 0
172 195 0
172 194 0
171 194 0
171 195 0
172 196 0
170 193 0
174 198 0
172 195 0
169 193 0
173 196 0
173 196 0
173 196 0
172 195 0
173 196 0
174 197 0
171 194 0
171 194 0
171 194 0
172 195 0
174 198 0
175 198 0
172 195 0
173 196 0
173 196 0
171 195 0
173 196 0
169 193 0
172 196 0
172 195 0
173 196 0
169 193 0
171 195 0
174 196 0
170 194 0
173 197 0
169 192 0
171 194 0
173 196 0
173 197 0
171 194 0
171 195 0
169 193 0
171 195 0
171 195 0
172 196 0
173 196 0
173 195 0
172 195 0
172 194 0
171 193 0
173 196 0
171 195 0
171 194 0
172 196 0
172 195 0
172 196 0
171 194 0
170 194 0
171 195 0
172 195 0
169 193 0
171 193 0
168 192 0
170 194 0
173 195 0
167 191 0
169 193 0
161 184 40
109 135 140
62 98 167
63 99 172
62 99 168
62 98 171
62 99 174
62 99 174
62 98 169
62 98 172
62 98 171
62 98 170
62 99 177
62 99 172
61 98 168
63 99 176
62 99 170
63 99 177
62 99 175
62 99 176
62 99 173
61 98 176
63 99 176
61 99 178
63 99 176
62 99 179
62 99 175
62 99 178
63 100 179
63 99 179
62 99 177
62 99 177
63 100 179
62 99 173
63 99 178
62 99 179
62 99 180
61 98 177
62 99 181
63 99 176
62 98 174
62 99 177
62 99 180
62 99 180
62 99 179
62 99 181
62 99 178
61 98 171
62 99 180
63 100 180
62 99 178
62 99 177
62 99 177
62 99 179
62 99 178
61 99 179
62 99 179
62 99 180
62 99 177
63 100 181
62 99 178
62 99 178
63 100 178
62 99 180
62 99 179
63 99 180
63 100 180
62 99 178
62 99 177
62 99 179
62 99 179
62 99 180
62 99 179
62 99 179
62 99 179
61 98 176
62 99 177
61 99 179
61 98 177
62 99 178
62 99 177
61 98 174
62 99 177
62 99 178
63 99 180
61 99 178
62 98 174
61 99 178
62 99 178
62 99 178
62 99 177
62 99 177
63 100 181
62 99 181
62 99 177
62 99 178
62 99 179
62 99 179
62 99 176
62 99 173
63 100 181
62 99 178
62 99 178
62 99 176
63 99 177
63 99 177
62 99 177
62 99 178
62 99 177
63 100 178
62 99 175
62 99 178
62 99 176
62 99 173
62 99 177
62 99 179
62 99 175
63 99 180
62 99 172
62 99 176
62 99 176
62 99 177
61 98 170
62 99 175
62 99 176
62 98 170
62 99 173
62 99 174
62 99 175
62 99 172
62 98 174
62 99 177
63 99 177
62 99 172
61 98 171
62 99 174
61 97 168
62 99 173
62 99 173
62 99 174
62 99 175
61 98 166
61 97 166
61 97 170
62 99 173
61 96 168
61 96 164
61 97 167
62 98 165
61 97 173
61 96 162
61 97 165
60 95 159
61 96 167
61 96 162
61 96 161
64 92 144
82 90 97
70 75 58
83 84 57
85 87 59
85 88 62
91 92 63
92 94 64
93 96 67
101 103 70
85 89 65
79 82 60
91 95 67
94 98 69
84 89 65
106 109 77
103 105 75
108 110 77
97 101 68
111 113 79
106 108 75
110 111 79
104 107 74
115 116 80
117 118 78
108 110 74
127 128 88
125 125 84
127 128 86
125 126 82
120 122 84
137 136 92
128 128 87
142 140 92
136 136 86
130 130 86
141 139 91
137 135 88
139 139 91
152 149 91
136 135 87
140 139 87
146 144 90
156 153 98
154 150 91
149 147 93
151 148 92
159 156 100
156 154 98
154 152 94
158 155 98
156 154 96
162 159 97
163 159 95
167 162 102
169 164 104
162 157 95
159 155 94
157 154 92
164 161 98
167 162 99
171 165 101
167 163 99
171 165 105
169 164 96
170 166 101
167 162 101
166 162 95
172 166 100
173 168 99
171 166 99
169 164 100
171 165 93
174 168 101
171 165 104
170 164 97
174 169 102
170 164 91
172 167 103
176 169 99
168 162 95
172 166 99
169 164 97
169 164 95
173 168 97
173 167 99
170 164 99
173 167 98
173 168 97
173 167 99
174 168 100
173 167 101
173 167 98
171 165 91
176 169 101
175 167 95
171 165 99
169 164 98
172 165 95
175 168 97
175 168 102
174 167 97
169 163 96
166 161 93
164 159 87
172 166 96
170 163 96
169 163 96
168 162 91
171 164 93
161 156 85
162 156 87
168 161 91
162 156 85
159 153 82
160 153 80
164 158 89
162 155 84
163 155 89
171 163 93
158 151 85
162 156 84
156 150 84
164 157 85
159 152 87
155 150 79
159 154 80
148 143 71
151 144 78
151 145 74
150 144 73
146 139 66
149 143 69
144 138 72
148 142 72
144 139 68
141 137 65
140 136 59
150 148 63
152 155 60
153 159 49
152 159 49
158 169 45
156 170 32
157 167 49
161 178 30
169 187 28
170 192 0
170 193 16
172 195 0
174 197 0
173 196 0
170 195 0
171 195 0
173 196 0
174 197 0
171 195 0
172 196 0
173 196 0
174 197 0
173 197 0
173 196 0
174 197 0
174 197 0
175 198 0
171 194 0
172 195 0
173 196 0
174 197 0
173 196 0
173 196 0
172 196 0
173 197 0
172 196 0
172 196 0
173 197 0
174 197 0
174 197 0
172 195 0
173 197 0
169 192 0
170 193 0
169 193 0
174 198 0
170 193 0
173 196 0
170 194 0
168 192 0
171 195 0
172 195 0
174 196 0
172 195 0
171 194 0
173 196 0
173 196 0
174 197 0
172 196 0
170 193 0
172 196 0
173 196 0
173 196 0
173 196 0
172 196 0
171 194 0
175 198 0
171 195 0
170 193 0
173 196 0
173 197 0
173 196 0
169 191 0
166 190 0
173 196 0
172 196 0
171 194 0
175 198 0
173 196 0
170 194 0
172 195 0
170 194 0
172 196 0
172 195 0
170 194 0
175 197 0
170 195 0
172 196 0
175 197 0
171 194 0
171 194 0
172 195 0
171 194 0
171 194 0
170 193 0
171 193 0
173 196 0
169 193 0
172 195 0
169 193 0
172 196 0
166 190 0
169 192 0
172 196 0
174 197 0
173 195 0
133 158 105
64 99 162
64 100 174
62 98 162
63 99 168
62 98 169
62 99 171
61 98 172
63 99 176
61 98 173
62 99 172
62 98 174
63 99 175
63 99 177
62 98 173
63 99 176
63 99 178
62 99 174
62 99 175
61 98 170
62 98 174
62 99 175
62 99 175
63 100 177
62 98 174
62 99 176
62 99 180
62 99 173
63 99 177
63 100 178
62 99 178
63 100 176
62 99 176
62 99 177
62 99 176
62 99 178
62 99 179
62 99 179
62 99 177
61 98 178
62 99 178
62 99 179
62 98 175
62 99 180
62 99 174
62 99 179
62 99 180
62 99 180
63 100 179
62 99 179
62 99 180
62 99 173
62 99 178
62 99 179
62 99 177
62 99 178
62 99 179
62 99 181
62 99 180
62 99 179
63 100 180
62 99 179
63 100 181
61 98 176
62 99 180
63 100 180
62 99 179
62 99 177
62 99 178
62 99 179
62 99 178
62 99 178
62 99 178
62 99 177
61 98 177
62 99 179
62 99 178
62 99 176
61 99 178
62 99 178
62 99 178
62 99 179
62 99 178
62 99 178
62 99 177
62 99 179
62 99 178
63 100 179
62 99 178
62 99 176
62 99 181
62 99 179
62 99 179
62 99 176
62 99 178
62 99 177
62 99 174
62 99 177
62 99 177
62 99 177
62 99 177
62 99 180
62 99 175
61 99 180
62 99 179
62 99 178
62 99 178
62 99 178
62 99 178
62 99 175
61 98 174
62 99 173
62 99 176
63 99 177
62 99 176
62 99 176
62 99 174
62 99 178
62 99 177
62 99 176
62 99 176
61 98 170
62 99 174
62 99 174
61 98 174
61 98 174
62 98 170
62 99 171
62 98 171
61 98 173
62 99 172
62 99 171
63 99 177
62 99 174
62 98 173
63 99 175
63 99 174
62 98 171
62 98 172
62 98 169
62 98 173
62 98 171
62 98 170
61 98 171
62 98 171
61 97 166
61 97 167
61 97 166
62 97 167
61 97 172
61 97 165
61 96 167
61 95 157
59 94 155
61 97 169
60 94 163
59 92 157
70 92 133
76 84 83
93 93 63
86 87 59
87 89 63
73 77 56
85 87 60
89 92 66
87 88 60
99 101 70
88 92 67
76 81 59
87 91 67
93 97 70
81 86 62
105 108 77
91 95 69
98 102 71
110 112 79
107 109 75
112 114 78
110 113 79
115 117 81
116 117 81
120 121 82
134 132 88
124 125 84
126 127 84
133 132 83
126 127 86
123 123 80
131 131 83
132 131 85
134 134 87
135 134 89
128 128 83
137 137 92
142 142 92
149 147 94
138 137 87
153 150 93
148 146 94
153 149 88
150 148 91
144 143 88
155 150 95
155 152 97
158 154 96
147 144 88
160 156 98
162 159 101
162 158 97
161 157 97
165 160 100
161 157 93
167 162 95
166 162 99
164 160 95
161 157 98
166 161 95
166 161 99
168 163 97
170 164 99
168 163 95
168 163 99
165 160 96
171 165 100
171 166 104
171 166 101
170 165 100
173 167 102
173 168 97
171 166 101
170 166 97
171 165 99
169 163 95
175 169 100
171 165 93
176 169 99
169 164 98
176 170 101
174 168 97
172 166 96
173 168 96
170 164 95
176 169 100
173 166 101
173 167 99
171 165 92
174 168 98
171 166 97
170 163 98
174 166 95
170 163 99
168 162 95
169 164 93
169 164 96
167 161 90
170 164 93
166 159 96
167 161 93
169 162 97
164 158 87
166 160 89
165 159 88
168 162 87
169 162 93
170 163 96
162 157 90
164 158 84
161 154 82
159 154 87
163 157 86
165 157 86
166 160 85
160 153 87
164 157 92
163 158 88
160 154 80
161 155 84
162 155 81
152 146 79
157 150 80
155 149 75
156 150 78
160 154 83
150 144 69
152 146 76
151 145 70
156 150 78
147 141 69
150 144 69
145 139 69
140 135 70
147 141 71
142 136 68
142 142 54
147 147 64
143 148 45
152 157 53
151 160 45
160 171 44
153 167 37
163 178 34
156 175 19
165 182 32
167 186 19
170 190 25
173 196 0
173 196 0
171 194 0
172 196 0
172 196 0
173 195 0
170 195 0
173 196 0
170 193 0
171 194 0
171 195 0
171 195 0
172 196 0
172 195 0
173 197 0
174 198 0
173 197 0
174 198 0
171 195 0
172 195 0
174 197 0
172 195 0
173 197 0
171 195 0
174 196 0
171 195 0
171 196 0
172 196 0
173 196 0
171 195 0
169 192 0
171 194 0
173 195 0
174 196 0
170 193 0
171 195 0
172 196 0
173 196 0
172 195 0
171 194 0
171 195 0
171 195 0
171 195 0
175 198 0
174 197 0
172 195 0
174 198 0
173 196 0
172 196 0
172 194 0
173 195 0
171 195 0
171 194 0
172 194 0
171 194 0
174 196 0
172 196 0
170 193 0
170 193 0
171 194 0
170 194 0
168 191 0
172 195 0
171 195 0
170 193 0
170 193 0
170 194 0
171 194 0
171 195 0
170 194 0
174 198 0
172 195 0
170 194 0
172 195 0
173 195 0
169 193 0
170 194 0
172 196 0
170 194 0
171 195 0
173 196 0
172 194 0
172 195 0
170 193 0
173 196 0
171 193 0
167 191 0
169 192 0
171 195 0
170 193 0
173 196 0
170 193 0
171 195 0
172 194 0
165 189 36
88 118 156
62 99 169
61 98 166
62 98 162
62 98 169
62 99 171
62 99 166
62 99 172
62 99 170
62 99 176
63 99 176
63 99 171
62 98 170
62 98 170
62 99 173
62 98 171
63 99 175
62 99 172
63 99 175
62 98 173
62 99 175
62 99 172
62 99 176
62 99 177
62 99 177
63 100 177
62 99 177
62 99 179
63 99 176
62 99 173
62 99 180
62 99 179
62 99 178
62 99 175
63 100 180
62 99 180
62 99 177
63 100 178
62 99 178
63 100 179
62 99 179
62 99 177
62 99 178
62 99 178
61 99 178
62 99 178
62 99 179
62 99 178
62 99 177
62 99 180
62 99 178
62 99 178
62 99 177
62 99 179
62 99 177
62 99 180
62 99 178
62 99 174
63 99 177
62 99 178
62 99 180
62 99 179
62 99 179
62 99 177
62 99 178
62 99 180
63 100 179
62 99 174
62 99 179
61 99 179
62 99 178
62 99 179
62 99 178
62 99 179
62 99 181
62 99 178
62 99 178
62 99 180
62 99 178
62 99 178
62 99 179
62 99 178
62 99 177
62 99 179
62 99 176
62 99 179
61 99 178
62 99 178
62 99 175
61 98 177
62 99 178
61 99 179
62 99 175
62 99 177
62 99 176
62 99 178
62 99 176
62 99 175
62 99 176
63 100 180
62 99 178
61 98 174
62 99 177
61 99 179
62 99 176
62 99 180
62 99 174
62 99 178
62 99 179
62 99 179
62 99 177
62 99 178
61 98 174
62 99 175
62 99 175
62 99 174
63 100 178
62 99 177
61 98 175
62 99 173
62 99 175
62 99 174
63 100 175
63 100 179
61 98 175
62 99 174
63 99 175
62 99 179
62 98 173
62 99 177
62 99 174
63 99 173
62 99 174
62 99 173
61 98 171
62 98 172
62 99 172
62 99 175
62 99 176
62 99 173
62 99 173
61 98 172
62 98 171
62 97 167
62 98 174
62 98 172
61 97 171
62 97 168
62 99 171
62 98 169
62 98 171
62 98 170
62 97 164
60 95 168
61 96 164
60 94 159
61 96 164
62 93 151
67 82 105
76 79 67
82 86 63
75 79 58
87 89 62
86 88 64
59 65 48
90 92 64
98 100 70
95 97 67
85 89 68
75 81 62
96 98 67
96 99 69
110 111 77
103 104 72
99 101 72
89 93 64
95 98 70
107 110 79
114 117 81
113 115 80
112 114 79
119 121 83
122 122 78
129 128 87
123 122 81
131 130 87
123 123 85
124 123 82
129 129 85
137 136 84
135 134 89
151 147 92
135 134 88
134 134 89
148 146 95
142 141 93
144 143 90
150 147 90
145 144 94
153 150 91
153 149 91
157 153 93
151 149 93
153 149 92
155 152 91
158 155 95
159 155 96
166 160 100
161 156 90
165 161 99
158 155 98
164 160 97
164 159 96
170 165 103
159 156 96
162 158 94
169 164 99
161 157 94
160 155 87
161 157 94
170 165 100
172 167 102
166 162 93
167 162 96
174 168 98
169 163 97
173 168 99
172 165 100
168 163 98
175 169 105
167 162 97
170 165 95
174 168 101
167 162 92
169 163 94
172 166 95
172 166 99
172 166 95
174 167 96
174 168 96
172 166 97
169 164 94
170 165 91
171 164 91
166 161 91
169 163 94
171 165 100
168 163 95
171 165 91
167 160 91
169 163 91
174 167 98
170 164 93
174 167 100
169 162 95
167 162 90
165 160 93
165 158 85
169 163 93
164 157 87
166 159 92
164 157 89
166 160 88
165 159 91
166 160 90
167 161 92
170 163 91
171 164 95
163 156 83
165 159 81
161 155 85
161 153 84
163 157 86
160 154 80
163 156 87
156 149 79
158 152 81
154 147 73
160 153 87
155 149 74
157 151 79
160 153 84
154 148 74
155 148 79
152 145 80
152 146 77
150 144 76
137 132 62
147 141 71
144 139 67
150 143 73
141 136 65
142 136 65
138 137 57
155 158 61
154 156 57
143 148 49
149 158 45
154 164 42
157 170 39
156 170 39
161 178 30
167 187 22
167 186 16
168 189 0
173 196 0
173 196 0
173 197 0
172 196 0
174 197 0
172 195 0
173 197 0
174 198 0
171 195 0
170 194 0
173 196 0
172 195 0
173 197 0
170 194 0
171 194 0
171 194 0
172 196 0
173 197 0
174 197 0
171 195 0
169 192 0
173 197 0
172 196 0
170 194 0
172 195 0
172 196 0
172 195 0
174 197 0
174 197 0
169 194 0
173 197 0
170 193 0
174 197 0
170 194 0
170 193 0
170 193 0
171 194 0
173 196 0
170 193 0
170 193 0
172 196 0
173 196 0
171 194 0
171 195 0
174 197 0
172 195 0
170 194 0
173 196 0
171 194 0
173 196 0
173 196 0
174 196 0
173 197 0
174 197 0
174 197 0
172 195 0
171 194 0
169 191 0
169 193 0
174 198 0
173 197 0
170 194 0
173 196 0
172 195 0
173 195 0
174 197 0
170 192 0
169 193 0
171 195 0
171 194 0
173 195 0
170 194 0
168 191 0
174 197 0
174 197 0
173 196 0
173 197 0
169 193 0
171 194 0
168 191 0
171 194 0
171 194 0
173 196 0
171 195 0
170 193 0
170 194 0
172 196 0
172 195 0
171 193 0
172 195 0
171 195 0
173 197 0
173 195 0
168 191 18
133 158 114
63 99 169
62 98 164
62 98 166
61 98 165
62 98 169
62 99 172
62 99 173
62 99 177
62 98 167
63 100 177
62 98 167
62 99 172
62 98 172
62 99 171
62 99 174
62 99 175
62 98 170
63 100 177
62 99 173
62 99 174
62 98 169
62 99 179
62 99 177
62 99 175
63 99 177
62 99 172
63 99 175
63 100 177
62 99 174
62 99 178
62 99 176
63 99 172
62 99 177
62 99 179
62 99 178
62 99 176
63 100 178
62 99 180
62 99 176
62 99 178
63 100 181
63 100 179
62 99 177
62 99 177
62 99 180
62 99 175
63 100 176
62 99 177
61 99 177
62 99 178
62 99 178
62 99 179
62 99 179
62 99 180
62 99 178
62 99 180
62 99 179
62 99 176
63 100 181
62 99 177
62 99 180
62 99 180
62 99 176
63 100 178
62 99 177
62 99 176
62 99 177
62 99 178
62 99 178
62 99 179
63 100 180
62 99 175
62 99 180
62 99 179
62 99 177
62 99 177
62 99 178
62 99 179
62 99 180
62 99 178
63 99 178
62 99 179
62 99 176
62 100 181
62 99 176
62 99 175
62 99 177
62 99 179
62 99 177
61 99 176
62 99 178
62 98 172
62 99 174
62 99 177
62 99 178
62 99 177
62 99 178
62 99 176
62 99 173
62 99 178
62 99 179
63 100 179
62 99 179
62 99 177
62 99 177
62 99 177
62 98 174
62 99 178
62 99 174
62 99 176
62 99 176
62 99 175
62 99 176
62 99 178
61 98 177
62 99 175
62 99 175
62 99 176
62 99 175
62 99 176
62 99 177
62 99 174
62 99 174
62 98 171
62 99 178
63 99 174
62 99 174
63 100 180
62 98 170
61 98 175
63 99 173
62 99 177
62 99 176
62 99 170
62 98 168
62 98 174
62 98 172
62 98 165
62 99 173
61 97 166
62 98 171
63 99 174
61 97 168
61 97 170
61 97 169
62 98 172
62 98 174
62 99 173
63 98 167
62 97 159
61 97 164
61 97 165
61 96 163
61 96 166
59 94 158
60 94 158
61 97 165
59 93 159
57 84 130
74 84 96
73 77 60
66 70 52
61 66 50
76 81 61
88 90 63
72 77 55
98 100 70
85 89 65
84 87 61
86 89 64
89 92 68
91 95 68
92 97 70
94 99 74
91 95 66
92 96 66
103 106 74
118 119 77
100 103 72
101 104 70
122 124 83
114 115 77
125 125 83
109 111 73
127 127 84
114 116 79
134 133 89
129 129 84
138 137 89
134 134 89
139 137 86
135 134 85
149 147 91
148 147 92
135 134 84
138 137 85
141 139 87
147 144 95
145 143 85
144 141 86
147 144 92
135 134 85
147 145 88
155 151 93
153 150 95
151 148 88
158 154 93
155 151 92
156 153 93
160 156 96
163 158 94
157 153 89
165 160 97
162 158 95
166 161 96
162 159 98
168 163 94
168 162 95
164 159 90
168 163 96
168 163 97
167 162 98
167 162 100
168 163 96
171 165 96
173 166 100
173 167 101
167 162 98
173 167 97
172 166 95
164 159 87
175 168 101
172 167 99
171 166 97
174 168 95
171 166 96
169 164 94
169 163 97
175 169 101
168 163 94
175 169 102
170 164 92
169 164 93
172 165 98
172 165 97
173 168 95
172 166 95
173 166 98
171 166 97
168 161 93
171 165 94
172 166 97
170 164 93
170 165 93
168 162 95
167 160 88
173 167 97
170 164 89
170 163 92
171 164 93
169 162 90
170 163 93
157 152 87
163 157 88
163 158 84
168 161 89
165 158 91
166 160 88
164 159 84
162 155 83
155 149 80
158 152 84
169 162 89
158 151 80
162 156 83
163 156 83
159 153 85
157 149 80
163 157 87
162 155 84
156 151 77
156 149 76
142 137 71
143 137 67
150 144 75
150 143 70
152 146 72
146 140 72
141 136 61
140 135 65
130 125 60
133 127 60
152 145 77
148 147 57
147 148 59
151 154 58
143 151 47
154 162 48
156 166 37
148 163 30
156 171 32
165 182 34
170 188 28
169 190 19
171 194 11
170 195 0
172 196 0
173 197 0
171 195 0
170 194 0
173 196 0
171 195 0
171 195 0
172 196 0
173 197 0
171 194 0
172 195 0
170 193 0
173 197 0
174 198 0
172 195 0
173 197 0
170 194 0
173 196 0
173 196 0
172 196 0
174 197 0
175 198 0
173 196 0
172 195 0
172 195 0
171 194 0
175 198 0
171 195 0
174 197 0
169 193 0
172 195 0
171 194 0
174 197 0
173 197 0
172 194 0
173 196 0
172 194 0
172 196 0
172 196 0
169 193 0
170 193 0
169 193 0
176 198 0
170 194 0
171 195 0
170 194 0
172 195 0
171 194 0
169 192 0
172 197 0
171 195 0
172 195 0
173 195 0
170 193 0
173 195 0
171 194 0
172 195 0
172 196 0
171 194 0
172 195 0
169 192 0
170 193 0
172 195 0
170 193 0
171 195 0
172 195 0
173 196 0
173 196 0
175 197 0
173 196 0
174 197 0
171 194 0
172 196 0
172 195 0
171 194 0
174 197 0
173 196 0
172 195 0
169 193 0
171 194 0
169 192 0
171 195 0
171 194 0
171 194 0
173 195 0
171 194 0
172 195 0
170 193 0
171 194 0
171 194 0
168 191 0
171 195 0
157 180 70
81 112 162
63 99 165
62 98 166
62 99 169
61 98 163
62 98 164
62 98 159
62 98 167
62 98 169
62 99 172
62 98 170
62 99 176
62 98 174
62 99 172
62 99 171
62 99 171
63 100 177
63 99 173
61 98 172
62 99 178
62 99 176
62 99 174
62 99 177
62 99 174
63 100 180
62 99 177
63 99 178
62 99 176
62 99 179
62 99 177
63 100 180
62 99 176
62 99 176
62 99 177
62 99 177
62 99 178
62 99 175
63 100 177
62 99 179
62 99 174
62 99 181
62 99 180
63 99 175
62 99 177
62 99 179
62 99 178
62 99 178
62 99 178
61 98 178
62 99 179
62 99 179
62 99 177
62 99 178
62 99 177
62 99 174
62 99 180
62 99 178
62 99 175
61 98 178
62 99 180
63 100 180
63 100 179
62 99 178
62 99 178
62 99 180
62 99 178
62 99 178
62 99 180
63 99 176
61 99 181
62 99 179
62 99 179
62 99 179
62 99 180
62 99 179
62 98 174
62 99 177
62 99 177
62 99 178
62 99 179
62 99 177
62 99 178
62 99 180
62 99 178
62 99 178
62 99 179
62 99 181
62 99 180
62 99 177
62 99 177
62 99 178
62 99 174
63 99 176
62 99 177
62 99 178
61 98 177
62 99 175
62 99 180
62 99 179
62 99 177
62 99 177
61 98 177
62 99 178
62 99 177
62 99 178
62 99 176
62 99 173
62 99 176
62 98 173
62 99 176
63 99 177
62 99 179
62 99 176
63 99 177
61 98 173
62 99 173
62 99 180
62 99 177
62 99 179
62 100 181
63 99 176
61 98 174
62 98 175
63 99 177
63 100 179
63 99 175
62 99 176
61 98 172
62 98 173
62 99 173
63 99 175
62 98 173
61 98 173
61 97 162
62 99 173
62 99 178
62 98 170
62 98 169
61 98 175
61 97 165
62 98 171
62 99 176
62 98 171
62 99 171
62 98 170
61 97 169
62 99 172
61 97 171
62 98 172
62 98 167
61 97 167
61 97 165
61 97 168
61 97 167
61 96 165
59 93 151
60 94 159
61 97 164
60 94 158
64 95 151
63 85 125
68 74 58
69 73 52
58 64 46
70 75 56
78 81 57
72 76 56
75 78 56
80 85 63
84 87 61
86 90 63
93 95 67
84 87 60
99 103 72
72 79 60
95 99 70
102 104 68
111 113 78
94 98 68
112 113 74
97 100 69
116 117 79
129 128 81
111 113 75
106 108 72
129 128 80
111 113 77
128 128 85
124 125 84
127 127 81
122 122 78
121 120 77
131 130 84
135 134 82
137 136 88
140 138 86
143 140 88
147 145 90
152 148 91
151 148 94
154 151 93
150 147 91
151 149 95
150 148 92
157 153 94
144 143 84
160 156 98
153 150 88
162 158 91
157 153 93
157 153 92
148 145 88
160 155 90
159 156 96
164 158 94
163 159 90
167 162 96
169 164 99
163 158 88
172 166 99
169 164 98
166 162 96
168 163 95
169 164 96
163 158 88
168 163 98
169 163 96
172 167 98
169 164 97
172 166 97
172 166 97
172 165 94
172 165 93
173 167 100
176 169 100
170 164 92
172 166 95
176 169 98
175 169 97
171 165 90
173 166 101
175 169 100
172 166 96
173 167 95
170 164 93
171 164 93
174 167 95
172 165 95
171 164 94
168 163 95
172 166 93
170 165 95
175 169 95
169 163 90
166 160 88
165 159 87
169 163 93
170 163 93
166 160 90
169 163 90
165 159 85
167 161 87
162 156 86
166 160 91
171 164 93
166 159 87
166 160 93
168 161 89
153 147 78
160 154 87
161 156 78
161 154 87
161 155 86
161 154 81
161 154 82
162 156 82
159 152 76
162 156 83
152 146 76
156 148 82
155 148 78
157 150 80
154 148 76
158 151 82
151 146 73
153 147 79
155 148 80
145 139 68
140 135 66
140 133 64
150 145 75
141 136 63
145 138 68
140 135 60
150 146 71
133 134 48
143 146 54
151 157 53
152 158 54
156 167 39
161 174 44
158 173 28
158 176 28
167 185 25
169 191 16
171 192 11
172 195 0
171 195 0
169 193 0
172 196 0
174 197 0
172 196 0
173 197 0
173 197 0
174 197 0
174 197 0
171 195 0
173 196 0
171 195 0
169 192 0
171 195 0
173 196 0
175 198 0
172 195 0
173 197 0
174 197 0
171 195 0
174 196 0
171 195 0
172 196 0
173 197 0
172 196 0
174 198 0
173 196 0
171 194 0
171 194 0
172 195 0
172 196 0
173 197 0
172 196 0
169 192 0
171 196 0
173 197 0
171 194 0
174 197 0
172 196 0
168 191 0
171 194 0
169 193 0
173 196 0
172 194 0
169 193 0
173 196 0
171 194 0
170 194 0
171 195 0
172 195 0
172 195 0
170 193 0
172 196 0
173 196 0
170 193 0
169 193 0
172 196 0
170 194 0
172 195 0
173 196 0
169 192 0
170 194 0
172 194 0
173 196 0
172 195 0
170 193 0
173 196 0
169 193 0
174 197 0
172 195 0
172 195 0
175 198 0
172 195 0
170 193 0
170 193 0
171 194 0
172 196 0
171 195 0
171 194 0
172 194 0
173 197 0
172 196 0
169 193 0
169 193 0
170 193 0
171 194 0
171 194 0
171 195 0
172 195 0
167 190 0
173 195 0
172 195 18
130 155 114
62 98 165
61 97 165
62 98 166
62 98 167
62 99 173
62 99 175
62 98 170
62 98 171
62 98 172
62 98 168
62 98 172
63 99 171
62 99 171
62 98 167
62 99 171
62 99 174
62 99 177
62 98 170
62 99 173
63 99 175
62 99 171
62 99 178
62 99 171
62 99 174
62 99 173
62 99 173
62 99 178
63 100 180
62 99 175
62 99 174
62 99 177
62 99 177
62 99 173
63 100 176
63 100 180
63 100 180
62 99 180
62 99 179
62 99 179
63 100 181
62 99 178
62 99 176
62 99 176
61 98 171
62 99 180
62 99 178
62 99 175
62 99 175
62 99 175
62 99 178
63 99 178
62 99 177
62 99 181
61 98 175
62 99 178
62 99 178
63 100 179
62 99 181
63 99 179
63 100 180
62 99 178
62 99 180
62 99 179
62 99 178
62 99 179
62 99 173
62 99 178
62 99 178
62 99 175
62 99 179
62 99 180
62 99 174
62 99 180
62 99 179
62 99 180
61 98 177
62 99 176
62 99 174
62 99 181
62 99 178
62 99 176
62 99 176
63 99 178
61 98 174
63 99 180
62 99 177
62 99 176
62 99 177
62 99 175
62 99 178
62 99 175
61 99 177
61 98 170
62 99 175
63 100 181
62 99 177
62 99 178
62 99 177
63 100 178
62 99 177
62 99 178
62 99 175
62 99 179
62 99 175
62 99 178
62 99 178
62 99 173
62 99 177
62 99 178
62 99 173
62 99 173
63 100 178
62 99 176
62 99 176
62 99 175
63 100 178
61 98 176
62 99 175
62 99 172
63 99 178
62 99 175
62 99 174
62 99 173
61 98 173
61 98 171
62 99 178
63 100 178
62 99 176
62 99 176
62 99 169
61 98 171
62 99 175
62 99 173
62 99 176
62 99 171
63 99 174
62 98 174
62 98 170
62 98 174
62 99 174
62 99 171
61 98 175
62 99 172
61 98 172
63 100 174
62 98 171
62 98 167
61 97 167
61 97 169
62 98 169
62 98 168
61 96 163
61 97 167
60 95 167
61 96 161
61 96 162
62 97 163
61 96 163
59 93 154
60 95 159
65 89 132
73 81 85
64 66 44
66 71 51
69 73 53
78 81 58
65 71 53
73 78 58
65 71 53
71 76 57
81 86 62
94 98 71
88 92 66
85 90 65
92 95 68
96 99 67
87 91 61
101 104 70
101 104 71
103 104 69
105 107 72
120 121 80
122 122 81
108 110 72
99 103 72
122 123 83
127 127 78
132 131 83
116 117 77
127 126 78
134 134 84
125 125 78
130 129 83
132 131 84
143 139 89
133 131 83
139 137 88
142 141 86
148 146 91
140 138 85
152 149 89
153 150 91
148 145 89
154 150 89
150 148 90
160 156 92
155 151 92
159 155 97
150 146 85
158 155 93
161 156 95
162 159 94
161 156 87
159 155 87
162 158 94
162 158 89
163 159 93
167 163 98
168 162 93
164 160 90
165 160 88
169 162 96
170 165 95
170 164 98
169 164 95
174 168 99
171 165 99
171 165 99
170 165 98
174 168 103
169 163 86
171 166 100
173 167 101
173 167 100
175 168 98
170 165 90
169 163 96
171 165 94
173 167 93
174 168 91
174 167 92
172 166 96
173 167 97
174 167 97
175 169 97
173 166 95
168 162 92
173 167 98
170 163 92
173 168 95
173 166 95
170 163 91
168 162 90
170 163 93
163 158 87
174 167 90
168 162 90
168 161 91
162 157 84
164 159 86
167 161 91
170 162 95
163 157 89
170 163 90
166 160 84
161 155 77
164 158 89
163 156 81
165 159 80
164 158 84
170 163 87
160 154 83
166 159 86
162 155 87
161 155 82
160 153 80
155 149 78
163 156 83
164 157 82
158 151 80
164 158 84
148 144 74
158 151 83
151 144 74
151 143 71
154 148 77
153 146 75
142 137 68
154 148 72
143 137 69
149 142 70
141 136 68
147 139 73
141 137 59
141 139 59
151 152 57
147 152 44
150 158 45
150 161 41
157 169 39
155 169 34
160 174 30
163 182 25
169 188 19
161 183 11
172 194 11
174 197 0
173 197 0
172 196 0
170 194 0
174 197 0
174 197 0
175 198 0
173 196 0
173 197 0
172 196 0
174 197 0
173 197 0
171 194 0
175 198 0
170 194 0
171 195 0
173 196 0
173 196 0
170 194 0
173 197 0
173 197 0
173 197 0
172 195 0
171 194 0
173 196 0
173 197 0
171 195 0
172 195 0
172 195 0
172 195 0
174 197 0
172 195 0
175 198 0
171 195 0
171 195 0
173 196 0
172 195 0
170 194 0
171 194 0
171 195 0
173 196 0
173 197 0
171 195 0
174 196 0
169 192 0
173 196 0
169 192 0
169 193 0
168 192 0
172 196 0
169 193 0
173 197 0
171 194 0
172 195 0
170 194 0
171 194 0
171 195 0
172 195 0
170 195 0
170 193 0
170 194 0
170 193 0
171 194 0
171 194 0
171 195 0
171 194 0
172 195 0
170 193 0
171 195 0
171 195 0
171 195 0
171 194 0
170 194 0
169 192 0
170 194 0
171 193 0
169 192 0
168 191 0
171 194 0
170 193 0
171 195 0
172 195 0
173 197 0
170 193 0
171 194 0
170 194 0
169 192 0
168 192 0
168 191 0
171 194 0
171 194 0
172 195 0
162 185 60
80 111 158
62 98 163
62 98 165
62 98 166
61 98 160
62 99 169
62 99 172
62 99 169
62 99 169
62 98 168
62 98 169
62 98 168
63 99 171
63 99 174
62 99 171
62 98 170
61 98 172
62 98 171
62 99 173
62 99 173
62 99 175
62 99 174
62 99 170
61 98 169
62 99 174
62 98 172
62 99 174
62 99 178
63 99 179
61 98 168
63 99 177
62 99 174
63 99 178
62 99 178
62 99 177
61 99 178
62 99 174
62 99 173
62 99 178
62 99 174
62 99 179
62 99 175
63 100 179
62 99 175
62 99 177
62 99 175
62 99 180
61 99 180
62 99 176
62 99 175
63 100 178
62 99 179
62 99 181
62 99 176
62 99 179
62 99 177
62 99 179
62 99 174
62 99 178
62 99 176
62 99 179
62 99 175
63 99 177
62 99 177
62 99 179
62 99 178
63 100 181
62 99 179
62 99 176
62 99 180
62 99 176
62 99 177
62 99 177
62 99 178
63 99 177
63 100 179
63 100 181
61 99 177
62 99 178
62 99 176
63 100 180
62 99 177
62 99 177
62 99 177
62 99 179
63 99 175
62 99 177
62 99 177
62 99 179
62 99 177
62 99 179
62 99 177
62 99 179
63 100 179
62 99 178
62 98 171
63 100 179
62 98 171
61 98 175
62 99 176
62 99 176
62 99 177
62 99 177
62 99 177
62 99 177
62 99 177
62 99 177
63 99 175
62 99 177
62 99 176
62 99 176
62 99 176
61 98 173
62 99 174
62 99 176
62 99 172
62 98 173
61 98 176
62 99 174
62 99 176
62 99 173
62 99 173
62 99 175
62 99 173
63 99 173
62 99 176
62 99 170
62 99 172
63 100 177
62 98 170
62 99 173
62 99 173
63 99 176
62 99 175
61 98 171
61 98 170
63 99 178
61 97 169
62 99 175
62 99 170
62 99 173
62 99 174
61 97 170
61 97 167
62 99 172
61 97 171
62 98 166
62 98 168
62 99 173
61 98 167
62 99 172
61 96 163
61 97 163
61 97 165
61 97 165
62 97 167
61 96 169
61 96 161
61 96 163
62 97 166
61 96 165
59 94 161
61 80 109
64 72 66
70 73 52
73 76 54
70 73 54
76 80 58
66 72 51
77 80 57
76 82 60
81 86 63
88 91 64
74 81 62
85 88 61
86 90 64
95 98 69
86 91 61
98 102 72
100 103 72
114 116 78
103 105 72
104 108 77
105 108 73
117 119 81
118 120 84
120 120 79
123 123 76
130 129 82
131 130 85
137 135 87
145 142 91
138 137 88
138 137 83
128 128 83
135 133 83
143 141 84
140 138 85
142 140 84
145 142 88
137 135 84
140 139 87
142 140 83
153 149 93
148 146 90
139 137 83
149 147 93
151 148 93
157 153 90
158 154 94
166 160 96
162 157 92
158 154 86
163 157 93
162 157 90
163 159 94
165 159 91
162 156 90
162 157 93
170 164 96
164 160 92
166 161 96
165 161 92
166 161 93
167 161 94
169 164 94
168 163 95
168 163 98
169 163 97
166 161 88
165 160 90
173 167 95
171 164 96
172 166 99
174 168 98
169 164 94
176 169 101
170 164 95
171 165 96
167 162 87
171 165 96
166 161 90
170 165 90
175 168 101
172 165 96
168 162 90
174 167 95
174 168 94
174 167 97
170 165 92
173 165 93
171 164 88
169 162 86
166 161 90
170 163 89
172 165 92
175 168 94
174 166 96
166 159 89
166 160 85
171 165 91
173 165 90
163 157 87
169 162 92
167 161 87
167 160 87
167 161 85
165 160 85
159 154 75
165 158 87
157 151 80
162 156 81
156 150 80
167 160 85
162 156 84
163 155 80
160 153 84
160 153 82
162 156 80
155 150 72
159 153 78
153 148 76
160 153 78
148 142 69
151 145 73
153 146 75
139 133 64
155 148 76
154 148 72
146 140 65
139 135 66
150 144 66
140 135 62
140 134 56
143 140 60
145 142 63
149 154 47
155 160 53
146 150 44
151 158 44
156 169 37
153 166 28
163 177 30
160 174 32
168 187 22
166 187 19
172 195 0
173 196 0
174 197 0
170 194 0
173 197 0
170 194 0
172 196 0
173 197 0
174 198 0
173 196 0
173 196 0
173 196 0
172 195 0
173 196 0
172 196 0
174 197 0
174 197 0
172 196 0
171 195 0
172 195 0
169 192 0
174 196 0
174 198 0
174 196 0
172 195 0
172 196 0
172 196 0
171 195 0
169 193 0
171 194 0
172 195 0
171 194 0
173 197 0
171 195 0
166 189 0
172 194 0
173 196 0
172 196 0
173 196 0
174 198 0
173 197 0
172 195 0
169 193 0
174 197 0
171 194 0
173 196 0
171 194 0
173 196 0
172 195 0
172 195 0
173 197 0
173 196 0
171 194 0
170 195 0
169 192 0
172 196 0
172 195 0
169 193 0
170 192 0
173 197 0
171 194 0
170 193 0
174 197 0
170 194 0
172 195 0
171 194 0
170 192 0
171 194 0
173 196 0
171 193 0
170 193 0
173 196 0
168 191 0
169 192 0
169 193 0
170 192 0
174 196 0
169 192 0
171 195 0
169 192 0
171 194 0
169 193 0
171 195 0
171 194 0
171 194 0
173 197 0
170 194 0
168 192 0
170 193 0
170 192 0
169 191 0
168 192 0
171 195 0
129 155 114
62 99 166
62 99 166
63 99 166
63 99 170
62 99 171
62 98 168
62 98 170
62 98 166
61 97 161
62 99 175
62 98 168
63 99 170
62 98 169
62 98 166
63 99 169
62 99 174
62 99 172
63 99 176
63 99 174
62 99 177
62 99 175
62 98 173
62 99 176
62 99 170
62 99 173
62 99 174
62 98 170
62 99 176
62 99 177
62 99 177
62 99 175
63 100 178
62 99 175
62 99 176
62 99 176
62 99 175
63 99 178
61 98 173
62 99 176
62 99 179
62 99 180
62 99 173
62 99 176
62 99 176
62 99 179
63 100 178
62 98 174
62 99 178
62 99 179
62 99 180
62 99 175
62 99 174
62 99 177
62 99 178
62 99 175
62 99 179
61 98 175
62 99 177
62 99 178
63 100 178
63 99 179
62 99 179
63 99 178
62 99 179
62 99 179
61 98 177
61 98 176
62 99 181
62 99 178
62 99 177
62 99 175
61 98 178
62 99 177
62 99 180
62 99 179
62 99 175
62 99 179
62 99 177
62 99 179
62 99 176
63 99 174
62 99 177
63 99 178
62 99 178
63 100 180
62 99 180
62 99 177
62 98 170
62 99 180
62 99 178
62 99 176
62 99 175
62 99 179
62 98 175
62 99 178
62 99 175
62 99 176
62 99 176
62 99 173
62 99 177
62 99 173
62 98 172
62 99 177
62 99 172
63 100 181
61 98 177
63 100 176
62 99 178
63 99 175
61 98 175
62 98 175
62 99 176
61 98 174
62 99 172
62 99 175
62 99 172
62 99 173
62 99 174
62 99 176
62 99 176
63 100 177
62 99 176
62 99 170
62 98 170
62 99 175
62 99 174
62 99 177
61 98 174
62 99 176
61 98 169
62 99 171
62 99 178
61 97 167
63 99 171
62 99 171
62 99 172
62 99 170
63 99 171
62 98 170
62 99 172
62 99 171
62 99 174
62 99 172
62 98 165
62 99 175
63 99 171
62 99 170
62 98 169
61 97 171
61 97 170
63 99 173
62 98 168
61 97 166
61 97 168
61 97 167
62 98 167
61 96 163
61 97 164
60 96 163
60 95 162
60 95 159
58 92 154
56 85 132
67 81 96
69 74 52
75 77 55
77 81 58
73 77 55
77 81 60
70 75 54
75 79 57
83 87 60
67 73 52
83 87 59
88 92 68
102 102 67
93 97 69
89 94 67
107 110 78
98 100 70
93 96 69
98 101 69
117 117 77
108 110 71
113 114 71
118 118 77
102 105 71
102 105 67
124 124 79
126 126 83
111 114 77
130 130 81
135 133 85
125 125 78
130 128 82
138 136 85
130 129 81
133 132 81
134 133 79
144 141 85
141 139 85
153 150 93
150 147 94
155 151 89
151 148 91
151 147 85
156 152 91
155 151 95
156 152 90
160 155 95
157 153 87
160 155 93
161 157 99
160 156 91
158 154 92
158 154 92
158 155 88
162 157 92
167 162 93
167 162 95
168 162 96
165 160 92
164 159 91
168 163 91
168 163 95
173 166 98
168 162 93
174 167 98
169 164 97
170 165 94
172 166 101
168 163 90
171 165 91
165 160 87
170 164 93
168 163 89
176 170 104
169 162 90
171 165 92
173 167 94
170 164 94
171 165 87
174 167 99
169 164 91
168 163 92
172 165 93
172 165 87
168 162 93
172 165 98
173 166 93
173 166 97
169 162 86
167 162 91
169 163 90
165 159 87
168 162 92
169 163 87
166 160 91
169 162 90
170 163 91
165 159 88
165 158 87
165 158 84
168 162 87
168 162 90
163 157 82
165 159 86
164 158 90
159 152 76
161 155 88
163 157 84
160 153 83
168 161 86
167 160 88
161 155 85
161 154 83
158 151 80
165 158 91
156 150 71
152 146 77
155 150 76
150 144 75
152 147 70
158 151 75
156 149 73
161 154 82
157 150 74
148 142 71
151 145 75
150 145 66
143 137 62
139 133 64
141 136 64
141 136 61
146 142 63
142 141 59
145 149 49
149 154 48
145 152 41
155 163 47
152 160 39
160 175 34
159 173 30
170 188 32
170 190 16
170 191 0
171 193 0
174 196 0
171 195 0
173 196 0
174 197 0
171 195 0
173 196 0
172 195 0
173 196 0
174 198 0
172 195 0
174 198 0
172 195 0
174 197 0
171 194 0
173 196 0
173 196 0
174 197 0
172 196 0
173 197 0
170 193 0
174 197 0
173 196 0
172 196 0
172 196 0
173 195 0
170 194 0
171 195 0
176 198 0
170 193 0
174 197 0
171 194 0
170 194 0
170 193 0
174 197 0
171 195 0
173 196 0
169 192 0
170 194 0
173 196 0
175 198 0
171 195 0
174 197 0
172 196 0
173 196 0
168 191 0
172 195 0
173 195 0
174 197 0
174 196 0
169 193 0
171 195 0
166 190 0
171 194 0
173 197 0
171 194 0
172 195 0
171 193 0
172 195 0
172 195 0
170 193 0
171 195 0
172 195 0
171 194 0
171 195 0
171 194 0
173 197 0
171 194 0
169 193 0
172 196 0
170 193 0
173 196 0
173 197 0
169 193 0
171 194 0
171 194 0
167 191 0
172 195 0
171 194 0
169 192 0
170 194 0
173 197 0
169 192 0
170 193 0
173 195 0
171 194 0
172 195 0
165 189 0
172 195 0
170 193 0
173 196 0
173 195 0
161 184 40
94 124 149
63 99 164
61 97 157
61 98 161
61 98 166
62 98 170
62 98 167
62 99 171
62 98 163
63 99 171
62 98 167
62 98 168
63 99 172
62 98 172
62 99 168
62 98 171
62 98 172
62 99 170
62 99 173
62 98 173
62 99 175
62 99 173
63 99 177
62 99 174
62 99 175
62 99 175
62 98 171
62 99 175
62 99 176
62 98 172
61 98 173
62 99 175
62 99 175
62 99 174
62 99 176
63 99 177
62 99 176
63 99 174
63 100 179
63 100 181
62 99 177
63 100 179
62 99 180
62 99 178
63 99 177
62 99 176
61 98 174
63 100 178
62 99 173
62 99 178
61 98 176
62 99 181
62 99 174
62 99 180
63 100 177
62 99 178
62 99 177
62 99 177
62 99 174
62 99 179
63 100 178
62 99 178
62 99 177
62 99 177
62 99 173
62 99 177
63 99 178
62 98 172
62 98 173
62 99 177
63 99 177
62 99 179
62 99 177
61 98 177
62 99 178
62 99 175
62 99 174
62 99 176
63 100 180
62 99 177
61 99 177
62 99 178
61 98 170
62 99 177
62 99 179
62 99 177
62 99 177
62 99 176
61 98 180
61 98 172
62 99 178
62 99 178
63 100 178
62 99 174
61 98 174
62 99 179
62 99 175
62 99 175
62 99 175
62 99 177
62 99 174
62 99 176
62 99 178
62 98 172
62 99 175
61 98 172
61 98 172
62 99 173
62 99 177
63 99 173
62 99 176
62 98 172
63 100 179
62 99 177
62 99 176
62 99 174
62 98 172
62 99 172
62 99 173
62 99 173
62 99 172
62 99 174
62 99 178
62 98 171
61 98 173
62 99 177
62 99 174
63 100 177
62 99 174
62 99 170
62 98 171
62 99 174
63 99 179
62 98 172
62 99 173
60 97 166
62 99 174
62 98 168
62 98 170
61 98 164
62 98 170
62 99 177
61 97 166
62 99 169
63 99 171
62 99 173
62 99 170
62 98 169
62 98 169
62 98 167
61 98 170
62 98 171
62 98 169
61 97 165
62 98 172
62 98 170
61 97 164
60 94 155
60 94 155
60 94 154
62 97 168
59 92 157
61 96 159
59 92 153
69 85 116
52 60 57
55 62 45
61 65 45
64 69 51
64 70 52
57 63 46
78 83 57
68 75 57
68 73 50
81 84 60
78 82 55
76 79 57
92 94 62
96 100 70
88 92 63
105 108 75
96 99 64
95 98 65
101 103 67
111 112 74
98 102 71
118 118 76
113 115 79
101 104 68
119 119 79
126 125 76
128 128 85
125 124 77
125 124 77
134 133 87
131 131 83
124 124 80
141 139 86
141 139 83
136 135 83
132 131 80
145 143 86
150 147 89
150 146 88
145 142 83
154 150 90
140 139 86
153 150 89
155 152 89
152 149 87
151 148 89
157 153 87
155 152 94
163 158 94
164 158 94
155 151 90
156 152 89
161 156 89
165 160 99
157 154 85
164 159 97
166 160 88
167 162 94
165 158 86
166 161 93
163 159 89
163 158 88
168 162 92
167 161 92
173 167 98
167 161 94
170 165 91
175 168 97
168 163 90
169 163 96
165 161 88
169 162 94
176 169 97
174 166 96
174 166 98
171 165 89
171 164 97
172 166 94
166 160 91
174 168 96
170 164 95
172 166 92
170 164 92
171 166 91
165 159 87
168 161 87
171 165 90
171 165 89
173 165 90
169 162 87
172 166 93
168 162 90
171 163 92
160 155 85
167 161 90
169 162 92
168 161 85
160 155 84
167 160 87
163 158 79
164 157 80
169 161 87
163 156 80
165 159 87
160 152 84
165 158 89
159 153 84
166 159 88
164 157 78
160 155 80
159 154 80
163 157 79
155 147 74
159 152 81
158 152 83
164 157 83
146 141 68
156 149 72
160 153 86
157 151 73
149 143 71
153 146 74
153 147 71
148 142 70
150 144 74
141 137 63
148 143 65
146 140 69
139 133 69
145 138 64
138 136 60
145 145 60
151 155 54
151 157 53
160 166 58
154 162 39
153 162 41
153 167 30
155 170 37
163 177 36
170 188 19
166 187 0
172 194 0
172 196 0
173 196 0
174 197 0
173 196 0
173 196 0
174 197 0
172 195 0
173 197 0
171 194 0
171 195 0
175 197 0
169 192 0
172 196 0
172 195 0
171 194 0
174 197 0
171 194 0
173 196 0
172 195 0
174 197 0
174 197 0
171 195 0
172 195 0
175 198 0
171 195 0
174 197 0
174 197 0
172 196 0
172 196 0
172 195 0
170 194 0
172 196 0
172 195 0
174 197 0
172 195 0
171 194 0
170 194 0
174 196 0
172 196 0
170 194 0
172 196 0
173 196 0
171 194 0
172 196 0
172 196 0
174 197 0
167 191 0
169 192 0
171 195 0
173 196 0
172 195 0
172 195 0
173 197 0
174 196 0
171 194 0
173 196 0
168 192 0
172 195 0
168 192 0
174 197 0
172 195 0
173 196 0
170 194 0
168 192 0
172 195 0
170 193 0
171 195 0
168 192 0
168 192 0
173 197 0
173 196 0
173 197 0
171 195 0
171 194 0
171 195 0
167 190 0
168 192 0
170 192 0
173 196 0
170 193 0
171 194 0
171 194 0
170 193 0
169 193 0
170 193 0
166 189 0
169 192 0
171 195 0
172 195 0
172 193 0
171 194 0
143 167 94
62 98 164
62 98 162
63 99 170
61 97 159
62 99 172
62 99 168
63 99 168
62 99 172
62 99 170
62 98 163
62 99 173
61 98 168
63 99 174
63 99 165
62 98 173
62 98 170
63 99 172
62 99 172
63 99 177
62 99 176
62 98 173
63 99 170
63 99 174
63 100 178
62 99 170
62 99 172
62 99 177
63 99 174
63 99 174
62 98 169
62 99 177
62 98 169
62 99 170
62 99 178
63 100 177
62 99 179
62 99 178
62 99 173
62 99 176
62 99 179
62 99 180
62 99 173
62 99 175
61 98 174
62 99 175
62 99 178
62 99 179
62 99 178
62 99 179
62 99 178
62 99 174
62 99 174
62 99 176
62 99 176
62 99 177
63 99 177
62 99 178
62 99 177
63 99 177
62 99 176
62 99 175
61 98 175
63 100 177
63 99 176
62 99 178
62 99 177
62 99 179
63 100 179
62 99 177
63 99 177
62 99 176
62 99 176
62 99 178
63 99 173
62 99 180
62 99 176
62 99 178
63 100 180
62 99 176
62 99 178
61 98 177
61 98 173
62 99 178
61 98 172
63 99 177
61 98 176
62 99 177
62 99 175
62 99 174
62 99 172
62 99 176
61 98 176
62 99 176
62 99 176
62 98 172
62 99 176
62 99 176
61 98 173
62 99 176
63 99 177
62 99 175
62 99 176
61 98 174
62 99 177
62 99 178
62 99 175
62 99 174
62 99 173
62 99 175
62 98 171
61 98 175
61 98 175
62 99 175
62 99 179
63 100 180
62 99 175
62 99 177
62 99 176
62 99 172
62 99 172
62 99 177
62 98 168
63 99 179
62 99 174
62 99 175
62 98 170
62 99 174
63 100 173
61 98 171
62 99 171
61 98 172
62 98 170
62 99 172
62 99 173
62 99 174
62 99 175
61 96 161
62 99 172
61 98 171
62 99 170
62 99 171
62 98 170
62 98 169
62 98 167
62 98 164
61 97 166
62 98 173
62 98 164
61 98 167
62 99 175
62 98 167
61 97 163
63 99 175
62 98 166
61 97 161
61 97 168
61 96 160
61 96 160
62 97 166
62 97 166
61 96 157
59 94 158
61 96 158
60 94 155
62 82 110
76 85 83
65 70 55
63 67 46
61 68 50
60 67 51
69 74 52
70 74 50
78 82 55
85 89 60
84 87 62
80 84 56
79 84 59
89 92 58
93 96 66
104 105 67
89 92 64
96 98 65
99 102 72
113 114 74
98 100 64
101 105 70
120 119 76
113 115 74
114 116 70
124 123 79
125 124 74
132 130 79
125 124 80
124 123 78
137 135 86
142 140 86
128 128 81
128 126 74
138 136 88
146 142 86
144 141 84
147 145 90
139 137 80
146 144 83
149 146 93
149 145 84
145 143 82
155 151 91
158 153 95
157 153 94
150 147 85
161 156 96
158 153 88
158 154 91
151 147 80
167 161 98
161 156 88
156 151 88
169 163 97
163 158 91
165 161 97
160 156 89
170 163 98
165 160 96
163 158 91
162 157 84
167 162 92
168 163 93
164 159 91
170 164 91
165 161 87
170 164 94
164 159 93
166 161 93
171 164 95
171 164 93
170 164 90
173 166 94
170 164 89
163 157 89
170 164 94
173 166 92
164 159 87
170 165 91
171 164 87
173 165 94
168 161 93
171 164 90
171 164 91
173 166 95
167 162 87
169 162 87
170 163 91
168 163 85
172 164 93
166 160 89
172 165 90
166 160 85
172 165 95
169 163 90
166 159 90
170 162 90
161 155 81
165 159 83
163 157 83
166 160 88
164 157 85
166 159 87
165 159 84
163 156 86
165 158 87
161 154 83
162 154 83
153 148 78
162 156 83
164 156 83
156 150 74
162 156 82
159 152 78
157 151 76
156 149 75
155 149 73
154 148 75
161 154 80
154 147 70
155 148 75
152 146 69
147 141 67
146 140 63
147 141 71
148 142 70
141 135 61
138 132 65
141 136 62
143 138 64
135 134 57
148 149 53
148 151 56
149 157 44
159 167 49
152 161 51
155 164 41
162 176 37
161 176 25
166 184 25
166 183 28
170 191 11
172 193 0
172 195 0
173 197 0
171 195 0
173 196 0
172 196 0
174 197 0
172 196 0
170 194 0
172 196 0
174 198 0
174 197 0
172 195 0
172 195 0
172 195 0
174 198 0
171 194 0
171 194 0
171 194 0
175 198 0
174 197 0
172 195 0
171 195 0
174 196 0
172 196 0
170 194 0
170 194 0
171 194 0
172 195 0
174 198 0
171 194 0
172 194 0
172 196 0
172 195 0
171 195 0
174 196 0
172 196 0
173 196 0
170 194 0
172 195 0
171 195 0
173 197 0
172 195 0
169 192 0
171 194 0
173 196 0
172 195 0
169 193 0
171 194 0
168 192 0
171 195 0
171 195 0
170 193 0
174 197 0
169 193 0
169 192 0
170 194 0
172 195 0
169 192 0
172 196 0
171 193 0
173 197 0
172 195 0
171 194 0
170 193 0
172 195 0
168 191 0
171 195 0
171 195 0
169 192 0
170 193 0
171 194 0
171 195 0
170 194 0
172 195 0
174 197 0
169 192 0
172 195 0
171 194 0
171 195 0
168 191 0
171 195 0
172 195 0
171 195 0
167 190 0
169 192 0
171 194 0
170 193 0
170 194 0
171 194 0
170 192 0
164 188 40
101 129 141
61 97 159
62 98 164
62 98 161
62 98 163
61 98 167
61 97 163
62 98 168
62 99 172
62 99 167
62 98 167
61 98 168
62 98 168
63 99 174
63 100 176
62 99 170
62 99 172
62 98 169
63 100 175
63 100 176
62 99 172
62 99 172
62 99 175
61 98 170
62 98 173
62 99 178
62 99 173
61 98 173
63 99 175
62 99 176
63 99 179
63 99 174
62 99 179
62 99 178
63 99 173
62 99 173
62 99 176
62 99 175
62 99 178
62 99 176
62 99 177
62 99 176
62 99 170
62 99 176
62 99 175
62 99 177
62 99 175
63 100 180
63 99 175
62 99 178
63 99 175
62 99 176
62 99 177
62 99 176
62 99 177
62 99 178
62 99 176
62 99 172
62 99 178
62 99 177
62 99 179
62 99 179
62 99 180
61 98 172
62 99 179
61 98 173
62 99 178
62 99 178
62 99 176
61 98 172
62 99 177
62 99 177
62 99 177
62 99 178
62 99 178
62 99 176
62 99 178
62 99 176
62 99 176
62 99 180
62 99 177
62 99 177
62 99 179
61 98 177
63 99 179
62 99 179
62 99 171
61 98 175
62 99 175
62 99 175
62 99 179
62 99 176
62 99 178
62 98 173
62 99 178
62 99 176
62 99 173
62 99 174
62 99 179
62 99 178
63 100 179
62 99 179
62 99 177
62 99 176
62 99 176
62 99 174
62 99 174
62 98 175
62 99 178
63 99 177
61 98 176
62 98 169
62 99 174
62 99 177
62 99 177
62 99 175
61 98 176
62 99 177
62 99 173
61 98 175
62 99 178
62 98 171
62 99 176
62 99 175
63 99 174
62 99 174
62 99 171
62 99 174
62 99 174
63 99 168
62 98 170
62 99 176
62 99 172
62 99 175
62 98 172
62 99 173
61 98 170
61 98 172
63 99 174
62 98 171
62 99 172
61 98 170
62 99 171
62 98 166
62 98 171
62 99 174
62 99 172
62 98 167
63 99 174
62 98 171
61 97 164
62 98 170
62 98 170
62 98 169
62 97 165
61 97 162
62 98 169
61 96 162
62 97 167
60 94 156
61 96 166
60 96 158
59 93 151
59 92 152
59 93 152
59 91 147
59 74 93
59 65 55
48 55 40
59 63 46
70 75 54
66 73 53
70 74 53
65 71 49
70 77 54
73 78 55
75 81 56
89 93 61
77 81 53
89 93 62
92 96 62
92 94 62
90 94 68
98 100 67
98 101 67
108 109 71
108 109 69
122 122 80
111 111 73
111 111 73
117 119 76
126 125 77
122 122 76
125 125 75
124 123 78
129 128 78
133 132 83
134 132 81
131 130 79
134 133 82
138 137 89
148 145 87
141 139 87
143 140 80
142 139 82
144 142 82
141 140 79
149 146 88
155 151 90
151 148 86
150 147 86
157 153 90
152 149 89
161 156 92
164 158 92
155 152 89
156 152 89
156 152 87
164 159 91
166 160 96
168 162 96
163 159 89
161 156 87
169 163 92
159 154 86
163 158 91
168 162 94
165 160 86
170 165 97
167 161 87
167 162 88
169 164 91
171 164 91
167 161 89
169 163 91
168 161 93
168 163 91
171 165 97
169 163 94
168 162 86
169 162 89
169 162 87
169 162 95
172 166 91
167 161 84
171 164 94
167 161 85
169 163 92
169 162 92
169 163 87
168 163 89
170 163 91
164 158 79
167 161 86
170 164 90
173 166 91
170 162 88
170 163 92
167 161 88
166 159 87
170 164 92
165 159 90
169 162 84
162 156 80
166 159 90
165 158 87
163 157 86
164 158 87
166 160 87
159 153 83
158 151 80
170 163 84
162 156 87
159 153 79
161 154 80
162 156 80
157 150 70
154 148 74
152 146 71
159 153 74
158 151 79
154 148 74
145 139 64
160 153 79
150 144 69
154 148 73
148 142 72
154 148 78
142 136 63
161 154 75
140 134 65
141 135 61
148 142 68
149 142 67
135 130 62
139 136 53
146 145 61
142 142 57
149 153 51
153 164 41
151 160 45
157 171 37
154 168 30
164 177 39
160 176 30
162 181 16
168 187 22
170 190 11
173 195 0
169 193 0
174 197 0
172 195 0
175 198 0
170 193 0
170 193 0
173 197 0
171 194 0
173 196 0
172 196 0
173 197 0
172 195 0
172 195 0
173 196 0
172 196 0
173 197 0
172 196 0
172 195 0
172 195 0
169 193 0
174 198 0
172 196 0
175 198 0
172 195 0
170 193 0
170 194 0
172 195 0
172 195 0
170 194 0
170 193 0
174 197 0
173 196 0
170 194 0
172 196 0
170 193 0
171 195 0
174 197 0
172 195 0
171 194 0
171 194 0
173 197 0
171 194 0
170 194 0
175 198 0
172 195 0
170 194 0
173 196 0
171 194 0
170 193 0
169 193 0
170 192 0
170 194 0
169 192 0
169 192 0
171 194 0
172 196 0
172 195 0
172 194 0
171 194 0
170 194 0
168 191 0
170 193 0
170 193 0
173 197 0
169 193 0
172 196 0
172 195 0
168 191 0
172 195 0
173 196 0
168 192 0
170 193 0
171 195 0
174 197 0
172 195 0
168 192 0
172 195 0
172 195 0
172 195 0
172 195 0
170 195 0
171 194 0
169 193 0
174 196 0
167 191 0
171 194 0
170 194 0
170 194 0
170 192 0
167 190 0
150 174 70
66 101 156
61 98 161
62 98 169
61 98 161
63 99 170
62 99 168
62 98 169
62 99 172
62 98 166
62 99 172
62 98 167
62 98 167
62 98 169
62 99 171
62 98 169
62 98 167
62 98 171
62 99 172
62 98 172
62 99 169
62 98 169
62 99 173
62 99 172
62 99 177
62 99 173
63 99 176
61 98 174
62 99 173
62 99 175
62 99 175
62 99 178
62 99 176
62 99 176
62 98 175
62 98 172
63 99 176
62 99 175
62 99 176
62 99 176
62 99 176
62 99 173
62 99 177
63 100 176
63 99 176
62 99 177
62 99 179
62 99 176
62 99 177
63 100 178
62 99 171
62 99 173
62 99 178
62 99 177
63 100 176
62 99 173
62 99 174
62 99 179
62 99 177
61 98 176
62 99 179
62 99 178
62 99 179
62 99 175
61 98 171
61 99 178
62 99 175
63 99 178
63 100 179
62 99 178
63 99 175
61 98 175
62 99 176
62 99 176
62 98 172
62 99 177
62 99 176
62 99 175
61 98 172
62 99 178
62 99 177
62 98 173
62 98 175
62 99 177
62 99 178
63 100 179
62 99 177
63 99 178
62 99 175
63 99 178
62 99 176
62 99 172
61 98 172
62 99 177
62 99 178
62 99 175
62 99 176
62 99 177
62 99 174
61 98 174
63 100 177
61 98 172
62 99 173
62 99 176
62 99 174
62 99 177
61 98 172
62 99 176
61 98 174
62 99 174
62 99 177
62 99 175
62 99 180
62 99 176
61 98 175
62 99 174
62 99 176
63 100 175
62 99 171
63 100 176
62 99 177
62 99 174
62 99 177
62 99 170
62 98 173
62 99 177
62 98 171
63 99 174
62 99 175
62 98 171
62 98 171
62 99 174
62 98 174
62 98 173
62 99 176
62 98 168
62 99 173
63 99 174
62 98 174
62 99 172
61 97 168
62 99 171
62 98 171
62 98 169
61 97 165
62 98 167
62 98 166
62 99 168
61 97 160
62 99 170
62 98 167
62 98 167
61 97 166
62 98 169
61 97 165
61 97 168
61 97 169
61 96 164
61 97 163
61 97 163
62 97 163
60 95 161
61 96 159
61 97 161
60 95 159
61 95 158
60 94 154
57 78 117
67 76 75
61 66 48
59 64 48
70 74 53
70 75 45
61 67 48
57 63 44
75 80 56
77 81 58
87 91 62
75 79 53
82 86 59
84 88 61
90 93 63
92 95 68
101 103 68
108 109 73
100 102 69
98 102 67
109 111 70
106 107 66
113 114 68
106 108 68
112 114 70
108 110 69
124 124 79
124 123 74
119 120 74
128 126 79
123 123 77
134 133 84
136 134 79
134 133 84
138 137 81
151 147 90
143 141 82
141 139 78
151 147 92
137 135 81
144 141 84
149 146 84
149 145 84
152 148 85
154 150 87
152 148 83
161 156 91
161 157 95
159 154 85
156 152 83
147 145 86
156 152 92
165 160 91
156 151 82
165 159 89
160 156 84
161 156 85
157 152 85
162 158 89
163 158 91
168 162 94
167 162 90
166 160 89
165 160 92
165 160 87
170 163 90
170 163 98
169 162 90
174 167 96
173 166 95
169 163 89
164 159 90
172 165 91
168 162 87
174 167 94
174 167 94
170 163 90
166 160 86
161 156 85
164 159 86
174 167 95
172 165 92
169 163 88
173 166 91
166 160 87
170 164 95
166 161 84
171 164 91
171 164 85
168 162 87
171 163 90
168 162 87
167 161 87
168 161 85
169 163 88
166 159 89
165 159 86
165 158 80
165 159 84
168 162 85
166 159 86
164 158 81
167 159 86
162 155 82
158 152 76
165 158 87
162 156 77
154 149 75
155 149 69
161 155 76
161 154 81
158 152 77
154 149 73
155 149 78
161 153 84
155 149 73
156 150 75
154 147 76
157 150 80
152 146 71
151 146 63
161 153 76
148 142 71
139 134 62
146 141 61
151 144 71
153 146 76
151 144 74
134 129 54
148 142 65
155 153 68
141 144 48
144 151 42
145 154 39
151 163 36
152 163 34
158 171 32
161 176 37
162 179 19
164 181 25
169 190 16
169 191 0
171 194 0
171 195 0
172 195 0
172 196 0
172 195 0
173 196 0
173 197 0
169 193 0
171 195 0
174 197 0
175 198 0
174 197 0
173 196 0
170 194 0
171 195 0
172 196 0
173 196 0
173 196 0
171 195 0
173 197 0
173 197 0
171 193 0
172 196 0
172 195 0
172 196 0
170 193 0
170 194 0
170 193 0
172 196 0
172 196 0
172 195 0
173 196 0
174 197 0
172 195 0
169 192 0
172 195 0
168 192 0
175 198 0
171 194 0
172 196 0
174 197 0
172 196 0
171 194 0
172 196 0
174 198 0
171 194 0
172 195 0
170 193 0
170 194 0
167 191 0
173 196 0
167 190 0
173 196 0
170 193 0
169 192 0
172 195 0
171 194 0
171 195 0
172 196 0
173 195 0
171 193 0
170 193 0
173 196 0
171 195 0
170 193 0
170 193 0
173 196 0
169 193 0
168 191 0
171 193 0
167 191 0
168 192 0
168 191 0
169 193 0
168 192 0
172 195 0
169 193 0
167 190 0
167 191 0
169 192 0
171 193 0
172 195 0
172 195 0
165 187 0
171 195 0
171 195 0
170 194 0
172 194 0
170 192 0
171 193 0
167 190 18
120 146 125
61 98 163
63 99 169
62 98 163
62 98 161
63 99 170
62 99 171
62 98 164
62 98 169
61 98 167
62 98 170
61 98 170
62 99 169
62 98 164
62 98 171
61 98 171
63 99 174
62 99 173
62 99 172
62 99 171
62 99 168
62 99 170
62 99 173
62 99 175
62 99 175
62 99 173
62 99 168
62 99 172
62 98 170
62 99 175
62 99 173
63 99 177
62 99 176
63 100 176
62 99 174
62 99 171
62 99 176
62 99 172
63 99 178
62 99 176
63 99 178
63 99 175
62 99 178
62 99 175
62 99 177
62 99 177
62 98 172
62 99 177
61 98 170
62 99 178
62 99 174
62 99 176
62 99 176
62 99 177
61 98 173
62 99 176
62 99 179
62 99 177
61 99 177
62 99 177
62 99 172
62 99 177
61 98 175
63 100 178
63 99 177
62 99 177
62 99 178
62 99 171
62 99 176
62 99 176
62 99 175
62 99 175
62 99 180
62 99 179
62 99 178
62 99 177
63 99 177
62 99 180
62 99 177
62 99 177
62 99 175
63 99 177
62 99 176
62 99 176
62 99 177
62 99 176
62 99 176
62 99 177
62 99 174
62 99 174
62 99 177
62 99 175
62 99 177
62 99 174
61 98 176
63 99 179
62 99 176
63 99 174
62 99 174
62 99 176
62 99 175
62 99 174
61 99 176
62 99 175
62 99 176
62 99 173
62 98 171
62 99 177
62 98 174
63 100 175
62 98 171
62 99 176
62 99 172
62 99 173
63 99 176
61 98 171
62 99 175
62 99 170
62 99 173
63 99 170
62 99 174
62 99 175
62 99 174
62 98 175
62 99 173
63 99 175
62 99 175
63 99 174
61 97 166
63 100 176
62 99 177
62 99 177
62 99 169
62 98 166
62 99 176
62 98 173
62 99 171
62 98 169
62 98 170
61 98 170
62 98 174
61 98 169
63 99 172
62 98 171
62 98 165
62 98 171
61 97 168
62 98 168
62 98 170
62 97 166
62 98 164
62 98 168
62 98 168
62 98 171
61 97 162
61 97 164
63 99 174
61 97 163
61 97 159
61 97 167
61 96 158
61 97 164
60 95 166
61 94 156
60 95 158
61 96 159
60 94 154
55 84 132
51 65 81
58 66 54
49 54 36
69 74 52
62 68 46
56 63 40
68 73 51
68 71 48
65 71 53
70 76 49
80 85 56
75 82 55
86 90 65
93 96 65
87 90 58
87 91 63
84 89 60
100 102 70
105 107 69
102 104 65
111 114 74
107 109 72
112 113 72
111 113 73
123 123 69
114 115 73
124 123 77
123 123 72
111 113 67
135 133 79
130 129 80
135 134 78
131 130 78
124 124 74
138 136 82
142 139 84
137 135 80
133 133 82
147 144 83
153 149 85
152 148 84
153 149 78
144 141 79
164 159 96
159 154 88
145 143 73
157 152 86
158 154 86
163 157 85
150 147 77
159 154 89
161 156 87
158 154 90
158 153 94
165 160 91
162 157 90
162 157 85
161 156 86
169 162 91
169 163 92
168 162 92
170 163 92
166 161 88
168 162 90
172 166 94
167 161 90
168 162 89
169 162 88
170 164 90
168 163 91
166 160 90
166 161 89
169 163 87
166 160 79
175 167 93
170 163 90
171 164 90
168 162 89
170 164 92
167 161 87
166 160 84
170 164 87
161 155 82
169 163 90
162 156 80
171 164 93
165 160 84
170 164 89
167 161 89
169 162 87
170 163 88
165 160 85
169 162 89
161 154 81
163 157 81
167 161 84
166 160 84
167 160 82
165 159 88
163 156 76
163 156 87
162 156 75
167 161 84
161 154 85
160 154 80
154 149 75
159 152 76
151 146 72
159 152 82
157 152 75
157 151 76
160 154 78
158 151 75
157 150 75
151 146 72
157 150 75
154 148 68
151 146 73
150 145 61
152 145 74
149 143 70
147 141 71
144 138 66
136 131 61
144 138 67
149 141 65
132 126 53
139 136 56
137 135 56
148 150 54
150 155 52
153 159 47
150 159 41
153 161 45
159 170 32
160 174 34
160 174 25
159 175 25
160 178 22
169 191 11
173 195 0
174 196 0
170 194 0
171 194 0
171 194 0
173 197 0
173 197 0
173 196 0
172 196 0
171 195 0
172 195 0
174 198 0
170 193 0
171 195 0
173 196 0
170 193 0
173 197 0
171 193 0
172 196 0
171 195 0
169 193 0
171 194 0
171 195 0
172 195 0
173 197 0
173 196 0
171 194 0
169 192 0
174 196 0
167 191 0
169 192 0
174 197 0
173 196 0
171 194 0
169 192 0
173 196 0
170 194 0
169 193 0
170 193 0
172 195 0
172 195 0
170 193 0
174 197 0
173 197 0
171 195 0
167 190 0
173 195 0
171 194 0
170 193 0
169 192 0
170 193 0
174 197 0
174 197 0
171 195 0
173 197 0
172 196 0
170 193 0
168 193 0
172 195 0
171 194 0
172 195 0
170 193 0
171 194 0
169 191 0
170 194 0
171 194 0
171 194 0
171 194 0
168 191 0
168 192 0
172 195 0
174 197 0
170 194 0
170 194 0
173 196 0
171 194 0
170 194 0
172 195 0
170 193 0
167 191 0
169 192 0
174 197 0
172 196 0
170 193 0
170 193 0
172 195 0
170 193 0
167 190 0
171 195 0
169 192 0
170 194 0
161 184 51
87 118 150
61 97 159
61 97 157
61 97 163
62 98 165
62 98 162
63 100 174
62 99 167
61 98 162
62 99 174
61 98 169
62 99 171
63 99 169
61 97 163
63 99 173
62 98 170
62 99 176
63 100 174
61 98 163
62 99 170
62 99 175
62 98 167
61 98 167
62 99 177
61 98 163
62 99 174
62 99 178
62 99 176
62 98 172
62 99 174
63 100 178
62 99 174
62 99 177
62 98 174
62 99 176
61 98 173
62 99 175
63 99 175
62 98 173
61 98 174
62 99 178
62 99 175
62 99 178
62 99 176
62 99 178
62 99 176
62 99 176
62 99 176
62 99 178
63 100 180
62 99 179
62 99 174
62 98 175
62 99 177
62 99 176
63 100 178
62 99 173
62 99 177
62 99 180
62 99 177
63 99 179
62 99 180
62 99 176
62 99 175
62 99 178
62 99 177
62 99 176
63 99 178
62 99 178
62 99 175
62 99 177
62 99 174
62 99 175
62 99 175
63 100 178
63 99 174
62 99 177
61 98 176
62 99 179
63 100 177
62 99 174
62 99 175
62 99 178
62 99 176
62 99 176
62 99 176
61 98 177
62 99 175
62 99 178
62 99 177
62 99 179
62 99 177
62 99 173
61 98 173
63 99 178
62 99 173
62 99 175
63 99 178
62 99 176
62 99 176
63 99 177
62 99 172
63 100 178
63 100 179
62 99 177
62 99 174
61 98 167
63 100 179
63 100 176
63 99 178
62 99 179
62 98 172
62 99 176
63 99 179
62 99 173
62 99 178
62 99 175
62 99 174
63 99 174
61 98 170
63 99 178
62 98 172
62 99 169
62 99 177
62 99 172
63 100 176
62 99 173
62 99 173
63 100 178
62 98 169
61 98 169
63 99 176
62 99 168
63 99 172
63 99 177
62 98 173
62 99 172
62 99 171
62 98 170
63 99 172
62 98 166
62 99 174
62 99 174
61 97 167
62 98 163
62 98 168
62 99 171
62 98 170
63 99 171
62 98 171
62 98 168
62 98 168
62 98 167
61 97 159
61 97 166
61 97 165
61 97 159
62 97 169
61 96 165
61 96 164
62 97 165
62 97 165
61 96 155
62 97 165
61 96 157
60 94 152
58 90 149
57 89 137
51 71 93
51 60 63
52 56 39
65 69 47
78 80 54
45 53 40
56 63 47
76 81 55
58 67 52
83 85 56
81 84 49
67 71 49
93 95 62
75 81 57
94 96 64
94 97 62
88 92 64
98 101 67
102 103 68
100 102 65
103 105 64
105 107 71
111 112 69
106 108 63
113 114 68
130 128 80
131 130 75
122 123 72
126 125 72
135 134 78
119 119 71
142 140 82
134 133 79
135 134 78
138 137 84
144 141 86
135 133 74
142 140 80
147 144 84
147 144 85
151 147 85
146 143 83
151 147 85
143 141 84
159 155 90
145 142 77
152 148 85
151 147 82
157 152 87
154 150 80
155 151 83
158 154 86
165 159 88
165 159 88
165 160 92
163 157 90
165 159 89
156 153 83
165 160 87
166 160 90
165 161 90
168 162 87
170 163 96
169 162 92
167 163 91
173 166 91
169 162 90
166 161 86
168 162 87
165 160 87
169 163 86
167 161 88
165 159 83
169 163 91
167 162 90
167 161 89
171 164 87
169 163 83
169 162 91
167 162 86
169 162 87
173 166 90
167 161 88
168 162 83
166 160 87
160 155 78
166 160 84
173 165 90
166 161 84
163 157 82
164 158 76
167 160 84
166 160 87
164 158 87
168 161 87
166 160 84
164 158 87
162 156 80
161 154 80
162 156 80
168 161 83
160 154 79
166 159 84
161 154 79
154 148 76
160 154 77
167 160 89
153 147 76
162 156 78
156 150 73
150 144 70
153 147 71
157 150 72
158 153 75
147 142 70
156 149 75
147 142 67
157 150 77
153 146 75
144 138 62
150 144 71
147 140 67
139 133 64
154 146 72
142 137 61
152 145 71
135 129 63
139 134 59
147 145 59
142 143 56
150 151 58
146 152 49
143 152 36
147 156 37
159 172 42
157 171 30
163 180 30
161 176 22
165 184 11
169 191 11
171 192 0
173 194 0
170 194 0
171 195 0
171 195 0
171 195 0
172 195 0
171 195 0
172 196 0
173 197 0
172 196 0
172 195 0
176 199 0
172 196 0
171 194 0
171 195 0
173 197 0
173 197 0
175 198 0
173 195 0
172 196 0
173 196 0
170 194 0
170 193 0
171 193 0
171 194 0
170 194 0
170 193 0
171 195 0
171 194 0
173 197 0
172 196 0
173 197 0
172 196 0
170 194 0
170 193 0
174 197 0
172 195 0
172 195 0
167 190 0
173 196 0
173 197 0
172 196 0
169 193 0
172 196 0
171 195 0
168 193 0
172 195 0
171 195 0
171 194 0
172 195 0
172 195 0
169 192 0
170 193 0
172 195 0
168 191 0
171 194 0
168 192 0
172 195 0
173 197 0
171 195 0
171 195 0
169 193 0
169 192 0
171 195 0
170 194 0
171 195 0
170 193 0
170 193 0
172 195 0
171 194 0
170 193 0
167 192 0
171 194 0
170 193 0
171 194 0
173 196 0
173 195 0
170 193 0
165 188 0
171 194 0
172 195 0
172 195 0
168 192 0
169 193 0
168 192 0
167 189 0
169 192 0
169 191 0
165 189 0
171 193 0
143 168 92
63 99 163
62 99 167
62 98 163
62 98 162
61 97 158
62 98 163
63 99 170
63 99 169
61 97 163
62 98 166
62 99 167
62 99 173
62 99 171
62 99 168
62 98 167
62 99 173
62 98 171
62 98 165
61 98 163
62 98 171
62 99 171
62 99 171
63 100 176
63 99 175
62 99 173
62 98 170
63 99 180
62 98 171
62 99 174
62 98 169
62 99 172
62 99 173
62 99 177
62 99 175
62 99 176
62 99 177
62 99 175
62 99 174
62 99 175
63 99 177
62 99 176
62 99 176
62 99 176
63 100 179
62 99 178
62 99 173
62 98 172
62 99 176
62 99 176
62 99 179
61 98 173
62 99 177
62 99 178
63 100 180
62 98 172
62 98 171
63 99 173
62 99 176
62 99 175
62 99 179
62 99 176
62 99 175
62 99 175
62 99 179
62 99 175
62 99 176
62 99 177
62 99 176
62 99 176
62 99 180
62 99 177
63 99 177
62 99 177
62 99 176
62 99 180
63 99 175
62 99 179
62 99 178
62 99 174
62 99 178
62 99 172
62 99 178
63 99 175
62 99 175
61 98 171
62 99 177
62 99 174
62 99 178
63 100 178
62 99 174
62 99 177
62 99 170
61 98 172
62 99 177
62 98 173
62 99 170
62 99 177
62 99 175
62 99 173
63 100 179
62 99 177
62 99 173
63 100 180
62 99 173
62 99 172
62 99 170
62 99 178
62 99 176
62 99 173
62 99 174
62 99 178
62 98 172
62 99 175
63 99 176
62 99 176
63 99 177
63 99 178
63 99 177
63 99 177
62 99 176
63 99 176
62 99 177
62 99 175
63 99 175
62 99 175
62 99 174
62 99 171
62 99 176
62 98 166
62 99 171
62 99 174
62 98 166
62 98 167
61 98 171
62 99 170
62 99 174
63 100 175
62 98 170
62 99 168
63 99 171
62 98 170
63 99 174
63 99 173
61 98 165
62 99 168
62 98 168
61 97 161
62 99 173
63 99 167
62 98 166
62 98 168
62 98 169
61 97 165
62 98 169
62 98 167
62 98 167
61 96 161
61 96 162
61 97 168
62 97 161
63 99 170
61 97 163
61 97 165
61 97 164
60 94 158
60 94 156
60 95 157
59 93 159
60 85 128
63 72 68
52 57 38
55 60 41
60 67 51
68 74 47
66 72 52
74 77 50
67 71 47
64 71 52
73 77 50
85 88 60
82 87 58
75 80 50
93 96 66
91 94 61
105 107 69
95 99 65
102 103 59
101 103 66
103 104 64
95 97 60
102 104 66
114 116 67
112 112 68
116 116 70
126 125 82
120 121 74
128 127 73
126 125 74
120 120 73
138 135 76
120 120 72
131 130 79
132 131 80
146 143 84
135 134 79
129 128 69
149 145 85
146 143 82
146 143 82
143 140 84
147 143 80
149 146 82
157 152 91
150 147 75
158 153 85
157 153 88
161 156 86
159 154 90
156 152 85
158 153 83
157 153 86
161 156 90
162 157 94
166 160 92
156 152 83
161 156 90
168 162 93
164 159 85
167 161 90
162 157 83
167 161 91
166 160 88
162 157 84
167 161 87
167 161 82
168 162 85
169 163 89
166 160 86
168 162 84
166 160 86
172 165 92
164 159 80
169 161 91
172 165 91
166 161 82
172 165 96
170 163 84
165 159 87
173 166 87
174 167 96
167 161 90
165 159 79
164 158 84
173 166 93
171 164 87
170 164 90
165 158 86
167 160 87
167 160 83
167 160 84
164 157 87
168 161 84
163 158 82
160 154 85
163 157 79
165 158 80
166 159 87
164 158 78
160 155 76
158 152 75
158 151 75
166 159 87
162 157 78
157 152 74
153 148 75
152 146 70
147 141 70
160 153 82
158 152 70
153 148 73
157 151 77
156 149 76
158 151 73
148 142 67
146 140 65
155 148 75
141 135 61
157 149 81
152 146 68
148 142 71
148 141 64
148 143 62
141 134 66
146 140 61
131 126 45
134 130 49
144 142 53
151 154 47
148 156 48
148 153 48
154 161 45
151 160 39
158 172 32
151 165 22
164 182 25
162 180 19
163 182 16
170 191 0
170 192 0
172 194 0
173 196 0
173 197 0
170 194 0
175 198 0
172 195 0
172 196 0
171 196 0
173 196 0
173 196 0
170 194 0
173 196 0
174 197 0
172 196 0
171 195 0
171 195 0
175 198 0
173 197 0
171 194 0
174 197 0
169 192 0
169 192 0
172 196 0
168 192 0
168 191 0
174 197 0
173 197 0
170 194 0
172 196 0
172 195 0
171 195 0
171 194 0
171 195 0
171 195 0
170 193 0
171 195 0
172 195 0
171 195 0
172 195 0
171 194 0
172 196 0
172 196 0
170 194 0
170 193 0
173 196 0
170 194 0
172 195 0
174 197 0
173 196 0
172 196 0
172 195 0
171 195 0
171 195 0
171 195 0
169 192 0
170 193 0
171 194 0
169 192 0
171 194 0
169 192 0
172 196 0
170 193 0
171 195 0
169 193 0
172 195 0
172 196 0
168 192 0
171 194 0
171 195 0
169 193 0
171 194 0
171 194 0
171 194 0
170 193 0
173 195 0
168 193 0
168 190 0
169 192 0
169 192 0
169 193 0
169 192 0
169 192 0
168 191 0
168 192 0
168 193 0
169 192 0
169 193 0
172 195 0
166 189 0
167 190 36
101 129 139
61 97 154
62 98 162
62 98 161
62 98 165
63 99 167
62 99 168
62 98 166
63 99 170
62 98 161
63 100 174
61 98 169
62 99 169
62 99 168
62 99 171
62 98 165
62 98 168
63 99 174
62 98 170
62 99 172
62 99 175
61 98 172
62 99 170
62 99 174
63 99 174
62 99 177
63 99 176
62 99 175
62 98 171
62 99 171
63 99 175
62 98 173
62 98 172
62 99 177
62 99 175
62 99 176
62 99 177
61 98 171
62 98 173
62 99 177
63 100 178
61 99 177
62 99 175
62 99 176
62 99 173
62 99 174
62 99 176
62 99 173
62 99 175
62 98 171
62 99 179
62 99 176
62 99 178
62 99 171
62 99 175
62 98 173
63 100 179
62 98 171
62 99 177
61 98 176
61 98 170
62 99 173
63 99 176
62 99 177
62 99 174
62 99 178
62 99 178
63 99 173
62 99 176
62 99 176
61 98 176
62 99 174
62 99 177
62 99 176
62 99 176
62 99 176
62 99 177
63 99 177
61 98 177
63 100 179
62 99 178
62 99 175
62 99 177
62 99 175
62 99 177
61 99 177
62 99 177
62 99 179
62 99 173
62 99 173
62 99 174
62 99 174
62 99 175
62 99 176
63 100 179
62 99 177
63 100 178
63 99 175
62 98 173
62 99 175
62 99 175
63 100 176
62 99 173
63 99 174
62 99 177
62 99 173
62 99 173
62 99 179
63 99 174
62 99 174
62 99 178
62 99 177
62 99 172
62 99 173
62 99 177
63 99 177
63 99 173
62 99 173
62 99 175
61 98 171
63 100 180
62 99 176
62 99 173
62 98 170
62 99 173
62 99 174
63 99 174
62 99 174
62 99 173
62 99 175
62 99 173
62 98 172
62 98 172
62 99 175
62 98 172
62 99 174
63 100 177
62 97 163
62 99 169
62 99 171
63 99 174
61 98 167
63 100 172
61 98 168
63 99 173
62 99 172
63 99 173
62 99 170
62 99 173
61 98 167
62 99 170
61 98 167
63 99 172
61 96 157
62 98 169
61 97 165
62 98 164
63 99 171
62 99 171
61 97 165
61 96 161
61 97 161
61 96 162
61 96 159
60 94 152
62 98 165
61 95 150
60 94 148
59 93 151
60 88 137
51 71 103
55 63 55
61 64 39
55 62 40
53 59 35
58 64 41
71 75 49
63 70 47
71 75 44
75 77 46
74 78 51
86 88 56
89 91 56
103 104 67
87 90 58
90 94 62
93 97 60
92 97 62
90 92 58
101 103 59
117 116 73
107 108 67
122 120 69
117 116 65
110 111 69
108 110 62
116 117 69
121 121 74
118 118 71
133 132 81
127 126 77
135 134 80
125 125 74
142 140 81
142 139 74
148 144 82
137 135 76
146 143 80
149 145 80
138 137 78
143 140 84
151 146 81
151 148 81
157 152 85
155 152 86
156 151 87
157 152 82
154 149 85
151 147 84
155 152 81
156 150 81
164 158 90
154 150 86
163 157 88
162 157 89
165 159 89
158 153 82
162 157 83
166 160 85
167 161 87
162 157 87
163 157 86
169 163 90
165 159 87
164 159 83
164 159 83
166 161 84
168 162 89
167 161 86
166 160 86
169 163 90
169 163 88
165 159 88
170 163 89
171 164 90
167 161 86
167 162 84
169 163 85
170 163 88
169 162 84
165 159 83
166 160 84
169 162 86
170 163 89
166 160 85
169 162 84
167 160 84
168 161 86
165 158 84
166 160 81
169 162 87
157 151 78
164 157 84
159 153 78
169 161 89
162 156 82
161 155 80
167 160 84
165 159 80
166 159 80
162 155 78
158 153 76
154 149 72
157 152 70
167 160 84
161 154 80
166 159 84
156 151 75
157 152 70
158 151 72
160 153 78
152 146 72
150 144 68
153 147 70
156 150 80
158 153 74
155 149 70
148 142 69
147 141 69
152 145 74
148 141 63
151 144 68
141 134 61
146 140 64
134 129 51
137 132 59
142 140 59
142 141 62
149 154 49
149 153 47
143 149 41
149 160 36
161 173 34
157 167 39
161 176 30
160 175 25
162 179 19
166 186 19
168 191 0
170 189 0
169 191 0
173 196 0
171 195 0
170 193 0
166 189 0
172 195 0
174 197 0
173 196 0
171 194 0
174 198 0
171 195 0
172 194 0
172 195 0
173 196 0
172 196 0
171 194 0
172 195 0
169 192 0
172 196 0
170 194 0
171 195 0
170 194 0
172 195 0
168 191 0
169 193 0
174 197 0
173 196 0
173 197 0
170 194 0
174 197 0
173 195 0
172 195 0
171 194 0
172 194 0
171 195 0
171 194 0
169 193 0
173 196 0
171 195 0
172 196 0
170 194 0
171 194 0
173 197 0
173 197 0
172 195 0
173 197 0
167 190 0
172 196 0
170 194 0
167 190 0
168 191 0
173 197 0
171 193 0
172 195 0
170 194 0
173 197 0
168 192 0
172 195 0
168 192 0
173 196 0
170 193 0
173 196 0
170 194 0
171 195 0
168 192 0
168 193 0
169 193 0
168 191 0
169 193 0
172 196 0
171 194 0
173 196 0
169 192 0
171 194 0
173 196 0
172 195 0
172 196 0
169 191 0
169 192 0
169 193 0
169 192 0
169 193 0
168 191 0
170 193 0
171 195 0
170 194 0
169 192 0
166 190 0
168 191 0
163 186 44
70 104 156
62 98 160
62 98 161
61 97 160
62 98 160
62 99 166
62 98 168
62 99 167
63 99 167
62 98 169
62 99 166
62 99 168
62 98 164
62 99 171
62 98 169
61 98 163
62 98 166
62 98 169
63 99 172
64 100 175
62 99 174
61 98 167
62 99 171
63 99 174
61 98 173
62 99 177
63 99 172
62 99 171
62 99 173
62 99 179
62 99 173
62 98 170
63 99 171
62 99 172
62 99 174
62 99 174
62 99 176
62 99 177
61 98 175
62 99 174
62 99 180
62 99 172
62 98 174
62 99 174
62 99 175
62 98 175
62 99 175
62 99 177
63 100 178
62 99 178
62 99 176
62 99 175
63 99 174
62 99 176
62 99 180
62 99 178
63 100 178
61 98 173
62 99 175
62 99 176
62 99 174
62 99 175
63 100 177
63 100 179
62 99 173
62 99 179
63 99 176
62 98 171
62 99 177
62 99 176
63 100 177
62 99 173
62 99 176
63 99 175
63 100 179
62 99 174
63 100 178
62 99 172
62 99 176
62 99 174
62 99 179
61 98 170
61 98 171
62 99 175
62 99 176
63 99 176
62 99 175
63 100 178
62 99 177
62 99 172
62 99 173
62 99 173
62 99 176
62 99 175
63 99 176
62 98 171
62 99 171
62 99 178
62 99 174
63 100 178
62 99 175
62 99 176
62 99 177
62 99 175
62 99 177
63 99 172
63 99 174
62 99 171
62 99 175
62 98 170
63 99 175
62 99 174
62 99 177
62 99 174
61 98 172
62 99 176
62 99 177
61 98 170
62 99 174
63 99 173
62 99 174
62 98 169
62 99 176
62 99 171
62 98 169
62 98 169
62 99 173
62 99 176
62 98 170
62 99 170
62 99 172
62 98 168
62 98 170
61 97 165
62 98 171
62 99 175
63 99 173
62 98 167
61 97 161
62 98 167
62 98 165
61 98 168
63 99 169
62 99 171
62 99 171
62 99 172
62 98 169
62 99 172
61 97 165
63 99 170
61 98 164
61 97 166
62 97 159
61 97 166
62 98 165
62 98 167
61 96 165
62 97 166
61 97 159
62 98 169
62 98 167
62 97 160
61 97 165
62 97 164
60 94 151
60 95 161
60 94 157
59 93 153
58 90 145
57 89 148
55 76 114
48 57 59
44 54 44
52 58 40
56 61 36
68 73 46
65 70 47
63 70 48
78 82 52
81 85 55
77 81 52
83 86 58
78 83 52
91 92 45
91 94 53
96 100 67
95 96 57
94 96 59
94 97 52
92 95 56
106 107 61
99 100 64
108 110 69
115 115 68
112 112 68
120 120 73
122 121 69
136 133 74
130 129 73
138 135 83
135 133 76
125 124 74
138 137 78
135 134 78
136 134 80
130 129 74
141 139 82
143 140 80
136 133 79
152 148 85
146 143 80
145 142 82
150 146 82
148 145 81
149 145 82
141 138 79
150 146 77
152 149 82
159 155 88
151 147 77
161 156 77
150 147 83
157 152 84
160 155 79
159 154 86
167 160 90
160 155 86
157 153 81
163 157 88
164 158 83
156 152 82
166 160 82
167 160 86
167 161 88
168 161 90
160 155 78
166 161 90
170 164 90
169 163 92
167 159 87
170 164 86
169 163 85
166 160 84
163 157 82
168 163 83
169 162 86
172 165 90
171 165 90
168 163 80
171 164 91
171 164 82
168 161 84
167 161 84
166 159 84
168 161 85
165 159 83
166 159 81
166 160 90
164 158 85
164 158 79
165 158 86
168 161 80
161 154 80
157 152 69
166 159 81
161 155 75
158 151 77
166 159 80
166 159 79
155 150 67
162 155 77
157 152 76
160 153 76
155 149 71
159 153 74
161 155 78
159 153 77
161 155 75
152 146 80
155 148 70
157 150 76
142 136 68
157 151 73
154 148 75
155 148 75
154 148 75
154 147 77
154 148 69
145 138 66
148 143 69
140 135 61
139 134 57
144 139 61
140 134 62
142 136 67
137 134 58
145 143 59
140 140 51
146 151 48
154 163 47
152 158 47
149 158 37
155 166 37
158 170 42
163 177 25
160 176 19
166 185 16
164 182 11
165 184 0
173 194 0
170 191 0
170 194 0
172 196 0
173 197 0
174 197 0
170 194 0
172 196 0
172 195 0
171 195 0
170 194 0
170 193 0
175 198 0
173 196 0
171 194 0
173 196 0
170 194 0
173 197 0
167 190 0
172 195 0
173 196 0
172 194 0
171 195 0
172 195 0
170 193 0
170 193 0
173 196 0
174 197 0
171 195 0
169 192 0
171 194 0
172 195 0
172 195 0
170 194 0
174 197 0
170 194 0
169 192 0
172 196 0
172 196 0
171 194 0
168 192 0
172 195 0
172 195 0
170 193 0
169 193 0
171 194 0
171 194 0
170 193 0
170 194 0
171 195 0
171 195 0
172 195 0
171 194 0
171 194 0
172 195 0
170 194 0
172 196 0
173 197 0
173 197 0
168 192 0
171 194 0
170 194 0
171 194 0
169 192 0
168 192 0
171 194 0
171 195 0
171 194 0
171 194 0
169 192 0
170 193 0
169 193 0
170 193 0
171 195 0
170 194 0
172 196 0
170 193 0
168 191 0
169 192 0
172 195 0
168 191 0
170 194 0
168 190 0
168 191 0
171 195 0
170 193 0
168 191 0
168 191 0
168 191 0
170 194 0
133 157 102
61 97 159
62 98 163
61 97 161
62 99 166
62 98 161
61 97 163
62 99 168
61 97 161
62 98 167
62 99 169
62 99 165
61 97 163
62 99 169
62 99 175
62 98 167
63 99 174
63 99 174
62 99 173
63 100 176
62 99 170
63 99 178
62 98 169
62 99 173
63 99 174
62 98 172
62 98 172
62 98 170
61 98 173
62 99 173
62 99 174
62 99 176
62 99 175
62 98 174
62 99 172
63 99 175
62 98 167
62 98 172
62 99 174
62 99 173
63 100 176
62 99 172
63 100 175
62 99 177
61 98 174
61 98 175
63 99 173
63 99 175
62 99 177
61 98 172
62 99 172
62 99 175
61 98 174
62 99 172
62 99 177
63 99 173
62 98 173
62 99 176
62 99 175
62 99 176
63 100 179
62 99 176
62 99 177
62 99 177
63 100 177
62 99 176
62 99 172
62 99 176
63 99 178
62 99 178
61 98 171
63 99 177
62 99 176
61 98 173
62 99 176
62 99 174
63 99 177
61 98 174
63 99 175
63 99 178
62 99 174
62 99 176
62 99 171
62 99 178
63 100 179
62 98 173
62 99 175
62 99 177
62 99 169
62 99 176
63 99 177
63 99 173
62 99 174
61 98 174
62 99 174
63 99 177
63 99 176
62 99 171
62 99 171
62 98 174
62 99 173
62 99 174
62 99 174
62 99 172
63 99 175
63 99 173
61 98 173
62 98 171
62 99 169
62 99 172
62 99 173
62 99 171
62 99 174
63 99 175
63 100 177
62 99 173
62 99 171
62 99 175
63 99 172
62 99 171
62 99 175
63 99 176
62 98 172
62 99 175
62 99 174
62 99 170
62 99 175
61 98 168
62 99 167
62 98 170
62 99 171
62 98 166
62 99 171
62 99 173
62 99 171
62 99 175
62 98 169
61 98 164
62 99 172
62 98 170
61 97 166
62 99 170
62 99 173
61 98 167
62 99 170
62 98 169
63 99 172
62 98 169
61 98 167
62 98 167
63 99 170
63 99 177
61 97 166
62 98 167
61 98 168
61 96 162
62 98 166
62 98 166
61 97 166
60 95 159
62 97 163
61 96 157
61 96 160
61 97 160
59 93 156
61 95 162
60 95 152
61 97 159
60 95 153
60 93 156
58 91 143
55 83 126
48 61 70
53 61 48
43 51 42
59 64 42
57 64 43
72 75 46
80 81 49
75 79 53
73 78 46
74 78 51
73 78 51
78 83 54
83 88 58
110 111 64
97 100 64
86 90 54
84 88 56
99 101 60
92 95 56
106 107 63
114 114 63
109 109 64
114 115 66
124 123 68
124 124 70
131 130 75
120 119 69
122 122 68
124 124 75
135 133 69
127 124 74
128 127 67
133 131 76
142 138 76
135 134 67
151 147 89
138 137 79
134 133 78
148 144 81
139 136 70
156 151 84
145 142 79
145 142 78
143 140 78
145 142 81
150 146 80
160 154 90
157 153 80
157 153 86
160 155 84
157 151 82
158 153 85
159 154 87
165 159 85
160 154 83
161 156 86
165 159 85
164 158 84
166 161 85
162 157 86
162 158 80
168 162 89
165 160 88
163 157 76
166 160 87
166 160 86
171 164 86
167 160 84
166 160 84
166 160 85
168 161 88
164 158 83
162 157 86
169 161 83
166 160 81
172 165 89
165 159 86
161 155 76
164 158 81
165 158 80
163 157 76
166 159 81
169 162 85
164 158 82
168 162 84
160 155 79
164 159 81
170 163 87
167 161 86
163 158 76
166 159 85
162 156 80
165 159 79
163 157 76
164 158 84
155 149 64
162 155 81
164 158 80
158 152 75
160 153 75
159 153 73
155 150 73
163 157 77
156 150 71
162 155 78
155 149 76
154 148 67
159 152 73
162 155 80
154 149 69
151 145 69
162 155 77
148 142 66
149 143 72
142 136 65
153 146 74
151 144 71
147 142 61
147 140 67
149 143 65
144 137 62
134 129 58
148 142 69
135 129 68
138 133 58
145 144 54
143 146 49
143 149 48
151 159 41
151 160 39
159 168 47
150 160 39
153 167 19
159 174 25
160 178 19
166 183 22
166 188 0
172 192 0
174 195 0
171 192 0
173 197 0
174 197 0
172 196 0
170 195 0
173 196 0
170 194 0
172 195 0
172 196 0
172 196 0
171 195 0
172 196 0
172 196 0
172 196 0
173 197 0
172 195 0
174 197 0
172 196 0
172 196 0
167 190 0
171 194 0
172 196 0
173 197 0
171 194 0
172 196 0
173 196 0
171 195 0
169 194 0
170 194 0
172 196 0
169 193 0
172 195 0
168 191 0
172 195 0
170 194 0
171 194 0
169 193 0
171 195 0
171 195 0
173 196 0
169 193 0
171 194 0
173 196 0
170 194 0
171 194 0
171 194 0
171 193 0
169 193 0
173 197 0
172 196 0
168 191 0
170 193 0
170 193 0
172 195 0
172 196 0
171 194 0
174 198 0
169 193 0
171 195 0
172 195 0
166 189 0
169 192 0
169 192 0
170 192 0
175 197 0
170 194 0
169 192 0
169 192 0
172 195 0
169 192 0
170 195 0
171 194 0
170 194 0
170 194 0
169 193 0
169 193 0
172 194 0
174 197 0
171 193 0
166 189 0
170 194 0
170 193 0
167 190 0
172 195 0
171 195 0
168 192 0
169 192 0
169 192 0
166 190 31
110 135 115
62 98 158
62 98 156
62 98 160
62 98 167
62 98 161
62 99 165
61 97 158
61 98 166
61 97 157
62 98 166
62 98 164
62 98 170
61 98 166
62 98 165
62 98 165
62 98 160
62 99 169
62 99 177
62 99 169
62 98 170
62 98 168
63 99 172
63 99 172
63 99 175
63 99 174
62 99 175
62 99 174
62 99 171
63 99 174
62 99 174
62 98 169
62 99 173
61 98 173
61 98 171
62 99 175
62 99 175
63 99 172
62 99 171
63 99 176
63 99 175
62 99 174
62 98 171
62 98 171
62 98 174
63 99 176
62 98 171
62 99 176
62 99 176
61 99 177
62 98 173
62 98 169
63 100 180
63 99 174
63 99 174
63 99 175
63 100 177
62 99 177
62 99 175
61 98 172
62 98 172
62 99 176
62 99 174
63 99 175
62 99 176
62 99 172
62 99 173
63 99 173
62 99 172
62 99 175
62 99 172
61 98 177
62 99 172
62 98 172
62 98 173
62 99 169
62 99 174
62 99 176
62 99 177
62 99 174
62 99 174
62 99 175
62 99 178
62 99 175
63 100 178
61 98 170
62 99 172
62 99 178
62 99 174
62 99 177
62 99 174
62 99 176
62 98 172
62 99 174
62 99 175
62 99 172
63 99 173
62 99 175
62 98 173
62 99 175
62 99 176
62 99 176
62 99 178
62 99 176
63 99 175
61 98 169
62 98 170
62 99 176
63 100 178
63 99 172
62 99 171
62 99 173
62 99 172
62 99 177
62 98 173
62 99 176
61 98 168
62 99 174
62 99 175
62 99 172
63 99 176
62 98 168
63 99 177
63 100 175
62 99 175
61 98 176
62 99 174
62 99 174
63 99 170
61 98 166
63 99 171
62 99 174
62 98 170
62 99 171
61 98 172
62 99 169
62 99 173
62 98 169
62 98 169
61 98 170
62 98 166
62 98 170
62 98 171
62 99 174
63 99 169
62 99 169
62 98 166
63 99 170
61 98 162
62 99 170
62 98 170
62 98 164
62 98 165
62 98 167
62 97 159
62 98 169
62 97 163
62 98 167
62 98 168
61 97 161
62 97 166
62 98 162
60 95 151
61 96 162
61 97 155
61 96 156
61 97 160
60 95 155
61 95 154
59 92 152
59 93 152
59 89 140
51 67 91
58 63 43
62 66 47
58 61 39
52 60 41
48 53 34
59 66 41
69 74 49
59 65 45
76 80 51
66 72 46
89 93 52
76 79 50
83 86 51
80 84 49
104 106 61
100 102 58
99 102 63
108 108 67
109 110 57
112 113 63
105 108 65
117 117 66
103 105 65
120 120 68
116 116 67
119 119 67
115 116 69
137 134 82
131 129 68
129 127 74
130 128 76
135 132 75
134 132 74
134 132 73
145 141 77
144 141 74
134 132 77
149 145 77
146 143 76
144 142 79
155 151 80
148 144 78
148 144 75
148 145 81
154 148 79
157 152 83
153 149 81
156 151 86
159 154 86
160 154 87
160 155 82
165 159 87
161 156 87
152 147 76
165 160 85
160 154 84
160 156 82
167 160 86
161 156 79
164 159 87
166 160 78
161 154 82
160 154 83
164 158 85
167 161 87
166 161 87
164 158 86
169 163 86
169 162 87
165 159 82
163 157 85
170 163 93
164 158 75
170 163 89
174 166 91
168 161 78
161 156 80
164 158 75
170 164 87
159 154 74
168 161 81
168 161 87
163 157 82
170 162 83
163 157 80
162 156 77
162 156 80
163 157 85
159 153 78
166 160 80
162 156 77
165 158 85
167 160 82
160 153 80
166 159 83
161 155 81
162 156 75
165 159 75
162 154 84
154 149 69
162 155 82
162 155 76
162 156 80
154 148 71
159 152 76
161 154 73
163 156 76
149 144 61
151 145 66
152 147 69
151 145 68
149 143 67
148 142 68
156 150 67
148 142 67
141 136 62
147 141 61
153 147 70
138 133 61
141 135 59
138 133 56
129 124 57
140 135 57
139 136 56
136 136 49
141 141 47
142 146 51
152 157 48
153 164 36
153 167 19
160 175 36
157 172 30
165 180 28
163 184 0
168 188 0
171 190 16
170 192 0
171 193 0
171 192 0
174 197 0
168 192 0
173 196 0
172 196 0
172 195 0
170 194 0
170 194 0
171 195 0
174 197 0
174 197 0
172 196 0
167 191 0
174 197 0
175 198 0
174 196 0
172 196 0
173 196 0
173 196 0
171 195 0
173 197 0
173 197 0
169 193 0
172 195 0
173 196 0
172 196 0
173 196 0
171 194 0
171 194 0
167 192 0
174 197 0
175 197 0
172 195 0
170 193 0
171 194 0
170 193 0
173 196 0
172 196 0
171 194 0
172 195 0
171 195 0
171 194 0
170 193 0
171 195 0
170 194 0
170 194 0
169 192 0
173 196 0
169 193 0
170 194 0
169 192 0
173 196 0
172 195 0
171 195 0
172 195 0
169 193 0
170 194 0
171 194 0
172 196 0
169 192 0
171 194 0
170 194 0
171 195 0
172 196 0
169 193 0
172 196 0
168 192 0
167 189 0
171 194 0
167 191 0
168 191 0
172 194 0
168 191 0
171 195 0
172 195 0
168 191 0
168 192 0
168 191 0
171 194 0
169 192 0
167 190 0
167 191 0
170 193 0
169 192 0
169 191 0
170 193 0
168 192 0
168 191 0
161 183 57
76 108 151
62 97 153
62 98 166
62 98 165
62 98 165
62 98 166
62 98 161
62 99 170
62 99 170
62 99 167
62 98 165
62 98 169
63 99 170
62 98 166
63 99 169
62 98 164
62 99 170
62 98 168
62 99 171
62 99 170
62 98 168
63 99 171
62 99 170
61 98 168
62 99 168
62 98 169
63 100 176
63 99 176
62 98 168
62 98 171
62 99 173
62 99 176
62 98 168
62 99 174
63 100 177
62 99 176
63 99 174
62 99 178
62 98 171
63 99 170
62 99 178
62 99 174
63 100 179
62 99 175
62 99 175
62 99 172
62 99 170
62 99 175
62 99 176
62 99 178
62 99 176
61 98 169
63 100 179
61 99 177
62 99 178
62 98 172
62 99 179
63 99 174
63 99 177
63 99 175
62 98 168
62 99 178
62 99 178
62 99 172
62 99 176
63 99 174
63 99 177
63 99 175
63 99 175
62 99 176
63 99 175
62 99 175
62 99 175
62 98 166
63 99 177
63 99 177
62 99 177
62 99 176
63 99 174
62 99 176
62 99 171
63 99 175
62 99 173
63 100 177
62 99 173
62 99 175
63 99 173
62 99 171
62 99 177
62 99 174
62 99 174
63 99 174
62 99 176
62 99 172
62 99 174
62 99 175
61 98 172
62 99 177
63 99 173
62 99 176
62 99 175
62 99 169
62 99 176
62 99 179
63 99 172
62 99 174
62 99 175
62 98 171
63 100 179
62 99 174
61 97 162
62 99 175
62 99 175
62 99 174
62 99 175
62 99 172
61 98 173
62 98 172
63 99 170
62 99 172
61 98 171
62 98 170
63 99 167
62 98 168
63 100 176
61 98 172
62 98 169
62 99 172
62 99 168
62 99 171
62 98 169
61 98 165
62 99 175
63 99 174
63 99 173
62 98 172
62 98 164
62 99 175
61 97 166
62 99 169
63 99 172
63 99 171
62 99 170
61 97 164
62 99 172
63 99 171
62 98 171
61 97 161
62 98 168
63 100 172
63 99 170
61 98 169
62 98 169
61 97 161
61 96 160
61 96 161
62 98 166
61 97 163
62 98 166
61 98 163
62 98 161
61 98 165
61 97 161
61 97 163
62 98 162
61 96 163
60 95 158
61 96 160
61 95 157
59 93 152
59 92 148
58 89 146
58 77 103
56 66 65
51 56 33
52 57 34
53 59 39
52 59 36
53 60 39
64 69 39
81 83 51
82 86 55
71 75 44
74 79 49
83 87 50
82 86 48
90 92 54
85 88 51
83 86 53
91 94 58
96 100 63
101 102 53
109 110 68
114 114 62
113 114 67
113 113 61
110 111 64
122 121 71
120 119 70
122 122 70
137 134 72
116 117 71
124 122 72
132 131 68
136 133 74
139 136 74
125 125 67
138 135 72
140 138 78
144 141 80
149 145 79
151 147 78
142 140 79
151 147 78
149 145 75
151 147 79
155 150 81
154 150 83
158 153 85
157 152 84
153 149 82
165 159 91
161 156 84
160 154 84
162 156 85
157 152 79
159 154 82
156 151 84
158 153 79
163 158 90
160 154 86
160 155 80
165 158 82
167 160 84
167 161 88
163 157 79
164 157 82
165 159 87
157 151 77
162 158 78
162 156 82
169 162 87
162 156 80
164 158 84
166 159 85
169 162 87
169 161 82
168 162 87
163 157 77
171 165 87
163 158 80
165 159 84
160 155 74
163 157 81
164 157 81
161 155 78
169 162 92
163 158 82
169 162 84
166 160 79
160 154 78
166 159 83
154 148 72
162 156 74
166 159 77
159 153 76
157 152 69
153 148 72
162 155 84
161 155 73
163 156 83
162 155 75
157 151 78
165 157 84
156 149 75
153 147 69
154 148 70
152 146 73
155 147 74
161 155 80
153 147 68
148 143 62
155 148 73
156 150 72
153 146 69
150 144 69
143 137 63
147 142 59
144 139 58
137 132 52
151 144 68
147 140 69
150 143 64
139 134 54
141 135 57
136 130 57
146 146 45
143 143 56
146 150 36
154 159 44
152 161 44
162 171 42
157 168 36
152 165 22
157 172 19
161 177 16
163 182 19
169 190 11
172 194 0
171 192 0
169 190 0
170 191 0
174 197 0
173 197 0
173 195 0
173 196 0
171 194 0
170 194 0
173 196 0
174 197 0
172 196 0
174 197 0
171 195 0
173 196 0
170 195 0
172 195 0
172 195 0
172 196 0
172 196 0
174 198 0
170 194 0
171 195 0
169 192 0
170 194 0
173 196 0
168 192 0
173 197 0
171 195 0
168 192 0
171 195 0
172 196 0
170 194 0
171 194 0
169 192 0
169 193 0
168 192 0
170 193 0
170 193 0
169 193 0
170 194 0
170 194 0
170 194 0
175 198 0
172 195 0
173 197 0
174 197 0
170 193 0
174 197 0
172 196 0
171 195 0
172 195 0
165 189 0
172 195 0
172 196 0
171 194 0
170 194 0
170 193 0
170 193 0
171 195 0
169 193 0
169 193 0
173 196 0
170 193 0
167 191 0
170 194 0
170 193 0
170 193 0
170 193 0
167 190 0
170 193 0
169 192 0
172 195 0
171 194 0
169 192 0
165 189 0
168 192 0
167 190 0
167 190 0
170 194 0
168 192 0
171 194 0
168 191 0
171 194 0
168 190 0
167 190 0
169 192 0
172 196 0
170 193 0
165 188 0
139 163 97
61 96 151
60 96 145
61 97 159
62 98 161
62 99 168
62 98 159
62 98 164
61 98 162
63 99 170
62 99 167
62 98 164
62 98 162
62 99 174
62 99 171
62 98 165
63 99 172
62 98 166
62 99 169
62 99 171
62 98 164
62 99 168
62 99 173
62 99 172
62 99 171
62 98 166
61 98 171
62 99 174
62 99 167
63 100 174
62 99 177
62 99 173
62 99 173
63 99 177
63 99 172
62 99 171
62 99 174
61 98 168
62 99 174
63 99 174
62 98 169
62 99 176
63 100 178
62 98 171
63 99 177
63 99 178
62 98 166
62 99 177
63 99 177
63 99 175
62 99 175
62 99 172
63 99 173
62 99 178
62 99 175
62 99 177
63 99 175
61 98 172
62 99 175
62 99 179
62 99 174
62 98 173
62 99 176
62 99 176
62 99 173
62 99 172
62 98 173
62 98 173
62 99 179
62 99 176
62 99 174
62 99 175
62 99 175
62 99 177
62 99 172
61 98 169
62 99 174
62 99 172
62 99 176
63 99 177
62 99 176
62 98 172
62 99 175
63 99 176
62 99 175
62 99 175
62 99 175
62 99 179
62 99 177
62 99 175
63 99 175
62 99 175
62 99 174
63 99 179
61 98 174
63 100 180
62 99 172
63 100 179
62 99 175
62 99 174
62 98 168
62 99 175
63 100 176
62 98 175
63 99 172
63 99 173
62 98 169
62 99 175
62 99 176
62 99 173
62 99 172
63 99 171
63 99 172
62 99 176
62 99 170
62 99 173
62 99 171
62 99 174
63 99 171
62 98 168
62 99 172
63 99 171
62 99 174
62 99 167
62 98 170
61 98 166
62 99 168
62 98 176
63 100 176
62 99 172
62 98 169
62 98 168
61 98 164
62 99 171
62 98 169
62 99 172
61 98 167
62 99 164
62 98 167
63 99 172
63 99 175
63 99 167
62 98 167
62 98 165
62 98 170
61 98 164
62 98 171
62 98 169
62 98 166
62 98 168
63 99 171
62 99 170
62 97 162
61 97 168
62 98 165
62 97 159
62 97 162
61 97 162
62 98 165
62 98 165
61 97 164
62 98 167
62 97 162
60 96 160
62 98 168
62 98 164
60 95 149
60 94 156
62 97 167
61 96 163
61 96 158
60 95 154
58 91 141
52 77 116
54 68 73
56 60 37
57 61 35
53 59 34
71 74 46
57 63 35
77 79 42
63 69 43
68 72 46
71 76 44
81 86 49
87 89 52
82 87 56
78 82 47
99 100 63
102 104 54
95 97 52
105 106 59
104 105 56
104 104 56
118 118 63
118 117 64
101 103 56
112 113 71
117 118 67
121 121 68
114 114 68
123 123 69
122 121 66
121 122 70
137 134 74
131 129 70
139 136 76
136 133 74
141 138 77
141 139 71
137 135 74
148 144 81
136 134 73
150 146 80
143 140 76
148 145 81
152 148 83
145 142 72
144 141 75
148 144 71
153 149 83
157 152 80
160 154 79
154 150 80
157 152 86
160 155 80
159 153 85
149 146 78
164 158 86
164 158 82
163 157 82
162 156 82
162 157 86
162 156 80
161 155 80
166 161 89
162 156 84
160 155 80
162 157 81
166 159 82
171 163 87
169 163 88
161 156 78
164 158 77
164 158 81
170 163 84
166 160 79
169 161 80
167 160 86
169 161 84
166 161 82
169 162 87
174 166 88
163 158 85
162 157 77
167 161 81
163 156 74
169 162 82
169 162 84
161 155 77
163 157 78
161 155 75
166 159 74
165 158 80
165 159 79
163 157 82
161 154 75
158 152 74
161 156 74
161 155 76
164 157 78
162 156 76
163 157 75
158 151 73
159 153 76
156 150 74
159 152 76
151 146 65
157 151 71
158 152 74
154 148 71
152 147 68
151 146 65
152 145 69
154 148 70
145 139 60
148 142 66
150 143 75
154 148 71
149 142 65
145 140 59
135 130 54
143 137 58
144 137 62
144 138 65
146 141 56
132 127 52
136 136 52
142 143 45
149 154 48
147 150 48
150 159 39
150 159 39
153 165 36
158 170 39
165 181 34
159 174 32
164 181 19
164 185 0
170 190 0
170 190 0
173 196 0
171 192 0
173 196 0
172 195 0
172 195 0
174 197 0
170 193 0
171 195 0
171 194 0
172 195 0
171 195 0
172 195 0
172 195 0
171 195 0
173 196 0
172 194 0
172 195 0
171 195 0
172 195 0
169 193 0
174 196 0
172 196 0
170 194 0
168 191 0
171 195 0
171 194 0
171 195 0
170 194 0
169 192 0
171 194 0
172 196 0
171 195 0
169 193 0
170 193 0
171 195 0
173 196 0
171 195 0
173 196 0
171 194 0
169 193 0
169 194 0
172 196 0
167 190 0
172 195 0
170 193 0
172 195 0
172 195 0
170 193 0
171 194 0
169 192 0
172 194 0
172 195 0
169 193 0
166 190 0
173 196 0
166 190 0
172 196 0
171 194 0
173 195 0
170 195 0
171 195 0
172 195 0
168 191 0
171 195 0
172 196 0
168 192 0
170 194 0
170 193 0
171 194 0
169 193 0
170 193 0
172 195 0
169 192 0
170 193 0
169 192 0
171 194 0
169 192 0
172 195 0
165 189 0
171 194 0
170 194 0
167 189 0
170 194 0
170 193 0
167 190 0
169 191 0
169 192 0
167 189 0
170 194 18
113 139 125
61 97 157
61 98 161
61 97 159
62 98 162
62 98 165
63 99 168
61 97 158
62 98 161
62 98 164
62 98 167
62 98 167
62 98 166
62 98 169
63 99 170
63 99 171
61 98 167
62 98 168
62 99 169
62 98 161
63 99 171
62 99 175
62 98 168
62 99 174
62 98 169
62 99 171
63 99 173
62 99 177
62 99 173
62 99 171
62 99 175
62 99 169
62 99 175
62 99 173
62 99 171
62 98 166
63 99 176
62 98 171
62 99 174
63 100 175
62 99 169
62 99 173
62 99 176
61 98 172
61 97 168
62 99 171
62 99 173
62 99 176
63 99 176
62 99 176
62 99 172
62 99 172
62 99 178
62 98 168
63 100 177
63 99 176
62 99 175
61 98 175
62 99 175
61 98 174
62 99 178
62 99 173
62 99 176
62 99 172
62 99 173
62 99 175
62 99 175
62 99 178
62 99 177
63 99 172
62 99 177
63 99 177
62 99 175
62 98 168
62 99 174
63 99 170
62 99 175
62 99 178
62 99 172
62 99 176
62 99 175
62 99 173
63 99 176
62 99 170
62 99 174
62 99 173
63 99 174
61 98 172
63 99 177
62 98 171
62 99 175
63 99 178
62 98 173
62 99 175
62 99 176
62 99 175
61 98 167
62 99 173
62 99 171
62 99 169
62 99 175
62 99 180
62 99 174
61 98 173
62 99 174
62 99 171
62 99 175
62 99 172
62 99 173
63 100 176
62 98 172
62 99 170
63 100 172
62 98 169
63 99 170
63 99 174
62 99 171
62 98 170
62 99 174
62 99 176
62 99 171
62 99 171
62 99 171
62 99 173
62 99 172
62 99 174
62 99 176
63 99 166
62 99 173
61 98 168
62 99 172
62 99 175
63 99 169
63 99 173
61 98 168
62 99 173
62 98 172
62 98 169
62 99 173
62 98 162
62 99 169
63 99 170
62 98 167
62 99 168
62 98 168
63 99 170
62 98 171
62 98 167
62 99 171
61 97 164
61 98 167
62 98 166
62 98 171
62 99 169
62 98 167
63 99 173
62 98 170
61 97 158
62 98 168
62 97 167
61 96 160
60 96 162
62 98 163
61 96 162
61 97 165
61 97 162
60 95 156
60 95 152
62 97 161
60 94 155
59 93 147
60 93 150
58 92 152
57 87 139
54 68 75
55 58 27
58 62 30
51 57 35
52 58 40
63 70 42
60 65 42
76 79 45
80 82 46
74 79 43
83 86 55
72 77 49
86 90 56
98 99 53
91 94 57
92 94 55
92 94 52
100 103 64
106 107 67
109 110 63
117 116 65
103 104 57
110 110 60
118 117 65
122 121 64
123 122 65
124 124 67
126 125 72
129 128 66
126 125 68
122 122 63
123 122 66
136 133 76
142 139 79
141 140 76
137 135 73
138 134 70
135 133 73
141 138 77
142 138 77
143 141 75
143 140 74
152 148 78
147 143 77
148 143 74
150 145 76
150 147 76
153 148 81
154 149 77
155 150 79
158 154 77
154 150 75
160 155 83
156 151 83
164 158 86
155 151 80
161 156 82
165 159 85
160 155 82
166 159 81
166 159 89
161 156 77
166 160 86
160 155 81
163 156 81
170 164 84
168 161 87
164 159 78
168 161 82
164 158 85
163 157 80
163 157 81
164 158 76
166 159 81
169 162 82
168 161 84
169 163 85
161 154 79
168 161 87
162 156 80
161 155 75
163 156 82
168 161 84
165 158 83
162 155 78
164 157 80
164 156 80
165 158 82
166 159 78
157 150 74
162 155 75
155 150 71
158 152 73
160 154 75
161 155 78
162 155 76
155 149 72
157 151 71
154 149 73
162 156 75
162 155 80
152 146 73
163 156 77
157 152 74
157 151 75
153 147 69
147 141 69
157 150 70
157 151 69
154 149 69
145 139 66
148 141 64
154 148 68
151 145 69
152 146 71
151 145 65
144 138 65
137 131 52
146 139 63
144 137 69
129 124 48
131 126 51
134 134 39
138 139 49
141 144 44
143 147 47
146 154 41
154 163 44
151 162 28
157 170 34
160 174 32
165 180 25
162 179 19
168 186 19
168 189 16
169 190 0
173 193 0
169 191 0
170 192 0
169 193 0
172 195 0
171 195 0
172 195 0
173 197 0
172 195 0
171 195 0
170 194 0
170 192 0
173 196 0
171 194 0
172 194 0
172 196 0
171 195 0
171 195 0
172 196 0
168 192 0
173 196 0
174 198 0
171 195 0
173 196 0
174 196 0
172 195 0
172 195 0
173 195 0
172 195 0
171 194 0
173 196 0
169 192 0
170 193 0
172 196 0
174 197 0
171 195 0
171 195 0
169 192 0
172 195 0
172 195 0
169 192 0
171 195 0
169 193 0
172 195 0
168 193 0
170 193 0
168 192 0
168 190 0
171 195 0
168 192 0
169 193 0
171 194 0
169 192 0
171 193 0
171 194 0
172 196 0
168 191 0
169 193 0
166 191 0
169 192 0
172 195 0
169 192 0
169 193 0
168 191 0
172 195 0
167 190 0
168 191 0
171 194 0
173 197 0
167 191 0
169 192 0
169 193 0
169 193 0
172 195 0
172 194 0
172 195 0
170 194 0
164 188 0
168 192 0
168 191 0
165 188 0
164 187 0
173 196 0
173 195 0
168 190 0
168 191 0
166 189 0
171 194 0
170 193 0
166 189 36
79 111 145
61 97 151
62 98 164
62 98 160
63 98 158
61 97 158
62 98 170
62 98 162
62 98 163
62 98 170
62 98 165
62 98 165
63 99 169
61 98 163
62 98 165
62 98 167
62 99 168
61 97 164
62 99 171
62 99 170
62 99 174
63 99 174
62 99 173
62 98 169
61 98 168
62 99 171
62 98 166
62 98 171
62 98 170
62 98 164
62 99 171
62 98 170
62 99 174
62 99 173
62 99 178
62 98 172
62 99 174
62 98 170
63 99 174
62 99 171
63 99 172
62 99 174
62 99 173
62 98 172
62 99 176
62 99 175
62 99 174
63 99 174
62 99 176
62 99 172
62 99 176
62 99 176
62 99 172
62 99 175
62 99 170
62 99 176
62 99 171
62 99 174
63 99 179
63 99 176
62 99 175
62 99 175
62 98 166
62 99 174
63 100 179
62 99 172
62 99 174
63 100 177
62 99 176
61 98 170
62 99 180
62 99 176
62 99 177
62 99 170
62 98 174
62 98 169
62 98 173
62 99 174
63 99 173
62 99 173
62 99 171
62 99 171
62 99 173
62 99 174
62 98 169
62 99 177
62 99 175
62 99 176
62 99 173
62 99 175
62 99 171
62 99 177
62 98 172
63 99 174
62 98 169
62 99 172
62 99 175
63 100 176
63 99 173
62 99 170
62 99 174
63 100 177
62 99 177
63 99 176
62 99 170
62 99 177
63 99 177
62 98 172
62 98 171
62 99 177
62 99 173
63 99 168
62 98 172
63 99 177
62 99 170
62 99 172
63 99 172
62 99 176
62 98 168
62 99 168
61 98 171
63 99 172
62 99 175
62 99 173
62 99 172
62 99 173
62 99 172
62 99 171
62 98 168
62 98 169
63 99 172
63 99 172
62 98 167
62 99 170
63 99 173
62 98 169
62 98 167
63 100 170
61 97 165
62 98 168
62 98 170
62 98 167
62 99 168
62 99 168
62 98 167
62 98 166
62 98 166
62 98 167
62 99 171
63 99 169
61 98 161
63 99 172
61 98 168
61 97 162
62 98 168
62 98 168
62 99 165
62 99 174
63 99 170
62 98 165
61 96 159
62 97 164
62 98 165
61 96 159
60 95 157
63 99 168
61 97 163
60 95 153
59 93 151
61 97 159
61 95 156
59 93 150
59 93 149
56 87 137
53 75 110
57 63 47
47 53 26
51 58 38
54 63 46
60 65 39
64 67 38
51 57 38
71 75 42
70 73 44
73 78 50
83 84 43
83 86 50
82 84 48
107 108 66
88 92 52
104 106 59
97 99 59
98 100 56
121 121 61
112 111 60
115 115 59
118 118 64
107 108 65
117 117 63
121 120 66
118 118 64
123 122 64
129 126 74
128 126 64
126 124 67
133 131 68
139 136 69
135 132 72
136 134 64
138 134 70
137 134 67
145 142 76
140 137 75
151 146 85
146 142 71
147 143 76
146 143 73
152 149 81
143 140 72
152 148 77
152 148 76
148 144 83
154 149 83
158 152 81
152 147 79
156 151 75
159 154 82
160 154 84
162 156 83
155 150 76
158 153 82
155 150 75
157 152 74
154 150 75
165 159 90
161 155 84
165 159 83
169 162 91
164 158 80
164 159 78
165 159 80
164 158 79
162 156 80
165 158 79
165 159 83
162 156 81
167 161 82
161 154 82
168 162 81
164 158 83
167 161 84
165 159 80
165 158 80
174 166 90
161 155 79
164 157 79
161 154 76
165 158 75
163 156 77
157 152 66
166 160 80
164 158 84
161 155 78
158 153 75
164 157 80
158 152 70
159 152 75
155 150 70
159 152 78
155 150 71
155 149 72
154 148 66
162 156 80
160 154 70
163 156 79
156 150 74
158 153 73
152 146 73
151 145 71
156 150 70
146 141 64
153 147 72
151 146 62
144 139 59
156 150 66
151 145 69
147 141 65
153 147 69
145 140 51
136 132 58
144 139 61
146 140 64
139 132 60
143 137 54
135 130 56
139 134 53
142 138 52
144 145 49
142 144 37
144 149 44
151 163 36
147 156 44
151 162 37
155 171 19
155 169 28
163 180 25
167 188 11
165 184 11
172 193 11
172 194 0
173 193 0
171 194 0
170 192 0
169 192 0
175 198 0
172 196 0
171 194 0
170 193 0
171 195 0
173 195 0
169 193 0
171 193 0
171 194 0
172 195 0
174 197 0
170 194 0
174 197 0
170 194 0
172 196 0
170 193 0
172 195 0
172 195 0
172 196 0
170 194 0
171 194 0
172 196 0
170 194 0
171 195 0
171 194 0
171 194 0
168 191 0
169 192 0
171 195 0
171 194 0
168 192 0
169 194 0
171 194 0
171 195 0
169 191 0
171 194 0
173 195 0
169 192 0
171 194 0
172 195 0
170 193 0
172 195 0
171 194 0
169 192 0
171 194 0
171 193 0
171 196 0
169 192 0
171 194 0
170 193 0
166 189 0
167 189 0
171 195 0
168 191 0
171 194 0
171 194 0
170 194 0
172 196 0
170 193 0
169 194 0
168 192 0
173 196 0
171 195 0
167 191 0
170 194 0
169 192 0
168 191 0
170 193 0
171 195 0
168 191 0
170 193 0
169 193 0
168 191 0
171 195 0
169 192 0
167 191 0
168 192 0
170 192 0
166 188 0
169 192 0
169 193 0
171 193 0
171 194 0
166 189 0
165 188 0
157 180 65
68 103 164
61 97 153
61 98 159
63 99 162
62 98 158
61 97 157
62 98 161
63 99 171
62 98 167
63 99 172
62 99 168
62 98 164
62 98 163
62 99 171
62 99 168
62 98 168
62 98 166
62 99 169
62 98 168
62 99 172
62 99 172
62 99 172
62 98 167
63 99 170
63 99 174
62 98 170
62 99 167
62 98 170
63 99 171
62 98 170
62 99 169
62 98 168
62 99 175
62 99 171
62 99 172
62 99 172
61 98 172
62 99 176
62 99 172
62 99 171
62 99 171
62 99 172
62 99 174
62 99 176
63 99 173
62 99 173
62 99 174
62 98 173
63 99 171
62 99 172
62 99 169
62 99 173
63 99 173
62 99 171
63 99 175
62 99 174
62 99 175
62 99 171
62 99 177
62 99 169
62 99 176
62 99 179
63 100 178
63 99 177
62 98 173
62 99 172
63 99 177
62 99 173
62 99 176
63 100 179
61 98 174
63 99 175
62 99 176
63 99 175
62 99 176
63 99 174
62 99 177
62 99 172
62 99 176
63 99 176
63 100 176
62 99 175
62 99 172
62 99 173
62 99 177
61 98 175
61 98 170
62 99 173
62 99 174
62 99 174
62 99 175
62 99 174
62 99 173
63 99 170
61 98 168
62 99 171
62 99 174
63 99 170
62 99 172
63 99 172
63 100 177
62 99 176
62 98 172
62 99 175
62 99 173
62 99 168
62 98 171
62 99 174
62 99 170
62 99 175
62 99 170
63 99 177
62 99 172
61 98 166
62 98 167
62 98 173
62 99 172
63 99 173
63 99 173
63 99 174
62 99 172
63 99 175
63 99 176
62 99 170
62 99 172
63 99 175
62 98 172
62 99 172
62 98 165
62 99 173
61 98 166
62 99 168
61 98 164
62 98 168
62 99 168
62 99 173
61 98 169
62 98 168
62 98 164
62 98 164
62 98 167
62 98 167
62 98 166
62 98 163
63 99 173
62 99 168
62 98 165
61 97 161
62 98 171
62 98 165
61 98 160
62 98 165
62 98 171
62 98 170
62 98 170
62 98 163
61 97 164
61 97 160
62 99 165
61 97 165
62 98 164
62 98 168
62 98 163
61 97 163
62 98 170
60 96 162
63 98 165
61 96 156
60 95 158
61 96 158
62 97 155
60 95 155
60 95 150
59 92 144
47 73 108
67 73 51
54 58 29
57 61 28
59 64 39
71 73 37
65 69 43
59 65 42
69 74 39
72 77 46
71 75 42
82 86 47
81 84 46
68 71 36
86 90 44
85 89 45
94 99 63
92 95 58
96 99 58
109 109 64
109 109 58
108 108 60
114 114 58
104 105 55
120 119 65
124 123 65
116 115 60
117 118 63
127 126 71
138 134 69
124 123 63
130 128 61
126 125 63
136 133 74
137 136 73
141 137 68
134 132 66
136 133 67
143 140 74
141 139 72
149 145 79
143 139 73
145 143 77
144 143 63
140 137 74
145 141 77
157 153 73
156 151 80
154 149 75
148 144 72
148 143 82
153 149 74
166 159 87
153 148 79
157 153 78
164 159 83
157 151 77
159 153 74
167 160 88
163 157 80
159 153 78
161 155 80
159 154 74
165 159 83
160 155 75
162 157 80
161 155 75
163 157 75
163 158 78
163 156 82
163 157 81
167 160 85
159 154 74
167 160 82
167 161 80
163 157 78
161 155 75
170 162 87
166 159 74
162 156 80
163 158 74
158 152 75
159 154 70
163 157 77
165 159 87
161 154 77
163 156 76
162 155 75
159 153 72
159 154 71
156 150 72
162 156 73
164 157 75
164 156 75
161 155 76
159 153 72
158 151 79
156 149 69
160 153 75
152 146 66
150 144 64
150 144 75
149 143 71
160 152 77
159 152 72
156 150 71
145 139 65
144 138 62
150 145 68
144 138 61
143 138 58
143 138 61
151 144 67
151 146 59
146 139 61
137 132 61
137 131 57
141 134 62
140 135 54
141 135 59
131 125 54
139 137 57
133 132 47
149 150 52
152 156 49
142 147 41
151 160 39
154 167 25
152 164 30
157 170 28
162 179 22
157 173 11
165 183 11
167 188 11
169 188 0
169 190 0
171 192 0
172 194 0
172 193 0
174 196 0
174 197 0
171 194 0
172 195 0
172 195 0
171 195 0
173 196 0
171 194 0
172 195 0
169 193 0
170 193 0
173 196 0
173 196 0
175 198 0
167 191 0
173 195 0
173 197 0
170 194 0
171 195 0
172 195 0
171 194 0
169 192 0
170 193 0
174 196 0
169 193 0
171 194 0
173 195 0
171 194 0
172 196 0
173 197 0
173 196 0
167 191 0
170 194 0
173 197 0
170 194 0
171 194 0
169 192 0
172 195 0
172 195 0
170 194 0
171 194 0
170 194 0
173 196 0
168 191 0
170 193 0
172 196 0
168 192 0
173 195 0
173 197 0
172 194 0
168 192 0
170 193 0
167 191 0
171 194 0
173 196 0
171 195 0
172 195 0
171 194 0
171 194 0
170 193 0
168 192 0
168 191 0
166 189 0
170 193 0
169 192 0
171 194 0
170 194 0
171 194 0
169 193 0
168 192 0
169 193 0
171 194 0
166 189 0
167 190 0
169 192 0
168 191 0
171 194 0
169 193 0
165 189 0
170 194 0
170 192 0
167 191 0
169 192 0
169 192 0
172 196 0
168 190 18
138 163 84
62 98 152
61 98 159
62 98 162
61 97 156
61 97 160
63 99 168
62 98 161
61 98 160
61 97 162
61 97 161
61 98 158
61 97 164
62 99 170
62 98 164
63 99 171
63 99 167
62 98 168
61 97 164
62 99 168
63 99 173
63 100 171
61 98 165
62 98 167
62 99 171
61 98 169
61 98 166
62 99 166
62 98 167
62 99 174
63 99 171
62 99 172
62 98 166
63 99 170
63 99 176
62 99 171
61 98 171
63 100 176
62 98 169
62 98 172
63 99 175
62 98 171
62 98 167
62 99 170
61 98 172
63 99 176
62 99 173
62 99 172
62 98 171
62 99 170
62 99 172
62 99 177
62 99 174
62 99 169
61 98 170
62 99 174
62 99 179
62 99 172
62 98 170
62 99 174
62 99 173
62 99 177
62 99 172
61 98 172
63 99 176
62 99 177
62 99 172
63 100 179
62 98 166
62 99 173
63 99 174
63 99 174
63 99 174
62 99 170
62 98 168
61 98 176
62 99 171
62 99 172
62 98 175
63 100 174
62 99 170
62 99 176
63 100 178
62 99 175
62 99 176
62 99 175
63 99 176
62 99 171
63 99 173
62 99 175
62 99 174
62 99 172
62 99 175
62 99 170
62 99 175
62 98 170
63 100 176
62 99 176
62 99 176
62 99 170
63 99 173
61 97 169
63 100 178
62 98 171
62 99 171
62 98 166
62 99 174
62 99 174
62 99 173
62 99 176
62 99 171
62 99 172
63 99 175
63 99 176
62 99 174
62 99 167
63 99 175
62 98 167
62 99 173
63 100 178
62 99 173
62 98 170
61 98 172
62 98 168
61 98 169
63 99 171
63 99 174
62 98 173
61 98 163
62 98 165
63 99 174
62 99 174
62 99 171
62 98 168
61 97 163
62 98 169
62 98 167
62 98 167
61 98 165
62 99 170
62 98 167
62 99 170
62 99 174
63 99 169
62 99 169
62 98 165
63 99 166
63 99 173
63 99 167
62 98 169
62 98 165
61 98 165
62 98 160
61 97 165
62 98 162
62 97 160
62 98 167
61 97 164
62 98 170
61 96 157
62 98 170
61 97 156
62 97 161
62 97 161
61 96 162
62 97 166
62 98 169
60 95 153
60 96 159
60 95 155
60 95 156
61 95 152
60 94 155
59 93 148
60 94 152
57 82 117
68 78 77
50 54 26
50 56 30
62 67 37
61 64 34
70 75 41
66 69 36
68 73 38
71 75 41
80 83 43
79 83 49
79 84 47
74 78 42
90 91 46
91 94 52
96 98 51
89 92 47
104 104 56
89 93 55
114 113 56
108 108 60
118 118 56
118 117 63
121 120 62
119 118 61
124 122 67
123 121 70
122 121 65
125 124 73
131 129 65
123 122 69
136 133 62
134 133 65
133 130 72
134 132 75
141 138 70
129 127 64
145 142 73
137 134 65
140 138 68
148 145 68
146 142 75
149 146 75
148 144 70
153 148 77
148 144 75
146 143 72
153 148 77
157 152 79
151 147 74
149 145 73
151 147 74
153 149 74
157 152 76
165 159 79
162 157 86
164 158 83
157 152 76
157 152 78
159 155 82
163 157 82
158 153 76
161 155 77
165 159 81
163 156 82
158 152 76
163 157 84
168 161 82
164 156 83
158 153 73
166 159 77
162 156 74
154 149 64
166 160 80
164 158 80
165 159 78
165 158 78
162 156 73
161 154 79
161 155 79
163 156 79
164 157 80
166 159 80
158 153 74
165 159 80
164 158 80
170 163 82
168 161 85
165 159 79
162 156 75
161 156 68
160 154 71
159 153 74
159 153 71
160 153 75
156 150 69
156 150 68
152 147 65
157 151 77
157 151 73
158 152 75
161 154 76
157 149 76
156 150 71
153 147 70
155 149 72
161 155 76
149 142 65
142 136 53
156 148 70
137 131 58
146 140 64
145 139 60
149 143 61
141 136 54
139 134 53
133 127 54
140 133 56
130 125 52
136 130 56
148 144 51
141 143 48
147 149 53
139 148 36
145 154 32
148 158 32
148 157 25
158 173 25
159 170 32
164 181 22
160 178 19
165 183 11
165 186 11
168 187 11
169 190 0
170 191 0
167 187 0
170 191 0
172 196 0
172 196 0
172 196 0
172 195 0
169 193 0
171 195 0
172 196 0
171 195 0
171 195 0
172 196 0
170 193 0
172 195 0
173 196 0
170 194 0
173 196 0
172 196 0
169 192 0
171 195 0
174 196 0
174 197 0
169 192 0
173 196 0
174 197 0
171 194 0
170 193 0
174 196 0
172 196 0
168 192 0
169 192 0
170 195 0
166 190 0
173 196 0
168 191 0
172 195 0
172 195 0
170 194 0
169 192 0
173 196 0
169 192 0
172 195 0
172 195 0
169 193 0
172 194 0
165 189 0
170 193 0
166 189 0
170 194 0
170 194 0
172 196 0
174 197 0
170 193 0
170 194 0
168 191 0
170 194 0
169 192 0
169 193 0
171 195 0
169 192 0
168 192 0
168 192 0
172 195 0
171 195 0
173 196 0
169 193 0
170 193 0
170 193 0
170 194 0
172 194 0
168 191 0
169 193 0
171 195 0
175 197 0
167 189 0
170 192 0
170 194 0
170 193 0
168 192 0
170 193 0
170 193 0
169 192 0
168 191 0
170 194 0
173 196 0
170 194 0
168 191 0
163 186 25
122 149 113
63 99 162
63 99 160
62 98 154
62 98 157
61 98 162
62 98 165
62 98 165
63 99 168
61 97 159
61 98 167
62 98 167
62 98 170
62 98 167
62 99 169
62 98 166
62 99 170
62 98 163
62 99 171
62 99 171
62 99 172
62 98 166
61 98 165
62 98 168
62 99 167
62 98 173
62 99 171
61 98 163
62 98 171
62 99 172
61 98 166
62 99 168
63 99 172
62 99 172
62 99 174
62 99 175
62 99 171
62 99 172
62 98 168
62 98 172
63 100 178
62 98 170
62 99 172
62 99 173
62 99 176
62 98 167
63 99 172
63 99 172
63 99 175
62 99 178
62 99 177
62 99 173
62 99 173
62 99 175
62 99 174
62 99 175
62 99 176
62 99 173
62 99 176
62 98 171
63 99 177
62 98 172
63 100 179
62 99 177
62 99 170
62 98 172
62 99 173
62 99 172
62 98 171
62 99 176
62 99 173
63 99 176
62 99 175
62 99 175
62 99 174
62 99 177
63 99 176
62 99 171
62 99 173
62 99 177
61 98 175
61 98 169
62 99 174
61 98 172
62 99 173
63 99 170
62 99 174
62 98 173
62 99 174
62 99 176
63 100 174
63 99 174
62 98 169
62 98 173
62 99 176
63 99 173
62 99 171
61 98 171
62 99 174
62 98 167
63 99 178
62 99 174
62 98 170
62 98 170
62 99 173
61 98 172
63 99 170
63 99 173
62 98 170
62 99 171
63 99 175
62 99 172
61 98 168
62 99 172
62 99 172
62 98 170
61 98 174
62 99 170
62 99 170
62 99 174
62 98 166
63 100 177
63 99 171
62 99 174
61 98 171
62 99 172
62 98 164
63 99 176
63 99 171
62 98 164
63 99 172
62 99 172
62 99 171
62 99 170
62 98 167
63 99 171
62 99 169
62 99 171
62 99 171
62 98 167
62 99 169
62 98 166
62 98 167
61 98 167
62 99 168
63 99 170
62 99 176
62 98 165
62 98 168
62 98 158
61 97 162
62 98 167
62 98 161
61 97 167
61 97 161
62 98 164
62 98 161
62 98 165
62 98 167
61 97 158
61 97 161
62 97 160
62 98 166
61 96 155
61 96 160
60 96 153
61 97 165
61 97 158
60 95 152
61 96 157
60 95 148
61 95 155
60 94 150
60 94 146
60 94 154
59 86 128
58 73 89
53 57 27
54 58 29
60 64 35
61 66 34
68 70 37
65 70 40
55 62 37
73 76 37
78 82 42
86 89 52
85 87 40
86 87 46
90 92 46
81 86 52
85 88 48
111 110 54
108 107 62
98 100 53
100 100 57
94 96 48
105 105 54
108 109 65
113 112 54
117 116 55
123 121 62
126 125 77
126 124 66
121 119 59
117 117 65
132 129 69
121 121 63
128 125 60
131 127 59
138 135 65
137 134 62
140 136 70
138 136 69
141 138 75
139 136 67
154 149 81
157 152 84
150 146 77
146 142 73
149 146 70
149 145 75
159 153 74
157 151 80
158 153 84
150 146 73
152 146 74
155 150 75
160 155 75
151 147 78
161 155 78
153 148 77
162 155 80
158 152 73
159 153 78
157 152 78
161 155 79
156 150 72
162 156 78
165 158 77
159 154 76
161 154 77
166 159 82
165 157 84
166 160 78
168 162 82
158 152 66
160 155 74
160 154 72
163 157 78
163 157 78
164 157 81
162 156 71
158 152 73
158 153 75
158 151 69
158 152 71
162 156 75
162 157 80
159 153 75
157 152 68
161 156 75
153 148 66
164 157 80
154 149 66
160 154 75
159 152 68
156 150 69
155 148 66
158 151 75
166 159 75
157 151 71
159 152 73
160 152 72
158 151 70
150 144 68
156 150 67
153 147 68
159 151 75
149 144 66
152 145 70
152 146 64
150 144 63
153 148 63
150 143 71
143 136 63
153 146 67
147 141 62
147 141 65
149 143 62
145 139 61
141 137 53
131 126 56
133 128 45
132 128 45
140 134 51
141 139 47
142 143 48
135 141 36
146 152 34
147 155 32
152 161 39
158 169 32
158 170 36
162 176 28
155 171 19
164 182 19
164 183 11
170 191 0
170 190 0
172 193 0
168 189 0
171 192 0
169 190 0
172 195 0
171 194 0
174 197 0
170 194 0
174 197 0
170 194 0
171 195 0
173 195 0
171 195 0
173 196 0
171 195 0
174 197 0
171 195 0
173 197 0
171 194 0
173 197 0
169 192 0
170 193 0
173 196 0
172 195 0
173 195 0
172 195 0
169 192 0
170 194 0
171 194 0
172 195 0
171 195 0
173 196 0
170 193 0
173 196 0
170 194 0
171 194 0
166 190 0
169 192 0
173 196 0
172 195 0
170 193 0
167 191 0
172 195 0
172 195 0
171 195 0
171 194 0
175 198 0
172 195 0
173 196 0
171 195 0
170 194 0
170 193 0
169 192 0
171 195 0
169 192 0
170 193 0
173 196 0
170 194 0
171 195 0
170 194 0
167 190 0
169 193 0
169 192 0
170 193 0
170 193 0
169 193 0
169 191 0
169 192 0
170 192 0
171 194 0
172 196 0
170 195 0
169 191 0
170 193 0
170 193 0
168 190 0
167 190 0
172 194 0
173 197 0
167 191 0
168 192 0
170 193 0
171 195 0
168 190 0
166 189 0
167 190 0
168 191 0
167 191 0
169 191 0
167 190 31
99 127 136
62 98 154
62 98 160
60 96 151
62 98 164
63 99 166
62 98 160
63 99 167
62 98 165
62 99 167
61 97 160
62 99 170
62 98 164
63 99 166
62 99 166
62 98 164
61 98 169
62 98 168
62 98 165
62 98 167
62 99 169
62 98 169
62 98 165
62 99 165
62 99 168
62 98 163
62 99 173
62 99 170
62 99 176
62 98 167
62 99 166
62 99 174
62 98 166
62 98 169
62 98 168
62 99 174
62 99 172
62 98 174
62 99 176
62 98 171
62 99 170
62 98 167
62 98 170
62 98 167
62 99 178
62 99 173
62 99 175
62 99 175
62 98 170
62 99 172
62 99 174
62 99 172
62 99 173
63 99 174
62 98 168
63 99 174
62 99 172
63 100 174
61 98 170
62 99 176
61 98 170
62 99 172
62 99 173
62 99 172
62 98 168
62 99 172
63 99 172
62 99 173
62 99 172
63 99 176
61 98 168
63 99 177
62 99 172
63 99 176
62 99 171
62 98 168
63 99 173
63 99 174
62 99 171
62 99 176
62 99 169
63 99 170
62 99 171
62 99 173
63 99 173
62 99 175
62 99 175
63 99 175
62 98 174
62 98 170
62 99 170
62 99 173
62 99 170
62 99 172
62 98 168
63 100 177
62 99 173
62 99 174
62 98 166
63 99 170
62 99 170
62 99 177
62 99 169
62 98 171
62 98 167
62 98 170
61 98 169
63 99 170
63 99 176
62 99 173
62 99 176
62 98 163
62 99 170
62 99 174
62 99 168
63 99 174
63 99 171
62 98 169
63 99 170
62 99 171
62 99 171
62 99 170
62 99 168
62 99 171
62 99 170
62 99 174
63 99 167
62 98 165
62 99 168
62 99 175
62 99 176
62 98 170
62 98 166
62 98 166
62 99 172
62 98 165
63 99 174
63 99 169
62 98 164
62 99 170
61 98 166
63 99 163
63 99 170
62 99 168
62 98 164
62 98 170
62 99 172
61 98 166
62 99 171
62 98 165
61 97 164
61 97 163
62 98 164
62 98 163
62 98 161
62 98 162
62 98 165
62 98 167
61 96 165
60 96 161
61 97 162
61 96 154
62 97 161
61 97 161
61 97 167
60 94 149
61 97 157
62 97 163
61 97 162
60 95 152
62 98 163
60 95 150
60 94 152
59 93 147
60 94 151
59 92 139
58 75 91
51 60 46
52 59 39
70 69 32
68 69 27
61 63 28
69 72 34
60 66 34
75 78 36
62 68 40
72 76 41
79 82 43
86 89 44
91 93 50
88 90 47
109 107 50
103 103 59
108 108 57
107 107 62
104 105 57
100 101 51
108 108 49
116 116 61
106 105 55
108 109 58
119 118 58
127 125 62
114 114 60
134 132 71
129 128 63
128 126 69
134 132 71
136 134 68
131 128 65
132 130 60
140 137 70
137 134 69
132 129 60
139 137 73
144 140 75
144 141 67
147 144 76
143 139 67
148 144 76
151 146 69
152 146 76
146 142 70
150 146 74
154 150 73
145 142 68
150 145 72
160 155 75
150 146 68
157 152 78
155 149 71
156 150 72
163 157 78
156 151 77
163 157 80
161 155 79
162 157 82
164 158 74
162 156 75
157 152 73
156 151 72
163 158 74
158 152 76
159 153 77
166 158 81
160 154 73
160 154 71
157 151 70
161 155 71
165 158 75
163 157 72
162 156 74
164 157 75
165 158 75
164 157 73
162 156 73
158 152 72
165 158 79
159 153 70
159 153 73
164 157 80
164 157 75
156 150 70
158 152 70
158 152 67
152 146 69
159 153 75
169 161 80
155 148 75
161 154 72
154 147 68
159 153 67
150 145 68
152 147 67
159 152 71
154 148 67
146 141 66
152 145 66
148 141 60
155 147 73
152 146 67
153 147 71
144 139 58
152 146 62
149 142 65
148 143 62
138 133 60
146 141 62
152 145 63
137 131 61
133 127 52
143 138 54
144 139 58
142 136 59
140 135 48
144 143 59
151 152 53
139 139 44
151 154 51
149 158 39
141 151 30
152 162 36
162 174 32
156 170 34
159 175 25
162 178 19
165 183 11
163 182 0
170 190 0
169 190 0
172 192 0
170 191 0
173 193 0
173 195 0
169 193 0
169 192 0
172 196 0
168 191 0
171 195 0
173 196 0
175 196 0
173 196 0
172 196 0
173 197 0
172 195 0
172 196 0
170 194 0
171 195 0
171 195 0
171 194 0
171 195 0
172 195 0
173 196 0
172 197 0
169 193 0
168 191 0
172 195 0
171 195 0
173 196 0
169 193 0
169 193 0
168 192 0
170 193 0
168 192 0
171 195 0
169 192 0
171 195 0
172 195 0
173 196 0
171 194 0
171 194 0
170 194 0
171 195 0
172 194 0
174 197 0
169 193 0
170 193 0
168 192 0
169 192 0
168 191 0
167 190 0
172 195 0
168 192 0
171 194 0
169 193 0
171 194 0
169 192 0
167 191 0
169 193 0
167 190 0
167 191 0
170 193 0
172 194 0
167 191 0
169 192 0
168 191 0
167 190 0
171 194 0
173 196 0
171 195 0
167 190 0
172 195 0
172 195 0
170 193 0
169 192 0
169 193 0
168 191 0
172 195 0
170 193 0
165 189 0
168 191 0
170 193 0
168 192 0
168 191 0
166 190 0
166 190 0
168 192 0
171 194 0
165 188 0
153 176 51
77 109 154
61 96 150
61 98 160
62 98 160
62 98 162
62 98 164
62 98 165
62 98 161
61 98 163
62 98 162
62 98 164
62 98 165
61 97 164
63 99 172
62 99 173
61 98 164
62 98 167
62 98 164
62 98 164
62 98 167
62 99 171
62 99 170
62 99 172
62 99 172
62 98 169
62 99 172
62 99 173
63 99 170
62 98 168
62 98 166
63 99 172
62 98 168
62 99 171
63 99 175
62 99 170
62 98 169
62 98 168
62 99 171
62 99 173
62 99 170
62 98 171
61 98 167
62 99 173
63 99 172
62 99 172
62 99 169
62 99 174
63 100 176
62 99 172
62 98 170
62 98 169
63 99 170
62 99 172
61 98 172
63 99 173
62 99 174
62 98 172
63 100 176
62 99 174
62 99 171
62 99 174
63 99 174
62 99 176
63 100 177
62 99 170
63 99 172
62 99 177
62 99 173
62 99 169
62 99 173
61 98 171
61 98 167
61 98 166
63 99 178
62 99 173
63 100 174
62 98 171
62 99 172
62 99 176
61 98 170
63 99 177
62 99 171
63 99 176
62 99 174
62 99 176
62 99 174
63 99 170
63 100 175
61 98 168
63 99 170
62 99 173
62 99 170
62 98 169
62 99 169
62 98 168
63 99 174
62 99 170
63 99 172
62 99 174
62 99 174
63 99 174
62 99 174
62 99 175
62 99 171
62 99 175
61 98 168
61 98 167
62 98 165
62 99 169
62 99 173
62 99 175
62 98 169
62 98 168
62 98 169
62 98 167
62 98 172
62 99 172
61 98 165
62 98 170
62 98 167
64 100 173
62 99 173
62 99 170
63 99 172
62 99 169
62 98 167
62 99 170
62 99 173
62 99 171
62 99 170
62 99 170
62 98 165
62 98 168
62 98 167
62 98 168
62 99 170
62 98 167
62 98 169
62 98 167
62 99 170
63 99 171
63 99 171
62 99 168
62 99 169
62 98 168
62 98 165
62 98 163
62 98 167
62 99 168
62 98 163
63 99 168
62 99 167
62 98 165
62 98 165
61 97 159
61 97 164
60 96 157
62 98 166
60 96 160
62 98 160
63 98 164
61 97 161
61 97 158
61 97 155
61 96 158
62 97 158
61 96 155
61 96 160
61 96 161
61 96 153
61 97 159
60 95 149
60 93 147
61 96 158
60 94 151
59 93 144
59 78 100
56 62 47
57 61 29
62 65 25
69 73 26
73 74 33
75 79 35
73 77 38
63 68 37
75 80 39
85 87 43
81 84 39
85 87 44
89 91 49
92 94 51
104 105 50
98 99 51
92 94 47
102 102 55
103 103 50
109 108 56
98 100 54
118 117 59
118 117 62
126 124 66
117 116 67
119 118 57
128 126 58
124 122 61
118 118 65
133 131 57
124 122 53
139 136 57
138 135 64
139 136 66
124 124 66
131 129 62
140 138 74
145 141 72
145 141 72
141 138 70
144 140 62
148 143 65
148 144 74
143 140 63
147 143 73
155 150 76
153 149 71
160 153 78
152 147 71
154 149 70
157 152 77
153 148 75
151 146 74
162 156 74
155 149 68
152 148 68
155 150 76
161 154 82
161 155 75
155 150 72
160 154 71
158 152 73
159 153 72
162 156 74
160 153 71
162 156 74
161 154 69
162 156 75
164 158 78
166 160 78
166 160 79
159 154 75
164 157 78
156 150 68
168 161 83
159 154 67
162 155 70
160 154 69
163 157 70
162 156 68
156 151 71
159 152 71
160 154 67
161 155 75
157 151 71
162 157 72
160 154 72
161 155 71
159 153 73
159 153 71
162 155 75
153 147 70
158 151 70
150 145 63
149 144 63
152 146 63
156 150 68
150 144 67
150 143 73
158 151 65
152 146 64
146 141 60
153 148 65
148 142 67
151 145 67
147 141 65
153 146 66
150 145 61
149 143 66
144 138 57
138 133 57
144 138 58
148 141 57
143 136 61
135 130 57
137 132 53
137 133 54
143 141 53
139 139 49
139 141 45
143 147 41
147 154 44
150 155 41
154 162 36
155 167 25
153 167 28
157 171 16
153 166 32
164 182 16
164 182 11
170 190 11
168 189 0
166 186 0
171 193 0
171 193 0
172 192 0
171 191 0
172 195 0
171 194 0
173 196 0
172 196 0
173 196 0
173 196 0
171 194 0
171 194 0
169 193 0
173 196 0
173 195 0
172 195 0
173 196 0
172 196 0
168 191 0
171 195 0
172 195 0
170 194 0
172 196 0
170 195 0
173 197 0
172 196 0
170 193 0
173 196 0
171 195 0
169 192 0
171 195 0
173 196 0
171 194 0
171 195 0
171 194 0
168 192 0
169 192 0
169 192 0
171 195 0
170 193 0
169 193 0
170 193 0
169 193 0
170 193 0
173 196 0
171 194 0
171 193 0
172 195 0
173 196 0
171 193 0
170 193 0
171 195 0
168 191 0
170 194 0
170 194 0
168 192 0
169 193 0
170 193 0
167 190 0
170 193 0
171 195 0
166 188 0
170 193 0
170 193 0
170 193 0
170 194 0
169 192 0
171 194 0
168 192 0
168 192 0
172 196 0
172 194 0
168 191 0
172 196 0
168 192 0
172 194 0
168 191 0
171 194 0
168 191 0
167 190 0
167 190 0
169 192 0
170 193 0
171 194 0
168 192 0
164 187 0
167 190 0
167 189 0
169 192 0
145 169 76
62 98 156
63 99 167
61 97 156
62 98 156
62 98 163
61 97 160
63 99 166
62 98 161
63 99 163
62 98 166
62 98 162
62 98 165
62 98 163
61 97 164
62 99 170
62 98 161
63 99 168
62 98 166
62 98 164
63 100 169
62 99 170
62 99 168
62 98 167
63 99 172
62 98 166
61 98 166
62 98 166
62 99 173
63 99 171
62 99 168
62 99 172
62 98 170
61 98 166
61 98 169
62 98 169
63 99 173
61 98 170
62 99 172
62 99 176
62 99 171
62 99 174
62 99 170
62 99 172
62 99 171
63 99 171
62 98 169
62 99 171
62 99 176
62 99 173
63 99 174
63 99 172
63 99 176
62 99 174
62 98 170
63 99 173
62 99 172
62 99 173
63 99 176
62 98 170
61 98 171
62 99 171
61 98 167
61 98 172
63 99 178
62 98 169
61 98 171
62 99 171
62 98 169
62 99 173
63 99 177
63 100 176
62 99 172
62 99 173
62 99 169
62 99 174
63 99 172
62 99 172
62 99 177
62 99 174
62 99 172
63 100 175
62 99 171
62 99 173
61 98 168
62 99 170
63 99 175
62 99 177
62 99 171
62 98 172
63 100 175
63 99 173
63 99 174
61 98 169
62 98 171
63 99 175
62 99 171
63 99 171
63 99 173
63 100 180
61 98 168
62 99 174
62 99 171
62 99 173
62 98 170
62 99 173
62 99 172
62 98 170
62 99 170
62 98 169
62 99 171
62 98 168
62 99 176
63 99 170
62 99 171
63 99 173
63 99 171
63 99 166
62 99 172
63 99 166
62 98 170
62 99 174
62 98 168
62 98 168
62 99 167
62 99 171
63 99 171
62 98 163
62 98 165
62 99 169
62 98 170
62 99 175
62 98 168
62 98 171
62 99 171
63 99 172
61 98 164
62 98 169
62 98 167
61 98 167
63 99 169
63 99 171
63 99 176
62 99 168
62 98 164
61 97 160
62 98 165
63 99 166
63 99 172
62 99 170
61 97 162
62 98 165
62 98 165
61 98 166
62 97 165
61 97 162
61 96 157
62 97 160
62 98 166
62 99 168
61 96 156
60 95 152
61 97 158
62 98 166
62 98 168
62 97 157
62 98 160
61 97 158
61 96 152
60 95 155
62 98 161
62 97 163
62 96 155
61 97 158
61 95 147
59 91 144
60 93 145
62 83 110
61 69 66
57 62 35
62 66 34
51 56 25
79 81 35
66 68 33
77 80 35
71 74 37
71 74 30
79 81 44
84 86 36
84 86 43
95 98 51
86 89 44
92 94 44
85 88 40
93 93 48
92 94 43
117 115 57
104 104 50
110 110 48
101 102 54
115 115 62
112 112 53
112 112 56
123 122 55
122 119 57
126 125 58
129 126 66
118 117 60
131 128 63
123 122 60
129 126 63
132 128 65
133 132 61
144 140 74
134 132 64
140 137 64
133 130 70
142 139 67
130 129 60
138 135 58
152 147 79
149 144 66
157 151 72
149 145 73
149 144 73
149 145 71
144 140 65
152 146 72
149 145 72
155 149 76
156 151 72
150 145 68
163 156 75
156 150 72
158 152 74
158 152 77
157 152 67
160 154 79
166 159 82
161 154 79
158 152 76
157 152 71
160 154 72
162 155 78
162 155 74
161 155 74
160 154 69
165 158 82
160 155 75
166 159 80
156 151 70
161 155 71
159 153 69
166 159 80
160 154 76
162 155 76
164 157 80
161 155 73
160 154 66
152 148 61
151 146 61
154 148 68
154 149 66
155 148 68
167 160 80
160 154 66
155 149 67
153 148 70
164 157 76
163 157 73
154 148 65
158 151 71
154 148 67
159 153 66
156 151 66
152 147 58
149 143 59
154 147 65
145 138 68
143 138 51
148 141 62
151 145 65
150 144 54
148 141 61
150 143 65
148 141 61
151 143 67
140 134 56
142 135 65
139 132 56
131 126 52
142 137 51
140 134 57
126 120 53
133 129 47
146 142 51
136 135 44
146 151 39
147 149 42
148 154 32
143 150 37
154 164 39
148 161 34
153 168 22
159 170 25
155 169 19
164 180 16
168 185 19
168 189 11
170 192 0
173 194 0
171 191 0
168 190 0
171 192 0
169 189 0
170 194 0
173 197 0
172 195 0
171 195 0
170 193 0
170 193 0
173 196 0
171 195 0
169 193 0
171 195 0
172 196 0
171 194 0
171 194 0
170 193 0
171 194 0
171 195 0
169 192 0
171 194 0
166 188 0
172 196 0
167 191 0
174 197 0
171 195 0
173 196 0
173 195 0
173 196 0
172 195 0
168 190 0
171 195 0
171 194 0
170 194 0
167 192 0
170 194 0
170 194 0
170 194 0
171 195 0
170 194 0
174 197 0
170 193 0
165 188 0
171 193 0
170 194 0
170 194 0
170 193 0
171 194 0
171 193 0
169 193 0
169 193 0
168 191 0
167 190 0
164 187 0
171 195 0
170 193 0
170 193 0
172 195 0
169 193 0
172 196 0
168 192 0
172 194 0
170 193 0
169 192 0
168 191 0
168 191 0
170 193 0
171 195 0
170 192 0
168 191 0
168 190 0
170 193 0
168 191 0
170 191 0
167 191 0
169 192 0
168 192 0
171 194 0
169 192 0
167 191 0
168 191 0
167 190 0
171 194 0
165 188 0
169 192 0
166 189 0
164 188 0
172 195 0
122 148 120
61 97 155
61 97 156
62 97 153
62 98 161
62 98 162
63 99 171
62 98 168
62 98 162
62 98 165
62 98 157
62 98 167
62 98 167
61 97 164
61 98 166
62 99 164
61 98 165
62 99 167
62 99 168
62 98 169
62 99 164
62 98 166
61 98 171
61 97 163
62 98 169
62 99 171
62 99 171
62 98 166
62 98 166
62 99 169
62 98 170
62 98 168
62 98 169
61 98 166
62 99 173
62 99 171
61 97 162
62 98 169
62 99 171
63 99 167
62 99 177
62 99 175
63 99 176
62 99 173
62 99 173
62 99 171
62 99 171
61 98 168
61 98 164
62 99 173
62 99 168
63 100 177
62 99 174
63 99 175
62 99 174
62 99 171
63 99 175
62 99 169
62 99 177
61 97 165
62 98 174
62 99 174
61 98 172
62 98 166
62 99 173
62 99 174
62 99 176
63 100 177
62 99 174
62 99 171
62 99 173
62 99 174
63 99 173
63 99 171
62 99 169
62 98 174
61 98 171
63 100 175
62 98 168
62 98 173
62 99 173
62 99 171
62 99 170
62 99 172
63 99 175
63 100 177
62 99 175
62 98 169
62 99 170
62 99 176
62 98 168
62 98 171
62 99 172
63 99 176
62 99 170
62 99 169
62 98 168
62 99 177
62 99 172
62 99 169
62 99 174
62 99 172
62 99 172
62 98 167
61 98 172
62 98 169
62 99 172
62 99 174
63 99 172
62 98 162
62 98 168
62 98 172
62 99 170
62 99 167
63 99 176
62 99 172
62 98 166
62 99 174
62 99 173
63 99 172
62 99 169
62 98 165
63 99 170
62 99 168
61 98 162
62 98 161
63 99 170
63 99 172
63 99 170
62 98 166
61 97 163
62 98 168
62 99 170
63 99 171
62 99 170
63 99 172
61 98 164
63 99 168
63 99 168
63 99 165
63 99 170
62 98 168
61 97 164
62 98 168
62 98 163
62 98 168
62 98 167
62 98 164
62 98 170
62 98 164
63 99 171
62 98 168
62 98 162
62 98 166
62 98 162
62 98 165
62 98 168
61 96 154
62 98 162
60 96 156
60 96 156
62 98 161
61 98 169
61 96 162
60 96 153
61 96 152
61 97 158
61 96 156
62 97 162
61 97 158
61 96 157
59 93 145
60 95 161
60 94 152
60 95 150
60 94 151
60 94 150
56 84 120
67 75 62
60 60 25
59 61 25
60 63 33
64 68 27
68 72 32
74 78 35
62 67 38
77 80 39
84 87 36
85 88 42
77 81 43
85 87 40
99 99 47
96 97 49
102 103 53
97 98 51
101 103 52
99 102 51
98 99 51
111 111 51
117 117 60
109 110 60
116 117 60
119 118 54
124 122 57
127 125 61
129 126 64
132 130 66
125 122 58
130 126 59
128 127 62
129 126 61
144 140 71
133 132 64
131 128 57
139 135 65
137 134 64
138 135 73
140 136 68
150 145 68
136 133 68
149 145 67
149 144 69
147 142 69
147 144 63
146 142 63
150 145 75
157 151 82
157 152 76
150 145 74
152 148 74
154 149 73
149 144 68
157 151 66
158 153 76
157 151 78
165 158 82
156 150 77
161 154 74
164 157 75
163 157 78
154 149 70
163 156 75
160 154 75
158 152 76
164 157 81
161 155 75
161 155 70
162 156 72
157 152 66
159 153 68
155 150 69
158 152 72
160 154 73
161 155 70
155 149 70
155 149 69
160 154 74
164 157 76
159 153 70
162 156 75
161 154 75
162 155 73
161 154 66
158 151 68
161 154 72
156 150 65
149 142 59
156 149 67
154 149 63
155 149 68
157 150 67
149 145 57
152 146 63
153 147 57
151 146 64
146 141 56
145 139 65
157 150 67
151 146 62
155 149 65
145 141 60
153 148 58
155 149 68
148 142 64
149 143 58
147 142 62
141 135 59
150 144 65
135 130 49
145 139 64
143 137 56
143 137 60
133 127 53
140 135 59
137 134 56
145 143 51
147 149 45
149 149 54
152 159 39
150 156 44
146 154 37
149 161 19
151 163 37
158 170 25
160 175 30
159 174 22
165 184 11
167 187 0
170 192 0
172 193 0
169 189 0
168 189 0
172 194 0
167 186 0
171 192 0
173 197 0
172 196 0
171 195 0
172 195 0
171 195 0
174 197 0
173 196 0
171 195 0
170 193 0
170 193 0
168 193 0
174 198 0
172 195 0
171 195 0
169 193 0
174 197 0
172 195 0
172 195 0
169 193 0
170 194 0
171 195 0
170 194 0
171 195 0
172 196 0
169 193 0
171 194 0
169 193 0
174 197 0
172 194 0
172 195 0
172 196 0
172 196 0
169 193 0
168 192 0
172 196 0
174 197 0
172 196 0
171 194 0
172 196 0
170 193 0
169 192 0
170 194 0
167 190 0
172 196 0
170 194 0
167 190 0
172 195 0
171 195 0
173 196 0
164 188 0
166 190 0
171 194 0
171 193 0
169 192 0
171 194 0
167 191 0
169 193 0
171 195 0
170 194 0
171 193 0
170 193 0
171 194 0
168 192 0
165 188 0
171 193 0
170 194 0
170 194 0
166 189 0
171 194 0
169 193 0
172 195 0
167 190 0
171 194 0
168 191 0
170 193 0
171 195 0
168 190 0
164 187 0
168 191 0
169 192 0
166 189 0
170 192 0
170 193 0
166 189 0
164 187 31
126 152 103
62 98 157
61 97 155
61 97 155
62 98 164
63 99 168
61 96 157
61 97 155
61 97 156
62 98 160
61 98 161
61 97 157
63 99 169
61 98 164
63 99 171
62 98 164
62 98 166
61 97 162
62 99 170
62 98 163
62 98 167
61 97 158
62 99 170
62 98 171
62 98 168
63 100 175
62 98 167
62 98 164
61 98 165
62 98 164
62 98 171
62 99 171
62 98 170
62 98 173
62 98 164
62 99 169
63 100 175
62 98 171
62 99 173
62 98 168
62 99 173
63 99 172
62 99 174
63 99 171
62 98 171
62 99 172
63 99 172
62 98 167
62 99 172
61 98 169
61 98 172
62 99 174
62 98 167
63 99 175
63 99 172
62 99 173
62 98 169
61 98 170
63 99 172
62 98 167
62 99 175
62 98 166
63 99 177
62 98 166
61 98 168
62 99 173
62 99 171
63 100 179
62 99 174
62 99 171
61 98 167
63 99 177
62 99 175
62 99 173
62 98 174
63 99 173
62 99 176
62 98 169
62 98 171
63 99 171
62 99 170
62 99 170
62 99 175
62 99 169
62 99 177
62 99 171
63 99 172
62 98 169
62 99 169
62 98 171
62 99 172
62 99 173
62 99 175
62 98 168
62 99 167
62 99 172
62 99 168
62 99 174
62 99 172
62 99 170
63 100 177
62 99 176
63 100 177
62 99 172
62 99 175
61 98 168
62 99 172
63 100 172
62 99 171
62 98 169
61 98 168
62 99 176
63 100 173
62 99 170
62 98 161
62 98 167
62 98 167
62 98 172
62 98 164
62 99 169
62 98 165
63 99 170
63 99 170
62 99 168
62 99 171
62 99 170
62 99 170
61 98 161
62 98 167
63 99 163
63 99 170
62 98 171
62 98 165
62 99 173
62 99 173
63 100 171
61 97 165
63 99 169
62 98 167
62 99 163
63 99 167
61 98 162
61 97 154
62 98 166
62 98 169
61 98 167
62 99 167
62 99 167
62 99 168
62 99 166
62 98 170
62 98 163
62 98 166
62 98 169
61 97 164
62 99 170
62 97 164
63 99 169
62 98 166
62 99 168
62 98 164
61 97 160
62 98 165
62 98 163
62 97 158
62 97 157
61 96 158
61 97 157
60 94 146
61 96 160
60 96 154
59 94 147
60 95 147
60 95 149
60 94 152
60 94 148
58 90 134
59 88 133
63 74 68
51 58 35
65 68 30
63 65 25
69 73 28
61 66 30
73 76 34
70 74 35
75 78 31
76 80 38
74 78 37
89 91 44
82 85 38
78 82 43
87 89 39
97 99 50
82 84 44
93 95 48
95 97 48
101 102 49
111 110 52
106 106 50
105 103 51
107 108 50
118 115 52
117 117 59
113 114 62
118 117 58
126 124 64
124 122 62
132 129 64
129 126 59
133 130 59
135 133 64
137 134 71
145 141 75
141 137 69
145 140 65
143 138 69
144 141 66
140 136 61
135 132 61
147 142 61
147 143 64
141 139 64
152 147 73
141 138 68
143 140 66
159 153 76
154 149 72
149 143 70
146 141 67
153 148 70
148 144 64
155 151 71
152 148 67
154 148 70
154 149 69
156 150 69
160 154 75
163 157 77
160 154 78
156 149 69
156 151 71
164 157 72
153 148 67
158 152 64
162 155 79
160 155 70
161 154 78
156 149 70
159 152 69
155 149 73
161 155 71
160 153 75
159 153 70
156 150 66
166 159 77
162 155 70
156 149 67
162 154 74
160 152 77
150 145 66
160 153 75
156 151 65
153 148 62
163 155 77
158 152 68
156 150 67
156 150 71
150 144 61
151 146 62
149 143 68
148 142 62
153 147 64
158 151 66
152 146 64
153 147 64
147 141 53
145 139 63
148 143 59
147 140 65
147 140 59
147 140 56
146 140 62
142 137 57
139 133 54
140 134 59
148 143 58
148 143 58
135 129 52
138 132 56
135 129 48
135 130 45
128 123 48
137 132 52
124 126 36
143 142 48
146 148 44
157 156 56
152 157 48
149 158 34
151 162 25
149 159 39
164 178 16
159 175 25
164 180 25
161 176 28
163 182 19
172 190 16
173 194 0
167 187 0
169 190 0
170 191 0
167 189 0
171 191 0
171 193 0
172 195 0
169 192 0
171 194 0
173 196 0
168 191 0
172 195 0
170 193 0
172 195 0
171 194 0
172 195 0
173 196 0
172 195 0
171 194 0
168 192 0
166 189 0
171 194 0
169 192 0
169 193 0
167 191 0
170 193 0
170 194 0
168 191 0
169 192 0
166 189 0
170 195 0
171 194 0
172 194 0
172 195 0
174 197 0
167 191 0
171 193 0
172 194 0
172 196 0
170 193 0
169 191 0
169 192 0
173 196 0
166 190 0
165 189 0
167 190 0
171 194 0
169 193 0
170 194 0
170 192 0
170 193 0
163 187 0
170 192 0
171 194 0
167 190 0
165 187 0
170 193 0
170 194 0
170 193 0
167 190 0
169 193 0
168 192 0
170 193 0
169 192 0
169 192 0
169 192 0
167 190 0
167 191 0
169 193 0
169 192 0
170 193 0
169 192 0
163 187 0
170 193 0
167 190 0
168 191 0
170 193 0
169 193 0
168 191 0
170 193 0
172 195 0
170 193 0
166 189 0
168 192 0
167 190 0
170 194 0
171 194 0
171 194 0
169 192 0
166 189 0
163 187 36
99 127 122
61 97 152
62 97 154
61 97 154
61 97 158
63 99 163
62 98 156
61 97 154
62 98 163
62 98 161
62 99 165
61 97 161
62 98 166
61 98 162
62 99 165
62 98 161
61 97 158
61 97 158
61 97 163
62 99 168
62 98 165
62 98 169
62 98 168
62 98 166
62 98 164
62 99 171
62 99 172
62 99 169
62 99 167
62 98 165
62 99 169
62 98 169
63 99 170
61 98 167
62 99 169
62 99 171
61 98 169
62 99 171
62 98 166
62 98 169
62 98 169
62 99 174
62 99 169
62 99 171
62 99 175
62 99 173
62 99 174
62 99 173
62 99 172
62 99 173
62 98 169
62 99 172
63 99 171
62 98 174
62 98 168
62 98 171
62 99 176
62 98 170
62 98 170
62 99 172
62 99 171
63 99 174
62 99 173
62 98 172
62 98 168
62 99 176
62 99 174
62 98 164
62 98 170
62 99 172
62 99 170
62 99 170
63 100 177
62 99 171
63 99 174
63 100 175
63 99 169
62 99 175
61 98 170
61 98 173
62 99 173
62 99 169
63 100 178
62 98 172
63 99 171
62 98 170
61 98 168
62 98 169
62 99 170
62 99 176
62 99 174
62 99 171
63 99 173
62 98 168
63 99 172
61 98 170
62 98 168
62 99 169
62 99 173
62 99 173
62 98 167
62 98 171
62 99 169
63 100 171
61 98 167
62 98 170
62 99 174
63 99 170
62 99 172
61 98 165
61 98 163
62 98 169
63 99 169
62 98 163
62 98 167
62 98 165
62 98 172
63 99 170
63 99 170
62 98 171
62 99 173
62 99 172
62 98 169
63 99 171
61 97 160
62 99 169
61 98 164
62 98 169
63 99 172
62 99 173
62 99 171
62 99 170
62 99 169
62 99 169
63 99 170
62 98 162
62 99 166
62 99 172
61 98 160
63 99 174
62 99 170
62 98 167
63 99 171
62 98 168
62 98 161
62 98 160
62 98 161
61 97 160
62 98 163
62 99 169
63 99 172
63 99 172
61 96 157
61 98 164
61 97 161
62 97 162
62 98 163
61 97 159
62 98 166
62 98 169
61 97 156
61 96 155
62 98 160
61 97 165
62 98 164
62 98 165
61 97 162
60 95 145
61 97 157
62 97 154
61 96 153
62 97 163
61 95 151
60 95 155
60 93 144
61 95 155
59 92 140
61 91 139
70 82 90
64 65 29
56 61 27
64 66 28
75 76 35
56 60 21
70 72 23
77 80 35
83 87 33
75 78 34
92 94 38
96 96 39
77 80 28
89 91 36
88 91 48
83 85 43
105 105 49
101 101 50
104 104 44
99 99 48
109 109 54
107 106 50
107 108 51
123 122 54
109 109 51
117 116 50
115 116 55
127 125 63
123 121 57
124 122 55
126 124 62
128 126 60
119 118 52
133 130 64
132 129 68
139 136 60
147 143 72
129 127 60
140 136 64
135 133 67
133 131 60
147 143 71
137 134 58
140 136 69
149 143 72
148 145 69
144 140 66
152 147 72
154 149 70
149 144 67
151 147 72
150 145 67
152 147 72
156 152 70
154 149 70
160 153 75
153 147 64
153 149 69
156 151 78
156 151 71
158 152 68
158 152 71
157 152 70
161 155 71
152 147 70
156 150 73
154 147 70
164 157 69
158 152 67
168 160 78
161 155 77
158 152 70
157 151 72
160 152 71
157 151 68
153 147 67
157 151 67
158 152 73
157 151 71
152 146 63
159 152 65
166 159 81
160 154 75
162 155 76
160 153 70
154 148 64
155 149 67
154 148 66
153 147 62
153 147 58
157 151 71
161 155 68
150 144 66
156 150 67
152 147 62
147 141 59
154 148 61
151 145 60
154 148 65
149 143 59
152 146 61
147 140 60
148 142 62
148 142 61
153 147 67
140 135 58
146 140 59
144 138 56
139 133 59
131 126 58
134 130 45
140 134 52
142 137 58
142 136 52
142 136 57
139 137 45
136 138 32
145 151 41
150 153 45
146 150 37
140 149 30
144 156 25
149 159 22
156 171 16
157 174 25
158 174 22
162 179 19
164 182 11
172 194 0
170 189 0
170 191 0
169 190 0
168 186 0
168 188 0
170 190 0
167 187 0
168 188 0
174 197 0
173 197 0
170 194 0
171 193 0
174 196 0
173 196 0
172 195 0
167 191 0
171 195 0
171 195 0
166 190 0
173 195 0
170 193 0
171 196 0
167 190 0
166 190 0
172 195 0
172 195 0
171 194 0
170 194 0
171 194 0
172 195 0
168 191 0
173 196 0
168 192 0
169 193 0
166 190 0
173 195 0
171 195 0
167 191 0
170 193 0
173 196 0
169 193 0
168 193 0
165 189 0
167 191 0
168 191 0
169 192 0
168 192 0
171 194 0
170 193 0
167 190 0
171 194 0
168 191 0
172 194 0
173 196 0
171 195 0
171 194 0
173 195 0
166 190 0
168 191 0
166 190 0
167 190 0
172 194 0
170 193 0
170 193 0
167 191 0
172 195 0
172 196 0
165 187 0
172 195 0
171 194 0
170 193 0
169 193 0
170 193 0
172 196 0
164 188 0
168 192 0
170 193 0
167 191 0
169 192 0
168 191 0
172 194 0
166 188 0
170 192 0
168 192 0
172 195 0
169 191 0
168 191 0
168 190 0
170 193 0
167 191 0
167 190 0
167 191 0
161 184 47
75 107 152
61 96 149
61 97 144
61 96 148
62 98 161
61 96 147
62 98 160
62 97 159
61 98 163
62 98 158
61 98 163
62 97 156
61 97 159
63 99 168
61 97 159
62 98 161
61 97 163
62 98 167
62 98 165
62 98 164
61 97 158
62 98 162
62 98 167
63 99 171
62 98 165
63 99 170
62 98 167
63 100 176
62 98 170
61 98 167
62 99 165
62 99 171
61 98 170
63 99 170
61 98 164
62 99 173
63 99 167
62 98 167
62 99 173
62 98 168
62 99 175
62 98 167
62 99 168
61 98 169
62 99 169
62 99 175
61 98 170
62 98 172
62 99 171
62 98 170
62 99 171
62 99 174
63 99 171
62 98 171
62 98 171
62 98 169
63 99 170
62 99 172
63 99 171
62 98 165
62 99 175
62 99 171
62 99 170
62 98 172
63 99 172
62 99 169
62 98 167
63 99 175
61 98 169
62 98 168
62 98 167
62 99 173
63 99 166
63 99 178
62 98 167
62 98 173
63 100 174
63 99 173
62 98 173
62 98 168
62 99 172
62 98 167
61 98 166
62 99 170
61 98 170
63 99 177
62 98 167
62 99 173
63 100 174
62 99 172
63 99 170
61 98 170
62 99 172
63 99 172
62 98 166
63 99 167
62 99 170
63 99 176
62 99 172
61 97 166
63 99 168
62 99 173
62 99 170
63 100 172
62 99 169
62 98 168
63 99 176
63 99 169
62 98 167
62 98 166
62 99 173
62 99 170
62 98 169
62 99 173
63 99 166
61 98 166
62 98 164
62 99 171
62 98 169
63 99 174
62 99 172
62 99 171
62 98 167
62 98 162
62 99 173
63 99 168
62 98 170
63 99 169
63 99 171
62 99 170
62 99 172
62 99 167
62 98 164
62 99 168
62 98 170
62 98 162
62 98 163
62 98 164
62 98 162
62 99 167
63 99 171
61 97 164
63 99 172
63 99 173
62 98 167
62 99 169
62 99 168
62 98 165
63 99 165
62 98 168
62 98 160
62 98 165
62 98 164
62 98 160
61 97 154
62 99 169
62 98 161
62 98 161
61 96 152
62 98 162
61 97 159
61 97 164
61 97 160
60 95 154
61 96 156
61 96 159
61 97 162
61 96 159
61 97 159
61 95 151
61 95 148
60 93 148
60 95 148
61 96 155
60 94 150
59 93 146
60 94 149
59 90 138
70 83 98
70 75 52
75 77 23
63 67 23
73 74 30
72 74 26
77 80 37
76 78 28
81 83 38
66 70 36
76 79 30
86 88 37
93 94 44
84 87 40
83 86 42
85 87 35
93 95 48
104 104 51
99 100 47
102 103 48
108 107 53
108 108 50
121 119 54
116 115 47
122 120 55
107 108 49
117 116 55
125 122 56
122 120 59
119 118 54
125 122 57
135 132 62
135 132 62
126 125 57
139 135 60
139 135 61
129 127 53
132 130 60
133 130 60
139 136 64
138 135 61
142 138 70
149 144 71
139 136 58
146 142 64
152 146 66
142 138 58
151 146 71
148 143 64
153 148 71
151 146 69
142 139 60
149 145 71
148 143 66
156 150 72
146 142 67
156 151 69
156 151 69
147 143 62
158 152 75
149 145 59
158 152 68
157 151 64
154 149 67
161 155 77
156 150 70
162 155 74
160 154 71
156 151 68
156 149 71
162 156 70
157 151 72
149 144 61
154 149 62
154 148 63
160 153 69
164 158 64
154 148 60
153 147 63
157 152 66
156 150 67
154 149 64
157 151 69
155 148 72
158 153 65
159 153 67
158 152 64
164 157 73
155 149 62
151 146 64
151 145 61
161 154 68
154 148 61
154 148 70
149 143 60
150 144 62
149 143 63
148 143 57
150 145 54
160 152 74
145 140 51
150 143 60
146 140 64
143 139 52
150 145 57
148 143 56
148 141 63
138 133 52
144 138 53
145 140 52
145 139 54
135 130 48
133 127 56
136 130 48
132 129 37
134 132 42
136 137 41
138 141 36
142 143 44
138 142 39
144 152 32
155 165 39
155 167 25
155 167 22
153 169 19
156 174 16
163 179 11
165 185 16
167 187 0
171 191 0
169 191 0
169 190 0
169 190 0
172 192 0
164 183 0
171 192 0
172 194 0
173 196 0
172 196 0
170 193 0
173 196 0
174 197 0
174 197 0
171 195 0
173 196 0
170 193 0
174 197 0
171 194 0
169 193 0
171 195 0
174 197 0
173 195 0
170 193 0
172 196 0
174 197 0
171 194 0
170 193 0
168 191 0
170 193 0
170 193 0
166 189 0
171 195 0
168 192 0
169 193 0
169 193 0
169 192 0
167 191 0
169 192 0
171 195 0
167 191 0
172 195 0
170 194 0
173 196 0
167 191 0
169 193 0
170 194 0
172 196 0
174 196 0
168 192 0
171 194 0
173 196 0
167 191 0
169 193 0
173 196 0
166 190 0
168 192 0
172 195 0
167 190 0
171 195 0
170 194 0
167 192 0
171 194 0
162 186 0
170 193 0
167 191 0
170 193 0
168 191 0
169 192 0
162 186 0
167 191 0
167 189 0
166 189 0
172 195 0
168 190 0
170 192 0
168 192 0
166 189 0
168 191 0
169 191 0
171 193 0
171 194 0
166 190 0
165 188 0
170 193 0
165 188 0
169 192 0
166 190 0
166 189 0
173 196 0
165 188 0
168 191 0
157 180 54
72 105 153
61 97 151
62 98 157
62 97 159
61 97 156
62 99 166
62 98 161
62 98 159
61 97 156
62 98 167
62 99 165
62 98 166
61 97 158
63 99 168
61 98 164
61 98 165
62 98 161
62 98 165
61 98 163
62 99 172
62 99 169
62 98 166
61 98 162
61 98 163
63 99 171
63 99 173
62 98 166
62 98 163
61 97 162
62 99 171
62 99 171
62 99 171
61 98 163
63 100 171
62 98 165
61 98 165
62 98 167
62 99 171
62 98 168
62 98 169
62 98 170
62 99 171
63 99 172
62 98 171
62 99 172
61 98 166
62 98 169
62 98 172
62 99 173
62 99 174
62 98 169
63 99 171
62 98 168
62 98 171
61 98 167
62 99 170
62 98 169
63 99 172
62 98 168
62 99 168
62 99 172
62 99 173
62 98 167
63 99 170
62 98 170
62 98 168
62 99 174
62 99 169
62 99 173
62 98 166
63 99 175
62 99 175
62 99 171
62 99 171
63 100 176
62 98 170
62 99 172
62 99 174
62 99 169
63 100 177
62 98 166
61 98 166
63 99 176
61 98 166
62 99 174
63 99 170
63 99 170
63 99 177
61 98 170
62 99 178
62 98 170
62 98 171
61 98 166
62 98 166
62 98 167
63 99 171
63 99 171
62 99 169
62 98 168
62 99 172
63 99 173
63 99 175
62 99 169
62 98 168
62 99 171
62 99 167
62 98 170
62 99 171
62 99 165
63 99 170
61 98 162
62 99 171
62 99 170
62 99 174
62 98 168
62 99 170
63 99 167
63 100 176
62 99 172
63 99 171
62 98 163
63 99 167
63 99 168
62 98 162
63 99 170
62 99 171
62 98 169
62 98 164
62 98 169
63 99 169
61 97 155
62 98 164
62 98 164
62 98 162
62 98 164
63 99 170
62 98 168
62 99 165
62 98 167
62 98 165
61 98 169
62 98 166
61 97 158
61 97 160
63 99 172
62 98 162
62 98 163
62 99 168
62 98 160
62 98 165
62 97 161
62 98 165
62 99 171
61 97 156
61 98 164
62 98 163
62 98 165
63 99 170
61 97 158
61 97 159
62 98 162
61 97 163
63 99 167
61 97 155
62 98 162
62 97 161
61 96 153
61 96 152
61 96 155
61 97 153
61 97 158
61 96 152
59 93 151
60 94 143
60 94 148
61 95 149
57 91 140
59 90 135
66 85 102
64 70 36
67 70 22
67 70 31
64 68 25
74 75 33
74 75 26
79 81 40
77 80 34
84 85 32
81 82 35
81 81 38
93 92 31
89 88 38
94 94 37
92 93 33
97 97 45
102 102 50
99 99 44
98 98 48
103 102 46
110 109 48
115 113 48
114 113 51
110 110 47
127 125 58
128 126 58
131 129 60
127 126 52
114 114 51
123 120 53
130 128 62
126 125 53
132 129 60
128 126 55
126 124 55
145 140 62
140 136 53
144 140 62
141 139 65
147 142 66
142 138 65
138 135 61
136 133 63
148 144 71
141 137 61
149 145 64
146 141 67
152 147 70
157 152 72
148 144 68
164 158 73
154 148 75
153 148 68
156 151 70
157 151 69
153 148 63
154 148 70
157 150 73
155 149 69
157 151 64
154 149 67
159 153 67
159 152 67
151 146 64
158 152 65
157 152 72
146 141 58
159 152 68
158 152 67
152 147 63
161 155 66
159 154 63
154 148 66
153 147 64
153 147 64
155 149 66
153 148 59
154 148 59
154 148 62
156 150 67
157 151 63
158 152 67
160 153 73
160 155 72
159 152 63
148 143 59
154 148 65
149 144 56
154 147 64
154 147 70
152 147 62
153 146 65
153 147 66
150 144 61
158 151 65
158 151 70
151 146 52
146 141 56
153 147 61
144 138 56
150 144 60
140 135 49
130 125 44
141 135 45
143 137 54
136 132 56
148 143 51
145 139 62
136 132 52
139 131 63
129 124 37
134 128 47
134 128 49
144 144 54
143 141 53
141 145 37
144 150 32
150 157 42
148 156 34
156 167 34
155 166 34
148 160 22
157 171 30
157 171 28
160 174 19
162 181 16
166 185 0
168 189 0
168 188 0
168 186 0
169 188 0
170 190 0
170 189 0
171 192 0
168 187 0
169 190 0
172 196 0
171 194 0
173 196 0
168 191 0
173 196 0
174 197 0
166 190 0
169 192 0
171 194 0
170 195 0
173 196 0
172 196 0
170 194 0
166 190 0
170 193 0
171 195 0
172 195 0
171 194 0
173 196 0
171 194 0
170 194 0
169 193 0
170 193 0
173 195 0
171 195 0
167 191 0
172 195 0
172 196 0
170 194 0
170 193 0
172 195 0
168 192 0
169 192 0
169 193 0
168 193 0
171 194 0
167 191 0
170 193 0
166 189 0
173 195 0
171 194 0
172 195 0
168 191 0
170 193 0
173 196 0
169 193 0
168 192 0
171 194 0
168 190 0
171 194 0
166 190 0
166 190 0
169 192 0
168 192 0
171 194 0
164 187 0
171 195 0
170 193 0
165 188 0
169 192 0
169 192 0
173 196 0
168 191 0
165 188 0
165 188 0
168 191 0
168 192 0
168 191 0
166 190 0
171 195 0
167 190 0
167 191 0
171 195 0
168 190 0
169 192 0
169 193 0
170 193 0
171 195 0
168 190 0
166 190 0
169 193 0
168 192 0
170 192 0
164 187 0
154 179 70
62 97 153
61 97 152
61 96 150
62 98 158
62 97 159
62 99 166
62 98 159
62 98 159
62 97 157
63 99 167
62 98 159
62 98 164
62 98 159
62 98 164
63 99 160
62 98 167
62 98 167
62 98 165
61 98 161
62 98 165
62 98 168
62 98 161
62 99 166
63 99 168
62 99 166
62 98 166
62 98 167
62 99 168
62 98 162
63 99 172
62 99 170
61 98 168
62 99 169
62 99 171
62 98 167
62 98 170
63 99 171
62 99 168
62 99 171
63 100 171
61 97 167
62 98 167
62 98 168
61 98 171
62 99 176
62 99 171
62 99 170
62 99 166
62 99 170
62 99 170
63 99 170
62 99 173
62 99 171
62 99 171
61 97 169
62 98 170
62 99 172
62 99 169
61 98 172
63 99 176
62 99 172
63 99 172
63 99 169
62 98 173
62 99 171
62 98 169
62 99 171
62 99 173
62 99 175
62 99 173
62 99 172
63 99 173
62 99 170
61 98 174
62 98 169
62 98 169
62 99 170
62 98 170
62 99 171
62 99 173
63 99 173
62 99 173
62 98 167
62 98 170
62 98 169
62 99 170
61 98 167
63 99 173
62 99 174
61 97 162
63 99 168
62 99 172
62 99 166
62 99 171
62 99 167
62 99 167
62 98 168
63 99 172
62 98 167
63 99 169
63 99 171
62 98 163
62 98 171
61 98 172
62 99 168
63 99 167
62 98 171
63 100 173
62 99 177
63 99 173
62 99 173
62 99 175
62 99 173
62 99 167
62 98 168
62 99 173
63 99 169
63 99 173
62 98 165
63 99 174
63 100 172
62 99 172
61 98 165
62 98 164
62 98 168
62 98 165
62 99 166
62 99 169
62 99 168
62 98 164
62 98 165
62 98 164
63 99 171
62 99 170
62 98 165
63 99 169
62 99 172
62 98 168
61 97 163
63 99 171
62 98 165
63 99 174
62 99 168
61 98 163
62 99 169
62 99 165
62 98 163
63 99 167
62 98 167
62 99 172
61 97 160
63 99 166
62 98 163
61 97 153
62 98 163
62 98 165
62 98 164
61 97 162
61 97 157
62 97 159
61 97 158
60 95 156
61 97 156
62 97 163
62 98 163
61 97 166
61 96 147
61 96 147
61 96 154
61 96 156
61 97 157
61 96 152
60 95 151
61 96 152
59 93 145
60 95 156
61 95 155
59 91 142
60 81 102
71 77 51
75 75 17
62 67 28
71 74 27
61 65 25
65 66 25
88 87 36
82 84 26
68 71 30
87 87 32
86 87 30
70 75 35
85 87 39
85 89 44
88 90 48
104 103 50
100 101 34
97 97 36
105 104 46
110 110 56
109 108 49
111 111 46
120 119 55
114 114 50
125 122 53
124 121 57
121 120 60
119 117 51
129 127 50
119 118 55
116 117 59
125 123 52
131 128 54
130 128 57
132 129 57
133 130 58
122 121 47
140 136 67
139 136 64
137 133 63
140 136 67
140 136 58
144 140 62
146 142 66
150 145 65
151 145 67
141 137 65
149 144 71
136 132 61
143 138 61
151 146 73
153 148 70
154 148 67
150 145 69
153 147 71
151 146 63
154 148 66
149 144 60
149 144 67
163 156 78
154 148 64
153 147 65
161 154 70
156 149 71
162 154 75
159 153 67
156 149 70
152 145 69
156 150 68
157 152 65
157 151 66
156 149 65
153 147 65
158 151 69
158 151 67
159 153 71
156 150 60
156 148 69
156 150 61
157 151 64
148 142 61
159 152 70
153 148 59
147 142 62
155 148 63
157 151 66
153 147 60
157 150 69
154 147 69
157 150 63
144 139 54
154 148 62
154 149 64
153 147 70
147 142 56
150 144 60
147 142 56
152 144 63
145 139 59
151 146 62
137 131 49
149 144 56
144 138 62
148 143 54
147 141 59
141 134 53
141 136 53
136 132 48
134 130 52
119 115 41
122 117 45
132 128 42
140 136 47
143 142 44
142 145 37
134 139 34
149 152 44
148 155 36
147 156 36
152 163 30
154 167 22
150 161 22
163 178 25
158 171 19
160 178 16
164 183 16
168 187 0
167 187 0
169 188 0
169 187 0
170 190 0
169 191 0
171 190 0
171 191 0
172 195 0
163 182 0
170 193 0
171 195 0
170 194 0
172 196 0
172 196 0
170 194 0
170 194 0
170 194 0
172 196 0
171 194 0
169 192 0
173 196 0
174 197 0
169 193 0
172 196 0
171 194 0
172 196 0
171 195 0
172 195 0
171 195 0
171 194 0
172 196 0
172 194 0
167 190 0
170 193 0
170 193 0
172 195 0
168 191 0
170 193 0
167 190 0
170 194 0
169 192 0
169 191 0
173 196 0
171 194 0
168 192 0
169 193 0
170 193 0
171 195 0
173 196 0
168 192 0
167 191 0
165 189 0
172 196 0
169 192 0
166 191 0
170 194 0
166 190 0
169 193 0
170 194 0
170 193 0
170 193 0
173 196 0
168 191 0
167 190 0
170 193 0
168 191 0
171 196 0
170 193 0
170 193 0
171 194 0
172 195 0
168 193 0
165 188 0
166 190 0
172 196 0
167 191 0
167 191 0
166 190 0
170 192 0
169 192 0
168 190 0
169 193 0
169 192 0
167 190 0
168 192 0
168 191 0
167 190 0
164 187 0
169 192 0
167 191 0
172 195 0
162 187 0
166 190 0
149 173 72
62 97 156
62 98 158
62 98 156
61 97 151
62 98 164
62 98 160
61 97 153
62 98 163
61 97 156
61 97 156
61 97 164
62 98 168
63 99 168
61 98 159
62 98 157
61 97 162
62 98 164
62 98 164
62 98 164
62 98 165
62 98 161
61 97 162
62 99 165
62 99 167
62 98 167
62 99 172
61 98 163
61 98 163
62 99 168
61 98 162
62 99 167
62 98 159
62 98 168
62 98 167
62 98 168
63 99 169
62 99 168
61 98 165
62 98 172
62 99 169
62 99 172
61 98 170
62 98 166
62 99 171
62 99 171
62 99 171
62 98 166
63 99 168
63 99 178
62 99 168
62 98 167
62 98 168
62 99 171
62 99 170
62 98 164
62 98 167
62 99 172
62 98 170
62 99 176
61 98 166
62 99 168
61 98 165
62 99 174
62 98 168
62 99 169
61 98 166
62 98 173
62 99 170
62 99 169
63 99 173
63 99 172
62 99 173
62 99 167
62 99 169
62 99 169
62 99 168
61 98 170
62 99 172
61 98 169
62 99 172
62 98 168
61 97 163
62 98 167
62 98 171
62 98 167
61 98 168
62 99 169
63 99 171
62 99 172
62 98 167
62 99 173
62 99 174
61 98 168
63 99 168
62 99 175
62 98 166
63 99 170
62 98 167
62 99 170
62 99 174
63 99 170
61 98 167
62 99 169
62 98 166
62 99 168
62 99 172
62 98 165
62 98 163
62 98 167
62 98 166
62 98 167
62 99 169
62 99 165
62 99 166
62 98 166
62 99 171
62 99 170
62 98 164
62 98 164
62 98 165
62 99 169
62 98 165
62 98 162
61 98 169
62 99 168
63 99 166
62 99 172
62 98 163
62 99 170
62 99 176
62 98 165
62 98 165
63 100 172
62 98 167
62 98 163
62 98 166
62 98 169
63 100 171
62 98 159
62 98 165
62 99 164
62 98 164
63 99 166
63 99 164
62 98 161
62 98 164
62 98 162
61 96 153
60 96 158
61 98 161
62 97 158
62 99 169
61 97 164
62 98 160
61 98 163
62 98 163
62 98 166
62 97 156
62 97 158
62 98 161
61 97 154
61 96 152
61 97 151
62 97 159
61 97 156
61 97 158
62 97 156
61 96 155
61 96 151
62 97 152
62 96 159
60 95 145
62 97 154
60 95 152
61 96 156
61 95 152
59 92 141
60 93 143
60 83 111
54 65 54
64 68 22
70 73 25
76 77 23
75 78 29
80 79 25
74 75 27
81 82 23
83 85 30
87 89 39
87 88 35
86 87 31
89 90 36
100 99 40
95 96 40
100 100 44
97 97 48
100 100 40
109 108 48
101 102 48
105 105 42
117 115 59
113 113 55
110 109 52
106 106 44
118 117 49
108 107 49
115 114 55
121 118 53
120 117 49
130 126 58
124 122 53
123 121 53
127 124 54
133 130 54
134 131 53
132 128 51
146 141 61
133 131 55
131 128 54
136 132 56
145 141 60
149 144 68
138 135 59
139 137 61
152 146 66
143 139 59
155 149 69
147 143 56
151 146 62
152 146 72
149 144 66
155 150 64
153 147 65
157 151 72
163 157 73
147 143 60
159 153 74
149 144 68
152 147 64
150 146 65
154 149 64
153 149 56
158 152 69
151 146 60
153 147 57
166 159 72
151 146 64
162 155 68
159 152 75
157 151 66
153 148 60
151 144 62
153 147 63
148 143 59
162 155 65
157 150 68
155 149 66
156 151 60
147 143 57
158 151 69
156 150 66
160 154 70
157 150 66
153 147 54
153 147 62
146 139 64
154 148 58
150 143 63
146 141 54
152 146 61
144 138 54
149 144 59
144 139 56
150 144 54
148 142 58
140 135 53
143 137 52
144 139 54
141 137 53
139 134 52
147 141 58
141 136 51
142 137 47
147 141 56
142 136 56
141 136 49
139 133 51
138 133 58
136 130 44
125 121 39
135 131 45
137 139 41
146 144 48
138 140 42
141 147 39
147 152 34
149 158 22
148 158 22
150 159 32
151 165 16
163 180 25
154 167 19
161 176 19
163 179 11
168 187 0
166 186 0
169 190 0
169 192 0
171 192 0
167 186 0
166 185 0
170 191 0
169 189 0
172 192 0
168 187 0
175 198 0
173 196 0
172 195 0
170 194 0
169 192 0
172 195 0
173 196 0
173 195 0
170 194 0
170 194 0
168 191 0
172 196 0
172 195 0
171 194 0
175 198 0
171 195 0
169 193 0
170 194 0
170 193 0
169 193 0
172 195 0
169 192 0
170 193 0
171 194 0
168 192 0
169 192 0
170 193 0
171 195 0
172 196 0
169 192 0
170 194 0
173 196 0
170 193 25
171 194 0
171 194 0
172 195 0
170 194 25
170 194 0
171 194 36
168 192 25
169 192 0
171 194 0
171 195 0
171 194 0
171 194 25
167 190 0
169 192 0
170 193 0
172 195 0
169 192 0
168 191 0
169 192 0
172 195 0
173 196 0
168 191 0
166 189 0
170 194 0
171 195 0
169 192 0
171 194 0
169 192 0
165 188 0
169 192 0
167 189 0
166 189 0
168 190 0
168 191 0
168 192 0
167 191 0
169 193 0
165 189 0
162 185 0
170 193 0
165 189 0
168 191 0
165 187 0
164 187 0
170 195 0
165 187 0
166 188 0
168 191 0
167 190 0
169 192 0
165 188 18
132 157 95
66 101 150
61 97 158
61 96 156
61 97 158
61 97 153
62 98 162
60 96 145
62 98 160
63 99 167
62 98 155
62 98 164
62 99 166
62 98 166
61 97 158
62 98 167
62 98 163
62 98 159
61 97 164
62 98 159
62 98 160
62 98 162
62 99 172
63 99 168
62 98 168
62 98 172
62 98 165
62 99 170
61 97 158
62 99 171
62 99 171
61 97 163
62 99 170
62 99 170
63 99 171
62 99 171
62 99 171
62 98 164
61 98 168
62 98 166
62 98 168
63 100 176
62 99 172
62 98 170
62 99 174
62 99 169
63 99 173
62 99 172
62 99 171
62 99 175
62 98 169
62 99 171
62 99 170
63 99 172
62 99 173
62 98 172
61 98 164
62 98 164
61 98 165
62 99 171
62 98 169
61 98 170
62 99 172
62 98 167
63 100 177
62 99 176
62 98 166
62 99 171
62 99 171
61 98 174
61 98 170
62 98 170
62 99 170
61 98 167
63 99 173
61 98 166
62 99 172
62 98 171
63 100 175
62 98 165
62 99 174
63 99 175
62 99 171
63 99 172
62 99 168
62 98 169
62 98 164
63 99 172
62 98 173
62 98 167
62 98 165
62 99 172
61 98 165
63 99 173
62 98 167
62 98 163
62 99 172
62 99 169
62 99 173
62 99 172
62 98 164
62 98 168
62 99 170
62 99 171
61 98 166
62 98 165
62 98 170
62 99 169
62 99 171
62 98 166
62 98 171
63 99 170
62 99 171
62 98 167
62 98 165
61 98 164
63 99 169
62 99 172
62 98 166
63 99 170
62 99 170
61 98 163
62 99 168
62 98 167
62 99 169
62 99 168
62 98 164
62 99 169
62 98 166
62 98 163
62 98 168
62 99 168
61 98 164
63 99 169
61 98 163
62 98 164
62 98 166
62 98 166
61 97 158
62 98 167
62 98 164
61 98 165
62 98 166
62 98 166
62 99 166
63 99 170
62 98 159
62 98 163
61 98 166
62 98 161
61 97 164
62 98 160
62 98 161
62 98 163
61 97 159
62 98 162
62 98 164
62 98 160
61 97 160
62 98 162
62 98 165
62 97 158
62 97 156
61 97 160
63 99 169
61 97 155
61 97 156
62 96 156
61 96 154
62 97 159
61 96 153
62 98 165
60 94 150
61 96 157
60 94 147
60 95 150
61 95 151
60 93 147
60 93 138
56 82 118
71 80 71
70 73 31
65 67 24
73 73 27
64 68 17
82 83 32
70 72 31
82 84 32
77 79 26
92 93 35
92 92 32
77 79 30
76 80 35
84 85 31
84 85 29
92 94 35
109 107 39
106 104 51
99 101 38
102 102 46
104 104 44
116 115 53
108 106 53
117 115 47
119 117 58
109 108 48
115 114 43
124 121 50
113 112 47
124 121 53
125 123 51
130 126 56
139 135 60
119 118 52
128 126 53
125 123 56
131 129 48
129 127 56
136 133 59
133 129 51
139 135 67
135 132 55
137 134 53
134 130 62
146 141 64
142 137 58
146 141 68
144 140 59
141 137 58
144 139 63
144 140 62
148 144 57
148 143 64
150 144 65
155 148 67
154 148 68
149 143 66
147 142 60
152 146 61
143 139 60
154 148 69
155 150 65
161 154 68
150 145 61
149 144 63
159 151 73
160 154 63
158 152 67
152 146 67
155 149 64
152 146 60
156 150 66
146 141 55
159 152 69
155 149 66
154 149 61
151 145 58
153 148 58
156 151 67
154 149 60
155 150 63
154 148 66
153 146 59
155 150 60
156 149 56
154 148 65
150 143 61
149 143 57
152 146 60
150 144 61
161 154 70
150 144 57
151 146 59
151 145 62
149 142 57
139 133 54
150 143 63
150 144 56
143 138 58
148 141 63
136 130 48
146 140 59
140 135 51
140 134 52
133 128 47
142 136 53
137 131 58
144 138 56
135 130 51
130 125 44
124 121 34
140 139 49
142 143 51
141 141 39
139 143 37
152 158 34
139 145 39
148 156 30
153 162 25
149 160 30
154 168 19
157 170 19
158 175 11
159 176 0
166 185 0
165 184 0
171 191 0
169 190 0
166 187 0
165 183 0
168 189 0
171 192 0
170 190 0
166 186 0
167 187 0
172 193 0
173 196 0
173 197 0
173 196 0
168 192 0
169 192 0
172 196 0
173 196 0
169 192 0
171 194 0
172 195 0
171 194 0
169 194 0
171 195 0
168 192 0
173 196 0
169 193 0
167 190 0
172 195 0
170 194 0
171 195 0
172 195 0
171 195 0
172 195 0
169 192 0
170 194 25
168 191 25
169 192 0
171 194 36
173 196 0
171 195 25
170 194 25
171 193 44
174 196 67
171 195 0
174 196 36
171 194 44
168 192 0
173 196 51
172 196 25
170 193 44
172 195 57
170 193 51
168 191 0
168 191 36
173 197 51
172 195 36
173 196 62
171 194 51
166 189 51
170 193 25
170 194 0
171 194 25
170 194 0
171 195 25
170 192 0
170 194 0
169 192 0
170 192 0
165 188 0
164 188 0
169 193 0
164 187 0
169 191 0
167 190 0
168 191 0
167 190 0
170 193 0
166 189 0
162 185 0
167 189 0
167 190 0
168 190 0
166 190 0
167 189 0
167 191 0
165 188 0
166 189 0
164 187 0
167 189 0
170 193 0
165 187 0
163 187 0
167 191 0
163 185 0
129 155 107
72 104 140
70 104 154
66 100 153
60 96 154
63 99 163
62 98 155
61 97 157
61 97 156
62 98 163
62 98 160
62 98 159
62 98 163
62 98 161
61 97 158
61 98 159
61 98 161
62 98 159
63 99 165
62 98 161
61 97 158
62 99 165
61 98 162
61 98 161
61 98 165
61 98 171
62 98 168
62 99 173
63 99 169
61 98 171
62 99 171
61 97 164
62 99 171
62 98 165
62 99 170
61 98 162
63 100 175
62 98 168
61 98 166
62 98 164
62 98 169
62 99 169
62 99 170
62 99 173
62 98 172
62 98 170
62 99 170
62 99 171
62 98 169
63 99 174
63 99 170
62 99 177
62 99 173
62 98 169
62 98 167
62 99 169
63 99 170
62 99 171
62 98 170
62 98 165
62 99 167
62 99 170
63 99 175
62 99 173
62 99 171
62 98 166
62 99 170
62 99 170
63 99 173
61 98 167
61 98 169
63 99 174
61 98 173
62 99 174
62 99 174
62 99 169
61 98 164
62 98 171
62 98 170
62 98 169
62 99 170
62 99 172
62 99 166
62 99 173
62 99 168
62 98 168
62 99 168
61 98 165
61 98 169
62 98 171
62 99 170
62 99 172
62 99 171
62 98 168
62 99 173
62 98 167
63 99 170
61 98 169
63 99 171
63 99 170
62 98 170
62 99 171
63 99 174
62 99 173
62 99 167
63 99 167
63 99 170
62 98 165
62 99 169
62 99 170
62 98 170
61 97 162
62 98 167
62 98 169
62 99 171
62 99 167
62 99 166
62 98 168
62 98 162
62 98 163
62 99 171
62 98 164
62 98 160
62 98 164
62 99 172
62 98 165
62 98 165
62 98 162
62 98 169
62 99 167
61 98 164
62 98 169
62 98 167
61 97 163
62 98 167
62 98 165
62 98 162
62 98 163
62 98 161
62 98 163
62 98 163
62 98 163
62 99 165
62 98 162
62 98 167
62 98 164
61 97 158
62 98 167
62 98 161
62 98 158
62 98 159
62 98 160
62 98 164
63 99 166
61 97 157
63 99 168
61 96 160
62 98 161
62 98 164
61 97 161
62 98 162
62 98 163
61 97 153
61 97 160
61 97 158
61 96 156
62 97 158
61 96 152
61 97 154
62 98 162
60 96 154
62 97 160
60 95 152
58 92 146
60 95 150
60 94 147
60 95 157
59 93 148
58 91 140
66 91 121
68 78 74
66 69 24
75 75 27
73 73 22
75 77 26
63 68 28
76 76 30
69 70 24
81 81 22
80 82 32
88 90 33
93 94 39
90 92 36
101 100 43
83 86 31
94 96 42
100 100 52
102 101 42
104 103 32
106 105 39
99 98 40
118 115 50
105 105 45
104 104 48
118 117 50
114 112 51
123 121 48
117 115 43
113 112 46
122 120 43
125 123 45
126 124 52
120 118 52
118 117 53
135 131 58
127 125 51
138 135 59
131 130 52
126 124 43
139 136 63
148 142 69
140 136 59
140 137 59
140 136 58
140 137 56
147 142 64
140 136 50
145 140 57
148 143 57
137 134 57
151 145 62
148 143 63
154 150 67
150 145 62
148 143 61
153 148 62
148 143 61
155 148 71
150 145 62
146 141 51
150 145 56
150 146 56
153 148 61
151 145 64
153 147 60
155 150 69
161 155 70
155 149 64
154 149 59
152 147 65
157 151 67
155 148 70
154 149 62
156 149 67
150 145 62
154 148 59
151 145 62
152 145 63
152 145 63
154 149 59
149 144 59
150 144 60
160 153 70
156 150 66
151 146 56
149 144 58
144 138 51
153 148 63
157 151 63
148 144 54
150 143 62
153 147 63
148 143 54
141 136 49
155 148 65
147 141 57
146 141 51
147 141 56
145 140 51
144 139 53
139 133 56
138 133 52
144 137 58
140 134 49
136 131 48
137 131 52
142 136 51
141 135 52
130 126 45
132 129 48
143 138 51
145 144 45
141 143 42
141 143 34
147 151 41
143 150 37
147 153 36
152 162 32
151 161 28
154 167 22
157 171 22
155 171 11
158 175 16
165 182 16
162 178 0
171 190 0
169 189 0
164 183 0
167 187 0
169 188 0
170 190 0
170 191 0
170 190 0
172 193 0
172 193 0
170 191 0
174 196 0
172 195 0
171 194 0
173 197 0
169 192 0
168 191 0
173 196 0
170 193 0
170 193 0
173 196 0
172 194 0
169 193 0
171 194 0
174 197 0
172 195 0
173 197 0
169 192 0
169 193 0
173 195 0
172 195 36
169 193 25
173 196 62
173 196 44
170 193 44
171 194 25
170 193 57
172 196 44
175 197 62
175 197 57
176 198 67
171 194 57
176 198 67
172 194 62
173 195 67
176 197 76
173 196 51
177 199 72
172 195 44
177 198 72
175 198 67
175 198 67
176 198 76
171 194 62
175 196 67
173 196 44
169 192 36
174 197 62
175 198 67
175 196 72
170 193 51
173 195 80
169 192 36
171 194 51
172 195 36
170 193 25
173 196 51
174 197 51
171 194 0
166 190 0
170 194 0
169 193 0
171 194 0
170 193 0
167 190 0
169 192 0
170 193 0
171 195 0
166 190 0
167 191 0
165 189 0
166 189 0
166 189 0
165 188 0
161 183 0
166 190 0
168 192 0
165 189 0
168 190 0
166 189 0
167 191 0
166 189 0
170 193 0
166 188 0
170 193 0
119 145 113
80 112 153
67 101 151
71 104 147
71 104 148
72 105 150
62 98 158
62 98 156
62 98 155
62 98 159
62 98 160
61 96 154
62 98 161
62 97 155
60 97 154
62 98 159
62 98 163
63 99 165
62 98 162
62 98 158
61 97 159
61 98 163
62 98 164
62 98 162
62 99 167
62 99 167
63 99 169
62 98 165
62 98 168
61 98 170
61 98 165
62 98 167
62 98 167
62 99 169
62 99 171
62 98 161
62 98 168
62 99 171
62 98 166
62 98 168
62 98 167
62 99 171
62 98 170
62 99 171
62 99 172
62 98 168
62 99 172
62 99 172
63 100 173
62 99 176
62 98 165
62 99 170
61 98 170
62 99 171
62 99 170
63 99 176
62 99 170
61 98 166
62 98 171
62 98 163
63 99 175
62 99 173
62 98 165
61 98 168
63 99 166
63 100 175
63 100 173
62 99 170
62 99 171
62 98 167
62 99 169
62 99 168
63 99 169
62 99 173
61 98 165
62 99 168
62 99 170
63 99 170
61 98 171
62 99 171
62 99 174
62 98 169
62 98 166
63 99 169
62 98 169
62 99 171
62 99 172
62 98 163
63 99 167
62 98 168
62 99 172
61 97 166
62 98 167
62 99 173
61 98 163
61 98 164
61 97 160
62 99 170
60 97 163
62 98 167
62 98 169
62 98 166
62 98 171
62 98 169
62 98 164
62 98 164
61 98 164
61 98 167
62 98 167
61 98 164
62 99 168
62 99 169
62 98 167
62 98 167
62 98 166
63 99 167
61 98 165
62 99 168
61 98 165
62 98 165
62 98 165
62 98 163
63 99 171
62 99 169
62 98 169
62 98 165
63 99 170
62 98 161
62 99 167
61 97 159
62 99 172
62 98 163
62 99 167
62 98 165
63 99 165
62 98 166
61 97 161
61 97 159
62 99 171
62 98 164
61 98 161
62 99 166
61 97 160
61 97 161
61 98 160
63 99 163
63 99 168
61 97 154
62 98 164
62 98 166
62 99 168
62 98 164
63 99 165
62 98 166
62 98 160
62 98 160
62 98 164
61 98 167
62 97 156
61 97 155
62 98 162
62 98 162
61 97 157
61 97 156
62 97 159
61 96 155
62 97 155
62 97 164
61 96 153
62 97 162
62 97 158
61 96 152
61 95 145
60 94 151
61 96 150
61 96 154
60 95 148
61 96 151
60 94 150
60 88 132
72 83 82
71 74 32
79 79 25
62 65 25
75 76 22
72 74 16
65 67 24
91 92 30
73 74 23
88 89 20
84 83 27
94 95 30
81 83 31
102 102 37
92 93 31
106 105 42
96 96 38
108 106 39
106 105 44
107 107 42
112 110 38
108 108 46
116 115 41
125 123 54
114 113 45
116 113 53
123 121 50
122 121 52
129 125 50
133 130 51
118 117 45
124 122 52
128 126 51
130 126 46
129 125 53
130 127 62
130 128 54
139 136 58
130 127 53
123 120 45
138 134 63
136 132 56
136 133 54
145 141 59
149 144 65
149 144 68
139 136 54
147 142 61
150 145 58
137 134 55
152 146 61
148 144 59
149 144 60
148 144 59
147 143 63
141 136 59
145 139 65
145 139 61
149 144 64
149 143 58
149 143 54
149 144 57
149 144 60
150 146 54
151 146 59
152 146 60
155 149 61
151 146 57
150 145 54
151 145 60
156 150 70
156 150 66
154 147 61
151 146 58
156 150 62
151 145 61
156 150 67
153 147 67
148 143 51
150 144 58
152 147 52
152 145 62
138 134 53
147 141 59
157 150 69
157 151 61
152 145 60
143 139 48
150 144 59
153 148 57
148 142 57
152 145 61
146 139 60
148 143 56
143 137 53
142 137 47
155 149 60
140 136 48
142 137 48
134 128 49
146 140 57
140 134 42
142 137 47
136 131 45
138 133 44
136 131 39
130 125 45
135 130 53
134 130 37
128 125 44
140 137 49
139 139 47
148 150 36
143 146 41
148 154 37
150 154 44
149 159 28
146 157 22
151 162 28
157 169 30
154 170 19
157 173 11
163 179 16
164 182 0
166 186 0
167 187 0
169 189 0
169 188 0
170 190 0
169 188 0
164 181 0
167 187 0
166 184 0
166 186 0
170 191 0
167 187 0
173 195 0
169 192 0
171 194 0
169 193 0
170 194 0
173 196 0
170 195 0
168 190 0
172 194 0
172 195 0
172 195 0
170 193 0
169 193 0
174 197 36
169 192 25
173 196 36
174 197 25
172 195 44
168 191 36
172 195 44
172 194 51
177 199 80
173 195 62
173 196 51
174 196 62
176 198 62
179 202 88
174 196 57
179 201 88
175 197 76
172 194 67
177 199 80
171 194 51
175 198 80
175 198 67
174 196 84
175 197 72
177 199 80
181 203 99
177 198 92
176 198 88
176 198 80
175 198 72
177 199 80
175 197 84
173 195 84
169 191 72
173 195 76
172 194 67
174 197 72
172 195 67
174 196 88
173 196 67
170 193 25
171 194 57
174 196 62
170 193 57
171 194 72
170 193 36
175 197 76
169 192 36
170 192 62
171 195 44
171 194 25
170 193 0
168 193 0
167 191 0
167 191 0
168 192 0
165 188 0
170 193 0
172 195 0
169 193 0
167 191 0
168 191 0
164 187 0
166 190 0
161 183 0
167 190 0
170 193 0
166 190 0
169 191 0
164 188 18
162 184 25
109 136 122
83 114 140
74 106 143
73 106 148
76 109 152
64 99 144
68 103 160
61 97 157
63 98 148
61 97 158
62 98 162
61 97 157
62 98 167
62 98 159
63 99 167
61 98 160
61 98 162
62 99 166
61 97 161
61 97 161
61 97 156
61 98 168
62 98 166
62 98 164
62 98 164
61 98 166
61 97 165
63 99 166
62 98 167
62 98 166
62 98 162
61 98 162
62 98 167
61 97 159
61 98 167
62 98 171
63 99 172
62 99 171
62 98 167
61 98 168
62 98 166
62 98 170
62 98 170
62 98 166
61 98 170
62 99 174
62 98 166
62 99 170
62 98 165
62 99 171
63 99 169
62 98 169
62 99 175
62 99 168
62 98 163
62 98 168
63 99 176
63 99 171
62 98 170
63 100 174
63 99 168
63 99 173
62 98 167
63 99 166
63 100 176
62 98 166
61 98 166
62 98 168
61 98 167
63 100 176
62 99 169
63 99 173
62 98 169
62 98 165
61 98 167
62 98 166
62 98 166
62 98 168
61 98 165
63 100 175
62 99 172
62 98 171
61 98 168
63 99 172
63 99 173
62 98 167
62 98 165
62 99 171
63 99 169
62 99 169
61 98 164
63 99 165
62 99 171
61 98 164
63 100 174
63 99 171
61 97 160
62 99 166
62 99 170
63 99 168
62 99 169
62 99 166
62 98 167
62 98 165
62 98 165
63 99 168
62 99 167
62 99 169
62 99 171
62 99 171
63 99 168
62 99 167
62 98 169
61 97 164
62 99 172
62 99 170
61 98 166
62 98 164
62 99 168
62 98 166
62 98 170
62 98 166
62 99 169
61 97 159
62 98 168
62 99 167
63 99 168
62 99 166
62 98 167
61 98 161
63 99 166
62 98 162
63 99 163
63 99 168
62 98 164
62 98 165
62 98 164
62 98 165
62 99 165
63 99 165
62 98 165
62 99 167
62 97 161
61 97 153
63 99 166
62 98 161
61 97 163
63 99 164
62 99 167
62 98 166
61 97 154
62 98 163
62 98 164
62 98 165
62 98 160
62 98 163
62 98 158
62 98 162
62 98 163
61 96 151
62 98 162
62 98 161
61 97 160
62 97 155
61 97 154
61 96 146
62 97 152
62 97 159
60 94 145
61 96 156
61 96 157
61 97 157
60 95 151
61 95 150
60 95 152
59 93 143
60 95 155
61 95 152
60 95 147
63 92 128
70 81 76
83 85 32
63 65 22
81 81 21
70 71 27
79 81 28
76 77 20
89 89 29
82 82 29
82 83 22
82 84 35
88 89 40
95 94 43
88 89 38
87 87 25
91 92 40
97 97 37
101 100 38
93 93 31
104 103 33
98 98 35
110 109 53
113 110 49
108 106 37
112 112 49
117 115 46
127 125 56
106 106 43
109 107 42
115 112 47
130 128 59
125 123 51
123 119 50
124 121 39
124 121 51
134 129 51
130 127 46
139 135 55
142 139 64
143 138 60
130 128 53
132 129 55
137 134 58
139 134 60
138 134 51
149 144 55
147 142 64
150 145 65
141 137 56
148 143 61
155 149 63
141 136 51
144 139 57
141 137 53
146 141 56
156 150 68
145 140 62
152 146 62
153 147 63
154 148 65
147 142 54
152 146 60
157 152 62
151 146 61
143 138 57
149 143 57
154 148 61
150 145 53
152 146 57
151 146 56
153 147 64
157 151 63
150 145 54
148 142 59
151 145 56
156 149 63
153 147 61
143 138 51
152 146 62
150 145 56
145 141 49
144 139 54
160 152 69
144 138 57
159 151 67
153 147 59
147 142 56
144 139 54
148 142 60
146 140 59
148 142 58
144 138 48
148 143 62
148 142 60
154 147 59
139 133 52
141 136 49
150 143 58
144 138 57
142 137 51
143 137 49
137 132 42
147 140 52
140 134 52
132 128 39
131 125 49
122 117 36
135 131 44
127 124 36
128 124 42
143 143 42
136 140 32
145 150 36
141 146 36
151 157 44
143 150 32
157 167 25
156 166 25
156 167 25
158 172 25
158 174 22
160 176 16
168 185 11
169 189 0
165 184 0
168 188 0
171 191 0
168 188 0
171 192 0
172 191 0
168 187 0
169 188 0
173 193 0
168 187 0
168 186 0
171 191 0
170 193 0
171 194 0
171 194 0
169 193 0
172 195 0
170 193 0
170 193 0
174 197 0
169 192 0
170 193 0
172 195 25
171 195 0
169 193 25
171 194 51
175 198 44
172 195 51
177 199 51
172 195 36
168 191 51
175 198 72
174 197 80
174 197 62
175 198 62
176 199 80
176 198 88
172 195 80
178 199 80
176 198 92
177 199 95
173 196 72
174 196 76
173 196 67
178 200 76
178 200 84
179 200 80
182 203 108
178 200 102
178 199 105
182 203 105
182 203 102
177 198 102
171 194 76
178 199 92
176 198 88
174 196 80
181 202 99
173 196 67
178 200 99
175 197 67
182 203 108
179 201 92
176 197 88
177 199 88
179 201 88
168 190 76
176 199 84
179 200 102
175 198 72
176 198 80
173 196 62
173 195 62
174 196 67
176 199 72
170 193 51
170 192 51
169 190 51
167 190 36
166 189 25
166 190 0
166 189 0
166 189 0
169 191 0
168 191 0
173 195 0
167 191 0
168 191 0
168 191 0
163 186 0
167 190 0
168 191 0
171 195 0
163 186 25
162 185 36
159 182 44
116 142 108
76 108 142
83 114 143
82 112 141
77 108 149
70 103 148
69 103 150
72 105 149
74 106 145
67 102 151
65 99 149
62 98 158
62 98 157
62 98 164
61 97 157
60 96 156
62 98 159
62 98 165
62 98 163
60 97 155
62 98 164
62 98 164
62 98 163
62 99 168
62 98 163
62 98 166
63 99 168
61 97 161
62 98 162
61 97 159
62 98 163
62 98 166
62 98 166
62 98 163
62 99 168
62 99 169
61 98 170
62 99 172
62 99 172
63 100 174
62 98 164
62 99 169
62 98 169
62 98 163
62 99 172
62 98 170
62 98 168
62 99 174
62 98 172
62 98 166
63 99 174
61 98 166
62 99 167
62 98 164
62 99 171
62 98 168
63 99 169
62 98 161
61 98 162
63 99 169
62 98 171
62 99 166
62 98 163
62 99 166
62 98 167
63 99 173
62 99 169
62 99 173
63 99 173
63 99 172
62 99 170
62 99 171
62 99 172
62 99 172
62 98 169
62 99 172
61 98 170
62 99 169
62 99 168
62 99 173
61 98 165
62 98 169
62 99 173
62 98 171
62 98 161
62 98 166
62 98 170
62 98 169
62 98 167
62 98 163
61 98 167
61 97 165
61 98 167
62 99 169
61 98 166
62 99 173
62 99 169
62 98 168
62 98 166
62 98 170
63 99 170
63 99 173
62 98 165
62 98 166
62 98 166
63 99 168
62 99 173
62 98 171
62 99 168
62 99 167
62 98 166
62 98 161
62 98 164
62 99 170
62 99 168
62 99 169
62 98 170
62 98 164
62 98 167
63 99 169
62 99 170
63 99 167
62 98 162
62 98 161
62 98 163
62 99 163
61 97 161
62 99 172
63 99 167
63 99 171
61 98 163
62 98 164
62 99 166
62 98 163
62 98 164
62 99 167
61 97 161
62 98 166
60 96 152
61 97 157
62 98 167
62 98 164
63 99 169
63 99 173
62 98 163
61 97 157
62 98 160
63 99 166
61 98 163
62 98 164
62 99 167
62 98 156
62 98 166
61 97 160
62 98 160
62 98 164
62 98 158
62 97 159
62 98 163
61 97 154
61 96 153
61 97 154
61 97 161
62 97 160
62 98 162
61 96 157
60 96 154
62 98 162
60 95 152
61 96 150
61 96 150
61 96 151
60 95 149
60 96 153
61 96 152
61 96 148
59 93 144
61 94 150
58 91 133
57 86 115
56 71 78
74 73 21
76 77 17
73 73 14
70 73 23
83 84 22
91 91 31
94 94 25
75 76 28
82 82 26
87 86 24
87 87 27
94 95 29
97 97 31
95 96 33
108 106 37
101 102 40
99 98 37
110 108 43
107 105 33
106 105 45
91 92 31
110 107 44
102 103 39
103 103 42
110 109 34
111 108 44
114 113 38
119 117 44
124 121 52
122 120 52
126 123 49
133 131 52
132 129 54
129 126 53
131 126 53
137 133 56
140 136 52
131 127 55
138 134 60
133 130 53
140 135 56
141 136 58
131 128 54
131 127 54
141 137 58
138 133 57
143 138 56
147 142 63
145 139 62
141 137 64
149 144 63
146 141 53
140 137 48
143 139 60
146 139 61
140 136 52
149 143 58
148 143 61
155 149 59
144 139 51
151 146 56
145 141 47
159 152 58
154 148 63
151 145 60
145 140 57
154 147 57
153 146 61
153 147 50
154 148 62
147 142 57
148 142 63
154 149 58
149 144 54
155 149 58
153 147 54
152 148 58
149 144 63
151 146 61
149 144 53
148 142 51
150 146 51
149 144 60
147 141 57
158 151 68
145 139 60
150 145 54
151 145 66
149 143 59
150 144 53
141 135 53
152 146 59
146 141 53
135 130 47
154 146 63
142 136 49
148 141 60
144 139 57
149 143 53
142 137 53
140 134 49
137 132 48
144 138 56
142 137 57
135 131 39
132 129 37
140 135 48
136 133 42
146 146 44
142 143 48
154 158 45
146 152 37
147 152 36
151 159 32
146 158 22
150 161 28
155 166 25
153 169 16
159 173 25
158 174 16
156 171 0
165 185 0
167 184 0
170 189 0
162 177 0
170 190 0
165 183 0
164 182 0
167 187 0
169 189 0
167 187 0
169 190 0
173 193 0
169 189 0
166 184 0
171 194 0
170 194 0
170 193 0
170 193 0
169 192 0
174 196 0
173 196 25
171 195 36
172 196 25
173 195 25
174 197 51
175 198 67
175 197 62
173 196 62
174 197 51
182 203 92
175 197 67
174 196 57
179 201 108
180 202 99
177 199 76
179 201 76
171 194 62
176 198 84
176 199 76
178 199 84
181 202 120
178 199 92
177 198 88
176 198 95
181 202 111
181 203 111
177 200 92
183 205 120
180 201 117
181 201 95
179 200 108
177 199 95
177 198 102
177 199 95
179 201 102
183 204 111
178 199 111
176 197 95
177 199 95
177 198 99
177 200 92
182 202 108
177 198 105
177 200 88
172 195 76
178 198 105
175 198 80
176 197 99
181 203 99
177 199 99
179 200 105
178 199 105
174 195 76
176 198 95
175 196 88
175 197 72
174 197 80
177 198 84
168 191 51
169 191 72
176 198 72
167 190 36
169 191 44
168 191 25
169 193 0
167 190 25
167 190 0
170 193 25
171 193 0
167 190 0
168 191 0
171 194 0
169 192 0
160 184 0
163 187 18
164 188 47
157 181 40
155 179 51
105 131 122
86 116 136
77 109 145
73 106 152
84 113 145
82 112 142
73 106 151
77 109 150
69 103 155
72 105 156
75 107 149
72 105 154
66 101 164
64 100 163
61 98 162
62 98 166
62 98 160
62 98 162
62 98 164
62 98 162
62 98 164
62 98 162
61 97 160
61 98 161
62 98 166
62 98 165
61 97 159
62 98 165
61 97 157
63 99 171
62 99 165
61 97 163
61 98 163
61 98 167
63 99 172
62 99 171
63 99 168
62 99 169
62 99 169
62 98 166
62 99 169
61 98 160
62 99 169
62 98 167
61 98 168
62 99 170
63 99 167
63 99 168
62 98 164
61 98 168
62 99 171
62 98 169
62 98 169
61 98 162
62 98 169
61 97 162
61 98 163
62 99 170
62 98 171
62 98 163
61 98 166
62 98 165
61 98 165
62 99 170
62 99 173
63 99 172
62 98 168
63 99 172
62 98 167
62 98 162
62 98 163
62 98 167
63 99 171
62 98 166
63 99 171
62 99 169
62 98 167
62 98 171
61 97 161
61 98 165
62 98 165
62 98 167
62 98 168
61 98 165
62 99 171
61 98 166
61 97 159
62 99 168
62 98 166
62 98 166
62 98 169
62 98 169
62 98 161
62 98 164
62 99 171
62 99 171
62 98 165
62 99 172
62 98 167
62 99 167
63 99 175
62 98 170
61 98 164
61 98 159
62 98 169
62 99 167
62 98 173
62 98 169
63 99 170
61 97 162
62 98 164
62 99 170
61 98 165
62 98 163
62 98 164
62 98 166
61 97 162
62 99 170
63 99 170
62 99 167
63 99 171
62 98 165
62 98 168
61 97 157
62 99 169
62 99 167
62 98 164
63 100 175
62 99 167
62 98 167
62 98 166
62 98 163
62 98 158
62 99 165
62 98 166
62 98 163
61 98 165
62 98 167
61 98 162
62 98 161
62 98 160
62 98 162
62 98 163
62 98 165
63 99 164
62 98 167
62 98 163
62 98 162
61 97 153
62 98 164
62 98 163
62 98 160
62 97 159
62 98 157
61 97 158
60 96 160
62 98 159
62 97 162
62 98 163
62 97 160
62 98 163
63 99 164
61 97 156
62 98 159
61 97 157
62 97 159
62 97 155
61 96 150
61 96 150
61 96 152
61 96 152
63 98 156
60 94 142
59 93 143
62 97 158
61 96 152
61 95 150
59 93 139
60 93 141
64 94 143
74 83 78
83 83 38
70 71 17
76 77 13
79 80 14
78 76 17
77 77 22
78 80 28
84 86 19
91 91 10
96 95 24
92 93 23
92 91 25
88 88 31
81 82 29
89 89 32
92 93 28
112 108 42
104 101 29
111 109 33
105 104 44
91 92 35
104 104 45
113 109 46
107 107 48
116 116 45
113 111 40
122 119 45
125 121 52
111 110 39
121 118 47
128 125 47
118 116 42
132 128 54
132 128 49
121 119 36
133 129 55
121 119 50
135 131 54
132 129 45
139 134 52
139 135 58
129 127 46
140 136 60
127 124 46
147 142 66
137 133 56
141 137 55
154 148 63
141 136 59
142 137 60
145 140 58
145 141 51
140 136 50
151 146 64
142 137 55
144 139 53
148 142 57
147 140 60
152 146 68
150 144 60
153 148 59
146 141 54
152 147 61
155 149 64
150 144 63
149 143 59
153 148 58
148 143 56
150 144 54
142 136 51
148 142 56
150 145 51
157 151 64
149 144 54
154 147 62
152 147 56
140 135 52
152 146 60
154 148 54
147 141 53
150 144 60
138 134 36
142 136 53
146 141 52
145 139 53
148 142 56
143 137 56
148 143 51
146 141 49
142 137 54
138 134 37
149 143 56
143 137 51
149 143 52
147 140 52
138 133 53
141 135 54
138 134 41
141 135 51
134 129 51
130 124 41
130 125 39
143 136 47
133 128 42
137 132 53
137 131 41
139 136 44
143 139 49
144 142 42
143 146 37
136 137 36
140 143 32
145 152 30
141 149 19
149 159 19
149 159 30
153 166 11
160 175 22
150 164 0
156 170 16
164 179 11
167 187 0
168 186 0
165 182 0
165 184 0
164 179 0
167 186 0
172 191 0
165 185 0
168 187 0
170 190 0
164 182 0
167 187 0
168 189 0
168 187 0
171 194 0
171 194 0
170 193 0
169 192 0
173 196 25
174 198 57
172 195 44
175 198 57
170 193 51
175 197 67
178 200 72
174 197 57
178 199 92
178 201 80
174 196 76
180 202 95
177 199 84
178 201 88
175 197 72
176 198 84
179 201 99
179 201 99
180 201 105
181 202 122
180 201 117
181 202 99
185 206 128
179 201 105
175 197 88
182 202 120
182 204 114
178 199 117
183 203 117
181 202 105
186 207 128
182 203 125
184 205 114
182 202 117
180 201 120
190 210 144
180 201 102
175 197 95
181 202 102
184 204 130
179 200 102
183 204 117
183 204 114
177 199 102
173 195 80
180 201 99
179 199 99
182 203 108
173 195 80
180 202 111
177 198 102
181 202 111
177 198 95
176 199 84
177 199 80
175 198 88
177 199 95
174 197 84
177 198 105
179 201 105
176 197 95
168 191 62
174 196 72
175 197 76
171 193 67
169 192 44
165 188 44
176 198 72
170 193 25
170 193 44
165 188 0
164 188 0
168 191 0
171 194 0
165 188 0
167 191 0
162 186 51
157 181 47
155 179 67
154 178 57
100 128 126
84 113 139
75 107 142
78 110 147
67 101 153
77 109 145
78 110 151
83 113 139
74 107 158
71 103 144
72 104 148
69 102 160
72 105 162
70 103 153
63 98 156
64 99 159
62 98 159
61 97 158
60 97 161
62 98 169
62 99 165
61 97 160
61 97 158
62 98 163
62 98 164
61 97 163
62 98 169
61 97 159
61 98 166
61 98 167
61 98 166
62 98 165
62 99 169
62 98 168
62 98 162
61 97 165
62 98 168
62 99 170
62 99 171
62 98 166
61 98 166
62 99 171
62 98 165
61 97 164
62 99 169
62 98 167
62 98 166
61 98 163
62 98 165
62 98 168
62 98 168
61 97 165
63 99 166
62 98 166
61 98 165
62 98 163
62 98 166
62 99 172
62 99 173
62 98 166
61 98 168
62 98 170
62 99 170
62 98 165
62 99 171
62 98 171
62 99 169
61 97 160
62 99 172
62 98 167
62 99 173
62 99 167
63 100 177
61 98 166
62 99 173
63 99 164
61 98 165
62 98 167
62 98 167
63 100 174
62 98 164
62 98 166
62 99 170
63 99 168
62 99 171
62 98 165
61 98 170
63 100 176
62 98 164
62 99 170
62 98 168
62 98 165
62 99 171
61 97 162
62 98 160
63 99 170
62 98 165
61 98 171
61 97 163
62 99 171
63 100 177
63 99 169
62 99 172
62 98 166
62 98 164
62 99 174
62 99 170
62 98 162
63 99 167
62 98 167
62 98 162
63 99 170
61 98 164
62 98 165
62 98 164
62 98 166
62 99 170
62 98 158
62 99 166
62 98 166
62 99 171
62 98 162
63 99 169
61 98 166
62 98 167
63 99 167
62 98 166
62 98 159
61 97 162
62 98 164
62 99 169
62 98 166
61 98 162
62 98 166
63 99 168
63 99 167
63 99 167
62 98 163
63 99 168
62 98 161
62 98 167
62 98 163
61 97 162
61 98 164
62 98 161
61 98 159
62 98 165
62 99 165
62 98 162
61 97 156
62 98 161
62 98 163
62 98 159
62 98 166
62 97 159
62 98 163
62 98 162
62 98 164
61 97 154
62 98 159
62 98 161
61 97 156
61 97 155
61 97 153
62 97 155
62 98 154
62 97 162
62 97 155
61 97 158
61 96 152
60 95 150
60 95 145
61 96 146
62 96 152
60 94 147
61 96 151
60 94 147
59 92 139
60 94 144
61 91 138
63 75 74
76 80 50
71 72 22
91 91 16
76 77 13
91 89 29
74 72 13
78 79 23
78 80 30
93 92 25
92 93 29
105 104 31
94 96 36
87 88 28
91 92 38
97 98 35
110 109 32
98 98 33
90 91 32
101 101 33
103 101 37
116 114 45
116 115 36
102 102 43
109 109 47
115 113 48
114 112 33
118 115 43
119 118 49
114 112 42
124 123 39
126 123 46
122 120 42
124 121 42
138 133 59
126 123 45
130 127 39
125 123 42
137 133 51
134 130 50
136 130 51
133 131 47
141 137 56
140 136 58
142 137 57
140 136 55
138 135 50
144 139 47
138 133 47
135 131 49
140 137 49
148 143 53
140 135 51
144 139 47
143 138 57
153 147 61
149 144 52
143 138 61
143 139 56
148 142 54
149 144 57
153 148 64
154 148 64
148 143 50
154 148 61
152 146 59
139 134 49
154 147 59
143 139 50
141 137 51
144 138 54
149 143 58
149 144 51
142 136 54
154 148 49
150 144 56
158 151 66
143 137 53
150 145 56
155 148 62
141 135 39
146 140 56
145 139 52
145 139 54
146 140 52
143 137 51
149 142 60
138 133 49
143 137 45
144 140 47
148 142 61
142 138 54
142 137 57
141 136 58
137 131 42
142 137 53
143 137 51
136 131 47
137 132 48
136 132 41
143 136 54
139 133 45
136 130 37
137 131 48
145 139 54
134 130 41
137 135 41
136 136 34
131 129 39
140 141 32
143 148 34
150 155 37
147 155 32
141 149 19
148 156 25
149 161 16
158 170 25
151 165 11
156 169 19
155 169 19
166 183 11
165 183 0
168 188 0
167 183 0
165 182 0
168 187 0
165 184 0
169 188 0
165 183 0
168 186 0
165 185 0
167 185 0
169 188 0
169 189 0
168 189 0
171 192 0
171 194 25
171 194 25
174 197 44
178 200 72
176 198 62
175 198 44
173 195 57
174 196 62
177 199 62
175 196 84
179 201 95
180 201 99
178 199 92
174 197 67
176 198 99
180 202 99
183 204 117
182 203 128
181 202 117
175 197 102
179 200 111
177 198 102
180 201 105
180 201 114
181 203 117
182 203 125
182 203 111
184 205 111
181 201 108
182 203 128
184 204 125
183 204 128
183 203 122
178 201 111
185 206 125
182 203 120
179 201 99
186 207 135
188 208 142
183 203 130
182 203 105
176 197 117
181 203 117
187 207 137
179 201 120
188 208 135
181 203 117
188 208 149
182 203 128
181 203 120
182 204 122
183 203 125
183 204 120
178 199 117
183 204 117
182 202 128
181 202 128
179 200 114
179 200 122
178 199 117
182 203 111
177 199 95
176 197 95
178 200 88
175 197 76
177 199 84
177 198 92
175 197 84
171 193 76
176 198 76
173 195 72
174 197 67
170 192 36
171 193 57
173 195 57
169 192 36
171 195 36
165 189 0
165 188 0
161 185 44
162 185 40
160 184 51
154 177 54
150 175 80
101 129 125
78 109 139
74 107 149
83 113 143
72 105 151
69 103 140
71 104 145
74 108 156
71 104 154
68 102 157
67 101 152
68 101 152
72 106 152
62 97 161
63 99 154
72 106 162
65 100 163
61 97 159
62 98 164
62 98 163
61 97 160
62 98 164
62 98 162
61 97 162
61 97 165
61 97 160
63 99 172
61 97 159
63 100 172
61 97 158
62 98 164
61 97 160
63 99 170
62 99 163
62 98 168
62 99 165
61 98 158
62 98 164
62 98 167
62 98 169
62 99 172
62 98 166
62 98 165
62 99 169
63 99 172
62 99 167
62 98 168
62 98 168
62 98 165
62 98 166
63 99 177
61 98 161
62 98 169
62 99 168
62 98 167
62 99 170
63 99 170
61 97 161
61 97 162
62 98 171
62 98 168
62 99 170
62 98 163
62 98 169
62 99 169
62 99 169
61 97 160
61 98 164
62 98 163
62 98 168
62 98 164
62 98 166
62 99 169
62 99 173
62 98 168
63 99 173
61 97 161
62 99 169
61 98 167
62 98 167
62 99 165
63 99 174
62 98 169
62 98 167
62 98 169
62 99 170
62 98 167
62 98 166
62 98 167
61 97 161
62 98 169
62 98 165
62 98 164
62 98 164
62 98 161
62 98 164
62 98 168
63 99 164
62 98 165
62 98 165
62 98 169
62 99 168
62 98 164
62 98 169
63 99 167
63 99 170
62 98 167
62 99 168
63 99 166
61 98 165
63 99 166
63 99 167
62 99 172
62 99 168
62 98 162
62 98 162
62 98 166
63 99 170
62 99 167
61 97 160
61 98 166
62 98 164
62 99 169
62 98 162
62 98 165
62 98 164
63 99 172
63 99 171
61 97 160
62 98 161
61 97 158
62 99 166
62 98 164
63 99 171
62 98 164
62 99 165
61 97 157
62 98 164
61 96 157
62 98 161
63 99 171
62 98 163
61 97 159
61 98 164
62 98 166
63 99 165
62 98 163
62 98 164
62 98 163
62 97 164
62 98 157
63 99 164
62 98 163
61 97 153
62 98 158
61 97 156
61 96 150
61 97 158
60 96 155
61 96 155
61 97 155
62 97 158
61 97 158
61 97 160
61 97 153
62 97 155
60 95 146
61 96 153
62 97 148
61 96 149
61 97 161
61 96 156
61 96 156
62 98 162
60 95 141
59 92 138
60 94 146
61 95 152
58 92 150
61 91 130
68 82 92
74 78 41
88 85 16
73 75 16
82 81 21
73 72 22
84 85 22
87 87 25
88 88 22
92 91 20
79 81 20
89 88 32
93 93 35
86 86 26
89 91 28
90 90 26
99 98 31
100 100 33
102 100 41
108 107 35
107 106 36
117 115 41
100 101 31
100 100 30
98 98 34
106 106 34
119 117 47
120 118 39
118 116 39
112 111 33
120 118 41
122 120 51
124 121 38
120 119 40
122 119 51
125 123 46
120 117 48
132 129 50
136 132 46
139 135 55
131 129 46
145 140 58
141 137 56
131 127 45
136 132 50
137 133 57
145 141 55
138 132 53
141 137 57
144 140 55
143 138 52
142 137 49
141 136 47
138 133 48
142 138 52
149 144 58
151 147 57
150 143 63
145 140 54
145 140 51
139 136 50
151 146 53
148 143 52
153 146 60
144 139 54
145 140 52
149 142 54
147 141 53
141 136 48
152 147 64
145 140 49
151 145 60
147 141 60
150 144 54
149 142 56
138 133 45
141 136 52
146 141 51
145 140 48
152 145 60
142 137 54
157 150 59
150 144 54
145 138 53
147 141 56
144 138 57
143 138 51
141 136 53
144 139 52
147 140 51
141 136 45
144 138 53
146 140 51
148 142 57
143 138 49
139 134 47
137 132 53
130 125 44
136 130 45
135 130 47
130 124 52
128 123 49
136 131 48
133 126 39
131 128 41
133 130 44
143 141 45
138 142 37
143 146 34
147 149 42
137 140 34
142 149 25
155 163 34
145 156 25
150 160 19
149 159 11
156 169 22
158 170 22
156 173 11
157 169 11
167 183 16
166 184 0
164 182 0
169 187 0
165 183 0
165 185 0
164 184 0
168 189 0
167 187 0
169 188 0
169 186 0
165 185 0
167 186 0
167 186 0
167 188 0
165 183 0
174 196 62
175 197 72
172 195 51
176 198 67
177 199 95
177 199 62
177 199 76
176 198 84
175 196 88
175 197 67
179 201 102
178 200 88
176 198 95
174 196 88
181 201 95
176 198 99
181 202 108
179 201 108
179 201 108
180 202 117
185 206 122
181 202 122
182 203 114
183 204 120
186 208 133
182 203 120
183 204 120
179 201 122
186 206 137
182 204 102
183 204 122
182 203 114
183 204 130
183 204 130
179 200 117
184 205 133
186 207 133
184 205 135
184 205 137
189 209 147
185 205 142
184 204 130
180 202 114
181 202 128
182 202 125
183 204 125
183 203 120
187 206 147
184 205 130
187 208 130
179 200 114
180 201 120
192 211 155
180 201 128
179 201 102
179 200 122
180 200 114
181 202 122
181 202 111
180 201 120
181 202 105
176 197 95
177 199 102
175 197 84
179 200 111
177 199 92
172 195 99
176 198 88
175 197 88
174 196 102
173 195 88
176 197 80
173 195 76
171 193 76
168 190 62
169 191 72
168 190 51
171 193 44
164 187 62
161 183 60
162 185 40
157 180 60
146 170 80
143 166 80
100 127 133
77 108 139
84 115 142
71 103 145
80 112 151
73 106 144
73 106 149
71 105 157
78 109 142
72 105 158
69 103 153
70 103 151
65 100 154
71 105 155
64 99 157
72 105 150
64 99 159
66 100 154
73 106 160
61 97 161
62 98 162
61 97 161
62 98 162
61 97 159
61 98 166
62 98 165
62 98 169
61 97 158
61 97 158
61 97 159
62 98 166
61 97 158
61 97 161
62 99 168
62 98 163
61 97 164
62 98 165
62 98 168
63 99 173
62 99 168
62 98 166
62 98 167
62 98 165
61 98 162
61 98 165
62 98 166
62 98 169
63 99 171
61 98 166
61 98 169
62 98 166
62 98 163
62 98 167
62 99 171
63 99 167
62 98 167
62 98 165
62 98 165
63 99 171
63 99 173
61 98 166
62 98 162
62 98 165
62 99 171
62 98 166
62 98 168
63 99 172
62 98 165
62 98 169
62 98 171
61 97 163
63 99 171
62 98 164
62 98 169
62 98 169
62 99 168
62 99 170
62 99 171
61 97 159
61 97 158
62 99 170
61 98 160
62 98 165
62 98 166
61 98 167
62 99 169
62 98 168
62 98 163
62 98 161
61 97 159
63 99 169
62 98 165
62 98 170
62 98 165
62 98 162
62 98 167
62 98 167
63 99 168
63 99 168
62 98 163
61 98 168
61 98 164
63 99 170
63 99 171
61 97 161
62 98 162
63 99 168
62 99 168
61 98 164
62 98 169
62 98 166
62 98 164
62 99 170
62 98 166
62 99 168
63 99 166
61 97 161
63 99 172
62 99 168
62 98 160
61 97 154
61 97 165
61 97 156
63 99 169
62 98 165
62 98 160
62 99 166
62 99 169
63 99 161
62 98 165
61 98 165
61 98 164
62 98 164
62 99 168
63 99 169
62 98 163
62 98 161
62 98 163
62 99 166
62 98 161
62 97 155
62 98 162
61 98 161
62 98 163
62 99 166
62 98 155
62 98 161
62 98 159
62 98 162
62 98 166
62 98 165
62 97 161
62 98 161
61 97 159
62 98 164
62 98 167
62 98 159
61 97 155
62 98 160
62 98 163
62 98 163
61 97 154
60 95 152
62 97 159
62 98 160
61 96 150
61 96 151
62 97 158
61 97 153
61 96 149
60 95 151
61 96 152
60 94 144
61 95 145
61 95 145
60 95 147
59 92 139
58 91 136
59 92 140
56 87 128
67 81 89
83 84 30
71 71 9
88 87 14
74 73 9
77 78 20
88 88 18
79 79 24
76 77 17
80 82 31
79 82 24
88 87 25
79 80 24
82 82 23
84 86 25
89 89 25
100 100 37
95 95 28
103 102 25
101 101 39
92 91 36
93 94 30
119 116 30
115 114 44
107 107 40
117 114 37
108 106 38
110 108 50
127 124 46
105 104 40
109 107 40
125 122 46
120 118 42
133 126 54
119 117 39
131 128 51
126 124 47
129 127 39
128 126 39
131 127 48
131 127 53
132 129 47
144 139 52
144 138 54
139 135 47
144 139 55
143 138 49
143 138 54
136 132 47
145 141 56
140 135 56
139 135 51
145 139 63
151 144 56
141 136 56
136 132 53
153 147 63
134 130 46
138 133 42
150 143 58
144 140 47
146 141 54
140 135 47
146 140 55
148 144 54
146 141 53
149 143 57
144 139 58
148 144 52
144 138 51
144 139 45
140 135 56
153 146 60
152 147 56
141 136 41
143 138 52
150 145 58
147 142 49
146 139 53
147 141 51
150 144 60
145 140 51
142 137 48
143 138 49
144 138 49
143 137 51
145 139 56
145 139 42
142 137 37
146 141 53
138 133 44
138 133 39
141 136 44
137 131 42
134 128 45
138 134 42
137 131 48
130 124 44
138 133 45
139 132 47
140 134 51
136 130 44
141 135 56
133 128 48
141 136 48
134 130 32
139 140 39
137 137 37
142 147 28
135 138 37
142 147 37
149 155 32
144 149 25
150 162 16
154 164 28
157 170 16
155 169 25
161 175 22
159 175 0
159 174 0
167 185 0
165 183 0
166 185 0
163 180 0
167 186 0
166 185 0
169 188 0
162 180 0
167 187 0
167 187 0
166 185 0
167 185 0
169 190 0
165 183 0
168 185 0
166 185 0
174 196 57
173 195 67
178 200 72
177 199 84
178 201 88
176 197 76
180 202 95
177 199 80
178 200 102
179 200 108
180 201 111
184 205 111
185 205 122
183 204 125
180 202 114
184 205 137
189 209 142
181 203 111
185 206 128
184 204 125
187 207 133
187 207 140
185 206 137
179 201 108
185 205 130
180 202 111
183 204 135
183 204 130
190 210 149
191 211 155
186 206 144
189 209 155
186 206 147
189 209 155
186 208 147
191 211 157
185 206 137
183 204 130
181 203 120
186 206 147
184 204 147
182 203 125
184 205 144
189 209 151
182 203 133
185 205 144
187 206 142
181 202 130
184 205 135
187 207 153
182 204 128
188 207 155
185 206 130
182 203 125
181 202 130
184 204 125
185 205 137
183 202 135
182 203 120
184 204 144
184 204 140
181 202 128
184 206 128
183 203 130
178 198 108
180 201 130
176 198 102
174 195 95
179 201 99
184 204 135
178 199 102
176 198 88
173 194 88
173 195 95
178 200 99
176 198 84
175 197 99
169 192 70
165 188 86
161 184 76
161 184 65
149 173 72
148 172 92
145 169 76
96 124 126
82 112 145
82 112 134
75 107 139
78 109 141
73 105 148
80 112 152
71 104 154
66 100 155
69 103 151
62 98 150
63 98 156
71 105 155
68 102 148
68 103 160
66 101 157
61 97 155
67 102 153
62 97 150
62 98 159
65 101 161
61 97 160
61 97 157
61 97 160
61 97 160
61 97 156
62 98 163
61 97 163
61 97 154
60 97 163
62 98 165
62 98 165
62 98 165
62 98 169
62 98 171
62 98 161
60 96 161
62 99 169
62 99 171
63 99 170
62 98 167
61 98 160
62 98 164
62 98 170
61 98 166
62 98 164
62 99 167
62 98 172
61 98 166
62 98 166
62 98 164
62 98 169
62 98 163
61 97 167
60 97 160
62 98 167
61 98 168
61 97 160
62 98 168
62 99 172
62 99 167
62 98 167
62 99 167
62 99 167
62 99 171
62 98 168
62 98 161
62 99 171
62 99 170
61 98 164
63 99 173
61 98 164
62 99 169
62 98 164
62 98 164
61 97 162
62 99 170
62 98 169
62 98 162
63 99 173
62 98 169
62 99 168
62 99 167
62 99 173
62 98 166
62 99 171
62 98 166
62 99 169
62 98 163
61 97 165
62 99 167
62 98 165
62 99 171
62 98 165
62 98 172
63 99 169
62 98 165
62 98 168
62 98 164
61 97 158
62 98 164
62 99 168
63 99 167
62 98 161
63 99 167
61 98 164
62 98 168
62 98 159
61 98 161
62 98 159
61 98 164
62 99 170
62 99 165
62 98 166
62 99 167
62 98 168
62 98 161
61 97 156
62 99 167
62 98 164
62 98 164
61 97 156
61 98 160
62 98 164
62 98 161
62 98 164
63 100 169
62 98 162
62 98 163
62 98 165
62 99 170
62 98 160
62 99 170
62 98 160
63 99 168
61 98 164
62 98 161
63 99 162
62 98 161
62 98 165
61 97 158
62 98 162
62 98 166
63 99 167
62 98 157
61 97 161
62 98 162
62 98 162
63 98 159
62 98 159
62 98 157
62 97 160
62 98 159
60 96 153
62 98 160
62 98 158
61 97 155
61 97 159
61 97 154
62 98 159
62 98 157
61 97 158
62 97 157
62 97 157
61 97 155
61 97 155
62 97 159
60 96 154
61 95 143
61 96 151
59 94 150
60 95 148
59 93 150
62 97 151
60 94 149
60 94 142
60 94 150
58 91 133
61 95 146
61 89 128
76 88 87
65 66 33
89 86 1
75 75 21
92 92 12
77 77 14
82 82 22
80 78 14
86 86 24
91 90 23
84 85 24
98 97 26
90 91 16
91 90 26
91 90 24
108 103 35
91 91 29
91 92 25
102 101 34
101 100 36
103 103 28
99 97 42
100 99 38
107 105 36
117 115 51
110 109 29
118 116 33
116 114 43
112 110 36
116 114 39
119 116 46
131 128 45
118 115 29
125 121 49
125 122 46
125 123 40
119 116 39
129 124 47
131 126 42
133 129 47
133 129 47
132 128 42
139 136 51
125 122 45
136 130 49
143 138 46
132 128 48
140 135 49
132 129 53
143 136 55
143 139 56
140 135 46
140 137 46
139 135 45
138 134 49
147 142 48
144 140 45
139 134 45
145 138 53
153 147 59
138 133 45
142 136 50
144 138 45
146 141 53
140 134 49
147 141 54
147 142 47
144 140 44
139 133 47
152 146 61
142 138 52
138 135 47
149 141 58
143 139 48
141 137 37
140 136 45
149 143 57
147 141 51
146 141 42
146 141 44
143 138 42
137 133 36
140 135 47
149 143 49
138 134 36
140 136 41
147 140 49
145 140 48
140 135 52
142 137 45
138 133 41
139 134 41
139 134 42
141 136 39
131 126 36
134 129 44
133 127 41
137 132 45
133 127 39
132 126 37
144 136 49
130 123 44
130 123 37
128 127 34
141 138 45
139 138 37
136 138 36
141 144 36
147 153 30
146 151 32
142 149 22
145 153 22
151 163 25
157 169 28
153 165 25
157 169 28
157 172 11
163 177 11
158 175 11
167 182 11
169 188 0
164 181 0
163 178 0
161 177 0
163 180 0
166 184 0
167 186 0
169 188 0
165 183 0
162 180 0
168 187 0
169 187 0
171 192 0
170 189 0
167 187 0
168 188 0
178 200 80
177 198 72
174 197 76
178 200 84
181 202 105
180 201 105
184 204 117
180 202 88
181 203 111
182 203 117
183 204 128
182 204 105
181 203 114
179 200 108
182 203 122
186 207 128
178 199 114
190 210 142
187 207 135
185 205 125
185 206 128
185 206 135
186 206 135
183 204 122
180 203 120
186 207 135
188 207 155
186 206 147
182 203 133
190 209 151
188 208 142
187 207 142
188 207 142
181 202 133
189 209 159
191 211 161
186 207 142
188 208 159
186 206 142
189 208 155
189 209 155
187 207 144
187 207 144
192 213 161
193 212 161
190 210 153
188 207 151
192 211 169
191 211 157
188 207 147
185 206 128
182 203 140
184 204 144
187 207 142
185 206 140
185 206 144
184 205 140
185 206 137
183 204 144
185 205 142
185 205 140
182 203 125
181 202 128
177 198 114
181 201 130
185 206 137
184 203 140
183 204 125
176 198 102
177 199 102
181 203 114
183 203 130
179 201 99
177 198 102
176 197 105
177 198 88
172 194 80
176 198 94
171 194 70
162 183 103
157 180 84
153 177 84
147 171 97
140 164 100
107 133 120
80 110 147
78 109 139
79 110 145
73 105 143
68 102 157
85 115 147
74 106 153
76 108 154
64 99 156
73 106 148
66 101 158
68 102 150
69 103 161
73 106 155
69 103 158
63 98 153
63 99 155
71 105 157
71 105 159
63 98 156
67 102 156
62 98 160
62 98 164
61 97 159
61 97 162
62 99 170
61 97 159
61 98 165
63 99 171
63 99 169
62 98 162
63 99 171
62 98 163
61 98 167
61 97 161
61 98 168
62 98 169
62 99 166
61 98 164
62 98 168
63 100 173
62 98 170
62 99 171
62 98 163
62 98 166
61 97 163
61 97 160
61 97 163
62 98 165
62 98 167
63 99 167
62 99 169
61 98 170
62 98 163
62 98 167
62 98 170
62 99 169
62 99 170
62 98 166
62 99 168
61 97 158
62 98 165
63 99 168
62 98 167
61 98 165
62 98 163
62 99 170
62 99 172
63 99 170
61 98 165
62 99 170
62 97 158
62 98 168
62 99 168
62 98 165
61 98 166
62 98 165
61 98 163
61 97 161
61 97 161
61 97 156
62 99 172
62 99 168
62 98 164
62 99 170
62 98 166
62 99 166
62 99 169
63 99 171
62 98 162
63 100 176
62 99 169
62 98 170
62 98 170
63 99 169
61 98 165
63 99 172
62 99 172
62 98 164
62 98 164
62 98 164
63 100 172
61 98 169
63 99 164
61 97 161
62 98 165
61 98 161
62 98 163
62 99 165
62 98 170
62 99 166
63 99 168
62 98 164
61 98 163
62 99 169
61 97 161
62 99 171
61 97 162
62 98 162
63 99 171
61 98 165
62 99 168
62 98 163
62 98 161
62 98 161
61 96 155
62 97 158
62 98 163
62 99 169
62 98 164
63 99 161
62 98 167
63 99 165
62 98 165
63 99 163
62 98 157
62 98 166
61 98 161
62 98 164
62 98 158
63 99 166
61 97 152
61 97 158
62 99 169
62 98 158
61 97 160
61 97 156
61 97 161
61 97 154
62 98 158
62 97 157
62 98 164
61 96 152
62 97 152
63 99 164
63 99 165
62 97 154
62 97 155
61 97 153
62 98 160
61 96 153
62 98 161
62 97 151
62 98 161
63 98 160
61 96 152
61 96 146
61 96 153
60 95 145
61 96 144
60 95 139
60 95 145
61 96 151
60 95 148
59 94 141
60 94 144
60 94 143
58 91 136
64 93 137
72 87 85
76 76 28
74 75 19
86 84 20
84 83 16
78 79 18
88 87 14
89 89 15
79 81 29
90 87 22
84 84 22
87 87 20
97 96 32
89 90 28
81 81 26
95 95 25
96 95 26
98 97 33
95 95 23
103 103 20
98 97 25
107 107 31
101 99 29
104 104 37
106 106 33
105 102 42
106 105 41
117 114 46
118 115 43
115 112 33
119 117 37
117 114 34
124 120 44
124 121 41
117 115 47
133 128 47
128 125 41
128 124 40
134 131 41
135 130 46
134 130 44
127 124 39
129 126 38
131 128 44
143 138 59
136 131 53
136 132 51
143 138 52
133 129 39
135 131 42
139 135 47
146 141 55
135 130 57
139 134 45
139 135 45
149 143 57
144 139 57
151 146 49
143 137 54
136 133 45
143 138 51
142 136 53
142 138 48
149 144 54
143 137 53
146 141 53
145 140 47
136 131 44
138 135 30
149 144 57
141 136 41
154 148 57
141 135 42
145 140 51
145 139 52
148 142 47
143 137 48
151 144 54
148 143 57
143 138 45
151 144 49
143 138 44
147 142 45
141 136 47
138 133 42
144 139 49
135 130 37
148 141 45
135 130 47
135 130 39
140 134 41
138 133 45
142 137 48
138 132 44
135 130 47
130 125 41
139 133 52
137 132 47
126 121 34
138 133 36
129 125 30
136 130 48
130 127 36
138 136 39
123 123 19
133 134 32
139 141 28
141 144 28
147 152 30
153 160 34
148 155 22
155 166 25
146 156 19
156 167 28
154 166 16
157 171 16
157 172 0
162 178 11
168 186 0
166 184 0
169 186 0
167 185 0
165 183 0
170 188 0
169 189 0
165 184 0
167 185 0
165 184 0
167 185 0
165 184 0
170 188 0
167 186 0
164 183 0
166 187 0
163 181 0
167 187 0
174 197 51
179 201 92
175 197 72
180 201 105
183 203 117
180 201 111
183 204 122
180 202 102
183 204 122
180 202 111
189 208 144
186 207 133
186 206 122
182 204 108
180 202 108
184 204 120
185 205 130
184 205 133
189 209 159
187 207 140
183 204 130
187 207 142
185 205 135
188 209 153
189 209 157
186 206 142
184 205 137
192 212 163
189 209 159
185 205 144
187 208 142
188 208 153
186 206 151
189 208 175
189 209 153
188 208 161
190 210 157
193 213 163
189 209 159
185 206 140
189 209 159
190 210 165
188 208 144
191 211 161
188 208 144
189 208 157
186 207 149
189 209 157
192 211 165
186 206 147
187 207 159
187 207 157
181 202 137
184 204 135
185 205 144
189 209 153
186 206 151
186 206 153
184 205 135
187 207 149
182 203 133
184 205 135
191 210 161
183 203 140
183 205 140
181 201 135
184 204 140
177 198 114
179 200 111
179 200 99
184 204 130
182 204 120
174 196 92
178 199 99
176 198 84
175 197 88
178 198 108
172 194 103
169 191 94
166 187 110
158 180 108
144 167 105
142 166 100
143 167 120
108 134 125
84 114 141
79 110 136
68 102 153
74 106 144
78 110 142
82 113 143
80 111 149
73 105 150
69 102 151
71 104 156
64 100 161
68 102 159
70 103 156
67 102 164
62 98 162
68 103 160
68 102 155
63 98 154
62 98 164
72 105 156
61 97 159
67 101 154
63 99 172
61 97 159
63 99 169
61 98 160
61 98 162
62 98 165
62 98 165
62 98 166
62 98 167
62 99 169
63 99 167
62 98 167
62 98 168
62 98 163
61 97 166
62 99 166
62 98 167
61 98 163
62 98 166
62 99 164
62 98 167
62 98 168
62 98 165
62 98 164
63 99 165
60 96 160
61 98 166
62 99 171
61 97 167
62 98 164
63 99 165
62 99 169
61 97 158
62 99 172
62 98 159
63 99 170
63 99 168
62 98 168
61 98 166
62 99 173
62 98 162
62 98 165
62 99 171
61 98 164
62 98 165
62 98 165
62 98 168
62 98 163
62 99 168
63 99 167
62 98 167
61 98 164
62 99 167
62 98 163
62 99 168
62 99 169
62 98 164
62 98 169
61 98 166
62 98 162
63 99 175
62 98 168
62 99 167
62 99 168
63 99 171
61 97 156
62 98 168
62 98 166
61 97 160
62 98 165
62 98 164
61 97 160
61 97 159
62 98 160
62 98 167
62 99 170
62 98 162
61 97 155
61 98 160
61 97 162
62 98 166
62 98 163
62 98 164
61 97 160
62 98 165
63 99 167
62 98 164
62 98 165
62 98 166
63 99 169
62 99 170
61 97 161
62 99 169
62 98 160
62 98 168
61 98 161
62 98 164
61 98 162
62 98 160
62 98 166
63 99 166
62 98 165
61 97 156
60 96 154
61 98 163
62 98 160
61 97 161
62 98 161
61 98 161
63 99 169
61 97 157
61 97 161
62 98 161
63 99 168
61 97 158
62 99 169
61 97 158
63 99 164
63 99 167
62 98 160
62 99 166
61 97 155
62 98 162
62 98 161
62 98 157
61 97 160
62 98 165
61 97 153
62 98 156
60 96 152
62 98 159
61 97 159
62 98 158
61 97 154
62 97 155
62 97 154
62 97 158
62 98 158
61 97 157
61 96 152
63 99 162
61 97 155
60 96 145
62 97 153
60 95 141
61 97 153
60 94 142
62 97 157
60 94 144
61 95 150
61 95 147
59 93 140
60 95 145
59 93 140
57 90 138
59 91 134
58 88 130
81 90 88
84 85 27
67 66 9
83 81 18
75 74 14
90 90 9
77 78 1
98 96 8
86 87 16
87 87 22
84 85 19
87 87 15
98 97 15
94 92 26
87 86 18
78 80 27
95 95 28
108 106 24
96 93 27
103 101 28
99 98 33
98 97 28
95 93 28
109 107 30
117 113 37
102 101 27
109 107 37
112 109 40
116 113 27
114 111 38
121 119 33
119 117 48
112 110 34
128 125 45
124 120 48
119 117 42
119 116 34
130 127 45
126 122 39
134 130 48
128 125 45
132 128 48
146 141 48
131 127 46
130 126 40
131 127 42
125 122 29
133 130 35
135 132 46
145 140 51
132 129 45
147 142 49
138 133 43
131 127 39
131 127 40
129 123 38
137 133 50
140 134 47
136 131 41
144 138 47
140 134 47
146 140 52
143 139 42
140 136 44
143 138 47
144 139 49
145 141 45
146 140 60
148 142 47
146 140 48
143 139 48
149 144 54
146 140 57
146 142 51
141 137 42
144 137 45
141 137 44
141 135 45
133 130 34
137 132 47
150 143 52
145 139 53
132 128 39
146 140 58
136 131 39
147 140 53
138 133 48
147 141 41
142 137 42
138 133 44
138 132 42
129 124 37
132 127 39
145 139 44
136 132 37
130 125 34
135 128 47
134 129 41
129 124 41
136 130 37
131 128 34
131 128 39
138 134 41
134 134 34
136 137 30
144 146 36
142 145 32
147 151 28
147 156 22
147 155 32
143 154 25
152 166 16
153 166 16
154 169 16
153 166 11
157 171 16
157 172 11
163 179 0
160 178 0
166 186 0
170 188 0
160 177 0
163 179 0
164 184 0
163 179 0
165 181 0
168 186 0
169 189 0
168 187 0
163 181 0
167 185 0
167 187 0
168 187 0
166 186 0
169 187 0
166 183 0
178 199 99
184 205 133
179 201 92
181 202 114
186 206 117
187 207 135
184 205 122
182 202 117
185 204 133
180 201 122
181 202 120
186 206 140
186 207 135
189 209 151
181 202 128
188 208 153
186 206 140
189 209 140
180 202 130
188 208 155
188 208 155
189 209 157
194 213 169
188 209 153
190 211 165
188 208 151
191 211 163
187 208 157
193 212 171
185 206 140
195 214 181
190 210 163
188 208 159
191 211 165
189 209 151
194 213 179
188 208 149
189 210 161
193 213 173
186 207 151
188 209 153
194 214 177
188 208 155
187 206 163
190 209 159
188 208 161
188 208 165
192 212 171
186 207 149
190 210 169
190 210 149
195 215 179
190 211 163
194 213 169
185 206 147
193 212 167
191 211 159
187 207 151
184 204 153
188 209 153
189 209 159
186 206 147
185 206 135
191 210 161
186 205 153
186 207 149
186 207 140
181 202 135
183 204 135
181 201 122
185 206 125
190 209 155
182 202 128
183 204 125
175 196 114
179 200 120
180 200 129
176 197 117
169 191 107
168 190 115
155 178 117
138 161 117
151 174 114
146 169 110
89 119 144
85 114 142
69 103 150
75 107 155
85 116 144
76 107 143
74 106 154
71 104 149
71 103 142
75 107 137
78 110 150
77 109 151
72 105 154
67 101 153
72 105 153
73 106 156
74 107 155
75 107 155
65 101 159
65 100 161
63 99 161
72 105 156
62 98 165
66 100 157
62 98 163
66 101 162
62 98 165
61 97 162
62 98 164
61 97 161
61 97 164
62 98 162
62 98 159
61 98 162
62 98 164
62 98 169
61 97 161
60 96 155
62 98 165
61 98 163
62 98 164
62 99 170
61 97 158
62 98 167
62 98 162
62 98 163
62 98 170
62 99 168
62 99 169
62 98 165
62 99 169
61 98 165
61 98 166
62 98 165
62 98 166
61 98 166
61 97 169
62 98 167
61 97 163
61 97 159
62 98 166
61 97 161
62 99 168
62 99 175
62 99 171
62 99 167
62 98 166
62 98 159
62 98 163
62 98 163
61 98 170
62 99 167
62 98 169
62 99 169
62 98 168
61 98 164
62 98 170
62 98 167
62 99 174
62 99 166
62 98 167
62 99 167
62 98 170
62 99 167
61 98 165
62 98 165
62 98 160
62 98 165
62 98 167
61 97 161
62 98 166
62 98 166
62 99 171
62 98 166
62 98 164
62 98 168
62 98 167
62 98 165
62 98 161
63 99 165
61 97 158
61 98 162
62 98 159
62 98 163
62 98 164
62 99 169
62 98 165
63 100 168
62 98 165
62 98 161
61 97 162
62 98 162
62 98 162
62 98 159
62 97 155
62 98 169
63 99 165
62 98 165
61 97 154
61 98 161
62 98 164
63 99 167
61 97 162
63 99 164
62 98 162
63 99 170
62 98 165
61 97 156
62 98 165
63 99 169
62 98 163
62 98 157
62 98 165
61 97 156
62 98 165
62 98 164
62 98 160
62 98 159
62 98 160
62 98 161
62 98 166
62 99 165
63 98 160
61 97 153
62 97 151
62 98 163
62 98 161
61 97 159
61 97 157
61 97 153
62 98 158
61 97 154
62 98 160
61 97 159
63 98 161
62 98 158
61 97 154
62 98 154
63 98 158
62 98 161
61 97 155
62 98 155
62 97 154
62 97 158
61 96 155
60 96 149
61 96 145
60 95 145
61 95 149
61 97 144
59 94 145
61 96 148
60 95 152
60 94 143
60 95 149
61 95 150
60 93 142
59 93 140
59 93 148
60 91 125
66 79 85
82 82 40
77 77 18
83 81 14
88 86 12
78 79 8
80 78 12
80 79 13
93 91 16
81 81 15
85 86 20
97 95 18
88 85 2
90 89 16
100 98 24
90 89 26
93 93 21
97 96 24
102 101 29
102 99 28
105 105 28
107 106 23
105 103 28
100 99 23
103 102 28
104 103 25
113 112 32
117 115 33
118 115 30
108 106 37
114 112 30
120 118 33
121 118 42
123 119 40
114 111 40
123 120 44
130 127 38
117 113 39
128 125 39
131 128 51
134 131 45
122 119 33
128 124 43
130 126 38
142 137 45
134 130 45
138 134 39
127 125 37
133 130 42
139 133 45
136 131 41
137 131 41
136 132 52
126 122 32
144 139 53
138 133 37
146 141 51
142 138 37
136 132 38
147 142 44
138 134 38
140 135 57
145 140 51
141 136 54
136 131 37
141 136 42
137 132 45
145 139 49
144 138 48
143 138 51
139 135 41
145 138 51
140 135 48
141 135 44
138 134 45
143 138 49
141 134 45
136 132 45
134 129 42
144 139 48
131 125 44
142 138 49
143 138 51
136 132 39
137 132 42
144 138 51
135 130 36
134 130 37
138 132 42
133 129 37
138 134 37
129 124 32
133 128 42
140 135 45
133 128 45
135 131 39
130 125 34
134 129 37
128 124 32
122 118 37
129 128 30
137 135 42
141 141 36
135 136 30
136 136 34
142 147 28
141 145 30
138 142 25
148 153 30
146 153 36
153 163 25
158 170 19
156 169 11
152 164 19
152 165 0
155 171 11
162 178 11
162 178 0
164 181 0
163 180 0
166 182 0
169 189 0
163 179 0
164 180 0
171 190 0
164 181 0
166 184 0
162 180 0
162 182 0
166 183 0
169 187 0
164 181 0
168 188 0
164 183 0
165 184 0
167 186 0
180 202 95
182 204 108
187 207 137
181 202 108
181 203 117
183 204 130
190 210 147
186 206 140
185 206 128
186 207 137
183 204 128
191 211 153
185 205 135
187 207 130
189 210 142
189 210 151
187 207 149
187 207 153
187 208 140
188 208 151
189 210 155
198 217 184
188 208 137
193 212 171
192 211 171
192 212 165
193 212 173
187 207 151
195 215 175
187 207 155
196 215 184
191 211 171
189 209 165
189 209 165
197 215 189
190 210 169
191 211 169
191 211 173
193 213 165
191 210 181
192 212 163
194 213 175
193 213 175
190 210 177
189 209 163
193 213 173
194 214 181
193 213 179
191 210 169
190 210 155
189 209 163
188 208 151
195 214 169
191 211 167
188 209 153
189 210 153
189 209 165
188 208 163
193 213 179
185 206 149
192 212 163
188 209 153
191 210 163
187 207 151
191 210 163
188 208 149
189 209 153
184 203 142
183 203 137
187 206 153
183 204 128
184 204 135
176 196 117
186 205 142
181 202 114
180 200 130
179 200 128
175 196 121
168 190 108
163 185 118
166 186 134
157 179 124
150 172 113
143 167 114
106 133 141
84 113 136
82 112 140
77 109 151
82 113 150
70 103 151
79 111 158
67 101 152
75 107 142
74 106 149
77 108 148
66 100 154
71 105 153
66 101 155
65 99 149
63 99 158
69 102 144
64 99 157
70 104 160
66 101 160
62 98 160
61 97 154
64 100 165
69 103 155
62 98 166
64 100 164
62 99 164
63 98 153
61 97 156
61 97 161
62 99 172
61 98 164
61 97 163
62 98 162
62 99 171
61 97 168
62 98 168
61 97 158
61 97 164
62 98 164
62 98 165
62 98 162
62 98 164
62 98 169
61 97 157
62 98 165
62 98 169
62 98 163
63 99 166
61 98 160
62 99 167
62 98 170
62 98 166
61 98 164
62 98 157
62 98 166
62 98 166
62 98 168
62 98 169
62 99 169
62 99 172
61 98 158
62 98 170
63 99 171
62 99 167
61 98 160
62 98 161
62 98 163
61 97 160
61 97 162
62 99 165
62 98 164
62 98 165
61 97 160
62 99 166
61 98 164
62 98 162
62 98 169
62 99 166
63 99 168
62 98 162
62 98 167
62 99 171
62 99 164
62 98 161
62 98 167
62 98 166
62 98 163
61 97 158
61 98 163
62 98 165
62 98 166
61 98 162
62 98 160
62 98 162
62 98 164
62 98 163
62 98 163
63 99 169
62 99 166
61 98 165
61 98 161
61 97 165
63 99 170
62 98 166
62 98 163
61 97 161
61 97 161
62 98 167
61 97 154
62 98 164
61 97 155
63 99 166
62 98 165
62 98 162
62 98 160
62 97 158
64 100 170
62 99 172
62 99 167
62 98 164
62 98 164
63 99 167
62 98 158
63 99 163
62 98 160
63 99 163
62 97 156
62 98 159
62 98 162
62 98 162
62 98 162
62 98 163
62 98 164
62 97 158
62 98 158
62 98 158
62 98 159
61 97 158
62 98 163
62 98 163
62 98 162
62 98 160
62 98 158
62 98 162
62 98 160
62 98 158
61 97 150
62 98 161
62 97 159
62 98 156
62 98 162
61 97 156
61 96 154
62 98 161
61 96 152
63 99 163
62 97 156
62 97 157
62 98 159
61 96 152
61 97 162
61 97 156
61 97 162
61 97 153
62 98 159
61 97 157
60 95 140
60 95 149
62 97 161
61 96 145
61 96 147
61 96 152
60 94 146
60 94 139
60 94 139
61 96 151
60 93 141
58 91 139
63 90 123
73 86 84
80 78 41
69 68 14
83 82 18
66 70 21
78 75 8
89 88 14
92 90 14
74 75 19
99 94 13
84 84 14
74 75 12
82 83 23
93 91 15
91 92 20
100 98 21
98 96 21
91 90 23
89 89 26
97 96 21
110 109 35
92 92 25
104 102 29
112 110 28
110 107 34
109 108 34
112 110 30
119 116 38
102 102 24
121 117 36
114 111 37
115 111 29
121 118 35
115 113 39
117 114 44
123 120 30
125 121 38
118 116 39
121 118 42
127 124 47
123 118 40
130 126 42
126 124 31
129 126 37
127 124 32
139 135 49
135 131 32
137 133 46
129 125 39
126 124 36
137 133 45
137 132 47
144 137 48
143 139 40
135 130 44
146 140 56
145 139 41
133 129 38
143 137 53
138 134 33
141 135 49
131 127 36
130 126 37
134 129 42
144 138 53
139 134 45
140 135 49
145 140 45
137 132 42
138 133 44
142 138 44
135 130 39
143 137 47
141 136 47
146 140 53
141 137 47
136 130 42
136 131 44
130 125 32
135 131 32
141 134 49
136 131 36
143 138 45
140 135 45
137 132 42
146 141 47
133 128 37
140 134 45
135 131 39
128 124 37
136 131 36
136 129 48
125 121 39
139 135 37
128 123 44
132 128 41
136 130 36
139 135 44
132 129 36
129 124 44
130 127 36
144 142 44
129 128 30
138 139 34
144 147 22
143 147 30
146 154 30
149 158 22
141 148 30
153 165 0
152 162 19
153 165 16
154 168 0
155 167 16
160 176 16
158 174 11
161 178 0
166 184 0
166 184 0
164 180 0
163 180 0
167 183 0
164 182 0
168 186 0
165 185 0
167 184 0
170 188 0
164 182 0
167 185 0
167 185 0
164 183 0
165 184 0
166 185 0
168 187 0
168 187 0
170 189 0
177 200 92
183 204 125
182 203 117
180 201 114
186 206 130
191 211 153
189 210 142
187 207 135
185 205 135
187 206 140
193 213 165
190 211 163
185 206 130
189 209 157
196 215 184
192 212 167
193 212 165
192 212 167
192 212 169
192 212 167
190 210 149
192 212 169
191 211 165
196 215 184
192 212 169
190 210 167
191 211 163
194 213 175
194 214 181
199 218 194
196 215 186
191 211 181
194 214 177
191 211 182
191 211 169
193 213 182
190 210 157
194 214 177
191 211 167
192 212 165
195 214 189
189 210 165
197 217 191
194 214 179
193 212 179
191 211 173
193 214 177
190 210 169
193 213 177
193 213 165
187 207 167
198 217 188
191 211 177
188 208 165
189 209 165
194 214 181
188 208 151
191 211 165
190 210 167
190 209 165
191 210 171
188 208 169
191 211 167
190 210 165
191 210 169
183 204 142
187 206 163
188 207 153
190 210 147
185 206 130
188 207 157
187 207 147
187 207 149
185 204 149
179 200 125
184 204 137
174 195 128
163 185 111
175 196 141
165 186 144
146 168 133
158 180 139
149 172 131
143 166 115
124 149 141
88 116 156
94 123 152
72 104 148
83 113 144
82 113 149
77 109 151
71 104 147
76 107 148
71 104 147
69 103 149
70 103 154
71 104 151
68 102 155
69 103 153
69 102 154
65 99 147
73 106 151
63 98 154
69 102 149
61 97 155
67 102 157
62 98 159
62 97 149
62 98 162
62 97 161
66 101 159
61 97 161
62 98 163
62 98 167
62 99 165
62 98 163
63 99 168
62 98 169
61 97 155
61 97 165
61 97 162
62 98 159
61 97 159
60 96 161
61 97 157
61 97 162
63 99 171
61 98 162
61 97 163
61 97 164
62 99 170
61 98 167
62 98 164
62 98 166
62 98 167
61 97 163
62 98 162
62 98 164
62 98 169
62 98 167
62 98 162
62 98 161
63 100 169
61 98 161
62 98 161
62 99 169
61 97 163
61 97 165
62 98 165
62 98 164
62 98 162
61 97 159
62 98 164
61 97 157
62 99 168
62 98 165
62 98 169
62 99 166
62 98 165
62 98 164
62 98 166
62 98 162
62 99 167
62 98 164
62 98 162
61 98 165
62 98 164
63 99 170
62 99 169
62 98 163
62 99 168
62 98 163
62 98 165
63 99 174
62 98 164
62 98 168
61 97 159
63 99 163
62 99 172
62 99 167
62 98 158
62 98 165
62 98 168
63 99 168
61 97 161
61 97 159
62 99 167
62 99 166
62 98 162
62 99 164
61 97 157
63 99 168
62 98 165
61 98 164
62 99 165
61 98 160
62 98 164
62 98 163
63 100 170
62 98 161
61 97 151
61 97 162
62 98 163
62 98 160
61 97 157
62 98 166
61 97 162
63 99 169
62 98 163
62 97 155
62 98 162
63 99 166
61 97 152
62 98 162
62 98 164
63 99 168
61 97 155
63 99 168
63 99 170
62 98 161
62 99 163
62 98 159
61 97 151
63 99 165
62 97 152
62 99 166
61 97 159
61 97 154
62 97 155
61 96 151
62 98 156
61 97 158
61 97 151
61 96 156
62 98 161
62 98 158
62 98 161
62 98 153
61 97 154
62 98 166
62 97 158
61 97 155
61 97 152
61 96 152
62 98 153
61 96 149
62 98 159
62 98 160
61 97 152
61 97 154
61 96 154
61 96 149
61 96 152
60 94 142
61 96 149
61 96 146
60 95 154
60 95 141
60 94 143
60 94 146
59 93 140
58 92 126
59 91 137
60 90 125
81 91 80
81 83 42
84 82 13
88 88 8
78 77 0
94 92 20
84 82 18
81 80 11
88 87 21
90 88 12
84 83 12
93 91 21
87 84 12
80 80 20
100 98 21
89 89 29
98 96 25
97 94 27
100 97 19
87 88 24
97 96 16
105 104 31
118 114 21
103 103 24
106 104 25
107 106 25
116 113 25
108 105 32
124 121 24
111 109 28
113 111 33
119 117 31
121 117 37
115 114 29
114 112 37
115 112 27
126 123 37
108 105 26
133 130 50
130 127 44
125 121 41
122 118 38
125 121 41
136 131 47
124 120 42
129 125 43
129 125 51
140 134 50
138 134 43
147 142 52
137 133 42
130 127 34
129 125 43
136 132 42
134 130 37
132 129 40
145 139 44
136 131 42
143 139 47
138 133 44
138 134 36
142 137 48
141 135 41
140 135 39
133 129 42
144 139 51
142 137 49
140 135 37
136 130 45
146 140 52
135 130 42
134 129 41
144 139 34
142 136 45
144 138 52
133 129 35
146 140 51
133 129 44
141 137 42
137 132 41
138 133 36
141 135 44
131 127 37
131 126 32
134 129 41
135 129 41
131 126 45
131 126 36
137 132 34
134 128 41
132 127 39
125 120 34
132 126 37
130 126 34
133 127 37
122 116 36
126 121 48
126 121 37
130 128 25
131 131 32
136 134 37
128 127 22
132 133 32
136 137 30
137 142 30
146 152 22
143 151 0
148 154 25
145 153 16
152 162 22
160 172 28
153 163 32
160 176 19
158 173 0
157 171 0
164 181 11
162 178 0
160 176 0
165 183 0
166 184 0
168 186 0
168 186 0
168 187 0
163 181 0
167 185 0
167 185 0
166 186 0
165 185 0
169 188 0
170 190 0
164 184 0
165 184 0
168 185 0
164 182 0
171 190 0
162 180 0
179 200 128
184 205 130
182 204 117
183 204 125
184 205 120
186 206 142
192 211 159
187 207 151
189 209 155
186 207 147
185 206 137
188 208 153
188 209 151
190 210 161
191 212 163
193 213 175
190 210 165
192 212 171
196 216 186
186 207 157
194 214 173
196 215 181
193 213 173
194 214 181
189 209 173
196 215 189
194 214 175
189 209 165
189 210 171
192 213 179
196 215 193
197 217 189
197 216 184
197 216 188
194 214 181
192 212 175
195 214 179
200 219 206
200 219 199
197 216 196
191 212 171
198 217 199
192 212 182
198 217 191
195 215 198
192 211 165
197 217 193
194 214 175
193 213 186
195 214 188
196 215 184
196 215 181
193 212 179
193 213 179
194 214 182
194 214 184
196 215 191
198 216 189
194 214 177
191 211 171
194 213 186
186 206 155
194 214 177
190 209 169
192 211 161
189 209 153
186 204 165
192 212 171
185 205 142
186 206 153
187 208 149
193 212 161
184 204 144
190 209 157
182 203 135
182 202 152
173 194 136
177 196 147
167 188 144
162 183 136
155 177 141
153 174 131
148 170 151
146 168 149
112 137 140
97 125 145
104 131 164
89 117 160
81 112 149
71 105 153
85 115 143
74 107 154
71 104 153
73 106 158
70 104 158
75 108 156
70 103 147
72 105 153
72 105 153
67 101 154
67 102 154
60 96 155
64 100 159
68 103 152
61 97 159
68 102 156
65 99 151
63 99 157
61 98 163
63 99 161
61 97 159
61 98 163
61 97 162
64 99 157
62 97 153
62 97 157
61 97 159
62 98 160
61 98 162
62 98 166
62 98 163
61 98 161
62 98 165
61 97 157
61 97 156
62 98 163
63 99 171
60 96 157
60 97 160
62 99 169
61 97 157
62 98 164
62 98 167
62 98 167
61 97 162
62 98 167
61 97 156
62 98 162
62 98 160
61 98 161
61 98 163
63 99 168
62 99 168
62 98 163
63 99 169
62 99 168
62 98 164
62 98 166
62 98 167
61 97 159
62 98 164
62 98 167
62 98 167
62 99 166
62 98 168
62 99 165
62 98 161
62 99 168
62 98 164
61 98 163
63 99 171
61 97 160
63 99 171
61 98 163
62 98 167
62 98 165
62 98 165
61 97 151
62 98 161
62 99 165
61 97 164
62 99 174
63 99 171
62 98 169
61 97 157
62 98 162
62 98 164
62 98 166
61 97 161
61 98 159
62 98 160
62 97 155
61 97 160
61 98 161
62 98 165
62 98 167
63 99 168
62 98 163
62 98 165
62 98 165
62 98 163
62 98 160
62 98 163
62 98 162
62 98 165
63 99 168
63 99 171
62 98 156
62 98 165
62 98 163
62 98 165
61 97 160
62 98 158
62 98 166
62 97 156
63 99 160
61 97 158
61 97 160
61 97 162
60 96 143
62 99 166
63 99 164
62 98 163
62 98 163
62 98 164
62 97 155
62 98 161
62 98 159
61 97 159
62 98 162
62 98 159
62 99 166
61 97 152
62 98 159
62 98 158
63 98 163
62 98 157
61 96 152
61 97 160
61 96 149
61 97 152
61 96 153
62 98 154
61 96 151
62 97 158
62 98 161
61 97 150
63 99 164
61 97 154
62 98 157
62 98 166
62 98 158
61 96 145
61 96 145
61 97 152
61 97 156
62 98 157
61 97 144
62 97 152
61 97 151
61 97 157
62 97 160
61 95 141
61 97 152
61 95 140
60 95 144
60 95 141
61 96 144
61 96 151
60 94 142
59 94 134
61 95 146
60 94 141
63 90 121
76 86 76
83 81 18
89 88 13
86 84 18
95 93 21
79 79 19
88 86 12
80 80 12
97 95 3
78 78 8
101 98 11
95 91 15
91 90 23
89 90 14
92 91 18
93 91 20
99 96 18
89 88 26
105 103 26
101 99 29
104 102 29
89 88 27
107 104 26
102 102 27
107 104 28
118 114 24
113 110 33
114 112 33
106 104 29
107 105 31
124 121 34
117 115 37
119 116 33
113 109 33
115 112 36
128 123 32
123 119 42
130 125 45
127 123 29
136 132 38
127 124 32
119 116 32
132 128 40
125 122 42
131 126 33
130 127 39
134 129 49
137 131 40
118 115 35
129 124 47
141 136 42
123 120 31
139 135 39
141 136 40
140 136 48
133 129 42
132 129 31
140 134 47
137 131 42
138 131 42
141 136 45
137 133 39
138 133 39
136 131 37
129 126 37
145 140 44
126 122 34
140 136 34
137 134 42
139 135 39
143 138 47
138 132 39
141 136 45
130 126 39
135 130 44
139 134 45
142 136 41
133 127 45
146 141 47
142 136 45
142 136 36
139 132 49
137 131 36
135 130 34
141 135 39
143 137 45
139 132 37
148 141 51
136 131 41
134 128 42
132 126 39
134 126 41
119 114 30
127 123 37
140 134 42
132 126 42
127 125 39
133 132 30
132 131 25
130 129 39
132 134 22
132 132 25
137 139 28
147 148 30
143 146 19
147 153 32
142 150 25
147 153 30
154 161 22
154 165 11
156 166 19
157 170 11
157 172 16
164 178 11
156 171 0
164 180 0
161 177 0
163 179 0
165 182 0
167 183 0
165 183 0
163 180 0
169 187 0
167 185 0
169 185 0
167 185 0
164 181 0
168 186 0
169 188 0
166 184 0
167 186 0
167 186 0
163 180 0
170 191 0
167 187 0
167 186 0
188 208 142
186 206 142
184 205 140
186 206 130
187 207 149
184 205 137
188 208 151
192 212 167
188 208 159
191 212 165
191 211 163
192 211 171
188 209 157
189 210 165
193 213 169
189 209 159
190 211 163
191 212 169
194 214 182
192 213 169
198 217 189
191 211 167
194 214 171
189 209 169
193 214 184
196 216 186
193 213 181
192 212 181
199 218 198
194 213 182
196 216 182
194 213 182
198 217 196
196 216 194
197 216 194
195 215 189
200 219 198
198 217 194
197 216 188
193 211 182
197 217 193
194 214 186
199 218 199
197 216 193
198 217 196
195 215 179
195 216 182
198 217 196
198 217 196
195 215 186
198 218 194
194 214 184
197 216 189
198 217 189
193 213 182
195 215 184
194 214 182
194 214 181
193 212 179
197 217 194
196 215 193
199 217 209
195 214 182
191 210 163
194 213 182
192 212 167
192 211 171
192 211 177
190 210 163
190 211 165
187 208 155
188 207 161
186 206 144
187 207 155
187 207 171
178 198 152
173 193 158
171 193 130
167 188 141
164 185 135
146 169 143
141 163 155
145 167 136
147 170 137
127 151 137
118 143 158
86 116 154
94 122 147
77 108 143
68 102 154
74 107 150
67 101 153
77 108 150
71 104 153
77 109 154
70 103 149
70 104 160
73 105 154
63 98 159
64 100 162
65 100 153
71 104 151
65 99 151
68 101 145
70 103 157
60 96 153
70 103 152
62 98 159
60 96 151
64 99 160
61 97 156
65 100 162
63 99 159
63 99 154
64 99 156
60 95 150
61 97 157
61 98 165
62 98 163
61 98 161
61 97 155
61 97 163
62 98 165
62 98 162
61 97 159
61 97 160
61 97 164
62 98 162
62 98 160
62 98 162
62 98 167
62 98 165
61 98 164
62 98 161
62 98 162
62 99 167
62 98 165
62 98 164
62 98 166
61 98 167
62 98 160
62 98 165
61 97 161
61 98 165
62 98 166
61 98 163
62 98 158
62 98 168
62 98 167
63 99 164
61 97 160
62 98 158
61 97 156
61 97 162
62 98 159
61 97 163
62 98 166
62 98 163
62 98 164
62 98 164
61 97 162
62 98 163
61 97 160
61 97 161
61 97 155
62 98 162
62 98 165
62 98 162
62 98 164
61 98 167
62 99 167
63 99 166
62 98 167
62 99 167
62 99 170
62 98 167
62 99 168
63 99 167
62 98 161
61 98 165
63 99 166
62 98 162
61 97 158
61 97 158
61 97 163
63 99 163
61 98 165
62 97 161
62 98 164
61 97 159
62 98 163
62 98 161
62 98 162
62 98 165
62 98 164
61 97 165
61 97 158
63 99 163
61 97 159
62 98 164
62 98 164
62 98 161
62 98 160
63 99 163
62 98 163
62 98 161
61 98 166
62 97 157
62 97 157
63 99 165
61 97 156
62 97 160
62 98 164
62 99 169
63 99 163
61 97 156
62 98 158
61 97 156
62 98 159
61 97 160
62 98 160
61 97 157
63 99 165
61 98 163
62 98 160
63 99 161
61 97 154
61 97 154
61 97 155
61 97 154
62 97 155
63 99 167
61 96 152
62 98 159
62 98 152
62 98 162
62 98 164
61 97 152
62 97 156
61 97 154
61 97 151
61 97 160
62 97 161
61 97 153
60 96 154
62 98 152
62 97 156
59 94 145
62 97 155
61 96 149
60 95 142
60 95 148
61 96 147
61 96 148
62 97 156
61 96 140
60 95 146
60 95 145
60 95 148
58 92 142
59 93 136
60 93 141
60 93 142
60 89 123
87 93 79
93 95 19
79 78 14
72 71 12
91 91 14
94 92 12
77 77 16
89 87 3
89 88 8
100 97 8
94 93 18
96 94 8
94 93 18
97 96 11
93 90 21
91 90 16
94 92 16
99 98 23
91 92 16
87 86 27
103 102 18
99 97 24
93 91 14
119 116 20
103 101 20
100 100 16
101 100 24
92 90 18
106 105 31
114 112 31
114 110 21
120 118 28
119 114 34
121 118 28
114 111 34
120 117 23
123 120 39
122 118 30
116 114 25
120 117 34
120 118 30
124 120 37
111 109 32
129 124 39
128 125 35
128 125 35
128 125 34
132 127 43
129 126 38
132 128 35
137 133 39
124 120 29
136 132 39
140 137 44
136 131 49
129 125 32
132 127 41
137 132 43
140 135 42
137 132 41
128 124 28
147 142 45
136 131 34
147 141 51
141 136 39
138 133 36
134 130 45
140 136 41
136 130 39
138 134 41
133 128 34
137 132 42
129 125 36
132 127 41
135 130 30
136 132 32
135 128 32
135 130 44
134 129 47
139 134 52
123 119 36
137 131 32
133 128 41
137 130 41
130 125 36
138 130 47
127 122 36
136 130 47
135 130 36
123 118 37
129 124 34
129 124 30
118 114 34
121 116 36
122 117 32
133 129 28
138 135 37
129 128 28
140 140 34
135 135 25
144 143 34
143 146 28
138 143 25
136 142 19
141 145 19
150 156 25
149 158 22
146 154 0
151 161 22
151 163 19
156 170 11
157 169 19
160 176 11
157 170 0
162 178 0
168 185 0
163 177 0
166 183 0
166 184 0
162 180 0
165 183 0
168 186 0
169 187 0
164 182 0
166 186 0
166 184 0
164 181 0
165 183 0
160 178 0
167 185 0
164 183 0
167 184 0
164 182 0
163 183 0
168 185 0
170 188 0
184 204 140
189 209 147
181 202 135
192 212 165
186 207 144
187 208 142
187 208 151
187 208 153
189 208 163
187 207 147
189 210 157
195 215 179
189 210 161
193 213 171
189 210 159
195 215 179
192 212 169
193 213 179
192 212 171
195 214 188
194 214 191
190 211 165
197 216 196
199 218 198
196 215 181
193 213 179
196 216 184
194 214 181
196 216 182
196 216 188
198 216 191
194 214 189
197 217 188
199 218 193
194 213 173
199 218 201
199 218 199
194 214 181
201 220 206
196 216 189
200 218 198
201 220 199
199 218 191
195 214 181
194 215 186
199 218 196
196 215 194
200 219 204
199 218 196
199 217 193
199 218 211
202 220 207
195 215 184
199 218 199
195 213 175
195 215 188
199 218 194
200 218 199
196 216 184
198 217 196
194 214 186
192 211 177
191 211 173
194 213 177
192 211 167
196 216 189
190 210 177
188 208 157
185 204 157
197 215 191
193 212 182
191 210 173
190 210 157
184 204 156
190 210 170
180 200 162
172 193 158
167 188 153
160 182 155
163 183 151
159 180 147
146 167 162
142 164 151
142 164 156
130 154 141
104 130 157
99 126 157
97 124 153
89 117 155
85 116 156
76 109 157
70 104 152
78 109 147
68 101 158
69 102 152
76 108 156
68 102 160
68 102 152
64 99 152
61 97 156
68 102 147
65 100 156
66 101 157
65 100 157
67 102 155
65 100 163
64 98 154
64 100 159
64 99 158
62 97 150
61 96 149
62 97 157
63 98 156
63 99 164
62 98 156
61 97 157
61 97 159
61 97 157
61 97 160
61 97 158
61 97 159
61 97 159
61 97 158
61 97 152
62 98 164
62 98 165
62 98 166
62 99 167
62 98 158
62 98 158
62 98 166
61 97 157
61 97 160
62 98 163
61 97 161
62 99 169
62 98 161
62 98 169
62 98 164
61 97 159
62 98 165
62 99 165
62 98 164
61 97 164
63 99 165
62 98 167
61 97 160
62 98 164
63 99 166
62 98 164
61 97 161
62 98 161
62 98 167
62 98 165
62 98 163
62 98 161
61 97 164
62 99 169
61 97 160
62 98 162
63 99 170
61 98 162
62 98 164
62 98 162
61 98 163
62 99 168
62 99 166
63 99 168
61 97 159
62 98 166
62 98 165
62 98 166
62 98 162
62 98 171
62 98 165
61 98 162
62 98 163
63 99 168
62 98 167
61 97 161
61 97 162
62 99 167
62 98 162
62 98 167
62 98 157
61 97 158
62 98 159
62 98 159
62 99 165
62 98 167
62 97 158
62 98 160
62 98 166
63 99 165
61 98 164
61 97 154
61 97 160
61 98 159
62 98 161
62 99 167
61 97 157
61 98 160
62 98 163
62 97 158
62 98 159
62 98 165
62 98 158
61 97 157
63 99 168
62 98 162
62 98 160
62 98 160
62 99 168
61 97 157
61 97 160
62 98 157
62 97 155
61 97 156
61 97 162
62 98 162
61 98 162
62 98 162
62 97 159
60 96 160
61 97 161
63 99 162
61 97 154
62 97 157
62 97 157
62 98 157
62 98 158
61 97 151
61 97 152
61 97 148
61 97 155
61 96 153
61 97 148
62 97 157
62 98 157
61 97 154
61 97 158
61 97 155
62 97 155
60 96 152
61 97 152
61 96 153
61 97 150
60 95 147
62 97 151
62 97 151
61 95 149
60 95 156
60 94 139
61 96 148
60 94 146
60 94 144
60 94 143
60 94 145
60 95 150
60 94 138
60 95 143
60 95 150
59 93 142
60 84 117
84 89 47
95 93 16
91 90 8
83 82 14
89 86 19
93 91 14
84 81 1
82 81 11
84 83 11
87 84 3
87 84 14
93 91 6
92 88 18
82 82 26
94 93 16
91 89 19
95 95 25
94 93 16
100 99 26
114 111 30
110 106 20
105 102 24
110 107 21
107 105 24
103 100 21
117 115 30
111 109 22
103 101 20
113 112 24
113 111 25
117 114 30
113 111 23
120 116 31
122 117 32
109 107 14
114 111 22
124 119 37
123 119 32
121 117 31
132 128 31
125 121 35
122 119 29
123 120 37
129 125 37
131 127 32
123 120 36
132 129 38
138 133 42
131 125 37
133 129 43
132 129 39
129 125 33
133 129 36
133 128 32
131 128 30
128 124 34
136 131 36
131 124 41
129 125 28
130 127 39
133 129 37
131 126 42
139 134 45
139 134 36
143 136 42
144 138 42
128 125 30
136 131 37
135 130 44
144 137 48
136 131 36
129 126 25
144 140 36
134 129 36
128 123 30
138 132 37
133 128 39
142 135 42
140 135 45
135 132 37
136 131 36
134 130 37
132 127 32
133 127 45
134 129 36
138 132 39
132 127 34
135 129 34
126 121 19
129 124 36
120 114 39
125 119 34
129 123 30
125 122 22
128 123 32
133 130 34
132 130 39
132 132 36
135 139 25
144 147 34
136 137 30
132 139 11
139 145 22
143 149 22
140 148 22
146 153 16
144 154 11
156 169 16
151 162 16
158 170 16
157 171 0
159 174 11
162 176 0
161 176 0
162 179 0
162 176 0
162 176 0
163 179 0
163 178 0
164 180 0
167 186 0
160 177 0
165 183 0
165 181 0
167 182 0
167 186 0
168 187 0
170 189 0
166 184 0
166 183 0
164 183 0
168 187 0
169 189 0
166 186 0
165 182 0
172 191 0
185 206 130
187 208 142
185 206 144
189 210 159
186 207 142
184 204 144
193 213 169
190 211 159
194 214 175
194 214 179
194 213 173
190 211 167
192 212 179
191 210 173
188 209 151
193 214 177
190 210 163
195 215 182
198 217 188
200 219 201
193 213 182
201 220 204
194 214 186
197 216 189
201 220 204
198 217 189
195 215 186
199 218 194
200 219 194
202 220 203
196 216 181
201 219 199
198 218 194
200 219 201
198 217 186
202 221 204
198 217 194
200 218 201
198 218 194
200 219 194
201 220 211
201 219 204
200 219 199
204 222 214
206 224 221
198 217 189
201 220 201
200 218 207
204 222 214
199 218 201
200 219 201
202 221 207
201 220 206
202 221 206
201 219 206
198 217 189
201 219 199
193 212 184
197 216 191
198 217 186
196 215 186
195 215 184
195 214 184
194 215 182
194 214 179
198 217 191
193 213 175
197 216 186
195 215 179
200 219 194
191 211 179
192 211 175
189 208 171
191 211 172
184 204 161
193 211 192
172 192 172
172 192 163
166 187 162
155 176 162
166 186 171
148 170 150
147 168 150
151 172 164
128 151 159
112 136 160
114 138 164
94 122 160
97 124 159
94 122 161
79 110 150
80 112 153
78 110 148
74 106 153
81 113 156
78 110 153
68 102 143
68 101 157
71 104 153
66 101 154
65 100 154
61 97 158
62 97 151
66 100 148
66 100 153
63 98 154
63 98 155
65 100 155
68 102 157
61 97 158
64 99 154
63 99 158
61 97 158
64 100 163
61 97 157
61 97 160
60 96 157
61 97 161
61 97 161
62 98 161
60 96 158
62 98 161
61 97 158
63 99 166
61 97 161
62 98 159
61 97 159
62 98 165
61 98 165
62 97 160
62 98 169
61 97 162
62 99 171
62 99 167
61 98 167
62 98 163
62 98 163
61 97 160
61 97 160
61 97 159
62 98 166
62 98 164
62 98 165
62 99 169
62 99 169
62 98 164
62 98 162
61 97 155
61 98 166
62 98 164
62 98 165
61 97 161
61 97 161
62 98 162
62 99 163
62 98 160
63 99 170
63 99 170
62 98 167
63 99 166
60 96 155
62 98 163
62 98 167
62 98 165
62 99 166
62 98 164
62 98 163
62 98 163
62 99 166
61 97 163
62 98 162
61 97 160
63 100 171
63 99 171
61 97 154
61 97 159
62 98 162
62 98 167
62 98 165
61 97 160
62 98 162
62 98 165
63 99 170
61 97 158
62 98 166
61 97 152
62 98 163
62 98 159
62 98 156
61 97 153
63 99 168
62 98 164
62 98 164
61 97 157
62 98 162
62 97 156
62 98 164
62 98 164
62 98 163
61 97 161
62 98 158
62 98 163
62 98 157
61 97 159
62 98 162
62 98 159
62 98 160
62 97 151
62 98 160
62 99 165
62 98 157
62 99 164
62 98 162
62 98 164
62 98 159
62 98 158
63 99 161
63 99 164
62 98 156
61 96 150
62 98 160
63 99 165
62 98 163
62 98 159
60 96 152
62 98 160
62 98 160
63 99 164
62 97 152
61 96 149
62 98 158
62 98 153
62 97 155
61 96 155
62 97 149
62 99 162
62 98 157
61 96 152
62 97 154
61 96 151
62 97 152
62 97 155
60 95 147
61 97 148
62 98 158
61 96 149
61 96 153
62 98 155
62 97 156
61 96 146
60 95 148
60 94 147
60 95 148
62 97 152
61 96 151
60 95 147
61 95 144
60 95 146
60 94 146
60 94 148
60 94 139
59 92 135
58 90 131
62 83 99
85 88 56
93 94 8
93 92 0
97 96 21
80 77 8
88 87 14
83 83 16
83 79 8
92 90 4
86 84 11
87 85 12
86 85 14
89 86 12
105 101 12
80 81 11
94 92 16
98 95 18
100 98 11
89 87 14
84 85 12
96 94 16
105 103 16
95 94 19
105 101 19
100 98 12
110 107 29
112 110 30
104 101 16
118 114 25
111 107 24
113 109 28
113 108 33
112 110 30
114 112 23
124 120 35
106 103 20
120 116 34
121 118 35
117 114 22
116 112 19
119 117 29
118 115 25
120 116 35
120 116 26
124 122 28
132 128 38
126 123 30
129 125 39
125 121 32
132 128 28
126 120 38
135 130 37
140 135 41
139 134 45
138 133 40
136 131 43
135 129 41
135 132 34
132 128 43
137 130 41
131 127 36
138 133 45
136 131 32
137 132 41
138 134 25
131 126 39
130 125 34
137 131 39
134 128 39
129 124 38
137 131 37
134 129 35
135 129 42
128 123 32
136 131 37
134 130 30
143 138 41
134 129 36
136 132 41
133 129 30
132 127 32
138 133 39
135 130 28
138 133 37
125 121 22
134 127 41
124 120 37
131 126 32
128 124 39
130 124 32
130 124 32
132 127 32
130 127 25
120 115 16
136 135 25
130 130 19
140 140 25
132 134 16
137 141 28
135 137 19
136 139 25
136 139 22
148 155 11
136 142 22
154 163 19
155 166 11
148 156 19
151 161 16
158 171 16
150 162 16
159 171 11
159 173 0
161 175 0
164 180 0
161 176 0
167 183 0
162 176 0
163 180 0
160 177 0
169 185 0
155 171 0
167 185 0
168 185 0
164 183 0
164 181 0
166 182 0
160 176 0
167 186 0
164 184 0
167 187 0
168 188 0
168 187 0
168 186 0
167 187 0
164 183 0
170 190 0
189 209 159
186 207 147
191 210 167
192 211 161
192 211 167
195 214 175
192 212 167
193 213 186
189 209 161
193 214 177
197 217 188
187 208 159
196 215 184
194 214 184
193 213 182
190 210 165
197 216 196
196 216 189
200 219 198
195 215 194
200 219 198
201 220 206
197 217 191
196 215 184
202 220 206
205 223 215
199 218 201
205 223 212
199 218 199
203 221 209
200 220 203
200 219 203
201 219 206
199 217 198
203 222 211
203 222 207
203 221 207
206 224 218
202 221 211
202 220 203
203 221 207
204 222 211
202 221 204
207 225 220
203 221 204
199 218 194
204 222 212
201 219 201
199 218 196
203 221 209
204 222 212
202 221 207
206 223 218
200 219 199
202 221 209
198 218 194
204 222 211
202 220 201
201 219 196
202 220 206
200 219 199
200 219 196
196 215 186
201 220 201
204 222 211
199 217 204
192 212 177
193 213 179
200 218 196
194 214 177
194 214 179
197 215 191
190 209 177
183 203 152
186 207 171
187 206 181
174 195 164
168 188 161
172 193 177
147 168 167
163 183 181
148 169 162
154 175 172
143 164 162
138 160 161
113 137 180
116 140 163
111 136 170
98 125 155
94 122 159
88 117 152
78 110 151
77 109 148
80 111 145
72 106 158
68 102 152
72 104 153
67 101 147
63 99 162
74 107 153
73 106 154
70 103 155
71 104 144
68 102 162
65 99 155
69 103 157
72 106 160
62 98 161
61 96 153
60 96 154
64 99 161
63 99 156
61 97 159
61 97 159
61 97 162
64 100 162
61 97 161
62 98 163
61 97 158
62 99 168
61 97 162
61 98 162
62 97 162
61 97 161
62 98 164
62 98 162
62 98 161
62 98 165
60 96 157
61 97 161
62 98 164
62 98 167
61 97 159
62 97 161
61 97 161
61 97 160
61 98 163
61 97 161
62 98 164
62 98 162
62 98 160
62 98 158
62 99 166
62 99 171
62 98 167
61 97 160
62 98 163
62 98 166
61 97 160
62 98 163
61 97 158
60 96 151
62 98 162
62 98 160
62 98 157
62 98 164
61 98 163
62 98 167
61 97 159
63 99 168
62 98 164
62 98 169
62 98 164
62 98 168
61 97 155
61 97 153
62 98 161
61 97 157
62 98 165
61 97 162
62 97 159
62 98 163
62 99 168
61 97 159
61 97 158
62 98 156
62 98 166
62 98 162
62 98 163
62 98 166
62 98 160
62 99 167
62 98 162
62 98 165
63 99 169
63 99 167
62 98 161
62 98 154
61 97 156
61 97 159
62 97 155
62 98 163
63 99 165
62 99 170
62 98 161
61 97 159
61 97 157
63 99 165
62 98 163
62 98 164
62 97 156
62 98 163
61 98 162
61 97 161
62 98 159
63 99 167
62 98 164
62 98 160
62 99 164
62 98 158
62 98 161
62 98 158
62 98 157
62 98 161
63 99 164
62 98 164
62 98 158
61 96 152
62 98 159
62 98 165
61 97 157
62 98 161
61 97 156
61 97 153
63 99 161
62 98 159
61 97 156
62 98 158
62 98 162
62 98 160
63 98 161
61 96 151
61 97 156
61 96 149
61 97 152
61 97 155
61 97 150
61 97 155
61 97 154
62 98 157
60 96 142
61 97 157
60 96 154
62 98 156
62 97 155
61 96 144
61 97 151
62 97 155
61 97 148
62 97 151
62 98 154
62 98 160
62 97 155
60 95 144
61 96 147
61 96 149
60 94 145
61 95 145
61 95 144
59 93 135
59 92 127
61 95 138
59 92 129
66 89 110
88 94 66
94 95 4
98 99 3
90 87 14
98 97 18
89 88 14
82 82 0
87 83 14
84 81 19
87 86 14
87 83 8
100 96 16
95 95 16
84 82 14
97 95 8
102 98 11
98 96 8
92 90 0
99 98 16
94 92 14
102 100 18
105 102 19
102 99 11
100 98 0
91 90 8
115 112 19
110 107 19
106 104 18
105 101 23
106 103 16
109 106 28
111 106 28
114 112 28
116 112 24
117 114 21
119 117 27
123 119 28
106 104 22
110 106 33
111 109 28
115 113 28
117 113 26
122 119 26
124 120 34
128 124 37
132 129 26
129 123 36
125 121 32
123 120 37
127 123 36
133 128 30
137 131 40
127 124 28
131 127 36
137 132 39
135 130 41
128 124 35
134 130 36
135 130 34
125 123 30
131 126 37
132 127 32
130 126 28
134 130 30
132 127 41
132 127 32
129 124 28
129 125 36
138 132 37
130 127 28
135 129 39
136 130 30
134 128 42
140 134 34
135 131 34
133 129 41
131 125 41
132 127 34
129 123 34
132 128 25
130 125 28
129 124 19
137 131 44
129 123 39
125 121 28
136 132 39
133 128 30
124 121 32
125 120 41
122 117 32
120 117 0
123 119 30
126 123 28
133 131 25
138 137 42
132 135 16
131 133 19
139 141 30
137 136 36
139 143 30
135 140 19
148 152 28
141 149 16
151 158 16
146 154 16
153 160 25
153 162 11
150 163 11
158 168 11
154 168 0
163 178 0
161 176 0
165 180 0
162 177 0
158 170 0
164 180 0
163 180 0
166 183 0
164 183 0
159 175 0
167 183 0
164 179 0
164 183 0
166 184 0
162 178 0
164 181 0
167 185 0
160 177 0
166 184 0
164 184 0
167 184 0
169 188 0
163 181 0
164 181 0
170 189 0
166 184 0
194 214 173
192 212 167
193 213 179
193 213 171
195 215 173
190 210 167
190 210 163
190 210 159
195 215 184
194 213 179
195 214 181
194 214 186
196 215 181
196 216 182
191 211 169
198 217 201
201 220 203
200 219 201
200 219 198
200 219 196
199 218 203
203 221 209
201 220 198
203 222 214
204 222 215
204 222 211
200 219 203
203 222 211
203 221 214
202 220 206
206 224 215
202 220 209
204 222 207
205 223 215
207 224 218
202 221 203
206 224 223
207 224 217
204 222 214
206 224 220
205 223 221
202 220 204
206 224 217
204 222 212
206 223 212
211 228 230
203 221 206
207 225 220
208 225 226
204 223 214
208 226 227
205 223 215
206 224 215
206 224 221
204 222 206
205 223 211
202 220 207
206 224 218
203 222 207
201 219 198
204 221 207
202 220 199
201 220 203
206 224 220
200 219 199
198 217 186
194 213 184
203 221 211
200 218 198
196 214 189
192 213 177
196 215 189
192 212 181
185 205 169
192 211 190
186 205 187
188 208 191
175 194 179
170 191 177
158 179 179
146 167 177
145 166 179
150 172 179
143 165 165
141 163 165
137 159 173
126 149 177
136 158 172
104 131 175
103 129 163
95 122 151
81 112 156
75 107 161
69 102 147
75 107 153
73 106 153
74 107 160
67 102 162
71 105 161
71 105 158
68 102 161
68 101 152
62 98 157
61 97 153
60 96 156
64 99 157
60 96 154
68 102 152
63 98 159
62 98 163
61 97 159
63 98 156
64 100 161
61 97 156
63 99 159
62 98 152
61 97 157
62 98 158
62 98 163
61 97 158
61 97 161
62 99 165
61 97 163
62 98 164
61 97 160
61 98 163
62 98 162
60 96 155
62 98 161
61 97 159
62 98 158
61 97 158
62 98 160
61 98 161
62 98 158
62 98 164
62 98 163
62 99 167
62 99 168
62 99 168
61 97 161
61 97 158
62 98 162
61 96 155
62 98 165
62 98 163
61 97 159
62 98 162
61 98 161
62 99 167
62 98 166
61 97 159
63 99 169
62 98 164
62 98 166
61 97 159
62 98 160
62 98 167
62 98 160
62 98 164
61 97 157
62 98 163
62 98 164
62 98 164
61 97 158
63 99 165
62 98 156
61 97 158
62 98 164
61 98 163
63 99 163
62 98 163
62 98 164
62 99 173
62 98 164
63 99 165
61 97 158
62 98 158
61 97 158
63 99 169
62 98 159
62 99 164
62 98 160
61 97 155
62 98 159
63 99 170
62 98 161
62 98 166
62 98 160
62 98 161
61 97 160
62 97 158
63 99 164
62 98 156
62 98 159
62 98 159
61 97 154
62 98 160
63 99 162
61 97 158
62 98 161
62 98 161
61 97 160
62 99 163
62 97 160
62 98 160
61 97 155
61 97 156
61 97 157
62 98 157
62 98 163
63 99 161
62 98 154
62 98 158
61 97 153
61 97 155
61 96 143
61 97 157
62 97 155
61 97 153
62 98 157
62 98 162
61 96 149
62 98 163
62 97 151
61 97 156
61 97 148
62 97 157
61 97 152
62 98 157
61 97 155
61 97 152
62 98 159
60 96 144
61 97 163
62 98 162
61 96 153
62 98 157
62 97 151
62 98 158
61 97 152
63 99 160
60 96 150
61 96 153
61 96 148
61 97 149
60 95 145
61 97 155
60 96 142
60 95 145
60 95 140
62 97 154
61 96 146
61 96 147
61 96 146
60 93 137
60 95 142
61 96 140
58 92 137
59 93 138
59 94 142
59 92 135
59 92 134
68 85 92
92 99 61
104 105 8
101 102 14
103 102 14
94 92 11
94 92 11
98 96 11
84 80 12
79 78 11
93 91 12
94 91 0
79 79 11
91 89 8
87 83 3
104 100 8
96 95 19
93 89 11
85 84 14
103 100 14
96 94 18
86 83 11
99 96 8
106 105 22
105 103 16
96 93 8
103 102 16
88 88 21
113 110 27
93 92 20
113 111 20
109 105 24
115 114 22
110 106 27
108 106 23
119 116 25
106 105 11
111 107 29
113 111 19
120 116 21
118 115 31
116 112 24
114 111 21
122 118 24
122 117 29
126 122 25
121 118 25
122 120 25
124 121 32
130 127 29
123 120 32
129 125 28
127 124 24
122 117 36
117 113 19
132 127 28
122 118 36
126 121 30
118 113 22
131 127 34
128 124 28
125 121 21
131 127 30
136 131 32
137 133 30
133 128 32
130 125 36
135 131 37
127 122 34
124 119 30
131 126 39
129 124 34
132 126 34
124 119 28
133 129 34
132 126 32
128 122 39
126 123 22
127 123 34
125 121 30
132 127 36
119 115 25
132 126 39
121 117 25
128 124 32
129 124 30
129 124 32
127 122 30
133 126 45
128 124 32
124 119 25
135 132 30
123 121 22
125 124 30
139 138 30
137 138 30
139 141 22
136 138 11
132 136 19
143 145 25
141 144 22
141 147 25
143 148 11
147 158 19
148 156 16
149 160 16
154 165 19
148 159 0
153 167 0
158 169 0
160 174 0
161 174 0
161 175 0
161 176 0
159 172 0
165 181 0
160 175 0
168 184 0
163 178 0
166 184 0
169 187 0
162 180 0
160 175 0
163 181 0
162 179 0
168 186 0
165 182 0
165 180 0
159 177 0
165 183 0
165 185 0
166 185 0
170 190 0
169 188 0
168 185 0
168 186 0
161 179 0
188 209 151
192 212 167
195 215 179
197 216 188
196 216 182
194 213 177
196 216 184
195 215 181
191 211 175
201 219 203
199 218 199
199 218 203
200 219 196
198 217 191
198 216 194
197 216 193
200 219 198
203 221 209
203 222 209
205 223 214
200 219 196
204 223 212
202 220 201
202 221 204
205 223 220
205 224 218
201 219 198
202 220 212
206 224 215
208 226 226
208 225 221
208 225 218
206 223 217
206 224 217
208 225 223
206 224 217
212 228 236
210 227 230
209 226 226
208 226 226
209 226 226
210 227 230
209 226 221
203 221 209
210 227 227
212 228 233
208 225 220
211 228 233
206 224 215
208 225 221
207 225 217
207 224 221
204 222 209
209 225 224
209 226 228
209 226 224
204 222 209
206 223 212
204 222 209
206 223 215
201 220 203
202 220 198
204 221 206
203 221 207
204 222 207
202 220 196
198 217 196
201 219 198
204 222 211
204 222 211
197 216 189
193 213 177
196 215 199
196 214 201
190 209 195
183 203 202
174 195 182
171 191 188
166 186 188
152 173 186
154 174 173
152 173 181
140 162 173
135 158 169
133 156 168
138 160 181
108 134 171
120 144 167
103 130 162
107 133 164
89 118 160
89 119 150
80 111 157
82 113 151
80 113 159
69 103 153
70 104 155
70 103 155
64 99 154
75 107 153
78 109 149
64 100 156
62 98 160
63 98 159
66 101 161
68 102 157
68 102 157
70 103 158
61 98 160
63 99 161
65 100 156
62 98 164
66 100 156
61 97 158
63 98 152
62 98 162
61 97 160
60 96 150
62 98 164
64 99 156
61 97 156
61 97 161
62 98 163
61 97 162
61 97 157
61 97 161
61 98 159
62 98 159
62 98 164
61 97 155
62 98 164
62 99 168
61 97 164
61 97 158
61 98 160
61 97 159
61 98 164
63 99 166
61 98 164
62 99 167
61 97 162
62 98 163
62 98 159
62 98 164
63 99 170
62 98 163
62 97 156
61 98 166
62 99 169
60 96 155
61 97 155
62 98 161
62 98 165
62 98 160
62 98 160
62 98 164
61 97 158
61 97 153
61 97 162
62 98 162
63 99 165
63 99 170
61 97 164
62 98 164
62 98 162
62 98 161
63 99 166
61 98 163
61 97 158
62 98 160
61 97 156
62 99 169
62 98 164
63 99 166
61 97 162
62 98 164
63 100 169
62 98 166
62 98 158
63 99 166
62 98 158
62 98 160
62 98 166
62 98 160
62 98 157
61 97 152
62 98 163
62 99 165
62 98 163
62 97 161
62 98 164
63 99 162
62 98 162
62 98 161
63 99 165
61 97 161
61 98 160
63 99 173
62 98 158
62 98 159
61 96 153
62 98 157
62 98 160
60 96 154
61 97 157
61 97 150
62 98 159
62 98 163
62 98 160
61 98 167
62 98 163
62 97 160
62 98 159
61 96 156
62 98 157
62 98 162
61 97 157
62 98 161
61 97 152
60 96 151
63 99 167
62 98 157
60 96 148
61 97 156
61 97 157
62 98 161
62 97 154
61 97 157
63 99 164
61 97 158
62 97 155
61 97 154
62 97 155
61 96 147
61 97 155
62 98 159
62 98 155
61 96 154
62 98 157
62 98 158
63 98 158
62 98 159
61 97 151
61 97 149
61 97 152
60 94 141
61 96 152
61 96 150
61 97 145
60 96 148
62 97 156
61 96 151
62 97 149
61 96 147
61 95 143
61 95 151
61 95 148
61 96 155
59 93 138
60 94 138
58 92 138
61 95 140
58 91 125
71 86 86
90 94 42
101 104 18
100 99 16
103 100 21
100 101 12
84 83 3
95 93 11
89 89 16
88 86 0
98 94 11
91 88 11
93 89 8
97 94 8
90 88 0
90 88 8
90 87 0
90 87 8
90 87 14
91 89 8
93 90 21
97 94 16
104 101 16
110 107 12
105 101 19
104 101 14
111 107 32
97 95 12
104 101 19
108 104 22
98 96 18
109 106 19
109 105 16
115 110 16
110 105 29
104 103 19
108 106 14
125 120 36
116 112 31
121 117 19
112 109 11
114 111 16
115 113 24
122 117 32
117 113 26
115 110 14
122 118 26
117 115 22
120 116 28
127 123 21
126 123 28
130 127 16
115 112 24
120 116 28
139 133 30
125 122 28
125 120 28
134 129 16
131 128 25
137 132 32
137 131 40
130 125 32
133 129 25
127 124 25
122 118 23
138 133 36
137 133 32
126 122 34
128 123 34
126 121 25
140 134 42
127 122 32
123 119 32
125 120 30
133 129 25
134 128 28
132 126 22
125 122 30
126 122 28
129 124 30
133 128 36
129 124 32
130 125 30
135 129 37
119 112 28
131 125 32
123 119 16
118 114 32
130 126 19
123 121 30
126 122 30
128 125 32
123 123 25
127 127 16
130 131 19
140 140 28
129 133 16
136 137 19
138 143 11
138 144 19
139 144 11
151 156 22
150 160 25
147 156 11
158 169 19
143 150 16
146 157 0
157 167 19
156 167 19
160 173 0
163 177 0
159 173 0
164 178 0
157 170 0
164 181 0
161 176 0
166 180 0
164 183 0
164 179 0
165 183 0
164 180 0
166 184 0
165 183 0
163 179 0
163 182 0
164 182 0
162 178 0
163 179 0
164 180 0
165 180 0
166 185 0
165 182 0
167 186 0
169 188 0
160 179 0
162 179 0
170 189 0
190 210 161
193 213 181
195 215 181
194 213 177
197 216 184
197 217 184
197 217 188
198 218 196
193 212 181
200 219 199
199 217 199
201 220 203
201 220 209
204 222 209
200 219 201
203 222 217
201 220 207
202 220 206
205 224 220
206 224 224
205 223 214
207 225 221
206 224 220
207 225 221
207 224 214
210 227 230
206 224 217
203 222 212
207 225 220
207 224 215
207 224 218
208 225 218
210 227 230
207 225 220
202 221 203
210 227 231
208 225 221
210 227 226
208 226 228
208 226 226
209 226 221
210 227 228
207 225 218
209 227 227
210 227 230
209 226 227
206 224 215
209 226 223
208 225 221
211 228 227
209 226 223
210 227 226
210 227 230
207 225 220
207 224 217
209 227 227
209 226 226
205 223 211
206 224 217
207 225 223
210 227 230
207 225 217
209 226 221
208 225 221
203 221 214
206 223 212
204 221 206
202 220 201
204 221 203
198 217 189
203 220 207
202 220 207
194 212 194
193 211 203
189 208 193
183 203 193
178 197 184
166 186 190
159 179 187
155 176 193
146 168 183
159 179 189
158 179 190
143 164 181
138 160 173
137 159 179
133 155 173
127 150 181
107 133 177
105 131 167
113 138 165
86 115 162
93 122 158
81 111 167
72 105 155
73 106 158
74 107 151
66 100 154
62 98 161
68 102 160
66 101 162
69 103 155
70 104 163
67 102 158
65 99 152
70 104 160
61 97 154
63 99 159
64 99 151
61 97 160
64 99 150
63 98 157
64 99 157
64 99 156
62 98 163
60 96 152
63 98 152
63 99 156
61 97 157
62 98 163
61 97 159
61 97 153
61 97 160
60 96 153
62 98 162
62 98 165
61 97 158
61 97 156
62 98 164
62 98 164
60 96 151
61 97 164
61 97 158
62 98 165
61 97 160
62 98 166
62 98 166
60 96 156
62 98 166
61 97 162
62 98 163
62 98 161
62 98 166
62 98 159
62 98 163
61 97 161
62 97 158
62 98 159
61 98 162
62 98 161
62 98 164
62 99 168
61 97 161
61 97 165
62 98 161
61 98 162
62 98 163
62 98 163
60 96 151
62 97 159
62 98 165
62 98 168
62 98 161
62 99 167
62 98 163
62 98 164
62 98 164
63 99 167
62 98 159
62 97 152
61 97 160
61 97 157
62 98 164
62 98 160
62 98 169
62 98 164
61 98 160
62 99 165
61 97 160
61 98 159
62 98 161
63 99 160
62 98 162
62 98 165
61 97 158
62 98 163
62 98 159
61 97 159
62 98 164
62 97 157
61 97 157
62 98 160
62 97 154
61 97 160
61 97 158
61 97 155
62 98 168
62 98 155
62 98 164
62 98 158
62 98 160
62 98 162
61 97 156
61 98 159
62 98 160
62 98 160
61 97 152
61 97 157
62 98 161
62 98 160
61 97 159
61 97 156
62 97 157
61 97 158
62 98 161
62 97 155
60 96 147
62 97 155
62 98 163
62 98 158
62 97 155
63 98 161
61 97 151
62 97 151
62 97 156
61 97 156
62 98 162
61 97 152
62 97 155
61 97 155
62 97 155
62 98 161
62 98 151
61 96 149
62 97 154
60 96 150
61 97 156
61 96 154
61 97 149
61 96 147
62 97 153
61 97 153
62 98 156
62 97 150
62 98 156
62 98 152
61 96 154
61 96 151
60 94 146
61 96 147
61 96 155
60 95 146
61 96 151
62 97 151
59 93 140
60 94 140
59 93 133
60 94 134
60 94 143
60 93 138
60 93 139
58 92 121
57 88 126
89 99 83
102 105 35
100 100 0
93 94 0
97 100 8
93 95 0
89 90 0
92 89 0
90 88 0
87 84 11
98 96 16
100 99 0
87 83 8
95 93 16
100 98 3
86 85 8
85 83 11
98 95 16
100 97 8
106 102 11
98 95 12
94 93 14
88 86 18
95 92 22
104 101 14
104 101 8
105 102 18
100 97 8
109 106 19
99 98 12
97 95 14
110 106 18
107 104 21
105 100 19
109 107 14
109 106 24
116 111 26
117 113 24
113 111 22
128 123 28
112 109 28
119 115 26
123 119 30
122 118 31
126 122 32
115 113 25
124 120 30
123 118 19
127 122 30
119 115 25
127 123 19
124 120 25
125 121 22
130 126 33
116 113 22
130 125 22
123 120 22
129 124 36
134 129 37
125 122 32
132 128 19
121 117 25
128 124 28
132 127 36
124 118 30
130 125 34
124 120 30
135 130 32
123 120 22
126 121 25
134 129 29
124 120 25
135 129 28
129 123 28
131 126 28
128 123 28
130 125 39
122 117 22
125 120 28
125 120 25
129 123 32
128 123 30
129 123 32
132 125 36
133 128 34
129 124 34
126 123 25
118 115 11
124 120 22
130 128 22
133 133 28
145 144 34
133 132 22
137 136 25
145 145 34
142 145 34
136 141 25
142 146 22
145 150 25
142 146 25
143 147 22
144 150 0
153 161 16
150 159 19
155 168 11
159 169 19
147 158 0
152 165 0
161 176 11
162 178 0
161 174 0
158 173 0
161 177 0
164 179 0
165 182 0
164 179 0
164 180 0
164 180 0
170 186 0
166 181 0
166 183 0
164 179 0
168 184 0
163 180 0
169 188 0
167 185 0
163 179 0
168 185 0
165 183 0
168 188 0
165 184 0
166 184 0
162 181 0
168 186 0
166 184 0
169 188 0
168 188 0
192 212 181
192 212 181
196 216 186
191 211 175
194 213 182
195 214 191
198 218 204
197 216 191
198 218 189
200 219 204
199 218 193
206 223 214
202 220 206
204 222 211
201 220 204
202 221 206
207 225 224
206 223 218
205 223 218
205 223 215
206 224 218
207 224 215
207 224 215
208 225 221
208 225 221
209 226 227
210 227 226
208 226 227
209 226 224
205 223 214
205 223 212
207 225 218
209 226 223
209 226 228
209 226 227
209 226 223
208 226 223
211 227 228
207 225 220
210 226 224
210 227 227
210 227 230
211 227 228
209 226 223
207 225 218
204 223 211
208 225 220
207 224 218
206 224 215
210 227 226
209 226 223
210 227 228
205 223 212
205 223 209
209 226 223
206 224 217
206 224 218
209 226 226
203 222 206
207 224 214
210 227 226
208 225 223
208 226 223
207 225 218
205 222 207
209 226 227
204 222 207
206 224 218
207 224 218
208 225 217
204 221 209
204 222 211
198 217 203
196 214 207
190 208 200
184 202 204
188 206 209
169 189 201
166 185 197
168 188 211
154 175 207
156 176 197
150 171 198
139 161 182
149 170 186
135 157 185
128 152 172
123 146 174
125 149 174
103 130 166
101 128 168
100 128 164
93 121 157
86 116 159
82 113 162
77 108 153
73 107 158
80 111 144
71 104 156
66 101 159
73 106 157
65 101 160
69 102 154
65 99 153
65 99 151
68 102 163
66 100 157
76 108 157
61 96 157
62 98 165
64 99 154
67 101 150
66 101 160
63 98 152
62 98 154
66 101 150
61 97 154
60 96 156
62 98 161
61 97 152
61 96 149
62 97 155
61 97 157
62 98 159
61 97 161
61 97 162
62 97 156
61 97 159
62 98 160
61 97 154
62 98 160
62 98 168
61 96 153
61 97 157
60 96 154
61 97 159
62 99 166
61 97 160
61 97 159
61 97 162
62 98 162
61 98 161
62 98 164
61 97 157
61 97 161
62 98 161
62 98 161
62 98 163
62 98 162
61 97 154
62 98 161
62 98 163
61 97 155
61 97 159
61 97 154
61 96 153
62 98 164
62 98 162
61 97 159
61 97 161
62 98 159
61 97 159
62 99 166
63 99 169
62 99 167
62 98 163
62 98 163
62 98 164
61 97 157
62 99 164
62 98 161
62 98 161
62 98 162
62 98 164
62 98 158
61 97 157
62 98 162
62 98 159
62 98 158
61 97 157
62 98 162
61 97 159
62 98 165
61 97 155
62 98 161
62 98 155
61 97 157
62 98 163
63 99 164
62 98 164
61 97 158
61 97 162
62 98 158
62 98 162
62 98 156
62 98 163
61 98 161
61 97 151
60 95 142
61 97 153
62 98 158
62 98 164
63 99 167
61 97 155
62 98 155
61 97 155
61 97 157
61 97 155
62 97 155
62 98 161
62 98 161
62 98 161
62 97 157
63 98 160
62 98 162
61 97 152
61 97 154
61 97 155
61 97 154
63 98 162
62 97 155
62 98 154
61 97 154
61 96 145
62 98 161
61 97 150
61 97 158
62 98 154
62 97 157
60 95 145
61 97 156
61 97 158
61 96 152
62 98 156
61 96 155
61 96 156
61 96 155
61 97 155
61 97 158
62 97 156
62 97 152
62 98 159
61 96 146
61 96 149
61 97 149
63 98 152
61 97 149
61 97 154
61 96 152
61 96 148
61 96 150
61 96 150
62 96 151
62 97 154
62 96 148
60 94 138
61 95 145
61 95 142
60 95 140
60 93 131
59 92 132
57 90 127
60 89 122
71 84 84
93 97 31
101 101 11
107 106 11
108 108 16
100 100 0
105 102 12
96 96 8
90 86 3
101 100 0
82 79 0
105 103 18
93 92 12
91 88 8
101 98 8
91 88 11
97 91 8
79 78 3
99 94 5
99 96 11
86 83 14
92 89 3
98 95 8
102 98 8
106 103 14
100 97 16
98 97 11
110 105 16
91 89 19
110 108 11
109 105 0
106 103 14
117 113 8
110 108 18
111 109 16
114 109 19
116 114 16
118 115 23
111 107 28
111 109 22
117 112 11
122 117 34
109 107 25
120 115 37
114 111 21
127 122 29
124 121 24
117 113 25
121 116 26
131 127 24
122 118 21
116 113 16
127 121 22
117 112 11
114 112 16
126 122 22
130 126 28
129 125 22
124 120 28
123 118 34
126 122 22
116 111 25
128 123 30
127 122 25
126 121 22
123 120 22
118 114 25
129 123 28
136 132 19
127 122 37
132 127 25
127 122 30
133 128 25
128 125 11
124 119 28
118 114 22
120 115 22
122 117 25
132 128 32
130 125 30
131 127 22
130 125 30
123 117 30
125 119 32
114 108 22
131 125 37
130 126 30
131 126 34
134 133 32
128 127 30
136 133 16
133 133 22
141 142 22
134 135 30
127 126 36
131 133 19
139 142 0
144 148 30
146 153 11
146 153 11
149 156 19
148 156 11
146 157 0
153 162 19
157 166 19
161 169 11
155 170 0
160 172 0
161 175 0
158 169 0
166 183 0
165 180 0
157 171 0
164 179 0
162 175 0
161 177 0
163 176 0
156 171 0
162 175 0
163 179 0
162 178 0
165 180 0
160 177 0
165 183 0
166 182 0
160 177 0
165 181 0
163 182 0
163 182 0
164 181 0
165 181 0
165 182 0
164 182 0
171 190 0
167 185 0
169 188 0
166 184 0
198 218 191
197 216 189
199 218 189
192 212 171
197 216 196
200 219 196
197 216 186
201 220 201
199 218 193
204 222 211
202 220 201
207 224 215
201 220 207
201 220 209
202 221 199
202 221 204
206 224 221
208 225 223
205 223 212
206 224 215
207 224 220
208 226 223
209 226 223
206 224 220
211 227 228
207 225 220
208 225 221
208 225 220
210 227 228
207 224 217
207 224 218
209 226 221
210 227 227
206 223 209
209 226 224
210 227 228
206 224 215
206 224 215
203 221 201
213 229 237
210 227 228
208 225 218
210 226 226
210 226 224
209 226 223
208 225 220
210 227 228
207 224 215
208 226 221
210 227 226
207 225 218
209 226 226
201 220 199
210 227 228
209 226 221
204 222 206
207 225 217
205 223 211
207 224 217
206 224 211
206 223 212
208 225 220
209 226 223
208 225 220
204 222 206
209 226 223
206 223 212
207 224 215
206 223 212
204 222 203
204 222 207
205 223 211
201 219 220
194 212 218
182 201 210
178 197 205
167 187 202
165 184 207
162 182 203
155 175 203
144 165 195
150 170 200
136 157 195
145 166 191
140 162 194
144 166 192
119 143 170
128 151 185
117 141 170
121 145 174
114 139 175
112 137 177
111 137 162
91 120 164
80 111 165
81 112 157
71 104 156
77 109 158
66 101 162
68 103 155
64 99 156
70 103 151
68 102 160
67 101 153
69 103 153
75 107 154
60 96 154
65 100 151
60 96 149
66 101 162
62 98 161
61 97 157
64 100 163
61 96 152
61 97 159
65 99 151
62 97 150
62 98 158
63 98 152
61 97 159
62 98 161
61 97 158
62 98 165
61 97 156
61 98 164
61 97 156
61 97 157
62 98 161
63 99 170
61 97 155
62 99 165
61 97 157
61 97 156
61 97 163
61 97 159
62 98 162
62 97 154
62 99 167
61 97 159
61 97 163
62 97 160
61 96 158
62 98 160
61 97 161
61 97 163
62 98 162
62 98 161
62 98 166
62 98 162
62 98 164
61 97 158
61 98 163
61 97 158
61 97 159
61 97 156
62 99 169
62 98 164
62 98 162
61 98 163
61 97 162
62 97 158
62 98 163
61 97 157
62 98 165
61 97 155
61 97 158
63 99 165
62 98 166
61 97 154
62 99 168
61 97 157
62 99 169
62 98 164
62 98 156
62 98 160
61 97 160
62 98 159
62 98 164
60 96 155
61 97 154
61 97 157
61 97 158
61 98 163
62 98 164
62 97 155
62 98 157
61 97 154
60 96 149
62 97 156
62 98 164
62 98 157
62 98 158
61 96 152
62 97 155
61 97 158
61 97 157
62 98 166
61 97 155
61 97 158
61 97 153
62 98 165
62 98 159
60 95 150
62 97 154
62 98 162
61 97 155
61 97 162
61 97 152
62 98 161
61 96 152
63 99 158
62 97 150
62 98 159
62 97 154
62 98 161
62 98 163
62 98 156
62 98 162
62 98 156
61 97 152
62 97 155
62 98 155
61 96 153
61 97 152
61 97 153
62 98 157
61 97 150
62 98 156
61 97 154
63 98 157
61 97 151
61 97 155
61 97 155
62 97 150
62 97 155
62 97 147
62 97 155
62 97 158
60 96 145
61 97 152
63 99 158
61 97 152
62 97 152
62 98 159
62 97 149
62 97 149
61 96 151
61 96 154
60 96 146
62 97 153
60 95 147
61 96 152
60 94 139
61 96 147
60 95 145
61 96 151
61 95 140
60 95 140
58 92 141
58 92 124
59 93 133
60 93 138
60 87 103
86 95 76
105 106 31
105 106 0
100 101 12
105 107 0
99 100 14
98 101 14
87 88 0
84 83 8
90 88 0
83 82 8
98 96 0
94 93 14
88 86 0
100 96 8
100 96 11
92 89 8
99 95 14
89 86 0
97 93 12
97 94 0
108 103 3
105 103 11
95 92 19
101 98 0
92 89 3
105 102 14
91 87 11
99 96 12
101 97 14
111 108 16
112 107 18
106 102 16
98 96 11
100 97 14
109 106 0
101 99 18
112 110 19
106 103 14
114 110 19
121 116 18
115 112 20
115 113 14
113 110 25
123 118 25
122 119 19
119 116 21
116 114 22
121 116 28
118 115 22
119 115 22
123 118 19
120 115 19
122 116 26
126 121 29
120 116 11
129 124 30
126 122 25
120 118 16
117 112 22
121 116 26
128 123 30
127 122 28
121 117 26
123 117 11
132 125 30
131 125 41
126 121 22
132 126 34
123 119 11
124 119 25
124 118 34
126 121 28
127 122 25
126 121 28
123 117 22
133 128 32
128 123 19
137 130 41
126 121 30
126 121 25
118 115 25
117 113 28
129 127 19
130 126 30
124 123 30
130 126 22
134 130 32
131 132 30
133 131 32
131 132 16
136 137 16
129 132 19
138 141 28
128 127 19
139 145 16
136 143 16
143 152 16
142 147 16
143 150 16
147 152 19
147 156 0
150 158 11
147 158 19
148 159 11
155 167 11
152 164 0
156 170 0
159 174 0
162 176 0
159 173 0
162 174 0
165 181 0
166 181 0
164 179 0
163 177 0
165 182 0
158 175 0
160 174 0
157 171 0
161 176 0
164 180 0
163 182 0
165 182 0
169 186 0
167 185 0
159 174 0
164 179 0
165 184 0
165 184 0
164 181 0
167 184 0
167 186 0
158 173 0
169 186 0
163 180 0
169 187 0
198 217 198
199 218 196
199 218 191
203 221 209
200 219 201
203 221 206
199 217 194
202 220 201
203 221 211
206 223 221
207 225 221
205 223 211
207 225 220
203 221 209
204 222 211
207 224 215
206 223 207
205 223 214
207 224 218
212 228 234
209 226 223
207 225 217
208 225 220
211 228 233
211 228 234
208 225 217
208 225 220
207 224 217
206 224 212
209 226 226
205 223 211
208 225 221
210 227 228
211 228 231
206 223 209
206 223 209
208 226 223
207 225 218
205 223 212
208 225 218
211 228 231
209 226 223
208 225 218
206 223 209
210 227 227
210 226 224
208 225 220
206 224 218
208 225 220
205 223 209
204 222 207
204 222 206
208 225 221
203 222 206
207 225 217
207 224 217
205 223 209
208 225 218
206 224 214
206 224 214
206 223 211
206 223 212
209 226 220
209 226 221
206 223 212
207 224 215
204 222 206
209 226 224
207 224 214
206 223 212
210 227 226
202 220 213
193 211 208
194 212 215
188 206 217
171 189 207
172 190 211
151 172 210
142 164 200
151 172 211
152 172 203
146 167 205
139 161 199
135 157 195
128 151 184
125 149 194
139 162 188
123 147 188
127 150 185
127 150 177
115 140 174
120 145 170
89 118 170
91 120 159
85 115 174
93 120 163
74 107 155
74 106 157
75 107 154
69 103 152
65 100 158
65 100 155
68 102 158
68 102 160
69 102 145
65 99 155
64 99 159
62 98 159
64 99 155
66 100 154
68 102 149
61 97 159
63 98 149
60 96 147
68 102 147
63 98 154
60 96 155
63 99 162
60 96 157
62 98 155
63 98 149
62 98 161
62 98 162
61 97 157
61 96 156
61 97 156
61 97 161
61 97 157
62 98 158
61 97 156
61 97 155
62 98 158
62 98 163
62 98 163
61 96 153
62 98 161
62 99 165
61 98 164
62 98 165
61 97 160
62 98 160
62 98 161
62 98 168
61 97 151
62 98 163
61 97 158
62 98 163
61 97 165
61 97 152
62 98 165
62 98 165
61 97 155
62 98 159
62 98 161
61 97 154
63 99 164
62 98 162
62 97 159
60 96 154
62 98 163
62 97 159
62 98 161
61 98 159
61 98 163
61 97 157
62 98 158
62 98 160
61 97 158
61 97 160
61 98 160
62 98 161
61 98 165
62 98 165
62 98 163
61 97 155
61 97 156
61 97 154
62 98 161
62 98 168
62 97 159
62 99 171
63 99 167
62 98 164
61 97 156
62 98 161
62 98 168
62 98 161
62 98 160
62 98 161
61 97 159
61 97 156
61 97 157
61 96 154
63 99 163
62 98 159
63 99 163
61 97 154
62 98 164
62 99 163
62 98 160
61 97 157
62 98 153
61 97 160
61 98 161
63 99 164
61 97 156
62 98 161
62 98 158
62 98 157
61 97 156
62 98 162
62 98 160
62 98 159
62 98 160
61 97 152
62 98 161
62 97 149
61 96 149
61 97 156
61 97 152
62 98 157
60 96 151
62 98 159
62 97 155
62 97 152
62 97 152
61 97 157
61 96 152
61 96 151
60 95 143
62 98 158
61 97 158
61 97 152
61 97 154
61 97 152
62 98 160
62 97 150
61 96 150
62 97 153
63 98 157
61 96 151
61 96 151
61 96 147
62 98 154
62 98 156
61 96 147
60 95 146
61 96 148
61 97 155
61 96 143
61 95 142
61 95 142
61 96 146
61 96 145
59 93 135
59 92 131
61 96 149
60 95 142
60 95 148
60 94 141
60 94 140
58 92 126
74 97 118
89 95 60
95 97 11
108 107 16
102 103 0
101 100 0
101 102 11
98 98 0
102 100 11
94 93 0
93 93 0
92 96 0
95 93 0
99 97 11
93 89 0
100 97 11
97 94 0
102 100 11
86 82 0
88 87 0
89 85 16
100 97 8
95 92 14
100 97 12
108 104 11
99 94 8
100 98 8
99 95 16
97 94 14
104 100 19
97 93 0
105 101 19
100 97 8
102 98 8
100 97 11
117 114 19
108 103 11
107 103 12
102 99 0
117 111 16
104 101 0
119 115 30
115 111 19
117 112 30
114 110 18
108 105 19
114 112 11
116 113 21
118 115 30
123 119 16
119 114 32
128 124 23
120 115 19
117 113 25
117 112 19
120 115 18
122 119 22
119 116 16
118 114 16
128 124 30
126 122 19
126 121 19
125 120 30
123 118 19
125 119 25
122 118 16
119 116 25
126 120 28
120 116 25
119 115 19
122 119 11
120 116 25
129 123 32
124 118 22
109 106 16
114 109 25
123 119 16
114 110 22
126 119 28
118 113 28
121 115 25
119 114 34
126 120 30
124 119 30
117 114 19
125 124 19
120 117 11
124 121 28
129 128 28
134 132 32
139 139 32
120 121 11
127 128 11
127 130 0
134 136 22
152 156 16
145 150 19
130 134 19
146 148 22
143 149 16
143 149 11
156 163 16
155 163 16
155 163 11
155 166 0
156 168 0
159 172 0
159 173 0
161 176 0
163 178 0
161 175 0
160 175 0
162 177 0
159 172 0
160 177 0
164 179 0
162 176 0
160 172 0
160 174 0
165 181 0
163 181 0
162 178 0
168 184 0
167 184 0
166 183 0
166 184 0
164 178 0
164 181 0
164 180 0
162 180 0
168 185 0
164 180 0
164 179 0
166 184 0
166 182 0
164 179 0
169 187 0
165 183 0
202 220 206
194 214 175
199 218 194
198 216 188
204 222 212
204 222 211
202 220 206
204 222 211
200 218 199
208 225 221
209 226 224
207 224 218
208 225 220
208 226 226
206 224 217
209 226 226
211 227 230
206 224 215
210 227 227
206 224 220
209 226 224
208 225 220
209 226 221
208 225 220
205 223 211
210 227 227
210 227 228
204 222 206
206 223 214
205 223 215
208 225 218
206 224 212
205 223 211
206 224 212
205 223 209
209 226 223
204 222 206
208 225 218
205 223 215
208 224 214
207 225 220
207 225 220
206 224 221
208 225 217
204 222 204
206 224 212
208 225 217
207 225 220
205 222 206
209 226 226
205 223 207
209 226 223
208 225 217
204 222 204
210 227 223
207 224 217
208 225 220
205 223 209
204 222 207
205 223 209
207 224 214
203 221 203
206 224 215
205 223 209
206 224 212
202 221 199
204 222 206
208 225 223
203 221 204
207 225 218
204 221 207
197 216 203
198 216 220
189 207 211
185 202 217
167 186 210
163 182 214
158 177 208
155 175 209
153 173 213
151 171 212
148 168 210
141 163 207
135 157 200
135 157 201
136 158 201
122 145 193
127 150 191
114 139 180
130 153 193
110 135 172
116 141 179
132 155 190
101 128 167
105 131 164
95 123 152
84 114 162
85 114 151
75 108 158
73 106 150
77 109 157
68 102 155
69 103 154
68 102 157
65 100 152
67 102 157
63 99 161
71 105 156
65 99 151
65 100 157
65 100 155
65 100 155
62 98 159
61 96 150
66 101 160
64 100 166
62 96 147
61 97 154
61 97 156
64 99 163
61 96 154
62 97 158
62 98 158
62 98 148
62 98 163
62 98 165
62 98 160
61 98 161
60 96 156
61 97 155
61 97 156
62 98 161
62 98 160
61 97 156
62 98 156
61 97 159
62 98 164
62 98 164
62 98 163
62 98 165
62 98 165
59 95 149
61 97 159
61 97 155
62 98 166
62 98 157
61 98 160
62 97 159
61 97 159
61 97 157
61 97 159
61 97 155
61 97 161
62 98 165
61 97 156
61 97 162
61 97 156
62 98 165
62 98 162
62 98 159
63 99 162
62 97 161
61 97 155
61 97 157
61 97 151
61 97 151
63 99 163
62 98 159
62 99 167
62 98 159
62 98 157
62 99 166
62 98 162
61 97 157
62 98 164
61 97 154
61 98 163
63 99 164
62 98 163
61 97 158
62 98 161
62 99 169
61 97 155
62 97 158
62 97 158
61 97 158
63 98 160
62 98 164
61 96 154
62 98 160
62 98 159
61 97 158
63 99 163
62 98 163
62 97 154
61 97 152
63 98 159
61 97 157
62 98 164
62 98 156
61 97 156
61 98 163
62 98 158
60 96 147
62 98 161
62 98 152
62 97 155
61 97 158
62 98 158
62 97 154
62 97 152
61 97 161
61 96 158
61 97 152
62 97 156
61 97 158
60 96 149
63 99 165
62 98 161
61 96 152
62 97 159
62 98 158
62 98 156
62 98 155
61 96 151
62 97 152
61 96 153
62 97 149
62 97 152
62 98 157
62 97 151
62 98 159
62 98 159
61 96 149
61 96 144
62 97 155
61 96 147
61 96 151
61 97 155
60 96 145
62 97 158
61 96 151
61 96 147
61 97 150
59 94 139
60 96 145
61 96 146
61 97 149
61 96 145
60 95 141
61 96 148
60 96 148
61 95 139
60 94 134
59 93 142
59 93 140
60 94 132
59 92 128
60 94 140
60 94 138
59 92 128
60 94 144
82 99 100
100 109 51
97 99 0
104 109 11
108 111 0
101 100 0
106 106 11
107 103 19
99 96 0
98 96 0
84 84 0
95 95 0
97 96 0
90 88 0
92 90 8
94 94 8
90 87 0
96 94 0
79 78 0
95 94 11
91 88 8
92 86 16
90 86 11
94 92 11
103 97 14
98 94 0
100 96 3
91 87 0
84 83 11
103 101 11
99 96 11
101 98 14
109 106 11
101 99 14
98 94 3
104 101 11
103 100 19
115 111 19
116 112 8
115 111 16
118 113 16
109 105 8
106 102 16
114 111 14
123 119 24
115 112 14
113 107 14
115 109 21
123 117 19
116 112 22
113 110 22
122 117 19
127 121 25
120 116 21
107 102 16
117 114 16
118 115 11
119 114 21
118 113 19
120 116 25
117 113 19
126 120 22
116 112 24
119 114 22
116 112 22
125 119 25
113 110 19
119 114 16
129 124 22
124 119 22
126 120 19
127 121 28
125 121 22
120 114 16
127 122 22
123 117 28
124 118 19
126 122 25
129 123 30
126 120 30
121 114 22
120 116 25
120 117 16
123 119 28
121 116 11
133 129 30
118 117 16
127 130 16
125 125 11
133 132 25
134 132 25
136 135 19
135 137 19
134 139 22
139 143 22
143 150 16
137 141 22
148 155 22
149 157 11
139 145 0
146 154 0
146 154 11
157 166 0
155 166 0
154 164 0
159 172 0
156 171 0
162 175 0
163 176 0
163 176 0
161 176 0
163 179 0
155 168 0
165 179 0
164 178 0
168 184 0
158 171 0
166 184 0
158 171 0
166 183 0
162 178 0
162 179 0
164 181 0
164 180 0
167 181 0
163 181 0
168 185 0
163 181 0
162 179 0
162 180 0
164 180 0
168 186 0
164 182 0
169 188 0
167 186 0
162 178 0
161 181 0
168 188 0
201 220 206
198 217 193
199 218 189
204 222 211
203 221 206
206 224 215
204 222 207
208 225 223
206 224 215
206 224 217
206 224 212
208 225 224
206 224 218
209 226 221
208 225 220
205 223 207
206 223 211
206 224 214
211 228 230
206 224 218
209 226 226
207 224 214
209 226 224
205 223 212
204 222 206
205 223 209
207 225 218
209 226 226
205 223 211
205 223 211
208 225 218
208 225 220
203 221 206
203 221 203
205 223 211
207 224 215
207 224 215
205 223 214
205 223 211
206 223 212
205 223 209
208 225 220
203 221 199
202 220 196
205 223 207
206 224 214
202 221 201
208 225 220
207 224 217
206 224 212
208 225 218
205 222 209
200 218 193
208 225 218
204 222 209
207 224 214
203 221 203
207 224 218
201 220 196
203 221 201
204 222 206
201 220 196
207 224 212
199 218 186
200 218 191
207 224 214
204 222 206
206 223 211
204 222 206
205 223 213
204 222 207
188 206 194
188 206 211
183 201 214
183 202 214
162 181 212
158 178 213
151 171 205
150 170 206
133 156 200
148 169 208
136 158 201
135 157 199
120 144 190
127 150 196
125 148 194
120 144 188
117 141 186
114 139 190
122 146 194
111 136 177
126 149 189
106 132 176
108 134 178
112 137 168
97 125 164
86 116 164
91 120 165
77 109 160
69 103 154
69 103 158
71 105 163
67 102 157
67 102 159
71 104 150
74 106 154
60 96 153
62 98 157
69 102 154
67 101 153
64 100 164
65 99 153
63 98 158
63 98 154
63 99 154
61 97 153
65 100 152
63 99 156
62 98 160
60 95 149
61 96 154
60 96 152
65 100 161
62 98 161
61 98 159
61 96 157
61 97 156
61 97 159
61 98 161
61 97 157
61 96 155
61 96 157
62 99 167
62 98 159
61 97 158
61 98 160
61 97 159
62 98 159
61 97 156
61 97 156
62 98 161
61 97 160
61 96 154
62 98 154
62 97 158
61 97 157
61 97 160
62 98 161
62 98 165
61 97 155
61 97 162
61 97 155
62 98 157
62 98 165
61 97 155
62 98 161
61 97 154
61 97 159
62 98 161
62 98 161
61 96 157
61 97 156
61 97 154
62 98 159
61 97 160
62 98 161
62 98 161
62 98 160
62 98 165
61 97 156
62 98 159
60 96 151
62 99 166
62 98 159
62 98 157
62 97 156
62 97 158
62 98 165
61 97 156
61 96 156
62 98 160
61 97 151
62 98 164
62 98 160
63 99 167
62 98 160
62 98 164
61 97 158
62 98 162
62 97 156
61 97 154
61 97 156
63 98 163
61 97 153
62 98 159
62 98 160
62 98 159
61 97 160
62 98 165
61 97 155
61 97 158
62 98 159
61 97 153
62 97 152
63 99 160
62 97 151
62 98 162
62 98 158
61 97 154
62 98 162
63 99 161
61 96 148
62 97 155
61 96 150
61 97 160
61 97 151
61 97 151
62 97 153
62 98 158
61 97 156
62 98 160
62 97 165
62 98 157
62 97 155
61 97 152
62 98 157
61 96 148
61 97 151
62 97 159
60 96 150
61 96 150
62 97 149
61 97 151
60 95 142
61 96 149
63 99 160
60 96 147
61 96 149
62 98 157
62 97 150
61 95 141
62 97 154
60 95 141
61 97 145
62 97 150
61 97 147
62 97 154
60 95 143
60 95 145
61 96 141
61 96 139
60 95 145
60 94 141
60 96 141
60 95 141
60 94 142
61 95 143
59 92 135
60 94 138
59 93 135
60 93 135
57 90 122
82 97 92
92 99 47
109 109 0
105 109 0
115 119 0
101 103 0
107 109 0
113 111 0
92 92 2
100 99 3
97 98 8
100 98 0
96 96 3
107 107 11
93 91 12
96 94 0
105 103 14
83 82 0
87 84 0
97 96 8
85 81 0
95 94 3
103 99 11
79 76 0
98 95 0
92 88 3
88 86 8
86 84 11
95 92 8
110 106 8
108 105 18
106 104 8
100 95 0
102 97 11
102 99 0
110 104 11
102 98 11
107 101 16
112 107 16
111 108 16
108 105 18
110 108 11
118 115 16
107 104 11
114 109 11
110 106 16
111 107 16
110 106 16
106 103 0
114 109 11
104 101 0
113 109 18
115 111 20
109 105 16
117 111 16
116 110 16
117 112 0
110 107 11
117 113 11
108 105 11
115 112 19
112 108 16
118 111 22
126 121 28
124 119 26
125 121 25
118 114 25
122 116 25
126 121 19
113 109 22
119 114 25
119 116 11
122 118 16
115 109 11
112 106 28
111 107 25
112 109 11
126 121 25
126 121 19
125 120 25
127 124 11
118 114 0
134 132 30
127 124 16
133 131 16
126 124 25
138 141 28
132 131 16
119 117 19
135 137 16
138 143 16
139 139 30
134 138 0
137 141 0
143 143 22
145 154 16
137 142 11
146 154 16
145 149 22
147 155 11
148 156 16
151 161 19
151 163 0
156 168 0
151 163 0
156 168 0
154 166 0
158 172 0
159 170 0
160 172 0
160 174 0
158 172 0
164 177 0
163 179 0
163 176 0
165 180 0
169 186 0
163 179 0
163 178 0
162 177 0
160 176 0
166 182 0
159 174 0
164 179 0
163 180 0
160 176 0
165 180 0
165 182 0
162 179 0
165 182 0
170 189 0
161 179 0
167 184 0
165 182 0
164 182 0
164 181 0
163 182 0
165 184 0
197 216 189
204 222 211
206 224 215
204 222 212
208 225 223
211 227 230
206 224 215
206 224 217
207 224 215
210 226 224
205 222 211
209 227 227
208 225 223
208 225 226
203 221 206
207 224 214
207 224 217
207 224 214
203 221 203
209 226 223
208 225 218
204 222 209
207 225 218
204 222 209
207 225 220
208 226 223
205 222 206
204 222 204
208 225 220
206 223 211
204 221 201
208 225 215
204 222 204
204 222 207
201 220 194
208 225 218
205 223 214
203 221 203
202 220 198
205 222 209
203 222 206
199 217 189
203 221 206
207 224 212
207 224 217
203 221 204
202 221 198
204 222 207
208 225 217
201 219 198
202 220 196
204 222 209
205 223 206
203 221 204
204 222 206
205 223 211
202 220 201
207 224 215
204 222 203
205 223 207
203 221 199
209 226 220
206 224 214
205 223 209
206 223 214
203 221 199
202 220 196
204 222 207
205 222 206
201 219 199
197 215 196
200 217 213
184 203 197
192 210 213
171 189 217
166 184 211
167 186 220
153 173 207
139 161 204
143 163 202
141 162 207
139 160 201
129 152 199
124 147 194
122 146 191
105 131 188
134 156 201
111 136 186
116 141 191
107 132 184
115 140 194
114 139 186
110 135 181
103 130 179
104 130 169
110 135 178
95 123 171
89 118 172
98 126 158
78 109 154
67 101 156
71 105 156
72 105 148
67 101 157
73 106 160
69 103 160
67 101 155
64 99 157
64 100 164
61 97 162
63 98 157
60 96 154
63 98 151
66 100 158
69 103 153
61 97 154
60 96 158
65 100 154
64 99 158
63 98 156
62 98 156
63 98 147
61 96 154
60 96 154
62 98 164
61 97 157
61 97 163
61 97 153
61 97 156
61 96 157
61 97 164
62 98 160
61 97 161
61 97 158
62 98 157
62 98 165
61 98 160
61 97 163
63 99 168
62 98 165
62 98 157
62 98 162
61 96 155
61 97 157
61 97 157
62 97 161
62 98 165
61 97 161
63 99 164
61 98 163
61 96 150
61 97 157
61 97 153
62 98 162
62 98 164
62 98 154
61 97 157
62 98 162
62 98 159
61 97 157
62 98 162
62 98 159
61 98 158
62 98 163
63 99 166
63 99 161
61 97 163
63 99 166
61 97 151
62 98 159
62 98 161
61 97 154
61 97 156
62 98 156
62 98 158
62 97 156
61 96 150
62 98 162
62 97 159
62 98 159
62 98 154
61 96 152
61 97 162
62 97 151
62 98 160
62 98 159
60 96 159
62 98 158
61 98 159
62 98 156
62 98 160
63 99 162
61 97 154
62 98 155
62 98 163
62 98 159
62 98 162
62 98 162
61 97 157
62 98 156
60 96 153
63 99 161
62 97 155
62 98 155
61 97 151
62 98 164
62 98 156
62 97 147
61 97 156
62 98 153
61 96 148
61 97 158
61 97 159
62 98 153
60 96 147
62 98 161
62 98 158
62 98 160
61 97 154
62 98 156
61 97 157
61 97 153
62 97 148
62 98 159
62 98 158
62 98 159
62 97 159
62 97 152
62 97 151
60 96 154
60 95 144
62 97 147
62 98 159
61 97 149
62 98 156
61 97 150
62 97 150
61 97 152
61 96 145
61 97 152
62 97 148
60 95 148
62 98 151
60 96 143
62 97 151
62 98 158
61 96 152
61 96 143
62 97 150
61 96 149
60 95 134
62 97 148
62 97 150
61 96 148
60 94 139
60 95 141
59 92 137
59 93 133
60 94 135
57 91 126
58 90 126
63 94 128
97 109 81
103 110 39
113 115 0
121 126 0
120 121 11
107 107 8
104 103 11
116 122 0
107 108 11
96 96 0
103 99 16
101 100 8
94 91 0
99 97 0
99 96 0
93 92 11
95 92 0
105 103 11
101 99 0
91 88 8
93 89 11
98 96 0
97 93 8
102 98 0
84 82 3
98 91 11
99 96 12
103 99 0
92 87 0
86 82 0
93 91 0
96 90 14
100 96 8
93 90 14
96 93 11
97 94 0
104 100 14
104 100 19
106 102 11
100 97 18
107 103 14
101 97 11
112 108 11
117 112 22
106 101 0
112 107 11
111 108 14
117 112 8
117 112 11
120 117 14
115 110 16
110 106 11
105 101 16
111 107 21
111 106 16
107 104 16
120 114 19
111 106 19
103 99 16
120 116 19
116 112 19
111 107 16
124 117 36
119 114 19
121 116 19
121 117 22
123 117 25
123 118 16
110 106 11
119 113 19
119 115 25
121 116 22
114 110 11
116 113 11
113 108 19
121 115 22
115 112 16
123 119 16
124 121 16
127 125 16
125 122 25
127 123 16
128 126 11
137 137 36
126 122 22
136 138 22
131 131 11
134 134 22
135 138 11
137 140 11
135 137 16
134 137 16
142 146 25
142 146 19
145 150 19
144 152 16
135 141 0
146 154 16
149 158 0
153 163 16
157 169 11
154 163 0
150 159 0
152 162 0
158 170 0
156 167 0
155 167 0
161 175 0
167 181 0
156 169 0
165 179 0
164 178 0
159 175 0
160 174 0
161 174 0
164 178 0
164 180 0
158 174 0
160 171 0
161 175 0
159 175 0
159 174 0
165 182 0
156 172 0
163 177 0
157 171 0
165 181 0
168 183 0
163 181 0
165 181 0
161 177 0
167 184 0
164 181 0
166 186 0
167 184 0
165 184 0
169 186 0
169 188 0
206 224 215
208 225 221
210 227 228
208 226 223
205 222 211
209 226 226
207 225 217
206 223 212
209 226 220
210 227 230
205 223 211
204 222 206
210 227 227
207 225 218
207 225 220
205 223 206
205 222 206
206 223 215
208 225 221
205 223 211
207 224 214
210 227 226
210 227 227
207 225 217
205 223 209
205 223 207
204 222 206
209 225 220
203 221 203
206 223 212
205 222 211
205 223 209
204 222 203
200 219 189
205 223 209
204 222 207
200 219 193
199 218 193
204 221 204
198 217 188
197 216 181
204 222 203
201 219 191
203 221 204
203 221 201
199 218 188
201 220 199
203 221 206
199 218 196
203 221 198
201 220 201
204 222 206
200 218 191
202 220 198
201 220 201
203 221 201
202 221 201
203 221 199
201 219 191
203 221 201
202 220 199
204 222 203
202 220 198
204 222 207
203 221 203
203 221 199
204 222 204
206 223 206
206 224 212
201 218 203
199 217 208
187 206 201
189 207 214
172 190 215
170 188 213
156 175 205
153 173 209
139 161 203
140 161 204
135 156 201
141 162 206
133 155 203
134 156 203
122 145 192
118 143 196
122 146 198
120 144 191
116 141 194
111 136 188
112 137 191
98 125 181
105 131 184
110 136 191
106 132 179
94 122 181
106 132 181
98 126 178
95 123 170
91 120 169
83 114 165
75 107 158
69 103 159
75 108 157
68 102 160
69 103 157
72 105 152
68 102 157
63 99 160
72 105 156
65 99 145
65 100 154
63 98 150
62 97 155
63 99 158
63 98 155
67 102 162
61 97 157
62 98 161
62 98 162
61 97 154
61 97 157
60 95 149
62 98 158
61 96 152
61 97 161
62 98 169
61 97 153
61 97 156
61 97 160
61 97 157
62 98 165
61 97 158
61 97 159
61 97 158
61 97 157
61 97 155
61 97 156
61 98 160
62 98 165
63 99 162
60 96 153
61 97 152
61 97 157
60 96 158
61 97 159
62 98 165
61 97 160
62 98 165
61 97 158
61 97 155
62 98 157
61 97 158
61 97 155
61 97 154
62 98 162
61 97 158
60 95 152
62 98 156
61 97 154
61 97 156
62 98 163
61 97 157
61 97 156
61 97 154
61 97 154
63 98 164
60 96 154
62 98 160
61 97 156
61 97 154
61 97 154
62 98 156
62 98 161
62 98 165
62 98 159
62 98 155
62 98 156
62 98 160
62 98 162
62 98 163
62 98 162
61 96 150
61 97 153
62 98 157
61 97 157
62 98 163
60 95 151
62 98 162
60 96 151
61 97 156
62 98 159
61 97 150
61 97 152
62 97 152
62 98 161
62 98 155
62 98 162
62 97 159
62 98 158
63 99 163
61 97 156
62 98 151
62 98 164
61 97 155
61 97 150
61 97 152
62 98 159
61 97 151
62 97 157
61 96 149
62 97 151
62 98 159
61 97 155
62 98 158
62 98 159
62 97 151
61 97 159
61 97 152
62 97 151
62 97 156
61 97 157
62 98 153
62 97 152
62 98 158
61 96 147
63 99 161
62 97 152
61 96 147
61 96 141
61 96 147
61 97 154
62 98 160
60 95 142
60 95 149
61 97 151
62 98 153
61 96 148
61 97 153
61 97 154
62 98 155
61 96 149
60 95 142
61 96 147
61 97 151
62 97 147
60 95 147
61 97 150
60 95 140
61 95 141
61 97 145
60 95 138
60 95 135
60 95 142
60 95 135
61 95 137
60 94 137
60 94 140
61 96 141
58 92 128
58 91 122
58 92 128
63 93 112
89 101 80
112 118 52
109 115 0
110 112 11
115 119 0
111 114 11
96 100 0
93 97 0
108 111 0
99 101 0
97 94 0
109 109 0
89 88 0
96 96 0
91 90 11
105 107 0
106 104 0
95 92 0
86 84 0
102 97 0
96 91 8
89 90 0
85 82 16
99 95 0
94 92 8
99 98 8
99 93 0
94 90 11
103 98 0
100 97 14
102 99 11
91 86 0
99 95 0
103 99 0
110 106 0
106 101 14
108 102 0
104 100 11
103 99 0
116 111 18
116 110 18
107 102 8
116 110 19
109 105 11
109 105 0
109 104 28
113 108 16
109 104 0
118 114 19
115 110 16
107 103 0
123 121 0
113 108 19
115 109 0
119 114 11
119 113 8
120 114 28
117 111 19
127 123 16
107 102 11
115 109 11
118 114 19
105 101 0
120 116 11
111 107 0
122 117 22
109 105 11
114 108 19
122 116 11
104 101 19
108 104 16
119 116 25
116 111 16
114 109 22
120 118 0
115 112 19
117 116 11
122 120 16
131 129 16
127 123 32
121 119 19
127 126 22
134 134 0
135 137 11
126 124 11
129 128 0
133 135 19
136 138 11
135 137 11
140 140 16
133 139 16
136 141 0
145 153 0
150 158 16
147 155 0
141 148 19
144 150 0
150 160 0
144 153 0
153 164 0
155 165 11
155 165 0
155 167 0
158 169 0
157 169 0
158 169 0
160 173 0
158 172 0
162 177 0
162 175 0
163 178 0
158 173 0
165 180 0
162 178 0
161 172 0
161 176 0
161 176 0
158 172 0
162 177 0
163 177 0
161 178 0
161 176 0
163 178 0
166 184 0
164 179 0
164 182 0
164 180 0
164 181 0
163 178 0
164 182 0
160 177 0
159 175 0
162 179 0
164 180 0
163 181 0
161 179 0
165 183 0
167 185 0
207 224 217
206 224 218
205 223 215
208 225 221
205 223 212
206 223 209
207 224 214
208 225 221
204 222 207
211 228 228
207 224 217
209 226 220
203 221 206
206 224 214
208 225 223
207 224 214
202 221 199
207 224 214
206 224 212
205 222 209
203 221 206
206 224 212
201 220 194
205 222 209
202 220 201
206 224 212
205 223 214
199 218 199
201 219 198
203 221 203
200 219 191
199 218 189
201 220 196
199 218 186
199 218 189
196 215 175
198 217 186
199 218 193
199 218 188
196 216 181
202 220 201
198 217 182
199 218 189
198 217 182
194 213 159
200 218 193
198 217 181
196 216 179
196 216 177
197 216 173
200 218 193
198 217 181
201 219 193
200 219 191
198 217 184
201 220 196
194 214 169
203 221 198
201 219 194
202 220 199
203 221 201
199 218 186
204 222 207
199 217 186
204 222 206
197 216 181
201 219 191
198 217 191
202 220 207
199 217 207
196 215 201
198 216 219
177 195 210
168 187 206
156 176 194
163 182 214
149 169 199
150 170 211
134 155 197
133 155 204
115 139 189
129 152 199
122 146 199
124 147 196
126 148 196
109 135 191
107 132 183
101 127 183
101 128 187
113 138 192
111 136 188
100 128 188
109 134 187
108 133 189
90 119 177
105 131 182
105 130 181
106 132 184
90 119 168
93 121 166
78 110 165
79 111 154
70 104 163
68 102 156
74 107 159
66 100 148
65 99 152
67 101 155
62 97 160
66 100 158
66 100 152
67 101 159
60 96 148
66 101 161
62 97 155
61 96 149
61 96 155
63 99 151
61 97 156
61 97 159
62 98 161
61 97 159
61 97 158
60 96 151
60 96 155
61 97 149
62 98 163
62 98 160
61 97 157
62 98 160
61 96 155
61 97 159
60 96 153
62 98 163
62 98 158
61 97 154
61 97 158
60 95 148
61 97 152
61 96 153
61 96 155
62 98 163
61 97 151
61 97 161
62 98 157
61 97 156
61 97 159
61 97 157
60 96 156
62 97 150
61 97 156
61 97 156
62 98 165
61 97 162
61 97 157
62 98 161
61 97 160
61 97 156
61 97 160
63 99 162
61 97 155
61 96 159
60 95 140
61 97 154
62 97 153
62 97 159
61 97 157
61 97 155
62 99 163
62 98 163
62 98 160
61 97 157
62 98 162
62 98 162
62 98 155
62 98 162
61 97 154
61 97 158
61 97 155
62 98 158
61 97 158
61 97 153
61 97 154
62 98 161
61 97 153
61 96 150
61 97 159
61 97 154
62 97 156
62 98 156
61 97 154
62 98 160
62 98 162
61 97 154
61 97 155
63 99 161
61 96 150
61 97 159
62 98 160
62 98 162
61 97 154
62 98 159
62 98 163
62 98 159
62 98 154
62 98 152
61 97 156
63 99 164
62 98 156
62 98 162
62 97 154
62 98 159
62 97 152
61 97 149
61 97 153
62 98 157
61 97 152
60 96 147
62 97 148
61 96 155
61 97 150
62 98 158
60 96 144
62 98 156
60 96 150
62 98 158
61 96 137
61 96 148
61 96 143
61 96 144
62 98 158
61 97 151
62 98 156
60 96 147
61 96 143
62 98 156
61 97 151
61 96 152
61 97 150
61 96 151
62 97 150
61 96 144
61 96 150
61 96 139
61 96 143
62 97 148
60 96 145
60 94 131
61 96 153
60 96 141
61 96 144
61 96 142
60 95 140
60 94 145
60 95 142
61 96 142
59 93 131
60 94 138
60 94 134
60 94 138
58 90 131
84 103 105
96 107 73
118 123 11
100 105 0
103 105 0
101 106 0
101 105 0
106 107 0
101 104 0
95 98 0
103 102 0
104 106 0
103 106 0
103 102 0
97 96 0
107 107 0
101 101 0
100 99 3
96 96 0
90 89 0
96 94 0
87 86 0
98 98 3
99 97 0
91 87 0
89 84 0
90 87 0
92 90 0
95 92 8
101 97 8
98 96 0
101 99 11
101 99 0
97 92 0
95 93 3
101 97 0
89 84 8
103 99 0
99 96 11
101 97 0
92 88 0
101 95 16
93 88 11
104 102 0
96 91 0
111 106 0
109 104 11
102 96 11
109 104 11
106 102 16
114 111 11
104 100 11
109 103 19
116 111 0
109 105 0
111 106 11
118 114 19
107 103 19
113 108 11
107 103 11
115 109 22
106 103 22
122 116 22
111 105 0
112 108 19
106 100 11
114 109 0
110 104 19
109 107 11
115 111 11
116 110 16
122 119 22
121 117 25
121 118 11
110 106 16
120 117 19
113 110 11
117 113 22
129 129 19
121 119 22
125 122 16
132 130 16
124 121 16
132 130 16
125 124 25
136 135 16
123 124 16
132 135 11
143 145 0
133 135 0
146 147 19
138 143 16
143 149 19
141 146 11
140 147 16
140 146 11
146 152 11
143 151 11
142 150 11
152 161 11
157 170 0
156 167 0
160 170 0
157 169 0
158 169 0
164 176 0
156 168 0
158 171 0
164 175 0
158 171 0
160 173 0
155 166 0
160 175 0
161 173 0
163 176 0
161 177 0
163 178 0
165 181 0
164 180 0
161 178 0
164 180 0
159 174 0
160 175 0
157 173 0
167 181 0
166 183 0
162 178 0
163 179 0
164 180 0
160 177 0
161 182 0
163 180 0
161 177 0
168 186 0
164 181 0
161 176 0
166 186 0
165 181 0
164 181 0
206 223 215
209 225 218
209 226 223
204 222 207
206 224 214
203 221 199
206 223 212
206 224 215
207 225 218
207 225 217
203 221 199
207 225 217
207 224 211
206 224 212
201 219 193
208 225 220
202 220 199
207 224 212
205 223 211
206 223 212
204 222 206
200 219 196
202 220 196
203 221 203
201 220 199
202 220 198
203 221 199
202 220 198
201 219 193
201 219 193
198 217 186
199 218 189
198 217 188
198 217 184
198 217 188
193 212 161
197 216 179
194 214 167
198 217 188
200 219 194
197 216 181
195 215 171
195 215 179
195 214 173
198 217 186
194 213 165
195 215 175
195 214 171
196 216 179
192 211 161
192 212 163
201 220 194
196 215 175
196 216 177
197 216 181
200 218 188
197 215 177
195 214 165
196 215 175
194 213 169
197 215 171
198 217 184
202 220 194
197 216 177
198 217 186
200 218 191
199 217 182
201 219 193
198 216 195
196 214 196
193 211 206
187 205 203
176 195 199
163 182 203
162 181 208
151 171 208
143 163 200
157 177 215
138 159 198
131 154 201
127 150 195
129 151 198
115 139 190
132 154 199
118 142 192
105 131 183
101 127 181
111 136 188
95 123 180
107 133 189
107 133 188
94 122 181
103 130 186
98 125 181
103 129 182
92 120 181
94 122 181
87 117 180
88 117 171
93 122 179
86 115 169
85 115 154
83 114 166
67 102 164
69 103 162
64 100 162
77 109 149
65 100 159
65 99 152
67 101 148
63 98 158
64 100 164
62 97 154
60 96 155
70 102 145
61 97 156
61 97 158
63 98 160
61 96 151
61 96 152
61 96 158
62 98 162
60 96 153
60 96 156
59 95 151
61 96 155
61 97 155
61 96 152
61 97 159
61 97 161
60 96 157
61 97 148
60 95 152
61 97 154
62 98 162
62 98 157
61 97 156
61 97 160
61 96 160
61 97 161
62 97 151
61 97 157
62 98 158
62 98 158
61 97 156
61 97 157
61 97 156
61 97 160
61 97 160
62 98 165
62 98 163
63 99 165
62 98 162
61 97 156
62 98 158
60 97 155
62 98 162
61 97 152
61 97 154
61 97 159
61 97 156
62 98 160
60 96 151
62 98 162
63 98 163
62 98 158
62 98 159
62 98 160
62 98 154
61 97 154
62 98 155
61 97 157
60 96 147
61 97 159
62 98 162
61 97 157
62 98 163
62 98 158
62 97 154
60 96 145
63 99 163
61 97 160
61 96 153
60 96 148
62 98 163
62 98 160
62 97 156
62 98 163
62 98 159
61 96 151
62 98 158
61 97 153
62 98 156
61 96 147
61 97 156
63 99 160
62 98 161
61 97 154
62 98 156
62 98 161
62 98 157
61 97 151
61 97 155
61 97 154
60 96 148
61 96 148
60 95 147
62 97 153
61 97 150
61 97 149
61 97 151
63 99 163
62 97 157
61 97 157
62 98 153
62 97 152
61 97 145
61 97 153
61 97 153
61 97 153
62 97 154
62 97 153
61 96 143
62 98 156
60 96 151
62 98 159
62 97 149
61 97 154
60 95 136
61 96 147
61 97 152
62 97 154
61 96 152
61 96 152
62 98 157
61 96 152
61 96 145
62 98 155
61 97 145
61 96 149
60 96 145
60 96 142
61 97 147
61 96 148
61 96 150
61 96 142
61 96 140
61 96 149
62 98 158
60 96 142
60 95 144
61 96 146
60 95 137
61 95 151
61 96 143
60 94 148
60 95 140
61 96 145
59 92 127
59 92 129
56 88 117
85 103 97
99 106 54
111 117 0
106 110 0
114 119 0
108 115 0
112 117 0
100 101 11
104 103 0
106 111 0
106 108 0
92 91 0
94 92 0
106 104 0
102 103 0
91 91 0
104 105 0
103 100 11
89 89 11
82 82 0
90 91 3
105 105 0
95 91 0
107 105 0
102 101 0
87 85 0
99 97 0
96 96 0
96 92 0
92 86 14
97 96 0
103 98 11
98 96 0
91 88 0
102 102 0
101 94 0
95 91 0
102 97 0
108 103 11
102 100 0
108 103 16
106 101 0
102 98 14
103 99 8
105 99 19
109 102 8
103 97 0
97 93 14
108 104 0
98 95 0
106 100 11
111 108 11
100 97 0
111 107 16
119 113 19
116 111 19
111 104 8
110 104 0
116 112 16
112 108 22
120 115 16
111 107 16
118 113 11
113 108 11
116 110 19
112 108 11
117 110 16
112 107 16
119 114 11
118 115 11
118 114 16
127 124 19
113 110 0
117 116 0
122 123 19
124 124 16
127 124 16
124 123 11
124 121 16
134 131 11
125 122 25
135 135 16
132 131 19
137 135 19
134 133 19
137 138 16
135 137 11
131 134 0
132 133 16
135 138 11
140 145 19
142 146 11
143 150 11
143 152 11
151 158 11
152 157 11
149 158 0
148 156 0
145 155 0
153 163 0
159 170 0
151 163 0
156 166 0
158 170 0
162 176 0
152 162 0
155 167 0
157 170 0
157 168 0
153 167 0
159 172 0
160 173 0
163 177 0
164 180 0
156 169 0
163 176 0
160 174 0
161 177 0
157 173 0
163 176 0
162 178 0
163 175 0
164 180 0
162 177 0
169 187 0
163 178 0
160 174 0
164 179 0
163 180 0
162 179 0
167 185 0
162 179 0
167 184 0
167 187 0
167 187 0
166 184 0
163 179 0
171 190 0
161 178 0
207 224 215
207 224 215
206 223 209
207 224 209
202 221 199
208 225 221
209 226 221
205 222 211
207 225 220
203 221 199
203 221 203
203 221 203
202 220 201
205 223 212
207 224 214
204 222 207
206 224 211
201 220 193
205 223 207
200 219 196
199 218 189
201 219 194
200 219 189
199 218 191
196 216 179
194 214 163
195 215 171
197 216 177
194 214 169
196 215 182
195 215 177
193 212 165
197 216 181
194 213 161
195 215 179
195 214 169
192 212 159
195 215 171
194 214 167
190 211 151
190 210 159
193 213 161
195 215 173
193 213 163
193 213 163
196 216 177
190 211 153
196 215 177
193 213 163
190 210 155
194 214 167
199 217 184
193 213 169
192 212 155
194 214 171
190 211 159
195 215 171
195 214 169
199 218 186
194 213 165
199 218 184
198 217 181
198 217 181
194 214 173
192 212 159
198 216 184
202 220 193
192 211 181
193 212 180
191 209 194
186 204 206
190 208 212
180 198 209
162 181 205
155 175 201
147 167 199
140 161 203
142 163 205
130 152 198
133 155 199
108 133 187
117 141 192
114 138 191
110 135 188
115 139 187
111 136 192
109 135 191
101 128 188
113 138 187
92 120 181
94 122 179
94 121 179
90 119 178
109 135 190
87 116 171
94 122 179
94 121 179
86 115 168
89 118 174
92 120 175
89 118 173
82 113 165
74 106 160
71 105 166
69 104 159
73 105 145
64 99 168
73 106 158
69 103 159
69 102 144
61 96 147
61 97 163
64 99 150
60 96 157
65 99 154
61 96 153
63 98 155
69 102 147
62 97 155
67 102 158
64 98 150
62 97 155
59 95 148
60 96 147
61 97 156
61 97 160
61 97 154
61 97 161
61 98 161
62 98 162
62 98 162
60 96 147
61 97 157
61 96 152
61 97 157
61 97 153
61 97 157
60 96 152
61 97 154
61 97 152
62 99 167
61 97 159
62 98 154
61 97 155
61 96 151
61 97 152
61 97 156
61 97 154
61 98 165
61 97 156
60 96 153
62 97 156
62 98 158
62 98 157
60 96 160
61 97 158
61 97 161
61 98 158
61 97 158
61 96 154
61 97 159
61 97 154
62 98 154
61 97 153
62 98 159
61 97 153
62 98 163
62 97 160
62 98 156
62 98 161
62 98 161
61 96 150
62 98 161
62 97 156
62 98 159
62 98 159
61 97 156
62 97 157
62 97 161
61 97 159
60 96 145
61 96 149
62 98 155
62 98 157
61 97 160
61 97 153
61 97 153
63 99 160
62 98 160
61 97 154
62 98 159
61 97 150
62 98 159
61 97 155
61 97 158
61 97 151
62 98 166
61 97 157
62 98 161
61 97 156
61 97 156
61 96 148
61 97 159
62 98 158
62 98 159
61 97 154
61 97 153
61 97 155
61 97 153
63 98 158
61 96 152
61 97 152
62 97 155
62 97 154
61 97 152
61 98 160
61 97 147
62 97 156
62 98 156
62 97 155
62 97 145
62 97 153
61 97 150
61 97 151
62 97 157
62 98 156
62 98 154
61 96 149
62 97 154
62 98 158
61 96 152
60 95 144
61 96 147
61 97 152
61 97 148
61 96 148
61 96 148
61 97 144
61 95 141
61 96 144
61 97 150
61 96 145
61 96 148
60 96 143
60 95 147
62 97 153
60 95 142
60 95 142
61 95 145
61 96 149
61 97 147
59 94 129
58 91 132
61 95 146
60 95 141
58 92 125
61 95 147
61 95 137
60 94 138
59 92 124
68 96 128
91 104 80
121 127 32
118 122 0
122 128 0
115 119 0
106 110 0
124 129 0
101 103 0
108 110 0
101 102 0
103 104 0
107 109 0
93 96 0
105 108 0
107 108 0
112 112 11
94 92 0
101 101 11
86 87 0
110 109 0
91 88 0
105 102 0
90 90 11
95 93 0
94 91 0
98 97 0
97 95 0
94 91 0
93 90 0
89 84 0
103 99 0
108 104 0
101 96 0
101 96 0
101 97 0
93 88 14
107 106 3
104 99 0
96 92 0
91 86 0
114 109 11
105 100 8
92 88 0
107 103 3
99 96 11
104 97 0
103 96 0
106 101 0
109 105 11
111 105 16
113 109 16
111 107 0
111 104 11
110 106 16
110 103 0
105 100 0
115 111 11
109 102 11
108 104 0
106 101 11
112 107 11
101 98 11
112 107 0
113 108 16
118 114 16
117 112 16
105 101 11
123 118 0
118 116 19
120 117 22
115 111 11
117 113 16
117 116 11
114 108 11
117 115 16
126 125 0
131 129 16
123 121 11
120 118 22
123 122 11
121 121 0
131 132 11
131 131 0
130 132 11
129 130 0
123 126 0
138 142 11
143 149 11
132 134 11
140 145 0
129 131 0
141 144 19
145 151 0
145 152 0
146 154 0
149 157 11
158 168 0
148 156 0
154 165 0
156 165 0
157 170 0
162 172 0
158 170 0
160 169 0
154 163 0
158 171 0
159 173 0
157 170 0
162 177 0
161 174 0
157 168 0
163 178 0
160 174 0
156 169 0
162 175 0
157 173 0
161 175 0
168 182 0
163 179 0
158 172 0
161 175 0
158 172 0
164 180 0
161 177 0
163 179 0
163 178 0
158 174 0
166 182 0
161 177 0
169 186 0
166 184 0
166 184 0
164 181 0
164 181 0
163 179 0
165 184 0
169 187 0
164 183 0
169 189 0
206 224 214
203 221 198
204 222 203
204 222 207
205 223 215
203 221 203
205 223 209
208 225 218
206 224 212
207 224 215
204 222 206
204 222 204
205 223 209
202 221 203
204 222 204
200 219 194
203 221 204
199 218 186
196 215 181
200 219 194
198 217 188
193 213 165
199 218 191
194 214 171
193 213 163
195 214 169
195 214 171
198 217 184
194 214 167
195 215 175
194 214 167
193 213 161
189 210 144
192 211 159
188 208 133
193 213 165
190 211 151
185 206 128
192 212 163
187 208 144
188 209 142
191 211 153
189 209 135
189 209 142
189 209 144
189 209 144
187 208 137
192 212 151
186 207 135
190 210 149
194 213 163
190 210 151
188 209 140
192 212 155
190 210 153
192 212 161
192 212 163
189 210 147
194 213 161
195 214 165
192 212 159
195 214 173
196 215 179
193 213 159
193 212 163
194 214 169
200 218 191
191 211 176
186 205 192
188 207 189
186 205 195
184 202 187
170 189 198
167 186 207
166 185 210
142 162 199
138 159 201
130 152 196
123 146 189
136 158 203
124 147 193
116 140 192
111 136 188
107 132 183
119 143 193
107 132 188
106 131 184
87 117 179
88 117 180
92 121 178
87 116 180
103 129 187
98 126 183
95 123 183
92 121 182
82 113 174
85 115 174
82 112 172
71 105 170
87 116 175
77 109 175
84 113 169
80 111 167
68 102 163
83 114 161
64 99 158
65 100 157
68 102 162
69 102 148
74 106 154
67 101 158
62 98 158
66 100 165
61 96 158
62 97 144
61 97 159
61 97 163
65 100 158
61 97 158
63 99 158
64 99 156
61 96 156
61 97 157
62 98 165
60 96 154
61 97 153
63 98 151
59 94 143
60 96 147
62 98 162
62 98 156
62 98 161
62 98 165
60 96 155
61 97 153
61 97 156
62 98 164
60 96 152
61 97 158
62 98 158
60 96 149
61 96 155
61 97 154
61 97 156
61 97 157
62 98 158
61 97 154
61 97 156
60 96 148
62 98 167
61 96 152
60 95 142
62 98 160
62 98 157
61 97 152
62 98 164
62 97 155
61 97 156
61 97 158
61 97 153
61 97 160
61 96 154
62 98 161
60 95 147
61 96 154
61 97 159
62 97 153
61 97 153
62 98 160
62 98 160
62 98 164
61 97 153
61 97 156
62 98 158
62 98 164
61 97 151
61 97 156
61 96 151
61 97 152
61 97 154
61 97 156
60 95 143
61 97 154
63 99 165
62 98 158
62 98 159
62 98 162
61 97 150
63 99 165
62 97 156
61 98 159
62 98 159
62 97 154
63 98 160
61 97 156
62 98 160
62 98 156
62 98 157
62 97 155
61 97 153
61 97 155
61 97 153
63 98 161
61 97 157
62 98 160
61 97 156
61 96 150
62 98 157
61 97 152
60 96 145
60 96 151
61 96 148
62 97 152
61 96 148
61 97 155
61 96 145
61 97 157
60 95 143
62 98 160
61 96 149
62 97 153
61 97 153
62 98 152
61 97 147
61 97 152
61 96 150
61 96 150
61 97 148
62 98 154
62 97 151
62 97 153
61 96 151
61 96 149
61 96 144
61 97 150
62 97 148
61 96 142
60 95 145
62 97 151
60 96 141
61 96 141
62 97 150
61 96 149
61 96 147
61 96 151
60 95 139
61 96 144
62 97 145
61 96 149
60 95 136
60 95 148
59 93 135
60 94 130
60 95 138
59 93 130
58 92 118
59 93 127
59 93 129
58 92 124
60 93 137
65 91 108
95 106 70
113 119 40
115 119 0
118 122 0
115 121 0
116 122 11
105 109 0
113 115 0
114 120 0
102 103 0
99 101 0
108 111 0
96 95 11
89 88 0
97 98 0
100 98 0
105 108 0
103 105 0
101 102 0
99 100 0
94 92 0
97 94 0
94 94 0
104 105 11
94 92 0
99 96 0
107 104 0
99 95 0
99 94 11
94 92 0
91 88 8
101 98 0
103 100 0
98 96 0
88 86 0
99 95 0
96 92 0
95 93 0
98 92 0
100 98 0
100 96 0
106 102 0
115 110 0
100 97 0
106 103 0
100 96 0
107 101 11
116 110 0
102 97 11
106 100 0
112 109 11
104 98 0
111 105 0
121 117 16
105 101 11
106 99 16
114 108 11
115 112 19
109 102 0
111 108 0
115 111 0
124 119 0
114 112 0
120 116 11
110 108 16
115 112 11
117 113 0
119 116 16
120 117 11
116 112 11
123 119 11
126 124 22
118 114 11
126 126 19
120 117 11
117 113 16
128 129 11
117 118 0
122 119 16
130 129 19
125 123 11
131 133 0
134 136 0
137 140 11
136 137 11
138 139 16
135 141 0
142 145 16
148 156 11
147 154 11
150 157 11
134 140 11
151 159 0
151 161 0
146 153 0
148 156 0
144 153 0
163 174 0
154 163 0
151 159 0
151 160 0
149 158 0
155 167 0
161 174 0
156 165 0
157 170 0
161 176 0
160 174 0
159 175 0
156 168 0
157 171 0
156 169 0
158 171 0
159 171 0
160 174 0
162 176 0
158 172 0
158 171 0
160 174 0
163 179 0
163 178 0
160 175 0
161 177 0
167 184 0
162 177 0
163 179 0
168 185 0
163 178 0
162 178 0
167 185 0
167 186 0
161 178 0
168 186 0
166 184 0
164 180 0
164 183 0
162 179 0
168 185 0
167 185 0
205 223 207
205 222 206
205 222 207
206 224 214
205 223 209
206 223 211
203 221 199
206 223 211
206 224 214
204 222 203
205 223 209
202 219 189
202 220 198
205 222 207
204 222 204
199 218 189
200 219 193
199 218 186
199 218 182
198 217 181
196 215 181
194 214 169
195 215 177
189 209 142
192 212 159
193 213 161
194 214 169
191 211 153
187 208 142
193 213 163
192 212 159
190 211 151
190 210 151
191 211 153
186 207 125
189 209 140
190 210 147
192 212 157
190 210 149
185 206 125
187 208 135
186 207 137
187 208 135
190 210 144
187 208 137
186 206 130
185 207 130
190 210 155
188 208 137
187 208 135
186 207 137
190 210 149
186 207 137
192 212 153
186 207 133
190 210 149
187 208 137
191 212 153
192 212 155
191 211 155
186 207 151
189 210 147
189 210 142
191 210 159
193 212 157
193 213 161
191 211 160
187 206 170
182 203 163
178 198 175
177 196 191
167 187 176
174 194 189
168 187 198
157 176 199
134 156 196
136 158 199
129 152 199
119 142 185
136 157 200
112 137 188
119 142 193
115 139 191
103 129 183
103 130 184
107 132 181
109 135 188
101 128 184
109 134 184
101 128 188
95 122 179
79 110 174
94 122 182
90 119 182
92 120 178
96 124 181
97 124 181
92 120 177
88 118 183
77 109 177
82 113 176
80 110 172
87 116 171
78 109 167
64 99 158
79 110 158
66 100 159
65 101 163
63 98 159
71 104 150
66 100 149
69 102 158
61 97 159
64 99 151
65 100 153
67 101 154
66 101 156
60 97 154
64 99 155
65 100 153
63 98 153
60 96 148
61 97 153
62 98 164
61 97 155
62 97 153
61 97 149
61 97 151
59 95 144
59 94 141
61 97 154
61 97 157
61 97 156
61 97 152
61 97 153
62 98 162
61 97 156
62 98 155
61 97 158
60 96 152
60 96 150
62 98 162
62 98 162
60 96 154
61 97 158
62 98 165
62 98 161
60 95 149
60 96 152
62 98 161
61 97 152
62 97 153
61 97 153
61 96 154
62 97 158
62 99 163
62 98 156
61 97 150
62 97 155
61 97 154
62 97 160
61 97 158
62 98 165
61 97 155
62 98 159
63 98 160
62 97 154
61 97 153
60 96 150
61 97 156
61 97 152
61 97 155
62 97 159
61 97 151
61 96 157
61 97 155
62 98 163
60 96 147
62 97 153
62 98 161
62 97 159
61 96 147
61 97 155
61 97 154
61 96 152
62 98 160
62 98 162
61 97 159
62 98 161
62 97 156
60 96 150
62 98 153
61 97 147
61 97 156
61 97 148
62 98 161
62 98 157
60 95 144
62 98 158
62 98 154
61 97 150
61 97 154
62 97 151
61 97 153
60 96 150
63 98 158
62 97 154
62 97 151
62 98 158
61 97 152
61 97 154
61 97 151
62 97 152
61 96 153
61 97 153
61 96 154
61 97 153
62 97 154
61 97 156
61 97 153
62 97 156
62 98 154
61 96 145
62 97 155
61 96 147
61 96 150
60 95 137
61 96 148
61 97 156
61 96 151
62 97 150
61 96 141
61 96 151
62 98 154
61 96 149
60 95 142
62 97 150
62 97 149
61 97 149
61 96 149
59 94 128
60 95 143
61 96 143
61 96 143
61 96 143
60 95 137
61 95 145
59 94 136
60 95 136
60 95 145
60 95 144
60 94 139
59 93 121
59 94 135
59 93 134
61 95 144
58 92 126
60 93 137
58 91 128
57 89 128
70 93 113
112 120 49
106 113 18
116 120 0
122 127 0
120 126 0
113 117 0
116 118 0
119 125 0
104 107 0
107 113 0
109 113 0
117 118 11
103 107 0
97 100 0
94 91 0
105 106 0
101 100 0
109 109 0
99 100 0
110 109 0
106 108 0
101 102 11
106 102 0
104 104 11
99 97 8
105 102 0
92 90 0
103 101 0
97 94 0
92 88 8
103 102 0
90 90 0
102 101 0
99 95 0
101 98 0
105 102 0
99 97 0
102 98 0
106 103 8
99 97 0
101 99 0
106 104 12
101 97 0
116 111 0
95 90 11
107 101 11
93 91 0
101 97 0
102 98 16
110 104 0
105 100 0
112 108 11
106 101 0
111 108 0
104 103 0
107 103 0
110 106 0
120 119 0
113 108 0
108 104 0
117 113 0
98 96 0
121 118 16
122 119 11
117 115 11
125 123 11
110 107 11
117 114 16
120 114 22
121 116 11
122 121 0
123 122 16
118 117 16
124 120 0
119 115 0
118 116 16
133 130 16
129 130 19
125 123 0
123 122 11
134 136 11
134 137 0
135 139 11
129 131 0
140 144 0
139 143 16
138 142 11
141 144 0
135 139 0
139 146 0
142 148 0
137 143 0
146 150 0
145 154 0
147 154 0
144 151 0
155 162 0
156 166 0
155 166 0
148 157 0
154 165 0
147 156 0
159 171 0
153 161 0
153 164 0
160 173 0
155 165 0
158 170 0
157 170 0
153 164 0
156 168 0
159 175 0
160 174 0
160 173 0
163 174 0
154 170 0
163 178 0
163 180 0
160 175 0
167 184 0
161 175 0
160 174 0
157 173 0
161 176 0
159 175 0
165 182 0
161 176 0
162 179 0
163 180 0
163 180 0
167 185 0
168 186 0
163 181 0
156 172 0
162 180 0
164 180 0
168 187 0
166 182 0
166 185 0
203 221 203
203 221 199
205 223 207
204 222 204
203 221 201
204 222 206
203 221 201
204 222 206
200 218 191
205 223 211
202 220 201
203 221 198
199 218 186
201 219 193
196 215 173
196 215 173
202 220 199
193 213 163
194 214 163
193 212 161
190 210 151
195 214 171
195 215 171
188 208 142
189 209 144
191 212 155
187 208 137
188 209 140
192 212 157
190 211 151
189 209 142
186 207 133
192 212 153
191 211 155
185 207 135
185 206 120
185 207 128
187 207 133
181 204 120
187 208 135
185 206 133
180 202 95
187 207 142
185 206 120
183 204 105
182 204 105
188 209 135
182 203 111
185 206 117
182 204 105
186 206 125
181 203 114
191 211 147
181 203 105
186 207 130
189 210 147
186 208 130
186 207 128
186 207 125
185 206 133
186 207 135
188 209 135
186 207 128
191 211 153
185 206 135
191 211 153
189 209 154
181 201 148
182 203 158
174 195 145
170 191 171
164 185 173
155 175 176
151 172 197
140 160 193
148 168 207
126 149 193
131 152 191
124 147 188
110 136 188
110 135 186
111 136 183
108 133 186
97 124 182
97 125 184
94 121 178
99 126 181
90 119 181
92 120 181
92 120 180
94 122 181
87 117 175
87 117 179
90 119 181
77 110 179
80 111 179
85 115 181
85 115 180
70 104 163
87 117 174
87 117 179
77 109 176
87 117 178
89 117 174
77 109 168
78 110 168
64 99 165
75 107 155
68 101 154
72 106 161
64 99 160
69 103 150
61 97 150
64 99 155
62 98 158
63 99 157
62 97 150
60 96 150
61 97 163
64 99 159
62 97 148
61 96 152
62 97 158
61 97 159
63 98 159
61 97 155
61 97 157
60 96 148
61 97 152
61 96 152
61 97 162
61 97 152
61 97 157
62 97 157
60 96 147
62 98 158
60 96 153
61 97 148
61 96 152
60 96 148
61 97 163
61 96 151
61 96 153
61 97 159
61 97 156
61 97 153
60 96 150
60 96 155
60 96 148
62 98 165
61 97 155
61 97 149
62 98 161
60 96 155
62 98 160
61 96 150
62 98 159
61 96 155
62 98 159
61 96 151
61 96 152
61 97 157
61 97 159
62 98 162
60 96 153
61 97 150
61 97 152
62 98 166
62 98 161
61 96 148
62 98 157
61 97 154
61 97 154
61 97 154
61 97 155
62 98 157
61 97 153
61 97 150
62 98 155
62 98 156
61 97 158
63 99 164
61 97 152
61 97 153
61 97 155
61 97 150
61 97 153
62 97 154
62 98 159
61 96 153
62 98 162
61 97 144
61 96 149
62 98 157
61 97 152
62 98 159
61 97 157
61 97 149
62 98 159
60 95 149
61 97 149
62 97 152
61 97 151
60 96 147
62 98 162
61 97 158
62 97 155
61 97 150
61 96 149
62 98 156
62 98 158
62 98 155
62 98 160
62 97 153
60 96 150
61 96 145
62 98 157
61 96 151
61 96 148
60 95 142
61 97 150
61 96 144
61 97 147
61 97 147
61 97 152
61 97 154
60 95 150
62 97 153
62 97 154
61 97 150
60 95 142
62 97 153
62 98 152
61 96 151
62 97 145
61 97 154
61 96 144
61 96 135
60 95 143
61 96 147
60 95 148
61 96 143
61 96 145
61 96 148
60 95 143
61 96 143
60 95 141
60 96 142
60 94 141
61 95 140
60 95 139
59 94 123
61 95 137
59 93 130
60 95 137
59 92 129
57 91 124
59 93 129
58 91 124
62 96 134
81 99 89
111 120 48
121 127 0
116 122 0
108 113 0
115 123 0
108 115 0
112 115 0
106 112 0
118 123 0
107 111 0
105 110 0
112 116 0
99 102 0
100 103 0
104 104 11
111 115 0
95 95 0
104 103 0
107 103 0
103 104 0
99 102 0
99 99 0
112 111 0
103 100 0
103 103 0
97 95 0
87 86 0
99 100 0
104 101 0
94 94 0
111 109 0
103 100 0
102 101 0
107 105 0
92 86 0
96 94 0
98 97 0
104 102 0
102 100 0
100 97 0
109 104 8
106 102 0
107 102 0
105 103 0
107 104 0
103 98 11
105 101 0
103 98 0
98 93 0
103 98 0
113 108 0
117 110 11
104 99 11
101 98 0
112 107 11
106 102 11
115 111 0
116 112 16
114 112 11
106 103 11
111 108 0
115 111 0
111 106 0
124 122 11
121 119 11
112 109 0
114 113 0
116 110 0
119 117 0
128 127 16
114 111 11
125 125 11
130 129 16
128 127 11
112 109 0
126 129 11
122 120 0
126 125 16
125 127 0
127 130 11
139 140 0
139 141 16
119 117 11
136 139 19
132 136 11
141 143 11
138 141 0
139 143 11
141 146 11
144 152 0
152 162 11
145 151 11
140 148 0
144 153 0
153 162 0
157 166 0
155 166 0
151 160 0
150 159 0
147 154 0
150 161 0
159 172 0
157 168 0
152 162 0
161 175 0
159 170 0
157 170 0
159 172 0
153 167 0
159 172 0
156 172 0
163 179 0
162 177 0
161 177 0
160 176 0
157 169 0
160 173 0
152 165 0
164 180 0
160 176 0
165 181 0
161 177 0
157 174 0
162 177 0
167 183 0
164 181 0
162 179 0
161 177 0
162 178 0
162 178 0
166 182 0
163 179 0
165 183 0
168 187 0
165 180 0
165 183 0
166 185 0
165 183 0
165 182 0
207 225 217
203 221 204
205 223 207
201 219 198
201 219 193
204 222 204
202 220 198
205 223 207
198 217 184
199 217 182
199 218 188
196 216 182
199 218 188
195 214 173
195 214 165
196 216 179
190 211 155
195 215 179
192 212 157
190 210 153
192 213 163
190 211 153
188 209 140
193 213 159
188 208 142
192 212 157
186 207 128
188 208 144
185 206 128
188 208 133
186 207 125
187 208 130
182 204 114
185 207 125
181 202 102
180 202 102
181 203 114
185 206 117
178 201 84
181 204 102
182 203 105
182 203 114
184 205 117
185 207 120
179 201 95
182 202 99
185 206 117
181 203 99
182 204 108
176 199 88
179 202 88
182 203 99
185 206 125
182 204 108
180 201 99
182 203 117
186 206 114
185 207 122
181 202 114
185 206 120
184 205 117
183 204 117
189 209 149
185 206 130
189 208 153
184 205 128
183 203 135
189 209 142
172 193 158
168 190 140
171 192 160
170 190 166
161 181 178
138 160 172
137 158 193
130 152 194
123 146 190
125 147 183
121 144 186
107 133 183
99 126 181
114 138 187
101 128 186
95 123 187
99 126 183
93 121 177
89 118 176
94 122 179
90 119 178
77 109 176
97 125 181
89 118 171
80 111 174
80 111 168
92 121 183
83 114 181
77 109 176
82 113 176
89 118 178
76 108 171
82 113 175
83 114 178
74 107 172
68 102 162
80 111 172
85 114 173
75 107 164
75 107 160
65 100 158
69 102 154
64 99 150
71 104 157
70 104 159
60 96 155
63 99 161
61 97 153
63 98 163
60 96 156
61 97 159
66 101 158
61 97 155
61 97 154
63 98 152
61 97 159
60 96 157
62 98 155
60 96 153
62 97 156
61 97 157
62 98 160
61 96 144
61 96 155
61 97 154
61 96 151
60 95 149
60 96 149
61 97 153
61 97 155
62 97 158
62 98 167
62 97 159
62 98 159
61 97 151
62 97 153
62 97 155
61 97 151
62 98 168
61 97 152
61 96 144
61 96 153
61 97 159
61 97 157
61 97 152
61 97 157
60 96 148
61 97 150
62 98 157
61 97 160
62 98 157
61 96 153
61 97 150
61 96 149
62 97 155
62 98 163
61 97 155
62 98 157
60 95 152
62 98 163
61 96 150
61 97 156
61 96 152
61 97 155
62 98 158
61 96 153
61 97 155
61 97 150
62 97 160
61 97 157
61 97 152
61 97 150
61 96 151
62 98 157
62 97 153
62 98 157
60 95 151
62 98 158
61 97 150
62 97 155
62 98 158
61 96 147
61 96 149
61 97 152
61 97 157
62 98 160
61 97 152
62 98 162
63 98 155
60 96 147
61 97 154
62 98 158
62 98 158
61 97 149
61 97 152
62 98 158
62 98 160
63 99 162
61 96 149
61 97 154
61 97 152
60 96 148
60 96 144
61 96 144
62 97 149
61 96 137
62 97 150
62 97 155
61 96 148
62 97 153
62 98 160
61 97 149
62 98 157
62 98 157
61 96 143
61 97 147
61 96 148
60 95 151
60 96 140
61 97 148
62 97 148
61 96 148
62 97 148
62 97 150
60 96 148
60 95 142
60 95 143
62 97 153
62 98 155
61 96 144
61 96 148
61 96 145
62 97 149
59 93 130
60 96 144
60 96 144
60 95 147
60 94 135
61 96 141
60 94 132
60 95 136
60 94 139
60 94 135
60 94 141
60 94 139
59 93 131
61 96 143
59 93 135
58 91 128
60 94 134
59 92 124
67 95 109
93 109 90
110 117 31
120 127 0
111 115 0
123 132 0
107 115 0
110 115 0
114 121 0
113 115 0
120 123 0
107 110 0
118 121 0
110 113 0
114 114 0
92 95 0
107 109 0
104 103 0
99 99 0
104 107 0
97 97 0
107 106 11
98 100 0
102 103 0
100 96 0
108 110 11
100 101 0
77 74 0
108 108 0
106 106 0
109 107 0
109 105 0
86 86 0
105 104 0
95 93 0
98 98 0
104 102 0
104 99 0
103 102 0
104 102 0
110 105 0
105 100 0
98 95 8
92 89 0
98 95 0
105 104 0
101 96 0
96 93 0
107 103 0
99 96 0
106 100 0
116 112 0
103 98 0
110 105 0
102 98 11
111 106 11
110 105 11
114 110 0
108 105 0
115 113 0
110 109 0
119 116 11
115 111 11
111 110 0
116 113 11
118 113 0
123 121 11
124 126 11
115 110 11
106 104 11
130 131 0
124 123 11
118 118 0
127 128 11
124 124 11
121 121 11
135 139 0
131 133 0
128 130 0
130 129 0
128 131 0
126 133 0
138 142 0
135 136 11
137 138 0
137 139 0
138 142 0
125 129 0
144 147 0
140 145 0
145 152 0
143 152 0
144 154 0
143 150 0
138 143 0
150 158 0
146 153 0
147 157 0
154 164 0
154 166 0
150 160 0
154 166 0
151 160 0
150 160 0
153 163 0
155 164 0
155 165 0
159 169 0
154 165 0
159 173 0
155 168 0
155 168 0
161 172 0
160 174 0
153 165 0
156 168 0
161 176 0
162 176 0
161 177 0
158 173 0
160 174 0
161 176 0
163 181 0
162 176 0
158 172 0
169 187 0
166 181 0
162 178 0
163 178 0
164 180 0
166 182 0
163 182 0
165 181 0
165 181 0
169 188 0
170 189 0
167 185 0
164 182 0
167 183 0
165 183 0
165 182 0
200 219 193
203 221 201
205 223 207
203 221 201
202 220 193
204 222 204
203 220 196
202 220 198
198 217 179
197 217 184
199 218 194
199 218 191
196 215 177
189 210 151
192 212 161
192 212 167
189 210 149
190 210 149
189 210 144
189 209 142
189 209 147
187 209 137
186 208 130
184 206 120
187 208 135
183 205 111
185 206 122
184 205 122
183 205 108
180 202 99
184 205 111
183 205 117
182 204 111
184 205 114
183 205 117
175 198 57
182 203 108
179 202 84
179 201 84
179 201 76
183 204 114
178 200 80
178 200 99
182 203 99
176 199 76
177 199 67
180 202 80
178 200 72
180 202 84
174 197 51
178 200 84
178 200 80
178 200 80
184 205 102
180 201 102
177 199 80
181 202 88
176 199 72
178 201 80
180 201 102
181 202 102
186 207 128
184 205 117
182 203 108
180 203 99
181 203 102
179 201 118
175 196 139
172 192 126
168 189 143
165 187 152
175 195 180
156 177 174
128 151 151
139 160 189
133 155 194
125 147 190
123 146 194
106 131 185
97 125 181
99 126 180
106 131 187
101 127 179
103 129 178
95 123 180
92 120 177
93 121 181
83 113 174
80 111 175
74 106 167
79 110 168
85 115 179
65 101 171
80 111 177
75 107 176
79 110 174
77 108 169
80 111 176
72 105 174
71 104 170
83 113 176
77 109 174
83 113 176
82 112 169
65 100 167
77 108 165
80 111 176
77 108 168
66 101 160
68 101 149
66 100 161
63 98 156
63 99 164
68 102 157
68 102 153
61 97 162
64 99 163
66 100 152
66 100 149
62 97 152
60 96 151
61 96 155
62 98 159
60 95 147
61 97 156
61 96 154
59 95 150
60 96 152
61 97 158
60 95 149
61 97 153
60 95 143
62 98 160
61 97 156
61 96 151
62 98 160
61 97 150
61 97 160
62 98 152
61 96 150
62 98 162
62 98 160
61 97 156
61 97 156
61 97 158
61 96 151
61 97 161
62 98 161
61 97 154
61 97 158
61 97 151
61 98 159
61 96 156
62 98 159
62 98 156
61 97 155
61 96 151
61 97 157
62 98 161
62 97 155
61 97 159
62 98 156
62 98 156
61 97 147
62 97 156
61 97 159
63 99 163
60 96 143
61 97 154
61 97 159
62 97 155
61 96 155
62 98 160
61 97 153
62 98 160
62 98 158
62 97 156
60 96 140
61 97 153
62 98 159
61 97 150
61 97 154
61 97 156
62 97 151
62 98 157
61 97 152
60 96 141
62 98 157
62 97 154
61 96 153
61 97 157
62 98 154
61 97 156
61 96 153
62 98 158
62 97 152
61 96 149
61 96 147
62 98 157
62 98 159
62 97 158
60 96 144
61 97 156
61 96 151
61 97 156
62 98 158
61 97 152
61 96 152
61 96 150
60 95 139
61 97 147
61 97 152
61 97 150
61 97 151
62 97 149
61 97 159
62 97 151
61 97 153
61 96 153
61 97 151
62 98 153
62 97 152
62 97 156
62 97 155
61 96 143
60 95 149
61 96 142
61 97 150
62 98 153
61 97 145
60 95 136
62 97 155
60 95 141
62 97 151
61 96 143
61 97 144
61 96 148
61 96 151
60 94 140
62 97 155
61 96 143
61 96 145
60 95 141
61 96 144
61 96 143
62 97 148
60 95 141
60 95 139
60 95 131
60 95 141
61 95 140
60 94 138
59 92 122
61 96 143
59 94 133
57 89 128
58 92 124
60 94 131
58 91 116
84 105 109
106 117 63
103 108 25
113 119 0
115 124 0
112 119 0
118 123 0
113 117 0
122 128 0
103 108 0
114 121 0
116 120 0
104 108 0
101 103 0
114 119 11
104 105 0
98 99 0
114 113 0
93 94 0
99 101 0
106 108 0
108 109 0
104 106 0
100 101 0
102 104 0
101 100 0
104 102 0
99 96 0
104 103 0
97 95 0
100 96 0
104 104 0
116 115 0
85 85 0
110 108 0
97 93 0
96 96 0
112 110 0
106 103 0
108 106 0
101 97 0
113 110 0
105 101 0
111 108 0
106 106 0
103 98 0
112 111 0
102 98 0
109 105 0
110 109 0
101 100 0
96 92 0
105 105 0
105 104 0
101 95 0
102 99 0
116 113 0
112 111 0
101 98 0
114 110 0
121 117 19
121 120 11
121 118 0
120 119 0
120 117 0
113 112 0
127 123 11
110 111 0
115 114 11
127 128 11
111 109 11
118 117 11
114 114 11
119 118 0
135 138 0
129 130 11
123 121 22
131 134 0
131 132 0
134 139 11
133 133 0
141 144 0
135 139 11
143 150 11
142 148 0
143 149 0
149 154 11
143 149 0
143 150 0
142 149 0
134 140 0
142 148 0
152 164 0
144 152 0
151 160 0
153 160 0
152 161 0
142 151 0
151 160 0
154 163 0
153 160 0
153 162 0
152 163 0
158 169 0
160 172 0
156 167 0
151 166 0
157 170 0
153 165 0
160 173 0
152 163 0
162 177 0
159 171 0
156 169 0
163 179 0
161 176 0
154 170 0
154 166 0
164 178 0
160 172 0
161 175 0
160 175 0
156 172 0
156 169 0
164 180 0
161 176 0
162 180 0
164 179 0
161 177 0
163 180 0
161 177 0
165 181 0
165 182 0
167 185 0
167 185 0
163 181 0
161 177 0
168 185 0
160 177 0
164 183 0
166 186 0
203 220 199
202 220 191
199 218 191
203 221 201
200 219 186
196 216 177
199 218 186
195 215 175
198 217 184
192 212 159
196 215 175
189 210 144
194 214 171
193 213 163
191 211 161
191 211 151
188 209 142
187 208 135
188 208 142
190 210 149
187 208 135
180 202 102
186 207 128
185 205 117
183 205 108
181 204 102
183 205 120
183 204 102
186 207 122
183 204 111
181 203 95
184 205 114
178 200 80
178 201 80
174 197 36
178 200 80
178 200 67
179 201 76
175 198 51
176 199 51
176 199 51
177 199 76
179 201 57
175 198 57
177 199 25
176 199 62
174 197 44
174 197 25
174 197 51
178 200 67
177 200 57
175 197 72
172 194 36
174 197 51
176 199 62
175 198 57
176 199 57
178 201 72
176 198 62
177 200 80
179 201 92
179 200 76
180 202 99
177 199 80
182 203 105
180 201 105
173 195 111
179 200 122
172 194 134
163 186 121
155 177 147
159 180 158
139 161 158
118 142 160
116 140 181
114 137 181
117 141 185
117 141 188
108 133 183
99 126 174
90 118 173
95 122 173
83 114 177
97 124 181
92 119 168
77 109 173
85 115 180
84 114 171
81 112 175
88 117 182
77 108 167
80 111 177
69 103 172
72 105 173
73 105 160
82 113 179
80 111 170
80 111 174
74 107 175
65 101 168
74 107 174
80 111 177
68 102 162
72 105 174
70 103 167
65 100 171
70 104 163
79 111 173
68 102 165
64 99 160
69 103 155
63 98 156
62 98 152
66 101 157
63 98 152
67 101 153
61 96 153
63 98 149
64 99 156
61 96 156
63 99 154
61 96 156
61 97 156
64 99 158
61 97 158
60 95 145
60 95 151
61 97 159
62 97 154
61 97 153
60 96 147
62 98 152
61 97 154
60 95 152
61 96 155
61 96 148
61 97 154
61 97 153
60 96 152
61 97 153
61 97 155
62 98 159
61 96 152
61 96 151
61 97 153
61 97 153
61 97 157
62 98 162
60 95 150
61 97 149
61 97 157
61 97 157
61 96 151
62 97 154
62 97 153
62 98 159
61 96 154
62 97 155
61 97 156
61 97 155
62 98 157
62 98 157
60 95 147
62 98 163
61 97 149
61 97 157
60 95 142
61 97 151
61 96 156
61 96 148
61 97 149
62 97 145
61 97 153
61 96 156
60 95 141
60 96 150
61 97 151
61 97 154
61 97 149
61 97 152
61 97 153
61 97 155
61 97 156
62 97 152
62 98 159
61 97 155
61 96 153
61 96 150
61 97 149
61 97 155
61 97 153
62 97 153
61 96 150
62 98 163
61 97 152
61 97 147
60 96 137
62 97 152
61 96 153
62 98 155
61 96 149
62 97 150
62 97 154
63 98 153
61 96 150
60 96 151
62 97 155
60 96 150
62 98 155
61 97 148
60 95 143
62 97 151
61 97 148
61 97 148
61 97 151
61 97 155
62 97 153
61 96 148
61 97 151
63 98 155
61 96 142
62 97 153
62 98 152
62 98 157
61 97 149
62 97 153
60 96 147
61 97 147
60 95 147
61 96 151
62 97 151
61 97 144
62 97 150
61 96 142
62 97 151
60 95 140
60 94 135
61 95 142
60 94 141
61 97 148
60 95 143
61 96 147
61 96 149
61 96 144
61 96 136
59 94 133
61 95 144
61 96 142
60 95 137
59 94 131
60 94 141
61 96 145
60 95 142
59 94 136
59 93 131
59 93 133
59 93 129
59 92 130
59 93 129
86 104 92
112 121 37
116 125 0
107 111 0
106 111 0
116 123 0
108 111 0
102 106 0
106 110 0
109 116 0
107 111 0
117 121 0
115 119 0
103 107 0
108 114 0
117 121 0
121 127 11
107 107 0
108 110 0
102 104 0
112 112 0
99 100 0
111 110 0
105 104 0
109 110 0
99 98 0
101 100 0
100 102 0
101 103 0
93 92 0
106 108 0
99 97 0
108 108 0
91 91 0
104 103 0
113 112 0
103 101 0
104 105 0
99 98 0
100 99 0
100 94 0
97 96 0
106 102 0
99 96 0
109 108 0
102 100 0
116 113 0
119 118 0
102 101 0
98 95 0
102 101 0
113 111 0
102 102 0
108 104 0
121 119 0
110 106 11
105 101 0
115 111 0
115 114 0
114 111 0
110 104 0
103 101 0
115 111 0
119 117 0
118 111 0
120 119 0
119 121 0
125 122 0
126 124 16
125 122 0
127 127 11
121 121 0
129 128 11
130 130 0
119 119 0
134 136 0
130 132 0
133 134 11
126 128 0
136 135 19
128 130 11
133 133 0
133 136 0
137 137 11
133 137 11
135 139 0
138 139 11
148 154 0
141 149 0
146 154 0
145 152 0
153 162 0
154 164 0
151 158 0
147 154 0
157 164 0
150 161 0
156 166 0
154 162 0
149 158 0
156 166 0
151 160 0
153 166 0
158 168 0
160 171 0
154 165 0
161 174 0
162 176 0
164 178 0
156 168 0
154 165 0
159 170 0
161 175 0
158 171 0
158 171 0
158 171 0
154 168 0
157 171 0
153 168 0
165 180 0
156 172 0
161 175 0
157 170 0
157 170 0
163 179 0
164 182 0
160 175 0
162 179 0
161 178 0
164 181 0
158 174 0
165 182 0
164 183 0
166 184 0
168 187 0
159 176 0
161 178 0
163 178 0
166 183 0
164 182 0
166 185 0
203 221 199
201 219 198
200 218 188
201 219 194
197 216 181
195 214 169
194 213 165
197 216 182
195 215 179
196 215 175
191 211 161
189 210 149
191 211 155
189 210 149
185 206 125
188 208 140
187 208 135
181 203 108
184 206 122
185 207 130
184 205 120
179 202 92
186 206 120
180 203 102
179 201 84
184 205 111
182 203 105
182 203 99
178 201 72
175 198 67
178 200 57
181 203 95
175 198 51
177 199 57
174 197 44
177 199 44
174 198 0
173 197 0
174 197 36
173 197 25
174 197 0
172 196 0
173 196 25
171 194 0
173 197 0
173 196 0
172 196 0
173 196 0
173 196 0
171 195 0
172 195 0
169 193 0
173 197 0
173 196 36
173 196 36
173 196 25
173 196 0
173 197 36
171 194 25
173 196 62
175 198 51
173 196 44
175 198 57
175 198 72
178 199 72
172 194 57
178 200 107
168 191 99
167 190 102
155 177 114
155 177 125
151 172 139
137 159 150
118 142 159
108 132 173
100 127 181
111 136 179
106 131 173
95 122 172
104 129 176
92 120 171
99 126 181
85 114 170
105 131 181
88 117 177
92 121 180
85 115 171
84 113 166
80 111 176
88 117 181
74 107 176
62 98 170
85 115 178
65 101 170
68 102 170
68 103 170
78 110 178
65 100 168
72 105 174
65 101 171
80 111 174
69 103 171
71 104 175
71 104 167
71 104 172
65 100 159
78 109 176
68 103 172
65 101 172
76 107 162
62 98 165
68 102 156
65 100 158
65 100 158
68 102 154
69 102 150
64 100 165
65 100 157
64 99 150
64 99 156
65 100 160
65 100 156
63 99 157
63 98 155
60 96 151
62 97 150
60 95 150
59 94 147
60 96 150
61 96 154
61 97 158
61 96 155
61 96 145
61 97 150
61 97 151
60 95 150
61 96 159
61 96 151
62 97 150
61 96 150
61 97 156
61 97 154
62 97 153
61 97 157
61 97 152
62 98 159
61 97 149
61 96 153
60 96 151
61 96 149
61 97 159
61 97 156
62 98 161
61 97 156
61 97 153
62 98 154
61 97 158
60 96 147
62 98 157
60 96 152
62 98 161
61 96 148
61 96 145
61 97 157
60 96 153
61 97 157
59 95 145
61 96 147
62 97 153
62 98 157
62 98 158
60 96 147
62 97 152
61 97 153
62 98 155
62 98 162
62 98 158
62 97 153
61 96 144
62 98 159
60 96 151
62 98 155
62 97 156
62 97 155
62 98 160
62 98 157
61 96 152
62 97 157
60 95 143
62 97 153
62 98 157
62 98 158
61 97 152
62 98 157
61 97 153
62 98 162
61 97 149
62 97 152
61 97 151
62 97 152
61 97 150
61 97 152
61 97 156
61 96 148
60 96 144
62 98 158
61 97 151
61 97 143
61 97 151
61 96 147
62 97 149
62 97 150
61 97 155
62 98 156
61 97 149
62 98 158
61 96 143
61 96 150
60 95 140
61 97 152
60 95 143
61 96 151
61 96 149
61 96 142
60 95 140
60 95 142
60 95 149
62 97 152
61 96 147
61 96 145
62 98 160
62 97 154
61 96 143
60 96 141
61 96 144
61 96 143
61 97 147
61 96 148
61 95 136
62 97 150
61 96 143
61 96 142
61 96 147
60 95 140
61 96 144
60 94 131
60 95 142
59 93 135
60 94 130
61 95 140
60 95 137
60 94 129
58 91 125
60 94 132
59 93 130
59 93 135
58 91 125
60 94 136
68 96 110
91 105 81
113 121 32
111 118 0
117 124 0
118 123 0
109 115 0
102 108 0
111 118 0
108 115 0
111 117 0
109 115 0
125 132 0
114 117 0
114 118 0
113 117 0
119 127 0
104 109 0
101 108 0
114 117 0
112 118 0
105 104 0
116 118 0
119 120 0
100 101 0
101 101 0
105 107 0
100 101 0
105 109 0
111 115 0
104 103 0
114 112 0
101 100 0
90 89 0
99 100 0
101 98 0
102 102 0
107 107 0
98 97 0
101 102 0
110 110 0
108 107 0
108 106 0
114 114 0
104 104 0
105 101 0
100 95 0
101 99 0
110 108 0
116 114 0
111 110 0
97 94 0
104 100 0
111 106 0
108 104 11
105 101 0
116 112 0
113 110 0
112 112 0
112 110 0
103 104 11
112 110 0
125 124 0
110 109 0
121 121 11
113 111 0
119 118 0
120 119 0
117 118 0
123 126 0
128 130 0
132 134 0
125 127 11
129 130 11
120 124 0
133 133 16
137 141 0
125 125 11
126 129 0
132 133 0
130 136 11
138 143 11
140 143 0
142 146 11
137 140 11
142 146 0
136 139 0
142 145 0
148 154 0
145 152 0
147 155 0
155 162 0
144 153 0
144 149 0
154 165 0
150 157 0
146 156 0
151 161 0
146 154 0
155 165 0
152 160 0
150 161 0
155 166 0
142 150 0
154 164 0
159 172 0
154 166 0
163 176 0
156 168 0
157 165 0
153 163 0
159 173 0
152 165 0
162 175 0
165 178 0
161 177 0
161 174 0
155 170 0
159 172 0
165 181 0
161 178 0
160 177 0
161 176 0
157 174 0
159 175 0
168 183 0
162 178 0
158 174 0
168 187 0
166 184 0
164 184 0
167 186 0
169 187 0
162 177 0
164 182 0
166 185 0
167 186 0
165 183 0
163 181 0
162 181 0
165 185 0
167 187 0
197 217 182
196 215 177
199 217 182
197 216 177
196 215 173
196 215 173
192 212 161
190 210 151
192 213 163
193 213 161
187 208 140
192 212 159
189 209 140
187 208 130
184 205 114
183 205 120
183 204 122
181 203 102
187 207 128
183 204 105
180 202 95
183 204 114
182 204 92
178 200 88
176 198 57
177 200 72
177 199 62
175 198 44
175 198 57
173 197 44
174 198 36
174 198 0
172 195 0
174 197 25
174 198 25
174 198 0
172 196 0
173 196 0
173 196 0
172 196 0
171 196 0
172 195 0
171 194 0
174 196 0
172 195 0
172 195 0
171 194 0
174 197 0
172 195 0
172 195 0
174 197 0
173 196 0
172 195 0
172 196 0
173 196 0
174 196 0
172 195 0
173 196 0
173 197 0
171 195 0
171 195 0
174 197 36
172 196 25
173 195 44
176 198 62
171 195 36
172 194 86
165 186 80
166 188 120
150 174 103
147 170 113
140 164 115
124 148 139
112 137 156
95 122 158
101 127 175
104 129 180
101 127 175
97 123 172
85 114 161
87 115 166
88 117 169
85 114 168
76 108 164
77 109 173
67 101 161
77 109 171
80 111 175
79 110 167
64 100 168
77 109 171
63 99 162
77 109 174
68 102 162
83 113 178
71 104 164
82 113 173
66 101 172
65 101 174
68 103 174
61 98 166
66 101 171
71 104 168
64 100 167
64 100 169
70 103 165
72 105 171
71 105 176
65 99 158
72 105 165
73 106 166
61 97 165
69 103 162
67 101 155
62 97 159
67 101 156
64 99 159
66 100 142
61 97 154
67 102 159
62 97 158
63 99 155
62 96 147
60 95 154
60 95 142
61 96 153
60 96 151
63 98 151
61 96 155
61 97 155
61 96 152
60 95 149
59 95 147
60 95 151
62 98 155
60 95 149
60 96 149
60 96 147
60 95 135
60 95 149
61 97 151
61 97 151
61 96 149
62 98 155
60 96 151
61 97 156
61 97 158
61 96 152
62 98 156
61 96 143
60 95 147
60 96 148
59 94 137
62 97 154
61 97 150
61 97 153
62 98 159
62 97 151
60 96 154
62 97 160
62 98 156
62 98 159
61 97 152
61 97 161
60 96 153
61 97 158
62 98 158
62 97 156
61 97 157
61 97 151
61 96 153
61 96 142
62 97 152
60 96 151
61 96 153
60 96 148
62 97 157
61 96 145
62 98 153
61 96 148
60 95 143
61 96 148
60 95 142
61 97 152
61 96 148
61 97 152
62 97 153
62 97 149
61 97 155
61 97 153
62 97 151
61 96 150
62 97 153
61 97 153
61 97 152
62 97 153
61 96 144
62 97 155
61 96 144
61 96 148
60 96 148
61 96 142
61 97 153
60 96 150
60 96 143
61 96 150
62 97 151
61 96 143
62 97 151
62 97 156
61 96 149
61 96 149
61 96 141
62 97 154
62 97 151
62 97 152
60 95 142
62 97 149
61 97 151
62 97 151
60 95 141
60 96 143
60 96 147
60 94 140
60 96 144
62 98 154
60 95 141
61 97 145
61 96 147
61 96 148
61 97 148
62 97 150
60 95 139
60 95 150
60 95 141
62 97 149
60 96 147
61 97 145
62 97 148
61 96 141
61 96 140
60 95 142
61 96 144
61 95 142
60 95 136
60 95 138
59 93 139
62 96 146
60 94 130
59 93 132
59 93 126
60 94 133
60 94 133
60 93 133
59 93 133
60 94 136
58 92 125
57 89 118
69 93 104
95 108 55
115 124 0
118 121 0
120 126 0
119 124 0
105 111 0
112 117 0
118 125 0
113 119 0
111 116 0
126 133 0
117 122 0
105 110 0
117 123 0
117 119 0
106 110 0
108 112 0
101 104 0
102 102 0
113 115 0
109 112 0
117 120 0
106 109 0
110 112 0
105 104 11
103 108 0
93 94 0
114 116 0
110 113 0
122 123 0
107 107 0
107 107 0
109 110 0
107 107 0
107 111 0
93 93 0
96 97 0
106 104 0
99 100 0
109 107 0
92 87 0
112 113 0
112 113 0
108 105 0
111 112 0
110 108 0
108 109 0
111 110 0
109 111 0
106 104 0
96 92 0
98 95 0
105 105 0
108 107 0
107 107 0
114 112 0
124 124 0
126 126 0
109 109 0
120 119 0
112 110 0
120 119 0
120 120 0
127 130 0
115 114 0
106 103 0
125 124 0
129 129 0
120 120 0
129 131 11
132 134 0
123 122 0
128 129 0
133 137 0
130 132 0
141 146 0
125 123 11
132 132 0
131 133 0
146 152 0
133 140 0
140 147 0
141 146 0
142 151 0
142 145 0
147 151 0
147 154 0
140 146 0
155 163 0
148 157 0
146 154 0
148 155 0
150 158 0
155 163 0
155 166 0
154 164 0
156 168 0
150 160 0
156 166 0
149 158 0
148 156 0
154 165 0
156 167 0
162 171 0
153 163 0
152 164 0
154 166 0
156 167 0
160 173 0
156 168 0
153 166 0
152 165 0
167 183 0
159 170 0
160 175 0
155 170 0
158 172 0
160 175 0
159 175 0
165 180 0
163 177 0
164 180 0
160 177 0
163 177 0
165 182 0
162 178 0
161 176 0
166 184 0
160 176 0
166 183 0
166 182 0
167 186 0
164 181 0
164 180 0
168 186 0
161 177 0
168 185 0
162 179 0
168 188 0
166 184 0
167 183 0
197 216 179
198 217 186
194 214 169
192 212 155
192 211 153
193 213 169
188 208 140
193 213 161
193 213 159
187 208 137
191 211 157
190 210 155
185 206 120
183 205 108
184 205 125
176 198 92
186 207 133
182 204 105
180 203 92
180 202 105
180 202 84
180 202 76
177 200 76
176 199 67
178 200 67
175 198 44
171 195 0
173 196 25
170 194 0
176 199 0
172 197 0
171 195 0
174 197 0
173 196 0
174 197 0
173 196 0
170 195 0
174 197 0
172 195 0
171 195 0
171 195 0
169 192 0
172 195 0
174 197 0
173 196 0
172 195 0
172 196 0
171 194 0
173 197 0
169 192 0
173 196 0
172 195 0
171 195 0
174 197 0
172 195 0
171 193 0
168 192 0
175 198 0
169 193 0
173 196 0
173 195 0
173 196 0
172 195 0
170 193 0
171 195 0
172 196 0
168 192 31
154 178 65
156 180 65
149 173 92
138 163 107
128 154 120
113 139 131
106 132 152
79 110 149
74 105 153
95 122 164
81 111 158
92 120 169
84 113 165
74 107 168
77 108 161
71 104 157
87 115 164
65 100 164
71 104 163
75 107 171
72 105 171
71 105 170
78 110 174
68 102 164
68 103 168
71 105 171
66 101 171
65 100 167
71 105 168
65 100 165
62 98 170
65 101 173
65 100 164
72 105 169
68 102 163
68 103 171
61 97 163
61 98 165
65 100 167
61 98 164
68 103 165
69 103 169
71 104 165
65 100 163
64 100 165
61 97 161
61 97 157
66 101 152
66 101 164
62 98 157
65 100 151
62 98 154
62 97 153
62 98 160
62 96 153
60 96 156
60 95 148
61 97 153
62 98 152
63 98 155
61 97 159
60 96 147
61 97 155
60 96 150
60 96 150
60 95 153
60 96 150
61 97 150
62 98 158
60 96 153
60 96 152
61 96 154
60 96 157
61 96 151
61 97 152
61 97 156
61 97 156
61 97 155
61 97 153
62 98 156
61 97 157
61 97 152
60 95 147
60 96 145
61 96 144
60 96 149
60 95 149
62 98 159
60 96 153
61 97 156
61 96 151
60 96 152
62 98 154
60 96 149
60 96 150
62 98 161
61 96 150
60 95 143
62 98 159
60 96 148
61 96 147
61 97 159
62 97 155
61 97 152
62 98 155
60 96 150
62 98 159
61 97 151
61 97 152
61 96 148
62 98 156
62 97 148
62 98 162
61 97 145
61 97 152
60 96 149
62 98 152
61 97 152
62 97 152
61 97 154
62 98 160
61 97 151
61 96 148
62 98 154
61 97 150
60 96 145
62 98 158
61 97 153
61 96 144
61 97 151
62 97 154
62 97 154
61 96 145
61 96 150
62 98 153
61 97 151
61 96 150
61 97 149
62 97 154
61 96 149
60 95 145
61 97 145
61 96 149
60 95 139
62 97 148
61 96 144
61 97 152
61 96 148
61 97 149
59 94 137
60 94 143
61 96 149
62 97 152
61 96 147
61 96 142
63 99 159
61 97 144
60 95 145
61 96 143
62 97 152
61 97 152
60 95 140
60 95 133
61 96 145
61 96 145
60 95 139
62 97 151
60 95 144
61 96 140
61 97 145
61 96 147
62 97 148
61 96 143
61 97 145
61 95 147
60 94 136
60 95 137
61 96 145
60 95 137
60 95 134
59 94 125
60 94 140
60 95 135
60 95 136
59 94 120
59 93 128
59 93 133
60 94 136
60 94 135
60 93 133
58 89 114
91 107 77
102 113 51
116 124 0
110 116 0
111 116 0
114 121 0
123 132 0
114 119 0
114 123 0
119 125 0
110 120 0
103 108 0
115 121 0
124 130 0
104 106 0
119 122 0
115 122 0
113 114 0
105 110 0
114 119 0
108 115 0
110 111 0
108 111 0
105 108 0
105 105 0
98 102 0
115 116 0
112 113 0
95 93 0
108 108 0
109 111 0
107 107 0
111 112 0
89 90 0
100 99 0
99 97 0
105 106 0
112 113 0
109 111 0
103 100 0
104 104 0
115 114 0
122 122 0
109 108 0
113 113 0
114 114 0
112 113 0
111 112 0
109 108 0
109 108 0
111 111 0
122 124 0
113 113 0
120 117 0
110 105 0
116 115 0
113 113 0
116 116 11
107 104 0
116 116 0
115 114 0
108 109 0
127 130 0
121 118 0
122 117 11
121 121 0
129 127 11
128 129 11
123 122 0
124 123 0
130 130 0
121 121 0
127 127 0
122 121 11
123 126 0
138 143 0
136 142 0
134 136 11
140 145 0
141 145 0
134 139 0
136 139 0
142 148 0
133 137 0
145 150 0
135 139 0
135 141 0
146 153 0
148 154 0
153 162 0
147 152 0
146 155 0
147 157 0
145 153 0
143 150 0
150 159 0
147 157 0
155 165 0
157 166 0
151 161 0
158 171 0
152 161 0
155 166 0
154 163 0
153 166 0
153 164 0
160 170 0
159 171 0
157 167 0
155 166 0
147 160 0
153 165 0
162 177 0
160 173 0
160 174 0
157 169 0
160 173 0
162 178 0
160 174 0
160 177 0
162 177 0
160 174 0
164 180 0
164 180 0
166 184 0
163 177 0
161 177 0
167 183 0
162 175 0
163 179 0
163 179 0
164 181 0
165 182 0
164 179 0
165 181 0
168 187 0
163 179 0
166 182 0
168 187 0
167 186 0
163 183 0
166 183 0
200 219 189
190 211 147
195 214 171
188 209 147
194 214 169
192 212 155
191 211 153
189 209 140
192 212 155
189 209 147
185 206 120
183 205 108
186 207 125
185 206 117
183 205 108
183 204 108
180 202 88
180 202 92
178 200 67
176 199 44
176 199 36
177 199 36
176 199 51
173 197 0
172 196 25
172 196 0
172 196 0
173 197 0
173 196 0
172 195 0
173 196 0
172 195 0
171 194 0
174 197 0
168 192 0
173 196 0
173 196 0
173 196 0
172 196 0
173 196 0
170 194 0
170 194 0
174 198 0
168 191 0
173 196 0
172 195 0
173 196 0
168 191 0
171 194 0
172 196 0
172 195 0
171 195 0
174 198 0
170 194 0
174 197 0
172 196 0
167 190 0
174 197 0
175 197 0
169 192 0
170 193 0
171 194 0
172 195 0
170 193 0
172 195 0
170 193 0
170 193 25
160 184 57
161 183 51
153 176 82
147 171 80
133 157 102
108 134 120
99 127 126
83 114 142
65 99 150
68 101 150
85 115 170
90 118 160
77 108 155
77 108 163
77 108 169
74 106 166
74 106 166
72 105 163
74 106 171
74 106 160
68 103 167
71 104 168
65 100 166
66 101 164
61 98 169
80 110 173
71 104 164
62 98 166
65 100 168
65 100 160
68 101 163
62 99 170
65 100 167
61 98 166
69 104 174
61 98 166
67 101 158
62 99 166
63 99 168
65 100 165
62 98 166
68 102 168
68 103 170
61 97 160
66 101 170
67 102 167
61 97 164
64 99 161
71 104 154
66 100 154
68 102 154
60 96 153
59 95 149
62 97 151
61 97 156
61 97 152
65 100 152
61 97 157
61 97 153
63 98 152
60 96 154
60 95 148
61 97 154
61 96 149
60 96 150
60 95 145
61 97 151
61 96 152
62 97 154
60 95 145
61 96 149
60 96 145
60 96 152
60 95 145
61 96 150
61 97 157
60 96 148
60 96 151
61 97 148
61 96 147
61 96 152
61 96 151
60 96 149
61 97 153
61 97 157
61 96 150
61 97 155
62 98 161
61 97 150
61 96 153
62 97 150
60 96 148
61 97 159
61 96 144
62 97 151
60 96 153
62 97 151
61 97 155
60 95 145
61 97 147
61 97 154
61 97 154
62 97 154
61 97 158
61 97 153
61 97 152
61 96 149
62 98 154
61 96 149
61 96 147
60 96 150
61 97 149
62 98 158
62 97 156
61 97 153
62 98 155
62 98 157
61 96 151
62 97 154
61 96 150
61 96 150
62 97 149
62 97 155
62 97 150
61 97 151
62 97 153
61 96 149
60 96 147
60 95 149
61 96 144
60 96 149
60 95 154
61 97 158
60 95 142
62 97 154
60 96 143
61 96 153
62 98 157
61 96 153
61 97 145
61 96 151
60 96 143
61 96 144
62 98 156
61 96 148
61 96 150
61 96 144
62 97 154
61 96 149
59 94 141
61 96 139
61 96 144
62 97 145
61 97 147
60 95 137
60 95 140
61 96 145
61 96 145
61 96 143
61 96 145
60 96 144
60 95 133
61 97 147
59 93 139
62 97 144
61 97 145
61 95 140
59 94 141
60 94 141
61 96 147
60 95 149
60 95 141
61 96 145
61 96 147
61 95 137
60 94 139
60 95 141
61 95 133
59 93 125
59 93 130
60 95 135
60 95 134
59 94 133
60 94 135
58 92 120
59 93 125
58 91 126
57 90 116
56 88 110
57 90 125
72 99 113
95 110 72
114 124 19
112 120 0
113 120 0
115 123 0
123 132 0
118 127 0
101 106 0
124 132 0
106 109 0
110 117 0
124 129 0
109 113 0
109 116 0
107 113 0
110 116 0
111 118 0
111 116 0
102 107 0
104 107 0
100 103 0
115 120 0
102 107 0
112 114 0
116 123 0
108 110 0
111 114 0
113 114 0
108 110 0
108 108 0
109 110 0
105 108 0
107 109 0
107 108 0
121 127 0
101 101 0
97 98 0
111 111 0
87 87 0
105 103 0
107 104 0
113 115 0
106 108 0
104 101 0
111 114 0
116 115 0
109 109 0
107 106 0
115 115 0
114 113 0
120 120 0
109 108 0
123 122 0
120 120 0
112 111 0
118 116 0
123 126 0
116 116 0
113 112 0
123 123 0
123 121 0
128 125 0
119 117 11
116 112 11
122 122 0
121 121 0
121 119 0
127 132 11
118 121 0
141 144 0
134 137 0
124 124 0
130 130 0
125 126 0
128 129 0
127 127 11
125 130 0
126 129 0
132 136 0
137 137 0
142 146 0
138 143 0
139 145 0
136 139 0
135 137 0
143 148 0
150 158 0
148 155 0
154 160 0
147 153 0
146 152 0
146 153 0
145 151 0
148 154 0
152 162 0
148 157 0
151 162 0
157 168 0
150 161 0
149 155 0
153 164 0
148 156 0
154 164 0
157 167 0
158 168 0
155 166 0
160 172 0
150 162 0
151 163 0
158 170 0
157 169 0
160 174 0
155 166 0
164 179 0
163 177 0
158 172 0
157 171 0
156 168 0
164 177 0
159 175 0
157 170 0
159 173 0
159 177 0
168 181 0
159 174 0
162 178 0
158 175 0
161 176 0
163 178 0
164 179 0
166 184 0
161 178 0
165 184 0
168 186 0
162 179 0
164 181 0
166 184 0
165 182 0
165 181 0
161 178 0
161 178 0
167 182 0
190 210 149
191 212 157
192 212 153
189 210 140
185 206 133
188 208 135
188 209 142
184 205 114
179 201 102
181 202 108
182 204 105
178 200 72
180 202 84
178 201 72
181 202 80
181 203 92
180 202 80
173 196 44
174 196 36
173 197 36
175 198 0
173 196 0
171 195 0
174 197 0
173 197 0
172 196 0
173 196 0
173 196 0
170 193 0
171 194 0
172 195 0
171 194 0
173 196 0
174 197 0
174 197 0
173 197 0
173 196 0
173 195 0
171 195 0
170 194 0
173 197 0
171 195 0
172 196 0
167 191 0
171 195 0
169 193 0
171 193 0
174 197 0
174 196 0
170 193 0
170 193 0
169 192 0
170 194 0
169 192 0
171 195 0
169 193 0
173 197 0
169 192 0
171 194 0
169 192 0
174 196 0
170 194 0
171 195 0
172 196 0
173 196 0
172 194 0
167 191 0
168 191 44
160 184 60
156 180 67
142 166 78
132 156 97
117 143 105
103 129 126
87 116 135
69 103 153
65 99 155
62 97 149
70 103 157
73 104 144
71 103 161
68 101 155
70 103 160
60 96 157
75 107 171
65 100 159
71 104 168
61 97 160
68 102 164
66 101 168
61 98 162
65 100 161
65 100 168
62 98 166
62 98 166
63 99 170
64 99 167
68 103 172
63 99 172
61 98 168
65 100 165
65 100 170
61 97 160
61 98 162
62 98 165
65 100 171
62 98 166
63 99 173
61 97 161
64 99 160
62 98 162
65 100 163
67 101 161
64 99 161
61 97 155
61 97 159
65 100 158
69 103 155
62 97 157
60 96 149
65 100 153
61 96 155
64 100 164
60 96 148
60 95 152
62 98 161
61 96 144
61 97 153
62 97 147
61 96 150
61 96 150
62 97 142
61 97 154
60 96 153
61 96 152
60 96 145
60 96 144
61 96 159
59 95 147
59 95 142
60 96 150
61 97 150
62 97 156
61 96 149
62 98 155
60 96 152
61 96 150
61 97 155
61 96 154
60 96 143
60 96 148
60 96 145
62 97 156
61 96 153
61 97 149
61 95 145
61 96 148
60 96 154
61 97 154
61 96 149
61 96 149
60 96 141
61 97 155
61 97 154
61 97 151
62 97 149
61 97 152
62 98 155
62 98 155
62 97 153
60 95 147
62 98 158
62 97 151
61 97 150
61 96 149
62 97 153
62 97 151
61 96 141
60 95 131
61 96 152
60 96 148
62 98 155
62 97 154
61 96 137
61 96 154
61 97 157
61 97 153
61 96 155
61 97 155
62 97 152
62 97 155
61 97 152
61 97 156
61 96 148
61 96 150
61 97 153
62 97 148
61 96 144
62 97 155
62 98 160
62 97 153
61 96 145
60 95 145
62 98 155
62 98 158
61 97 150
62 97 154
62 97 155
61 96 143
61 96 142
61 97 151
61 97 152
61 96 144
61 97 153
60 95 137
62 97 148
60 95 141
61 96 149
61 96 145
62 97 150
61 97 149
61 96 139
61 96 136
62 97 152
60 95 141
61 96 149
61 96 148
61 97 152
61 95 139
61 97 144
61 96 144
62 97 149
59 94 137
61 95 142
59 94 135
60 95 141
60 95 134
60 95 137
61 96 141
61 96 141
59 94 124
61 96 139
61 95 139
62 97 141
59 93 134
59 93 135
62 97 150
59 94 126
59 92 121
59 93 132
60 94 141
59 92 126
58 91 126
58 92 124
58 91 118
57 89 108
57 90 119
88 110 107
108 122 65
109 119 18
115 120 0
114 122 0
109 117 0
111 118 0
114 123 0
105 113 0
105 111 0
115 122 0
118 125 0
118 124 0
123 133 0
116 123 0
121 126 0
102 104 0
110 115 0
121 128 0
101 110 0
105 106 0
109 112 0
100 103 0
115 120 0
101 104 0
116 122 0
107 111 0
111 116 0
117 120 0
121 123 0
109 109 0
120 124 0
106 108 0
120 122 0
114 117 0
100 102 0
113 115 0
114 117 0
104 105 0
108 109 0
116 115 0
108 109 0
116 117 0
114 114 0
117 116 0
112 111 0
121 120 0
114 114 0
115 114 0
115 118 0
120 121 0
106 109 0
110 110 0
114 116 0
113 113 0
113 115 0
118 115 0
121 121 0
117 113 0
117 118 0
119 120 0
121 123 0
129 129 0
130 131 0
117 116 0
120 122 0
129 133 0
123 126 0
115 114 0
121 122 0
137 141 0
129 133 0
129 131 0
137 139 0
129 133 0
136 137 0
130 134 0
144 148 0
139 146 0
143 149 0
148 151 0
146 153 0
139 144 0
137 140 0
142 148 0
136 140 0
140 144 0
149 155 0
143 147 0
153 161 0
146 154 0
142 146 0
147 153 0
146 153 0
145 155 0
157 171 0
156 163 0
153 161 0
152 161 0
147 156 0
154 167 0
155 168 0
151 162 0
150 162 0
159 172 0
148 159 0
159 171 0
155 168 0
155 166 0
155 168 0
161 175 0
163 177 0
163 179 0
157 170 0
159 172 0
161 175 0
161 176 0
163 177 0
165 181 0
164 179 0
156 170 0
160 175 0
161 179 0
158 173 0
164 180 0
161 178 0
164 181 0
158 173 0
163 180 0
160 175 0
164 183 0
164 183 0
164 181 0
155 171 0
167 185 0
163 181 0
162 179 0
165 184 0
163 180 0
163 181 0
165 182 0
163 182 0
163 182 0
192 212 163
195 214 165
189 210 144
191 211 153
186 207 128
187 208 137
189 210 142
185 206 125
185 206 111
185 206 117
182 204 99
182 204 95
178 200 80
176 199 57
175 198 44
173 196 44
173 196 36
172 195 0
173 197 0
173 196 0
170 193 0
173 196 0
174 197 0
172 194 0
171 195 0
174 196 0
173 196 0
172 195 0
173 196 0
172 196 0
172 196 0
172 195 0
174 197 0
172 195 0
173 197 0
172 196 0
171 194 0
170 195 0
174 197 0
172 195 0
171 196 0
174 197 0
171 194 0
168 192 0
173 195 0
170 193 0
170 194 0
169 192 0
173 197 0
170 193 0
169 192 0
169 192 0
171 195 0
170 194 0
166 189 0
170 193 0
168 192 0
168 192 0
168 191 0
171 194 0
173 196 0
172 194 0
171 195 0
168 191 0
168 190 0
171 194 0
165 189 0
164 187 44
162 185 51
149 173 84
145 168 80
139 164 88
120 147 118
113 139 124
89 119 134
77 108 144
61 96 153
61 97 151
61 97 154
60 95 145
60 96 141
61 97 151
64 98 154
60 96 151
71 104 158
61 97 155
61 97 156
65 100 167
61 97 157
61 98 166
65 100 159
61 96 161
61 97 164
62 98 167
62 98 167
61 97 165
62 98 169
62 98 167
61 97 165
62 98 169
61 98 165
62 98 162
64 100 167
62 98 169
62 99 169
61 97 159
61 97 162
61 97 167
62 98 164
63 99 169
63 99 170
61 98 164
61 97 163
62 98 166
66 101 169
61 98 164
63 98 153
65 100 155
63 98 155
66 100 155
64 99 153
65 100 154
61 96 148
61 97 153
61 96 152
61 97 155
61 97 157
59 94 148
61 97 151
60 95 144
60 96 151
61 97 153
61 97 154
60 95 143
61 97 155
60 95 145
61 96 149
61 97 150
61 97 160
60 95 150
62 97 156
60 95 144
60 96 147
60 95 144
61 96 149
60 95 150
63 98 160
61 96 147
61 97 152
61 97 153
62 97 151
61 97 152
62 97 155
61 97 150
62 98 157
61 97 152
62 98 159
61 97 161
61 96 147
61 97 150
61 97 151
61 96 148
61 97 150
61 96 157
60 96 144
60 96 151
60 96 150
61 96 152
61 97 153
60 96 149
61 96 148
60 96 142
61 97 153
62 98 160
60 96 144
62 97 156
60 96 142
61 97 145
60 96 151
61 96 150
61 97 157
61 97 155
61 96 149
61 96 145
61 96 142
60 96 151
61 97 150
61 97 150
61 97 149
61 97 148
62 97 150
61 97 151
61 96 141
61 96 152
62 98 154
61 96 144
62 97 153
61 97 149
61 96 148
62 98 156
61 96 147
61 97 147
63 98 158
61 96 148
61 96 148
62 97 152
61 96 148
62 98 155
61 97 152
61 96 143
61 97 150
61 96 145
61 97 147
60 95 143
61 96 148
61 96 144
61 96 145
61 96 151
62 97 148
60 96 143
62 98 155
61 96 147
61 96 144
60 95 133
60 96 142
59 94 136
60 95 140
62 97 151
61 96 145
61 96 147
60 95 139
60 95 137
61 96 144
61 96 145
60 95 143
60 95 142
60 94 143
61 96 148
61 97 145
60 95 140
59 93 133
62 98 153
61 96 145
60 95 140
60 95 136
59 93 126
60 94 139
59 93 130
61 95 132
59 92 133
60 94 140
59 93 124
59 93 134
60 94 126
58 91 124
59 92 132
69 95 106
102 118 79
110 121 47
112 121 0
121 130 0
115 123 0
108 116 0
121 130 0
101 108 0
114 121 0
117 123 0
119 128 0
109 114 0
109 116 0
116 124 0
113 119 0
116 122 0
113 120 0
119 123 0
119 121 0
107 111 0
120 126 0
108 112 0
116 120 0
109 113 0
109 113 0
128 136 0
116 121 0
117 122 0
114 118 0
104 105 0
105 110 0
122 123 0
107 111 0
116 121 0
122 124 0
97 97 0
106 103 0
122 124 0
118 123 0
116 118 0
104 106 0
100 102 0
118 119 0
118 119 0
108 112 0
116 118 0
112 115 0
116 117 0
111 110 0
107 109 0
119 122 0
111 112 0
119 121 0
115 116 0
128 129 0
118 120 11
128 130 0
122 126 0
120 119 11
122 126 0
124 124 0
125 123 0
119 121 0
119 118 0
129 130 0
124 123 0
121 122 0
131 137 0
134 136 0
135 140 0
126 128 0
133 136 0
134 138 0
125 129 0
132 136 0
136 141 0
136 140 0
133 137 0
137 142 0
145 151 0
132 139 0
138 144 0
146 152 0
147 151 0
139 148 0
145 152 0
139 146 0
144 149 0
148 153 0
141 148 0
151 158 0
151 156 0
142 149 0
140 148 0
148 156 0
145 154 0
157 167 0
147 154 0
155 165 0
151 165 0
153 164 0
153 164 0
154 166 0
150 158 0
151 162 0
153 163 0
155 167 0
156 167 0
155 166 0
157 169 0
158 171 0
153 164 0
155 169 0
157 170 0
160 175 0
156 170 0
160 174 0
157 171 0
158 172 0
164 181 0
161 175 0
161 175 0
161 176 0
163 181 0
163 178 0
158 171 0
162 178 0
160 175 0
163 180 0
158 172 0
161 177 0
163 179 0
164 182 0
160 174 0
158 174 0
162 179 0
167 183 0
162 179 0
166 181 0
163 181 0
166 184 0
163 180 0
162 178 0
189 209 137
187 208 135
189 209 147
184 206 128
186 207 133
188 208 137
181 203 105
185 205 117
182 204 99
180 202 88
177 199 67
179 201 67
178 200 67
175 198 51
175 198 36
174 197 0
175 198 0
175 198 0
175 198 0
175 198 0
172 195 0
170 192 0
172 195 0
174 197 0
170 193 0
171 194 0
173 196 0
172 196 0
174 196 0
171 194 0
172 196 0
172 195 0
173 196 0
170 194 0
171 194 0
173 196 0
170 193 0
170 194 0
171 194 0
172 195 0
168 192 0
173 196 0
172 196 0
168 192 0
171 194 0
171 194 0
173 196 0
169 192 0
172 196 0
170 194 0
170 194 0
169 193 0
169 192 0
172 196 0
169 191 0
171 195 0
168 192 0
175 198 0
174 196 0
166 189 0
170 194 0
171 194 0
172 194 0
168 191 0
170 193 0
171 195 0
168 191 0
167 191 0
160 183 54
154 177 76
153 177 74
134 159 92
135 161 97
116 142 117
105 132 122
89 118 136
61 96 145
59 94 137
61 96 153
60 95 142
61 96 148
62 98 161
61 96 147
64 100 160
62 97 157
62 98 158
61 97 161
65 99 161
61 97 157
61 97 159
61 97 163
60 96 153
61 98 163
61 98 166
61 97 159
61 98 166
62 98 164
60 97 162
62 98 165
61 98 164
61 98 165
62 99 168
61 98 160
61 98 165
61 98 165
62 98 166
62 99 171
62 98 164
62 98 172
62 98 168
62 98 164
61 97 161
60 96 155
62 99 168
61 97 161
62 98 163
61 97 156
60 96 149
65 100 156
61 97 153
70 104 159
64 99 148
61 97 153
66 100 159
65 100 147
63 98 152
61 96 151
62 98 161
64 99 157
59 94 148
60 95 149
63 98 150
60 96 151
61 96 148
60 96 151
60 96 151
61 97 152
60 96 148
61 96 144
60 96 149
61 96 150
60 96 148
61 97 154
59 94 141
61 97 149
61 96 149
60 96 153
61 97 154
62 98 159
61 96 147
61 97 151
61 97 153
61 96 144
61 96 150
61 97 150
61 97 153
61 97 152
61 97 148
62 97 151
60 96 151
61 97 151
61 96 151
62 97 154
61 97 152
60 95 143
62 98 159
60 96 149
61 96 148
60 95 152
61 97 148
62 98 156
60 96 143
60 96 151
61 96 141
62 97 156
61 97 152
60 95 141
62 97 156
61 97 151
61 96 148
62 98 156
61 97 150
61 96 144
61 97 153
61 97 149
61 96 148
60 96 149
61 96 149
62 97 150
60 96 148
62 97 154
60 96 148
61 97 145
60 95 139
61 96 142
61 97 157
61 96 154
62 97 151
59 95 142
61 96 150
61 97 150
61 96 144
60 95 139
61 97 149
62 98 154
60 95 137
61 97 149
61 96 149
61 96 147
62 97 148
60 96 144
60 95 145
61 97 158
60 96 143
61 96 145
60 95 136
61 96 151
61 96 141
61 96 144
62 97 150
62 97 155
60 95 133
61 96 143
61 96 144
61 96 151
61 97 150
61 97 148
60 95 139
60 94 135
60 95 131
60 95 137
60 95 135
60 94 135
61 96 142
59 93 130
61 96 144
60 95 139
61 96 140
61 97 144
61 96 141
60 95 138
61 96 142
61 95 142
61 96 138
60 94 134
60 94 129
58 91 124
58 92 124
59 93 129
59 93 134
60 94 133
61 96 134
58 91 121
59 92 126
59 92 125
58 91 123
71 95 97
104 118 65
120 130 18
123 132 0
116 126 0
118 127 0
115 121 0
114 122 0
116 125 0
119 128 0
117 127 0
115 125 0
126 134 0
113 120 0
117 124 0
102 109 0
118 123 0
106 109 0
111 114 0
118 123 0
119 127 0
110 114 0
110 116 0
116 122 0
113 116 0
105 111 0
121 127 0
109 112 0
91 94 0
112 114 0
108 111 0
117 120 0
116 123 0
101 105 0
113 115 0
108 114 0
119 125 0
114 114 0
118 123 0
121 125 0
108 110 0
115 119 0
107 106 0
108 113 0
110 111 0
117 118 0
132 133 0
117 121 0
124 127 0
112 114 0
120 121 0
114 113 0
121 120 0
112 113 0
125 126 0
123 123 0
121 122 0
116 120 0
117 117 0
129 131 0
123 123 0
122 125 0
133 136 0
118 121 0
133 138 0
129 133 0
132 133 0
126 125 0
136 141 0
126 127 0
138 143 0
131 131 0
136 141 0
141 147 0
126 127 0
144 150 0
143 147 0
131 135 0
139 144 0
134 136 0
138 142 0
139 141 0
140 146 0
145 152 0
138 142 0
142 148 0
135 140 0
148 157 0
144 150 0
147 152 0
151 159 0
147 153 0
153 162 0
150 157 0
152 160 0
153 163 0
143 152 0
157 166 0
153 163 0
151 158 0
157 171 0
148 158 0
153 164 0
155 168 0
154 164 0
156 170 0
152 163 0
156 168 0
159 172 0
155 167 0
156 167 0
158 171 0
160 177 0
161 173 0
163 177 0
161 173 0
164 179 0
163 179 0
163 179 0
159 171 0
162 177 0
166 183 0
165 182 0
166 181 0
161 178 0
162 178 0
164 181 0
162 179 0
164 180 0
160 177 0
161 179 0
161 179 0
165 183 0
161 177 0
163 180 0
164 179 0
162 177 0
160 178 0
162 179 0
167 183 0
159 175 0
165 184 0
166 182 0
161 179 0
186 207 130
189 209 142
184 206 120
184 206 128
184 205 111
182 204 102
178 201 76
177 200 95
180 202 99
177 199 72
174 197 36
175 198 25
175 198 36
173 196 0
173 196 0
169 194 0
172 196 0
172 196 0
173 196 0
171 195 0
172 196 0
171 194 0
170 193 0
169 192 0
174 197 0
174 197 0
175 198 0
172 196 0
169 192 0
169 193 0
173 196 0
172 195 0
171 194 0
172 195 0
169 193 0
170 194 0
171 194 0
171 194 0
170 193 0
170 194 0
171 194 0
172 195 0
172 195 0
174 197 0
172 195 0
167 191 0
167 190 0
173 196 0
166 190 0
170 194 0
170 193 0
169 192 0
166 188 0
170 194 0
172 194 0
168 191 0
169 192 0
171 194 0
168 189 0
168 192 0
170 192 0
170 194 0
164 186 0
166 189 0
168 191 0
170 193 0
170 193 0
170 195 0
162 185 31
154 177 47
150 173 67
140 164 80
128 153 102
120 145 97
107 133 121
92 120 126
65 99 148
61 96 154
59 95 144
61 96 149
62 97 152
61 96 151
61 97 159
60 96 147
61 97 156
60 95 149
61 97 157
62 97 156
61 97 158
62 98 167
62 98 164
62 98 157
62 98 162
61 97 160
61 97 155
62 98 167
62 99 167
62 98 167
61 98 161
61 97 166
62 99 166
63 99 170
61 98 163
61 97 166
61 98 164
61 98 165
62 98 162
62 98 163
62 98 166
61 97 161
61 97 161
61 98 165
61 98 163
62 98 162
61 97 158
65 100 164
61 98 162
60 96 161
63 98 157
63 98 151
60 95 149
65 99 149
63 98 154
62 98 159
61 96 153
63 99 156
62 97 150
68 102 153
63 97 142
62 97 155
63 97 140
62 97 157
60 95 140
64 98 148
64 98 151
62 98 158
60 96 148
62 97 140
62 97 149
60 96 144
61 97 149
61 96 152
62 97 151
60 96 149
61 97 157
60 96 149
60 95 143
62 97 151
60 96 147
60 95 139
59 94 147
60 95 151
61 97 150
61 96 147
60 95 144
61 96 145
61 97 154
62 98 161
61 97 155
61 97 154
62 98 152
60 96 147
61 97 147
60 95 150
60 95 145
61 96 151
61 96 152
61 96 153
60 96 149
61 96 150
60 95 144
60 95 145
61 97 156
62 97 155
61 96 144
61 97 149
62 96 147
60 96 148
61 96 143
61 97 150
62 98 156
61 96 152
61 97 152
61 96 148
61 96 148
61 97 152
62 97 155
61 97 152
61 97 153
60 96 147
61 97 151
62 98 157
62 97 147
61 96 145
61 97 148
61 97 149
62 98 155
60 96 151
61 97 153
60 95 145
61 96 141
61 97 152
61 97 153
60 94 140
61 96 145
61 96 144
60 95 144
60 95 141
60 95 137
62 97 149
62 98 152
62 97 145
62 98 154
60 95 140
61 96 149
62 97 152
61 97 147
60 95 142
60 95 136
61 97 142
61 96 145
60 95 142
61 95 142
61 96 152
61 97 149
60 95 137
62 97 149
61 96 144
61 96 141
60 95 130
62 97 148
60 96 147
61 95 140
60 95 137
59 93 129
60 95 141
59 94 139
60 95 139
60 95 136
60 95 135
60 95 140
60 95 136
58 92 125
58 91 126
59 94 135
60 95 131
59 94 140
60 94 132
59 93 130
59 92 120
59 93 126
57 90 133
58 91 124
57 90 125
56 88 116
65 96 124
107 119 66
106 117 40
122 132 0
119 127 0
124 135 0
122 131 0
114 123 0
117 125 0
118 126 0
120 129 0
117 126 0
114 124 0
115 123 0
115 124 0
116 122 0
117 125 0
127 136 0
121 124 0
113 117 0
108 115 0
126 130 0
117 120 0
109 113 0
121 127 0
118 125 0
109 111 0
113 119 0
118 125 0
111 113 0
117 120 0
121 127 0
114 116 0
107 108 0
108 108 0
120 125 0
118 122 0
109 113 0
119 123 0
111 116 0
113 113 0
112 113 0
123 126 0
128 130 0
114 117 0
116 118 0
116 119 0
120 122 0
124 126 0
113 113 0
120 121 0
121 120 0
115 120 0
115 114 0
125 128 0
121 121 0
118 119 0
126 129 0
132 137 0
119 122 0
120 122 0
131 135 0
123 125 0
132 134 0
127 129 0
133 138 0
122 127 0
128 129 0
131 138 0
131 132 0
133 136 0
141 146 0
135 140 0
139 144 0
131 135 0
132 137 0
136 138 0
136 139 0
137 143 0
138 144 0
142 148 0
143 149 0
138 144 0
143 150 0
143 147 0
140 146 0
144 154 0
141 145 0
147 155 0
142 150 0
149 158 0
145 151 0
152 159 0
142 150 0
144 153 0
151 160 0
153 162 0
153 160 0
153 161 0
147 156 0
140 152 0
155 165 0
144 156 0
153 167 0
157 170 0
152 163 0
155 167 0
158 170 0
153 166 0
156 167 0
157 171 0
156 169 0
150 161 0
157 169 0
156 168 0
159 174 0
162 176 0
156 170 0
165 182 0
161 177 0
159 174 0
167 182 0
160 174 0
162 176 0
165 181 0
156 171 0
156 170 0
160 175 0
164 182 0
163 180 0
158 173 0
161 176 0
162 180 0
159 176 0
162 180 0
158 176 0
168 187 0
158 173 0
163 181 0
162 180 0
162 179 0
160 177 0
164 182 0
164 183 0
161 177 0
186 207 128
184 205 120
182 204 102
183 204 95
183 204 102
180 202 95
176 199 62
178 200 57
177 200 57
176 199 25
174 198 0
174 198 0
171 195 0
171 195 0
172 196 0
174 196 0
175 198 0
173 196 0
172 195 0
171 195 0
170 194 0
172 195 0
172 195 0
173 196 0
173 197 0
170 194 0
171 195 0
173 196 0
172 195 0
175 197 0
171 195 0
168 191 0
174 196 0
170 194 0
171 195 0
168 191 0
169 193 0
172 195 0
173 196 0
169 193 0
167 191 0
174 197 0
167 191 0
166 190 0
166 190 0
170 193 0
168 192 0
168 192 0
170 194 0
172 195 0
169 194 0
169 193 0
168 191 0
173 195 0
172 195 0
170 193 0
168 192 0
167 190 0
168 192 0
167 190 0
167 191 0
169 192 0
169 191 0
167 190 0
169 192 0
168 192 0
166 189 0
166 188 0
164 187 31
161 185 51
156 179 60
143 167 78
136 159 100
120 145 102
113 139 117
102 129 124
76 107 133
63 97 148
60 96 145
61 97 148
61 96 150
61 97 153
61 97 151
61 96 153
61 96 151
61 97 155
61 97 153
60 96 147
60 96 158
62 97 158
61 97 156
62 98 161
61 97 157
62 98 162
61 98 161
61 97 162
61 97 158
62 98 163
61 98 167
61 98 168
61 97 162
62 98 165
62 99 168
60 97 159
61 98 172
61 97 158
61 97 162
62 99 165
62 98 167
62 98 162
61 98 164
62 98 163
61 98 170
62 98 168
61 97 159
61 97 157
63 99 162
62 98 165
60 96 154
63 99 158
63 98 139
64 99 153
64 99 149
61 97 156
63 99 155
64 99 149
61 97 153
62 97 147
63 99 156
62 97 150
60 95 140
60 95 140
61 96 149
60 95 144
60 96 148
61 96 151
61 96 150
60 95 142
60 96 151
60 95 145
60 96 151
60 95 147
61 96 148
60 95 141
60 95 143
62 98 155
61 96 151
62 98 154
61 97 149
60 95 141
61 96 153
62 97 153
61 97 150
61 96 155
62 98 151
61 96 144
60 96 141
61 96 149
62 97 156
60 95 149
61 96 150
62 98 157
61 96 149
62 97 149
61 97 154
61 96 141
62 97 145
59 94 139
61 97 152
61 96 147
61 97 154
61 96 144
61 96 149
62 97 152
61 96 150
61 96 147
62 97 155
62 98 155
62 97 156
61 97 154
62 97 153
61 97 150
61 97 151
61 96 144
61 96 149
61 96 143
61 96 149
61 97 149
61 96 140
62 97 150
61 97 147
60 95 141
62 98 153
61 97 151
61 96 147
61 96 149
60 96 143
62 97 148
61 97 149
62 98 158
59 95 142
61 97 150
60 95 137
60 95 137
60 95 144
60 95 141
60 95 140
62 97 154
60 95 137
60 95 147
60 94 139
60 96 143
61 96 144
61 96 151
61 96 142
61 96 149
61 96 148
61 97 149
60 95 145
62 98 151
61 96 144
60 95 137
61 95 141
60 95 145
62 97 151
60 95 140
61 96 148
61 97 151
60 95 135
59 94 131
60 95 133
61 96 144
59 94 140
60 95 141
60 94 134
59 94 130
59 93 129
60 94 128
60 94 139
60 95 141
59 93 130
60 94 141
61 96 141
59 93 130
58 91 128
60 95 130
59 94 128
59 93 128
59 93 122
60 95 139
60 93 123
57 90 123
58 92 125
59 92 127
59 92 117
63 90 98
102 117 52
114 124 19
113 124 0
121 133 0
119 129 0
119 128 0
116 127 0
113 122 0
108 115 0
121 130 0
112 118 0
121 128 0
113 121 0
130 139 0
118 128 0
111 118 0
119 126 0
117 124 0
111 119 0
123 131 0
102 106 0
116 126 0
115 122 0
117 125 0
122 129 0
113 120 0
115 118 0
119 128 0
120 124 0
106 109 0
121 128 0
130 137 0
111 114 0
119 121 0
115 120 0
108 112 0
115 122 0
113 117 0
114 118 0
124 131 0
119 126 0
118 124 0
123 128 0
119 124 0
123 128 0
124 127 0
128 133 0
118 124 0
118 117 0
132 135 0
117 121 0
119 121 0
121 123 0
124 128 0
122 122 0
119 118 0
118 118 0
125 128 0
124 127 0
126 131 0
118 122 0
130 134 0
129 131 0
136 139 0
130 135 0
130 133 0
129 134 0
135 142 0
133 137 0
133 136 0
144 149 0
141 145 0
140 144 0
129 131 0
140 145 0
138 143 0
147 152 0
141 147 0
152 160 0
136 139 0
143 150 0
141 147 0
145 153 0
148 157 0
138 146 0
143 152 0
143 153 0
146 155 0
150 160 0
148 156 0
141 148 0
141 145 0
152 162 0
149 156 0
152 161 0
151 160 0
150 159 0
152 161 0
154 163 0
150 159 0
155 168 0
151 160 0
155 167 0
153 165 0
156 168 0
160 174 0
156 167 0
166 182 0
153 163 0
157 170 0
160 174 0
158 172 0
162 175 0
161 176 0
161 174 0
159 174 0
156 170 0
157 171 0
166 183 0
159 173 0
155 171 0
167 183 0
159 175 0
162 178 0
162 177 0
164 182 0
167 186 0
158 174 0
165 178 0
163 178 0
163 178 0
166 183 0
165 181 0
163 179 0
167 186 0
164 182 0
169 187 0
165 184 0
164 180 0
168 188 0
165 183 0
166 186 0
163 182 0
160 177 0
181 204 108
181 203 92
184 205 120
182 203 102
176 198 76
178 200 72
176 199 44
176 199 44
176 199 36
172 196 0
174 197 0
174 197 0
171 195 0
173 197 0
174 197 0
169 192 0
172 196 0
170 193 0
172 196 0
171 195 0
172 195 0
174 197 0
169 192 0
173 196 0
172 195 0
172 196 0
171 195 0
170 195 0
171 194 0
173 196 0
175 198 0
172 195 0
171 194 0
165 189 0
171 195 0
169 191 0
170 194 0
170 194 0
170 193 0
171 193 0
169 191 0
168 192 0
170 193 0
170 193 0
169 192 0
168 191 0
168 191 0
167 190 0
170 193 0
167 190 0
168 191 0
171 194 0
169 192 0
166 189 0
169 192 0
165 188 0
168 191 0
171 194 0
170 194 0
169 193 0
168 190 0
168 191 0
164 187 0
166 190 0
170 193 0
168 191 0
166 189 0
167 191 0
165 188 0
157 180 36
156 179 57
147 170 70
134 158 86
129 154 94
119 143 105
106 133 122
91 119 124
64 97 136
61 96 143
60 95 141
61 97 150
59 94 141
60 96 145
59 94 143
59 94 137
61 97 154
59 95 142
61 97 157
62 97 157
61 98 160
61 97 154
61 97 157
61 97 156
60 96 150
60 96 157
61 97 165
62 97 156
61 98 160
62 99 168
61 97 159
61 97 164
61 97 155
62 99 171
61 98 165
61 98 161
62 98 165
61 98 162
62 98 159
60 97 162
62 98 163
61 97 157
61 97 162
62 99 166
60 96 156
61 97 164
61 97 157
62 98 163
62 98 162
61 96 157
62 98 153
60 95 152
66 100 153
64 99 156
60 96 150
59 95 151
63 99 162
62 97 152
61 97 151
60 95 149
61 95 141
63 98 152
61 96 149
61 96 153
60 96 149
60 95 144
61 96 148
62 98 156
60 96 145
61 97 156
60 95 137
61 96 149
60 96 144
60 95 139
61 96 149
60 95 143
60 96 152
61 96 145
62 97 152
61 97 154
61 97 150
60 95 143
60 96 144
61 97 154
61 97 144
60 95 147
61 97 151
60 95 149
59 94 137
62 97 152
61 96 149
60 95 142
61 97 147
61 97 154
61 96 151
60 96 154
61 96 148
59 94 134
60 96 149
61 97 150
61 97 152
61 96 145
60 95 141
62 97 155
61 97 150
60 96 143
62 97 152
61 96 144
62 98 154
61 96 151
61 96 153
61 96 154
60 96 142
61 96 152
61 97 151
61 96 143
62 97 153
61 96 149
61 95 141
61 96 141
61 96 144
60 95 135
60 95 148
60 95 147
61 97 150
60 96 147
60 96 149
62 97 150
62 98 150
61 97 149
61 97 154
61 97 153
61 97 149
60 95 137
61 96 144
61 97 148
61 97 151
61 96 144
60 95 143
61 95 144
60 95 141
60 95 139
60 95 141
61 97 144
61 96 148
60 95 137
60 95 137
61 95 147
61 96 143
60 96 147
62 97 150
61 96 139
60 95 141
61 96 137
60 95 133
60 95 134
59 94 128
61 96 149
59 94 134
61 96 142
60 95 142
61 96 147
60 94 131
59 93 130
61 96 137
59 94 130
61 95 142
61 96 145
59 94 130
60 94 134
58 92 135
60 94 142
59 94 134
61 95 135
60 94 139
60 94 137
58 91 120
60 94 133
59 93 130
59 94 126
59 94 133
60 94 132
56 89 108
58 92 128
58 91 118
58 91 116
89 106 71
112 127 67
115 126 0
115 126 0
121 130 0
122 132 0
126 135 0
120 129 0
111 121 0
131 142 0
116 125 0
119 128 0
116 123 0
119 126 0
134 145 0
116 125 0
122 130 0
114 124 0
111 118 0
118 125 0
109 116 0
124 132 0
118 124 0
121 129 0
120 126 0
118 122 0
120 127 0
116 123 0
112 117 0
119 124 0
117 126 0
125 132 0
108 113 0
113 120 0
116 117 0
115 116 0
123 128 0
115 121 0
116 121 0
126 131 0
120 125 0
116 120 0
120 122 0
116 122 0
127 131 0
126 130 0
125 129 0
115 120 0
119 125 0
102 103 0
126 132 0
126 127 0
111 112 0
125 128 0
132 136 0
124 124 0
130 135 0
125 129 0
123 126 0
129 135 0
122 123 0
125 127 0
129 132 0
129 134 0
123 126 0
140 144 0
130 133 0
138 140 0
143 148 0
130 135 0
138 143 0
130 135 0
134 139 0
143 147 0
135 139 0
140 146 0
141 148 0
140 145 0
145 152 0
136 143 0
147 151 0
138 145 0
134 140 0
145 154 0
148 157 0
137 144 0
145 153 0
147 155 0
143 152 0
151 160 0
145 153 0
157 166 0
149 157 0
156 165 0
149 157 0
148 155 0
147 157 0
153 163 0
155 166 0
156 167 0
155 167 0
153 161 0
155 166 0
147 157 0
156 167 0
158 169 0
152 161 0
153 163 0
152 164 0
149 161 0
157 168 0
160 172 0
154 166 0
155 167 0
160 174 0
157 168 0
161 174 0
157 172 0
162 177 0
159 172 0
158 171 0
154 168 0
156 170 0
159 175 0
161 174 0
158 174 0
166 182 0
160 176 0
162 180 0
165 183 0
163 178 0
157 172 0
161 178 0
159 178 0
163 182 0
163 180 0
162 180 0
162 179 0
165 182 0
162 178 0
158 176 0
164 183 0
162 179 0
164 181 0
169 189 0
179 201 88
178 200 72
177 199 84
173 196 44
172 195 44
174 198 36
172 195 0
172 195 0
173 197 0
173 196 0
173 196 0
173 196 0
173 197 0
174 197 0
173 197 0
171 194 0
173 197 0
169 193 0
171 194 0
171 194 0
174 198 0
173 196 0
171 194 0
171 195 0
167 190 0
174 196 0
172 195 0
169 192 0
171 194 0
173 196 0
174 197 0
170 193 0
171 194 0
169 193 0
168 192 0
169 193 0
170 194 0
170 193 0
172 195 0
165 188 0
171 195 0
170 193 0
167 190 0
171 195 0
169 193 0
168 190 0
170 193 0
170 193 0
168 191 0
165 187 0
167 191 0
171 193 0
169 192 0
167 191 0
170 193 0
171 194 0
169 193 0
166 189 0
168 192 0
168 191 0
164 187 0
167 190 0
165 188 0
168 191 0
166 189 0
167 190 0
167 189 0
167 189 0
164 186 0
164 188 31
160 185 54
149 172 76
147 171 67
145 167 72
123 148 99
125 150 99
87 117 133
67 100 136
58 93 128
60 96 142
60 96 143
61 96 144
60 95 142
61 96 148
58 93 134
61 96 147
61 96 148
61 96 148
61 96 148
60 95 143
61 97 151
61 97 156
61 96 151
62 98 160
61 97 153
61 97 159
61 97 157
61 97 165
61 97 156
61 97 159
61 97 156
63 99 168
62 98 158
61 97 159
62 98 164
61 97 161
61 97 161
61 97 159
61 97 157
62 98 165
61 98 166
62 98 167
61 97 159
61 97 163
61 97 164
61 97 164
61 96 158
62 98 163
60 96 152
61 96 153
61 97 161
63 99 154
64 99 159
63 98 156
70 103 140
60 95 143
67 101 162
66 101 153
63 97 147
60 96 140
61 97 152
59 94 142
61 96 148
61 96 150
62 97 154
59 95 148
61 96 151
60 95 147
61 96 144
60 95 149
62 97 155
62 97 143
61 96 152
60 95 150
61 96 148
61 96 144
60 95 139
60 95 145
61 97 149
61 96 144
61 96 142
60 95 141
60 95 151
60 95 145
61 96 147
61 96 147
60 95 147
59 94 137
61 96 140
59 93 134
61 96 145
61 97 152
61 97 144
60 96 141
60 95 143
61 96 147
61 97 155
61 97 145
61 97 149
60 96 142
61 96 145
61 96 144
61 97 143
61 96 149
61 96 148
61 96 147
60 95 139
61 96 149
61 96 152
61 97 156
60 96 142
62 97 153
61 96 144
60 96 143
61 97 147
61 96 145
61 97 150
61 96 144
59 93 126
62 97 145
61 97 148
59 94 139
61 95 142
61 96 144
60 95 144
61 96 143
61 96 148
60 95 139
61 96 151
60 96 149
61 96 144
61 96 145
61 96 148
62 97 147
60 95 143
60 96 144
61 96 148
61 96 144
61 96 148
61 96 144
61 97 143
61 96 144
60 95 139
60 96 143
60 95 136
61 96 147
59 94 134
61 97 148
59 94 136
61 96 143
61 96 144
61 96 137
60 95 137
61 96 141
60 95 141
61 96 143
60 94 140
60 95 140
61 95 144
60 95 139
60 94 141
61 95 139
62 97 148
61 96 142
61 96 142
60 95 131
62 97 147
60 95 139
61 96 142
60 95 131
61 96 145
61 96 147
61 96 136
59 92 120
60 95 141
60 94 135
60 94 130
60 95 135
58 91 117
59 93 124
60 94 133
56 87 96
59 92 123
57 90 118
70 96 118
99 116 74
105 114 0
122 132 0
126 133 0
115 126 0
112 121 0
108 116 0
112 121 0
117 126 0
117 128 0
105 112 0
119 130 0
119 128 0
110 117 0
124 134 0
123 132 0
115 125 0
112 119 0
112 118 0
111 119 0
103 112 0
114 124 0
118 125 0
119 125 0
121 130 0
123 131 0
116 125 0
127 135 0
118 124 0
115 124 0
123 128 0
114 121 0
116 123 0
114 120 0
114 117 0
126 134 0
123 128 0
124 128 0
126 130 0
137 143 0
128 133 0
115 118 0
122 126 0
126 131 0
109 112 0
117 120 0
134 138 0
129 136 0
126 132 0
122 126 0
128 132 0
126 130 0
121 126 0
121 124 0
129 132 0
128 132 0
112 115 0
129 132 0
138 144 0
125 132 0
123 128 0
130 132 0
126 130 0
139 143 0
136 139 0
127 133 0
141 146 0
137 142 0
134 138 0
141 149 0
142 147 0
125 131 0
133 137 0
129 134 0
140 148 0
136 141 0
141 147 0
139 144 0
142 149 0
143 151 0
147 155 0
143 148 0
137 147 0
129 134 0
144 152 0
155 166 0
148 157 0
143 151 0
148 159 0
152 161 0
142 148 0
151 158 0
145 155 0
152 160 0
153 165 0
150 162 0
157 170 0
154 163 0
152 163 0
152 164 0
151 162 0
156 166 0
154 167 0
161 174 0
156 170 0
155 166 0
153 166 0
157 172 0
152 165 0
156 172 0
154 170 0
153 167 0
154 167 0
165 180 0
154 167 0
159 171 0
162 177 0
164 179 0
162 177 0
159 176 0
160 173 0
155 168 0
161 175 0
165 181 0
160 175 0
158 173 0
162 178 0
162 177 0
163 179 0
163 179 0
163 179 0
164 180 0
158 176 0
158 174 0
159 176 0
164 181 0
161 178 0
164 181 0
165 183 0
162 181 0
163 181 0
166 184 0
164 180 0
165 184 0
168 187 0
176 199 51
180 201 67
175 199 51
173 196 25
174 198 25
173 197 0
174 197 0
172 197 0
170 193 0
173 196 0
172 196 0
171 194 0
173 197 0
170 194 0
170 193 0
171 195 0
173 196 0
172 196 0
169 192 0
169 193 0
174 197 0
167 191 0
169 193 0
174 197 0
169 192 0
166 190 0
172 196 0
171 194 0
170 192 0
171 194 0
171 194 0
172 195 0
171 194 0
171 195 0
168 192 0
171 195 0
172 195 0
168 192 0
172 196 0
170 194 0
169 193 0
166 190 0
170 194 0
169 192 0
172 195 0
172 194 0
167 190 0
170 193 0
170 193 0
168 192 0
169 192 0
170 193 0
169 193 0
167 191 0
171 194 0
165 189 0
170 193 0
169 192 0
168 192 0
168 191 0
171 193 0
167 191 0
169 192 0
167 190 0
165 189 0
168 192 0
161 184 0
164 187 0
165 188 0
159 183 0
165 188 44
146 169 70
150 174 70
130 155 78
118 143 100
108 134 110
99 126 125
84 114 120
59 93 142
60 95 139
60 96 142
59 94 141
59 94 137
60 95 145
60 95 144
62 97 151
59 94 144
60 96 150
62 97 152
61 97 157
61 96 150
61 96 161
61 97 152
60 96 150
62 97 157
61 98 161
60 95 149
61 98 162
61 97 156
62 98 162
60 97 161
62 98 157
62 98 168
61 97 164
61 98 165
61 97 157
62 98 165
62 98 166
62 99 165
61 97 158
62 98 163
61 96 157
61 98 160
60 96 157
62 98 163
61 97 157
61 97 157
61 97 158
61 96 154
61 97 158
62 98 160
61 97 158
65 100 151
64 99 148
67 100 144
63 99 153
62 97 143
60 95 150
62 97 148
61 97 149
64 99 156
63 98 150
60 95 139
61 97 157
60 95 145
60 94 143
62 97 149
60 96 145
59 94 140
59 94 142
60 95 140
59 94 144
61 97 154
60 96 149
59 95 142
60 95 149
60 95 142
60 96 137
60 96 148
58 93 131
61 97 144
61 96 149
61 97 151
60 95 147
61 97 153
60 96 145
61 97 155
60 95 140
61 97 154
60 96 145
61 96 151
61 96 144
61 96 147
61 97 150
62 98 157
61 97 155
61 96 150
60 95 133
61 96 150
61 97 155
61 96 147
60 95 145
61 96 151
62 97 155
60 96 148
60 95 143
61 96 143
60 95 142
61 97 152
61 96 147
60 95 141
61 96 143
60 95 145
61 96 147
61 96 150
60 95 140
61 96 150
60 95 139
61 96 148
61 97 145
61 96 149
62 97 153
62 97 143
61 96 145
60 96 142
61 97 153
61 96 144
59 94 130
61 96 151
61 97 147
61 96 145
62 97 151
62 97 145
63 98 154
61 96 148
62 97 151
62 97 150
61 97 147
61 97 148
60 95 143
61 96 148
61 97 147
61 97 144
61 96 143
61 96 143
60 95 145
61 96 144
61 96 151
60 94 141
60 95 136
60 95 145
60 95 134
61 96 147
59 94 134
60 94 131
60 95 141
59 93 134
60 94 128
60 95 144
62 97 148
61 96 142
60 94 133
59 93 130
61 95 143
60 94 128
61 95 135
59 94 135
60 95 131
60 95 143
60 94 129
61 95 137
60 94 133
58 91 114
61 96 141
59 94 128
60 94 135
58 92 129
59 93 129
57 90 120
60 94 130
60 94 135
59 93 121
59 92 126
56 88 104
91 110 84
109 121 45
124 136 18
115 125 0
121 133 0
117 127 0
119 128 0
104 111 0
124 134 0
116 125 0
124 134 0
118 130 0
126 137 0
111 120 0
112 120 0
113 120 0
123 132 0
127 137 0
120 129 0
117 125 0
120 128 0
125 133 0
122 129 0
123 128 0
116 123 0
128 135 0
122 128 0
115 123 0
124 133 0
127 138 0
119 127 0
117 124 0
119 127 0
113 120 0
131 139 0
124 131 0
105 111 0
117 121 0
123 131 0
133 138 0
120 128 0
112 119 0
124 129 0
120 125 0
128 136 0
129 135 0
123 128 0
124 128 0
124 127 0
119 123 0
124 128 0
110 110 0
120 124 0
125 130 0
117 120 0
129 135 0
125 127 0
131 138 0
137 142 0
127 129 0
124 128 0
132 136 0
130 135 0
135 142 0
130 135 0
132 138 0
134 139 0
133 141 0
133 140 0
131 134 0
144 152 0
136 145 0
136 143 0
138 146 0
144 153 0
137 144 0
134 138 0
146 152 0
135 142 0
143 153 0
142 148 0
138 146 0
140 145 0
146 154 0
142 147 0
147 156 0
145 152 0
145 155 0
146 154 0
139 147 0
144 152 0
142 149 0
147 157 0
140 151 0
150 161 0
155 164 0
150 161 0
145 154 0
152 163 0
154 164 0
149 159 0
152 163 0
150 160 0
145 157 0
148 158 0
153 165 0
156 168 0
162 175 0
156 168 0
162 173 0
159 174 0
156 169 0
155 170 0
152 165 0
155 169 0
156 169 0
160 172 0
162 177 0
163 178 0
165 180 0
162 178 0
164 181 0
160 176 0
155 167 0
157 172 0
156 170 0
162 177 0
163 180 0
158 174 0
162 179 0
161 178 0
165 184 0
167 184 0
161 177 0
166 184 0
163 180 0
157 175 0
164 183 0
163 181 0
163 179 0
166 184 0
166 184 0
165 182 0
164 181 0
161 177 0
164 183 0
177 199 57
175 198 36
174 197 25
175 198 0
172 195 0
171 195 0
172 196 0
173 196 0
172 194 0
172 195 0
170 194 0
173 197 0
173 197 0
167 191 0
170 193 0
173 196 0
171 195 0
169 193 0
174 198 0
174 197 0
172 195 0
170 193 0
171 194 0
172 195 0
170 194 0
171 194 0
172 196 0
174 196 0
168 191 0
167 190 0
174 197 0
172 196 0
170 194 0
172 196 0
170 194 0
172 195 0
169 192 0
168 191 0
167 191 0
167 191 0
171 194 0
172 196 0
170 193 0
169 192 0
170 194 0
168 191 0
167 191 0
169 193 0
164 188 0
168 191 0
163 186 0
168 191 0
166 190 0
170 194 0
166 188 0
166 189 0
164 187 0
169 192 0
168 191 0
168 191 0
167 190 0
169 192 0
166 190 0
165 188 0
165 187 0
167 189 0
162 186 0
171 194 0
166 190 0
166 189 0
166 189 0
150 173 47
154 177 60
130 154 78
123 148 90
119 144 99
109 136 120
89 118 130
75 107 139
62 97 144
60 95 137
61 96 145
60 95 143
60 95 139
60 95 141
61 97 151
60 96 147
61 97 154
60 95 148
60 96 142
59 94 145
61 96 149
61 97 152
61 96 154
61 96 155
60 96 151
61 97 157
61 97 163
62 98 162
61 97 156
61 97 160
62 98 166
61 97 155
61 97 158
62 98 161
62 98 166
62 98 163
61 97 154
61 97 157
61 97 160
62 98 163
62 98 162
61 98 168
61 97 158
62 98 168
62 98 163
61 97 159
62 98 162
61 97 158
61 97 156
62 98 158
62 98 154
61 97 154
63 98 152
67 101 156
65 99 148
62 97 148
61 96 148
61 97 158
65 99 154
61 96 149
61 96 148
60 95 152
62 97 140
61 96 147
60 95 141
60 96 151
61 97 151
60 95 140
60 96 151
60 96 140
61 97 152
61 96 148
59 93 142
60 95 149
60 96 145
61 97 145
62 97 155
61 97 144
61 96 147
60 95 144
60 95 141
61 96 148
60 95 140
61 96 151
60 95 140
60 96 150
61 96 147
60 95 141
60 96 143
60 96 145
60 95 147
61 97 148
60 95 148
62 97 149
60 95 142
61 96 153
61 96 145
61 97 149
61 96 147
60 96 147
60 96 148
61 96 147
60 95 143
62 97 152
60 96 147
61 96 147
60 96 145
61 97 150
61 96 145
61 97 145
61 96 152
61 97 145
63 98 157
61 97 155
60 95 137
60 95 141
61 97 148
61 97 150
60 95 140
61 96 144
61 97 150
61 96 143
61 96 145
60 95 134
62 97 153
59 94 136
61 96 148
60 95 142
61 96 143
61 96 139
60 95 140
60 96 148
58 92 128
61 96 142
61 96 142
59 94 130
61 96 155
61 96 148
60 95 141
61 96 144
59 94 128
60 95 136
61 96 143
60 94 133
61 96 141
61 96 144
60 94 134
61 96 147
61 96 143
60 95 139
61 96 144
61 96 137
60 95 137
61 96 143
60 95 143
61 97 147
61 96 133
59 93 129
61 95 141
61 96 145
60 94 126
60 95 134
60 94 133
60 95 139
60 95 135
61 96 147
61 96 141
59 94 134
60 94 139
60 94 134
58 92 125
58 92 125
59 92 122
61 96 145
59 93 124
60 95 134
59 93 128
58 91 110
59 93 128
57 90 116
58 91 127
55 87 110
69 94 87
104 120 62
112 123 0
113 125 0
111 121 0
128 139 0
115 127 0
118 128 0
120 132 0
115 122 0
112 125 0
120 130 0
116 125 0
124 135 0
114 123 0
119 127 0
128 138 0
115 125 0
118 127 0
136 146 0
117 127 0
106 116 0
121 131 0
121 130 0
128 135 0
124 131 0
124 132 0
124 133 0
125 133 0
124 135 0
117 120 0
120 128 0
115 122 0
116 122 0
123 128 0
127 132 0
118 125 0
127 136 0
116 123 0
129 133 0
124 129 0
115 121 0
123 129 0
125 133 0
121 128 0
130 134 0
113 119 0
124 129 0
123 128 0
131 136 0
123 129 0
125 127 0
122 127 0
122 126 0
129 134 0
133 139 0
121 127 0
132 139 0
123 129 0
128 134 0
134 140 0
137 145 0
127 132 0
126 132 0
127 131 0
135 141 0
128 133 0
133 140 0
133 139 0
138 144 0
141 146 0
140 144 0
140 146 0
142 147 0
133 140 0
144 152 0
129 136 0
143 151 0
143 151 0
142 149 0
142 150 0
147 153 0
147 153 0
148 152 0
144 152 0
154 166 0
144 152 0
147 155 0
147 155 0
137 145 0
144 152 0
146 155 0
146 153 0
143 151 0
155 167 0
150 163 0
150 160 0
155 164 0
146 153 0
147 155 0
152 162 0
149 159 0
152 161 0
150 161 0
155 166 0
160 174 0
155 168 0
150 163 0
155 167 0
155 167 0
153 167 0
153 166 0
161 176 0
159 172 0
158 171 0
158 173 0
163 178 0
160 176 0
158 174 0
162 176 0
157 172 0
162 177 0
163 178 0
156 169 0
163 178 0
161 177 0
163 181 0
156 172 0
162 177 0
163 180 0
162 177 0
162 177 0
160 177 0
161 174 0
162 180 0
158 173 0
167 184 0
164 182 0
164 180 0
167 186 0
163 182 0
165 182 0
162 179 0
168 186 0
163 182 0
163 181 0
160 178 0
174 197 25
174 197 0
173 197 0
172 196 0
173 196 0
172 195 0
173 197 0
172 196 0
172 196 0
172 196 0
169 194 0
174 197 0
173 196 0
170 194 0
172 196 0
172 196 0
175 197 0
172 196 0
170 193 0
169 193 0
175 198 0
171 194 0
170 193 0
169 192 0
170 194 0
169 192 0
170 193 0
172 195 0
170 195 0
170 194 0
169 193 0
170 194 0
171 195 0
171 194 0
163 187 0
168 192 0
175 197 0
167 190 0
169 193 0
167 190 0
170 194 0
170 192 0
167 190 0
168 192 0
167 192 0
167 190 0
169 192 0
165 188 0
169 192 0
169 191 0
163 187 0
167 191 0
169 192 0
168 192 0
166 190 0
171 193 0
168 192 0
165 189 0
167 191 0
162 185 0
163 187 0
161 184 0
167 190 0
166 190 0
167 190 0
169 192 0
164 188 0
164 187 0
159 182 0
168 191 0
169 193 0
159 182 18
157 180 18
146 169 78
133 158 80
131 155 92
104 130 103
92 120 110
77 107 122
59 94 135
60 95 136
61 95 144
60 95 142
60 95 140
59 94 135
60 96 141
61 96 148
60 95 143
60 95 139
61 96 152
60 95 140
61 96 145
61 97 152
61 97 158
62 98 165
61 97 148
61 97 156
62 98 161
62 97 160
61 97 151
61 97 155
62 98 161
60 96 156
61 97 155
61 97 158
59 96 152
61 97 164
61 98 165
62 98 160
61 97 155
61 97 159
61 97 154
61 97 159
61 98 161
61 97 156
61 97 159
62 99 170
60 96 152
60 96 156
61 96 152
61 97 160
61 97 153
62 98 159
60 95 149
60 95 149
62 98 152
68 101 151
59 94 143
65 99 153
63 97 150
62 96 140
60 96 148
60 95 140
61 96 149
61 97 155
63 98 147
61 97 149
61 96 143
61 95 139
61 97 149
60 94 137
61 96 145
61 96 149
61 97 150
62 97 147
59 94 142
59 94 137
59 95 136
61 96 144
59 94 141
60 95 141
61 96 144
61 96 149
60 95 143
61 96 142
61 96 149
60 96 145
61 97 153
60 95 141
61 96 144
58 93 131
59 94 131
61 96 142
61 97 151
59 94 126
59 94 135
61 96 147
60 95 139
61 96 145
62 97 150
61 96 144
61 96 144
62 97 147
61 97 147
60 96 149
60 95 141
60 96 151
61 97 148
62 97 150
61 96 144
59 94 137
61 97 147
60 95 150
61 96 143
61 96 144
61 96 150
61 96 139
61 97 152
60 94 142
60 96 142
61 95 140
61 96 145
60 95 135
61 97 150
61 96 142
61 96 145
62 97 151
61 96 150
60 95 137
60 95 134
61 96 141
61 96 148
61 96 137
61 96 147
60 94 128
60 94 128
61 96 148
61 96 147
59 94 135
62 97 144
59 94 130
60 95 137
61 96 145
59 94 137
61 96 147
61 96 141
60 95 142
60 96 142
60 95 143
60 94 131
60 95 144
59 94 133
60 95 143
60 95 139
60 95 139
60 95 144
60 96 139
60 94 139
62 97 145
61 97 145
59 94 137
61 96 142
60 95 145
60 94 134
61 96 142
60 96 136
60 94 135
60 95 135
59 93 130
60 95 135
58 93 131
60 95 141
59 93 123
61 95 141
59 93 129
59 92 124
59 92 125
58 92 124
57 90 116
59 93 125
58 92 118
58 91 115
62 93 119
80 99 81
103 115 44
123 135 0
114 125 0
115 127 0
124 136 0
125 136 0
118 128 0
110 119 0
133 146 0
122 131 0
109 118 0
122 134 0
121 131 0
118 128 0
115 125 0
125 134 0
128 140 0
117 125 0
123 130 0
120 129 0
124 132 0
112 121 0
120 128 0
117 126 0
121 130 0
125 133 0
121 129 0
126 138 0
113 119 0
121 129 0
121 128 0
123 130 0
127 135 0
116 124 0
119 125 0
121 129 0
121 129 0
120 127 0
127 137 0
126 131 0
132 141 0
113 118 0
121 125 0
117 123 0
122 128 0
121 127 0
122 126 0
132 137 0
129 133 0
117 122 0
122 128 0
130 137 0
134 137 0
123 126 0
126 131 0
133 140 0
129 135 0
140 147 0
132 138 0
135 143 0
132 139 0
130 132 0
138 146 0
137 143 0
137 146 0
130 137 0
138 144 0
139 146 0
136 141 0
136 147 0
136 142 0
139 145 0
141 149 0
140 146 0
138 147 0
142 146 0
137 144 0
146 154 0
139 146 0
138 145 0
143 152 0
139 149 0
142 150 0
149 159 0
139 150 0
138 145 0
152 162 0
149 156 0
151 160 0
149 159 0
146 155 0
151 161 0
147 158 0
144 151 0
146 157 0
151 163 0
155 166 0
145 154 0
154 164 0
154 165 0
147 157 0
161 173 0
158 174 0
153 166 0
149 161 0
150 163 0
159 173 0
161 175 0
159 175 0
154 166 0
160 174 0
156 170 0
158 170 0
157 169 0
155 169 0
154 168 0
154 169 0
164 179 0
157 168 0
164 179 0
157 174 0
162 178 0
164 177 0
156 171 0
160 176 0
159 173 0
164 180 0
161 177 0
164 181 0
161 178 0
157 172 0
164 181 0
164 181 0
162 178 0
165 184 0
165 182 0
165 183 0
163 180 0
159 175 0
167 184 0
165 183 0
163 181 0
163 182 0
158 174 0
163 182 0
162 178 0
175 198 0
174 197 0
175 198 0
173 196 0
171 194 0
172 196 0
171 195 0
173 196 0
172 196 0
168 192 0
171 194 0
173 196 0
172 196 0
171 195 0
170 194 0
168 192 0
172 194 0
169 193 0
170 194 0
172 195 0
169 192 0
169 192 0
173 197 0
167 191 0
171 194 0
170 194 0
168 192 0
168 192 0
173 195 0
170 193 0
170 193 0
167 190 0
173 195 0
169 192 0
171 194 0
169 194 0
170 193 0
166 190 0
170 194 0
165 188 0
168 191 0
172 194 0
168 191 0
170 193 0
169 191 0
167 190 0
166 189 0
168 191 0
167 192 0
170 194 0
163 186 0
166 189 0
166 190 0
166 189 0
170 194 0
161 184 0
168 191 0
164 188 0
167 190 0
163 186 0
169 192 0
166 189 0
160 183 0
164 188 0
164 188 0
166 190 0
167 190 0
166 190 0
161 185 0
166 189 0
163 185 0
158 181 18
156 180 47
150 174 57
137 160 62
129 153 94
124 149 99
93 122 124
88 117 125
70 102 133
59 94 140
61 96 136
60 95 137
60 94 135
60 94 135
59 94 135
60 94 137
61 96 143
59 94 140
60 95 145
61 96 152
60 95 139
61 97 160
61 96 153
61 96 144
62 98 158
61 97 157
61 97 153
61 97 159
61 97 156
60 95 149
61 96 154
62 98 161
61 98 166
62 98 165
62 97 155
61 97 155
62 98 163
62 98 162
62 98 161
61 97 157
62 98 163
61 97 156
61 98 161
61 97 156
62 99 170
61 97 156
61 97 154
62 98 158
61 97 158
61 97 160
62 97 156
61 97 156
60 96 149
63 98 153
61 96 154
69 103 148
64 98 143
65 100 158
63 98 151
62 97 153
61 97 153
62 97 143
60 95 143
60 95 141
60 95 139
60 95 143
60 96 143
61 97 148
61 96 145
62 97 133
60 95 140
59 93 126
59 94 143
60 95 142
60 95 145
61 96 144
61 96 148
60 96 150
60 95 145
61 96 143
61 97 152
60 96 136
61 96 141
59 94 137
60 95 143
61 97 151
59 94 139
61 97 153
61 96 151
60 95 143
61 96 149
60 95 147
61 96 141
61 96 155
60 95 137
60 95 140
59 95 143
61 96 147
61 97 153
62 97 150
61 96 145
60 94 135
62 97 151
61 96 145
61 96 151
60 95 144
60 95 143
61 96 147
61 96 149
60 95 135
61 97 142
61 96 151
62 97 153
60 95 144
61 96 145
60 96 143
61 96 141
61 96 140
60 95 143
60 96 143
61 96 148
61 96 150
61 96 147
60 96 147
61 97 149
61 96 149
61 97 149
62 97 152
61 96 147
62 97 150
61 96 143
61 97 148
61 97 152
61 96 148
61 96 144
60 96 149
62 97 148
62 97 143
60 95 135
61 96 144
61 96 144
60 95 137
61 95 134
62 97 147
61 96 140
62 97 151
61 96 141
61 96 141
60 95 139
60 95 136
61 96 144
60 95 136
62 97 148
61 96 140
59 93 126
61 95 137
61 96 139
60 94 135
60 95 133
61 96 141
59 93 122
61 96 140
58 92 125
61 95 140
60 95 136
59 93 129
59 94 133
60 94 130
59 94 131
59 93 131
60 94 129
60 95 131
60 94 133
59 94 126
58 92 122
58 92 124
58 91 122
57 91 114
59 92 126
58 92 115
55 87 105
81 105 94
110 127 73
110 122 40
110 120 0
114 126 0
129 143 0
117 126 0
135 149 0
128 139 0
109 121 0
123 136 0
111 120 0
124 135 0
133 142 0
115 125 0
123 134 0
119 128 0
128 137 0
126 135 0
109 118 0
119 128 0
116 123 0
111 121 0
112 119 0
121 131 0
131 140 0
118 127 0
119 127 0
127 137 0
121 131 0
119 126 0
119 128 0
113 121 0
128 138 0
119 126 0
121 130 0
115 123 0
122 131 0
125 133 0
128 137 0
123 128 0
121 130 0
127 132 0
114 123 0
117 121 0
126 133 0
119 126 0
119 127 0
114 116 0
127 133 0
130 134 0
134 143 0
129 138 0
127 131 0
135 141 0
127 132 0
141 148 0
132 139 0
141 150 0
133 140 0
137 144 0
132 138 0
132 139 0
131 140 0
121 126 0
140 148 0
126 130 0
132 139 0
140 149 0
130 136 0
137 144 0
143 150 0
132 138 0
144 153 0
143 152 0
141 150 0
143 151 0
142 151 0
143 150 0
136 144 0
140 146 0
144 149 0
142 149 0
147 157 0
146 157 0
149 162 0
143 156 0
144 153 0
147 156 0
149 160 0
141 150 0
149 158 0
146 154 0
155 167 0
152 164 0
148 157 0
143 155 0
148 157 0
148 158 0
157 169 0
154 165 0
152 164 0
154 166 0
149 160 0
148 157 0
149 160 0
156 168 0
153 166 0
155 166 0
154 168 0
152 167 0
157 171 0
163 178 0
153 167 0
163 177 0
161 177 0
160 175 0
157 171 0
148 162 0
161 175 0
160 174 0
163 177 0
158 172 0
159 173 0
161 177 0
154 167 0
154 168 0
163 177 0
165 184 0
162 177 0
158 174 0
163 182 0
158 173 0
159 175 0
163 179 0
165 182 0
157 173 0
159 177 0
163 180 0
165 184 0
167 187 0
167 185 0
166 182 0
165 183 0
162 180 0
167 183 0
160 177 0
163 180 0
174 197 0
174 197 0
174 197 0
171 194 0
172 196 0
172 195 0
174 197 0
171 194 0
170 194 0
174 197 0
171 194 0
172 196 0
169 192 0
172 195 0
171 195 0
168 191 0
171 195 0
173 197 0
173 196 0
172 196 0
171 194 0
173 197 0
168 192 0
169 193 0
172 196 0
171 195 0
169 192 0
172 194 0
166 190 0
166 190 0
169 192 0
169 192 0
170 193 0
169 192 0
167 191 0
169 193 0
167 191 0
165 189 0
169 191 0
168 192 0
168 191 0
168 191 0
165 188 0
168 192 0
167 190 0
166 189 0
166 190 0
166 189 0
168 192 0
171 194 0
171 193 0
173 196 0
165 189 0
169 193 0
167 189 0
161 184 0
167 190 0
166 190 0
167 190 0
168 191 0
164 187 0
164 187 0
165 187 0
164 186 0
164 187 0
166 190 0
164 188 0
162 185 0
165 188 0
161 184 0
165 188 0
162 186 0
161 184 18
146 170 62
143 167 74
132 157 76
128 152 95
112 138 102
98 124 118
74 105 126
60 95 145
60 95 145
60 95 130
59 94 131
60 94 142
60 95 137
60 96 143
60 95 139
59 95 142
60 95 145
61 97 144
61 96 150
59 94 145
62 98 158
60 95 137
61 97 155
61 97 152
60 96 157
61 97 156
62 97 155
61 97 157
62 97 155
60 96 156
61 97 157
60 97 159
61 97 156
62 98 160
60 96 156
61 98 164
61 97 159
62 99 174
61 97 161
61 97 164
60 96 151
62 98 161
61 97 156
61 97 157
63 99 166
61 97 157
60 96 157
61 97 152
62 98 157
61 97 155
62 98 161
61 97 156
62 97 153
67 100 144
60 94 145
71 104 151
62 97 142
60 96 148
61 97 156
60 95 141
61 97 150
60 96 147
60 95 137
65 99 150
61 95 135
58 92 134
60 95 143
61 97 142
60 95 143
59 94 141
59 94 139
60 95 143
59 94 135
60 94 133
61 96 143
60 95 143
60 95 144
59 94 140
60 95 143
61 96 153
60 95 134
59 94 141
61 96 147
60 96 143
61 96 151
61 96 150
60 95 136
59 94 135
60 95 141
61 96 145
60 95 147
61 97 147
60 95 135
60 95 137
62 98 153
61 96 151
61 96 137
60 96 142
60 96 143
62 98 155
61 96 147
61 96 147
59 94 140
61 96 148
61 97 151
61 96 142
61 96 143
60 95 139
60 96 135
60 96 144
61 96 149
61 96 148
61 95 144
61 96 141
62 97 151
61 96 143
60 95 137
61 97 152
61 97 149
61 96 141
62 97 151
60 95 134
60 96 150
60 95 139
60 95 142
61 96 147
60 96 140
59 93 128
61 96 142
60 95 143
60 95 135
61 96 141
61 97 148
61 96 142
61 97 155
60 96 139
59 94 131
59 94 129
61 97 147
60 95 148
60 95 134
61 96 140
61 96 139
60 95 140
61 96 139
61 96 145
61 96 142
60 95 139
61 97 145
59 94 134
61 96 142
61 96 142
61 96 139
61 95 142
62 97 147
61 96 141
60 94 131
60 95 135
58 92 121
60 94 131
60 94 135
60 94 140
59 93 131
60 95 136
59 94 136
60 95 137
57 90 118
58 93 118
60 95 133
59 94 136
60 95 131
58 92 130
59 93 126
59 93 125
58 92 115
58 91 122
59 93 119
59 92 128
59 89 100
108 124 67
106 120 40
120 130 0
112 126 0
114 123 0
131 146 0
129 142 0
121 135 0
129 137 0
128 141 0
124 136 0
122 133 0
113 123 0
130 144 0
118 129 0
125 135 0
116 126 0
119 128 0
109 120 0
123 134 0
128 136 0
117 130 0
124 134 0
127 138 0
122 131 0
120 126 0
126 134 0
124 133 0
118 129 0
119 129 0
118 127 0
108 116 0
122 129 0
120 127 0
122 130 0
123 130 0
130 139 0
121 129 0
128 139 0
125 133 0
117 127 0
128 136 0
129 137 0
132 138 0
121 130 0
122 128 0
136 143 0
127 132 0
133 142 0
132 140 0
127 136 0
134 146 0
116 124 0
130 138 0
121 129 0
140 147 0
127 132 0
134 141 0
130 139 0
127 134 0
131 138 0
128 132 0
133 138 0
139 146 0
133 140 0
134 141 0
139 143 0
128 135 0
134 143 0
140 145 0
135 143 0
144 153 0
137 145 0
136 143 0
142 149 0
137 146 0
141 150 0
148 157 0
145 155 0
141 150 0
136 145 0
140 147 0
144 154 0
139 149 0
147 159 0
127 133 0
147 158 0
145 156 0
145 155 0
151 162 0
152 164 0
146 154 0
146 158 0
149 160 0
141 147 0
149 159 0
151 162 0
154 166 0
155 169 0
153 168 0
159 170 0
157 169 0
156 171 0
156 169 0
155 165 0
155 169 0
158 169 0
160 175 0
150 164 0
157 170 0
159 173 0
152 167 0
159 171 0
156 169 0
156 169 0
158 173 0
158 172 0
155 169 0
159 173 0
159 175 0
153 169 0
164 180 0
163 179 0
161 174 0
160 176 0
165 181 0
165 183 0
166 182 0
163 179 0
157 173 0
166 183 0
165 180 0
163 179 0
166 182 0
155 170 0
156 173 0
162 181 0
164 182 0
163 180 0
160 177 0
165 182 0
164 182 0
158 175 0
162 179 0
164 180 0
164 182 0
165 184 0
161 181 0
175 198 0
173 196 0
174 197 0
174 197 0
173 197 0
168 192 0
173 196 0
173 196 0
171 195 0
171 194 0
167 191 0
173 196 0
172 196 0
170 194 0
171 195 0
172 195 0
169 193 0
170 193 0
171 193 0
170 194 0
171 195 0
172 194 0
172 195 0
170 194 0
169 193 0
169 194 0
164 188 0
169 192 0
168 192 0
170 193 0
165 189 0
170 194 0
170 193 0
167 191 0
171 193 0
168 192 0
172 195 0
169 193 0
168 191 0
170 194 0
166 190 0
166 190 0
165 188 0
168 192 0
170 192 0
170 194 0
166 190 0
165 188 0
167 191 0
161 184 0
166 188 0
167 190 0
168 191 0
162 185 0
167 190 0
169 191 0
154 178 0
166 190 0
165 188 0
164 187 0
165 188 0
159 183 0
162 186 0
157 180 0
168 191 0
165 187 0
164 186 0
161 184 0
161 185 0
166 190 0
162 185 0
162 184 0
161 184 0
156 180 44
139 163 70
144 167 76
129 152 80
119 145 99
100 128 118
81 111 128
59 93 124
60 95 143
58 92 126
60 94 135
59 94 133
59 94 135
61 96 145
60 94 137
59 94 136
59 94 145
60 96 142
60 95 145
59 95 139
60 95 145
60 96 144
61 97 148
60 95 141
61 96 148
60 95 143
60 95 153
62 97 157
61 98 159
61 96 152
60 96 147
61 97 157
62 98 164
60 96 150
61 97 158
61 97 157
60 96 156
61 97 162
62 98 165
61 96 156
62 98 164
60 96 154
61 98 160
62 98 161
62 98 156
62 98 158
61 97 163
61 97 159
62 98 160
61 97 156
62 98 166
61 97 157
61 97 159
63 98 151
63 98 151
62 96 133
63 98 152
63 98 149
60 95 149
65 99 144
61 96 130
60 95 143
59 93 145
63 97 140
61 96 136
63 98 148
60 94 136
60 95 142
61 96 140
60 95 147
62 96 136
61 96 147
59 93 131
62 96 130
60 95 139
62 97 147
60 95 148
61 97 151
59 94 137
61 96 150
60 95 137
61 96 148
60 95 147
59 94 134
61 96 144
60 96 144
58 93 131
60 95 140
60 95 141
60 96 143
61 97 150
61 96 151
61 97 151
60 95 147
61 97 147
61 96 145
59 94 137
59 95 137
61 96 147
60 95 140
61 96 152
59 94 135
61 96 143
60 95 143
63 98 155
60 96 149
62 96 147
61 97 148
61 96 147
61 97 150
61 97 147
60 95 141
61 96 145
60 95 145
60 95 139
60 95 136
60 95 147
59 94 136
59 94 126
61 96 144
60 95 145
60 95 144
61 96 152
59 94 136
60 95 137
60 96 145
61 95 142
60 94 134
60 95 142
60 95 143
60 95 139
62 97 147
60 95 145
61 97 144
61 96 142
61 96 136
60 95 136
62 97 148
61 96 145
60 94 128
61 96 136
60 95 144
62 97 150
60 95 131
60 95 134
60 95 135
60 95 140
61 96 141
61 96 144
61 95 141
61 96 144
60 94 136
61 96 137
60 94 125
61 96 145
59 93 130
58 92 130
58 92 126
58 92 126
61 95 139
60 95 140
61 95 135
60 95 136
60 94 139
60 94 131
59 93 129
60 94 128
61 95 137
59 93 128
59 93 125
58 92 121
57 90 118
59 93 130
58 91 128
58 91 116
59 93 126
57 91 113
59 93 126
92 114 91
110 126 40
122 134 0
136 150 0
118 131 0
123 136 0
117 130 0
117 129 0
125 136 0
115 124 0
107 117 0
122 134 0
119 129 0
115 128 0
119 131 0
124 136 0
131 145 0
125 135 0
115 127 0
120 131 0
128 139 0
127 134 0
127 137 0
120 132 0
115 127 0
126 135 0
114 125 0
124 132 0
118 127 0
135 145 0
122 130 0
123 133 0
115 123 0
119 128 0
128 138 0
125 133 0
115 123 0
123 131 0
133 140 0
125 135 0
121 127 0
125 133 0
130 137 0
122 128 0
127 133 0
135 144 0
134 142 0
124 134 0
132 139 0
123 130 0
128 137 0
123 129 0
134 142 0
134 142 0
137 145 0
140 150 0
137 144 0
130 138 0
139 149 0
129 134 0
134 142 0
132 138 0
135 145 0
128 134 0
130 137 0
137 145 0
135 144 0
137 146 0
139 147 0
141 147 0
134 144 0
140 148 0
136 144 0
138 144 0
147 155 0
144 151 0
145 154 0
139 146 0
143 151 0
136 145 0
142 151 0
146 158 0
147 156 0
140 150 0
150 161 0
151 162 0
144 153 0
143 154 0
151 161 0
146 156 0
147 156 0
149 158 0
156 168 0
150 159 0
157 168 0
151 164 0
156 164 0
149 159 0
154 166 0
148 157 0
151 162 0
152 161 0
156 168 0
151 163 0
159 173 0
164 178 0
154 167 0
150 164 0
161 174 0
144 153 0
159 173 0
157 171 0
155 168 0
156 173 0
153 166 0
155 171 0
160 175 0
160 177 0
159 177 0
159 175 0
163 180 0
163 178 0
155 170 0
159 173 0
164 180 0
153 169 0
157 173 0
162 180 0
156 171 0
162 180 0
156 173 0
158 175 0
157 173 0
165 180 0
165 181 0
165 183 0
161 178 0
161 178 0
161 179 0
163 180 0
169 188 0
165 183 0
167 187 0
164 182 0
162 180 0
159 176 0
167 186 0
162 181 0
164 183 0
173 197 0
171 194 0
172 196 0
173 197 0
173 197 0
169 192 0
174 197 0
175 198 0
172 196 0
173 197 0
170 194 0
173 196 0
172 195 0
172 195 0
172 196 0
168 191 0
169 191 0
172 195 0
169 192 0
172 195 0
170 193 0
167 191 0
169 191 0
171 195 0
171 195 0
169 193 0
169 193 0
167 190 0
169 192 0
169 193 0
170 194 0
168 191 0
165 188 0
167 190 0
169 192 0
168 192 0
171 195 0
170 192 0
169 192 0
169 192 0
169 192 0
168 192 0
166 190 0
166 190 0
169 191 0
168 191 0
167 190 0
167 191 0
165 189 0
167 191 0
168 191 0
162 185 0
167 190 0
169 192 0
166 190 0
168 191 0
165 188 0
169 191 0
161 183 0
161 184 0
168 191 0
166 188 0
166 189 0
165 189 0
163 186 0
167 190 0
162 184 0
164 187 0
163 185 0
166 190 0
163 186 0
167 191 0
163 185 0
160 183 18
149 172 54
141 165 57
132 156 82
116 141 100
112 138 107
101 128 115
74 104 115
61 96 137
57 92 129
60 95 135
60 94 137
60 96 141
59 95 140
60 95 140
61 96 148
61 96 148
60 96 145
60 95 143
60 96 141
61 96 145
60 94 141
60 95 147
59 95 145
61 96 153
59 94 144
61 96 150
60 95 144
61 97 155
61 96 148
61 96 153
62 98 156
60 96 155
61 97 161
61 96 156
61 96 158
61 97 157
62 98 161
60 97 162
60 96 159
60 96 155
61 98 161
61 97 157
62 97 159
60 96 154
62 98 164
61 97 157
62 98 163
61 96 153
61 97 161
61 97 157
61 96 153
60 96 156
60 96 144
60 95 144
62 97 150
60 95 141
65 99 142
62 97 140
64 97 141
64 97 143
61 97 144
62 97 137
61 95 135
63 97 137
62 96 141
60 95 139
59 94 139
60 95 135
61 97 153
60 94 139
60 96 140
59 94 133
60 95 142
60 95 147
60 95 139
61 96 137
60 95 145
59 94 130
61 96 141
60 95 148
61 96 145
59 94 135
61 96 147
59 94 136
60 95 150
60 95 144
61 96 143
59 95 139
62 98 149
59 93 137
61 96 153
60 96 148
59 94 141
60 96 141
60 94 136
61 97 149
61 96 149
58 93 130
59 94 141
60 95 142
59 94 143
60 95 139
61 96 143
61 96 143
60 96 143
61 96 141
61 96 147
61 97 150
61 95 134
61 96 141
61 95 135
61 96 145
61 97 148
61 96 145
61 96 142
60 95 136
60 95 135
61 97 150
61 96 142
61 96 142
60 95 143
60 96 142
61 96 145
61 96 144
60 95 139
61 96 143
59 94 142
61 96 145
60 95 134
59 94 140
60 95 140
62 97 150
60 94 139
60 95 135
59 94 135
59 94 134
60 95 139
61 96 134
60 95 136
62 97 144
61 96 140
59 93 133
60 95 135
60 95 140
61 95 139
60 95 136
61 96 149
60 95 134
59 94 136
61 96 137
59 94 134
60 95 133
61 95 136
59 94 128
60 95 136
61 96 140
60 95 137
60 95 136
60 95 130
60 94 141
59 93 134
60 95 136
58 92 125
60 95 129
59 93 125
57 91 120
58 92 121
58 92 121
59 93 118
58 93 124
58 92 125
59 93 118
57 90 111
58 91 121
59 93 123
59 92 120
67 93 98
111 125 48
119 132 36
124 136 0
123 136 0
126 140 0
121 133 0
117 132 0
115 126 0
119 131 0
120 133 0
134 147 0
119 128 0
128 140 0
126 138 0
115 127 0
113 123 0
125 133 0
120 132 0
126 139 0
110 120 0
126 138 0
124 133 0
119 131 0
131 142 0
122 135 0
124 134 0
121 129 0
123 133 0
129 139 0
125 132 0
102 110 0
126 136 0
134 145 0
132 143 0
123 134 0
127 136 0
121 126 0
134 144 0
127 133 0
123 132 0
122 129 0
121 126 0
133 140 0
134 142 0
139 149 0
127 132 0
133 145 0
125 131 0
130 136 0
134 144 0
121 129 0
133 141 0
133 140 0
128 135 0
138 145 0
120 125 0
133 142 0
133 140 0
128 138 0
134 144 0
132 139 0
135 141 0
139 150 0
130 137 0
141 147 0
136 144 0
144 153 0
134 143 0
136 140 0
144 149 0
137 142 0
133 141 0
136 144 0
142 154 0
138 149 0
138 144 0
145 155 0
141 149 0
141 149 0
150 160 0
147 159 0
150 158 0
145 154 0
145 157 0
151 159 0
144 154 0
150 160 0
141 152 0
144 154 0
152 164 0
148 155 0
150 161 0
150 161 0
149 161 0
144 158 0
153 164 0
138 146 0
152 165 0
156 170 0
158 171 0
149 159 0
150 163 0
146 159 0
148 162 0
149 162 0
150 163 0
150 162 0
157 172 0
155 167 0
157 170 0
159 172 0
154 167 0
153 166 0
156 170 0
159 172 0
161 177 0
157 172 0
162 176 0
160 175 0
155 170 0
157 169 0
157 172 0
162 178 0
161 173 0
163 179 0
155 170 0
160 175 0
159 175 0
166 183 0
160 173 0
157 174 0
166 183 0
160 177 0
162 179 0
161 177 0
164 181 0
157 173 0
163 181 0
166 184 0
166 184 0
167 183 0
163 181 0
163 182 0
159 179 0
163 181 0
168 187 0
164 182 0
157 172 0
167 186 0
173 196 0
174 196 0
174 197 0
173 196 0
174 197 0
170 194 0
175 198 0
169 192 0
172 195 0
173 196 0
172 195 0
171 195 0
170 194 0
170 194 0
168 192 0
172 196 0
170 194 0
172 195 0
172 195 0
170 193 0
167 191 0
169 192 0
172 195 0
171 195 0
169 193 0
170 193 0
170 193 0
169 192 0
171 194 0
169 193 0
166 190 0
168 191 0
169 192 0
166 191 0
167 190 0
168 191 0
167 190 0
165 189 0
168 192 0
167 190 0
168 190 0
165 188 0
168 191 0
163 186 0
162 185 0
169 192 0
168 192 0
166 190 0
167 190 0
168 190 0
167 190 0
165 188 0
166 190 0
168 192 0
167 190 0
164 187 0
167 190 0
166 190 0
162 185 0
162 186 0
163 186 0
164 187 0
162 185 0
159 183 0
161 184 0
158 180 0
159 182 0
162 185 0
153 176 0
163 186 0
161 184 0
164 188 0
158 181 0
164 186 0
160 183 18
147 170 47
142 166 67
129 154 84
122 147 88
107 132 103
84 112 110
71 102 117
60 95 141
59 94 126
60 94 131
59 93 130
59 94 140
60 95 137
59 94 135
60 95 136
60 95 133
59 94 139
60 95 140
61 96 137
60 96 142
62 97 155
61 97 154
61 96 144
61 96 143
61 97 148
59 94 142
61 96 154
61 96 154
60 95 149
62 98 162
61 97 160
62 97 154
62 98 161
61 97 153
62 98 160
61 98 162
59 95 153
61 97 158
62 98 159
61 97 157
62 98 158
61 97 159
62 97 155
61 97 159
62 98 156
61 97 165
61 96 152
62 98 161
61 96 151
61 96 154
61 97 157
61 97 155
64 99 153
62 97 152
65 99 147
67 101 153
60 95 141
60 95 142
65 99 141
62 96 137
61 97 151
61 96 142
62 96 140
60 95 144
64 96 129
63 98 143
60 95 137
59 94 139
59 93 136
59 94 141
60 95 130
59 94 129
60 96 135
61 97 145
59 94 140
60 95 136
61 96 137
58 92 136
61 96 142
60 95 140
60 95 143
61 97 145
60 95 142
60 96 143
59 94 135
60 96 148
59 93 135
60 95 139
61 97 150
62 98 154
61 96 144
60 96 144
59 94 143
60 96 144
61 96 147
62 97 151
60 95 137
60 95 141
62 97 148
61 96 142
61 96 143
60 95 133
59 94 135
60 95 137
59 93 135
60 95 143
61 96 136
61 95 134
61 96 145
61 96 144
62 98 151
60 95 140
61 96 141
60 95 137
61 96 140
61 96 147
59 93 136
60 95 135
61 96 145
60 95 136
60 95 139
61 96 145
61 96 145
60 95 140
62 97 149
59 94 131
59 94 133
60 94 136
59 94 137
61 96 142
60 94 133
60 95 144
61 96 140
61 96 137
61 96 148
60 95 134
61 96 147
61 96 137
60 95 135
61 96 136
60 95 139
61 97 142
60 95 139
60 95 134
60 95 136
60 95 134
60 94 129
59 94 129
61 95 136
61 96 143
60 94 135
61 96 141
61 96 142
59 92 135
60 94 126
60 95 136
60 95 135
60 95 139
61 96 141
59 93 128
58 92 122
59 93 124
59 93 122
60 94 129
59 93 125
58 92 122
59 93 120
59 94 126
59 93 130
58 92 118
57 90 118
58 92 114
59 92 121
59 92 120
60 92 117
97 116 83
112 128 54
118 130 0
118 128 0
121 134 0
113 127 0
127 138 0
109 118 0
120 130 0
116 128 0
129 142 0
115 128 0
110 121 0
130 143 0
125 137 0
118 131 0
125 137 0
120 131 0
127 140 0
105 115 0
128 142 0
116 125 0
125 138 0
131 142 0
127 136 0
129 142 0
133 146 0
128 143 0
117 127 0
123 133 0
119 131 0
121 131 0
127 138 0
128 139 0
128 135 0
127 138 0
126 137 0
129 137 0
135 142 0
127 135 0
123 130 0
134 145 0
118 127 0
132 138 0
117 127 0
122 131 0
132 142 0
126 134 0
139 150 0
125 134 0
136 144 0
139 149 0
133 142 0
134 142 0
120 128 0
137 146 0
141 148 0
137 146 0
129 138 0
131 139 0
136 143 0
139 148 0
139 149 0
144 156 0
130 138 0
138 146 0
135 144 0
138 148 0
142 150 0
136 147 0
143 152 0
139 148 0
136 147 0
136 145 0
139 150 0
138 147 0
128 136 0
141 148 0
141 149 0
147 159 0
148 160 0
147 159 0
146 154 0
142 152 0
144 153 0
144 154 0
148 158 0
153 166 0
151 163 0
147 158 0
151 163 0
153 165 0
154 165 0
152 164 0
142 150 0
153 166 0
152 166 0
141 151 0
155 168 0
151 164 0
152 162 0
158 172 0
151 161 0
151 162 0
158 172 0
155 168 0
150 161 0
158 173 0
156 169 0
155 169 0
149 160 0
160 175 0
155 170 0
154 169 0
163 178 0
157 174 0
158 176 0
156 172 0
159 173 0
161 176 0
157 171 0
161 177 0
154 169 0
165 180 0
159 175 0
161 177 0
163 180 0
158 172 0
159 177 0
157 172 0
165 182 0
160 179 0
164 180 0
157 174 0
164 180 0
164 180 0
164 181 0
162 179 0
163 181 0
162 179 0
165 183 0
165 184 0
161 181 0
159 178 0
161 178 0
163 179 0
162 180 0
165 182 0
165 185 0
166 183 0
171 195 0
171 195 0
171 195 0
172 195 0
171 194 0
169 193 0
174 197 0
168 192 0
169 192 0
174 197 0
171 194 0
172 195 0
172 195 0
171 195 0
172 195 0
171 195 0
170 193 0
168 192 0
172 196 0
170 193 0
169 193 0
174 197 0
174 196 0
171 195 0
167 191 0
167 190 0
168 192 0
169 193 0
170 193 0
165 189 0
168 192 0
165 189 0
166 190 0
167 190 0
162 185 0
169 192 0
168 191 0
168 191 0
165 189 0
167 190 0
164 187 0
170 194 0
170 192 0
171 194 0
165 188 0
169 192 0
164 188 0
167 191 0
169 193 0
164 188 0
167 191 0
167 190 0
161 184 0
168 191 0
166 189 0
162 186 0
165 188 0
168 191 0
160 184 0
164 187 0
162 183 0
162 185 0
163 186 0
160 184 0
164 187 0
156 180 0
165 189 0
164 188 0
162 185 0
164 186 0
159 183 0
164 188 0
161 184 0
156 179 0
158 181 0
156 178 25
145 168 60
138 161 65
124 148 78
107 133 97
100 126 113
74 105 130
62 96 130
59 94 130
60 94 135
61 96 143
60 94 137
61 96 139
59 94 134
60 95 134
59 94 135
61 96 143
59 94 142
61 96 152
60 95 139
60 96 147
60 95 148
61 97 149
58 93 140
61 96 145
60 96 149
60 96 150
60 96 142
62 98 160
61 97 157
61 96 150
61 96 153
60 95 151
60 96 149
61 96 144
60 96 153
62 98 165
61 96 153
61 97 157
61 96 156
61 97 155
61 97 161
61 97 158
61 97 156
62 98 160
60 96 155
61 97 155
61 96 150
62 98 158
61 96 150
60 95 148
61 97 150
61 96 150
63 98 150
63 98 159
67 99 131
68 101 148
60 96 142
61 96 142
61 95 139
68 102 152
61 95 143
60 96 147
59 93 137
63 97 136
60 95 137
59 94 134
60 96 142
60 95 144
63 98 145
63 98 142
62 97 147
60 96 149
59 94 130
60 95 136
60 95 141
60 95 144
61 97 150
60 95 144
60 94 145
59 94 145
61 96 143
60 96 140
61 97 144
60 95 143
60 96 149
59 93 134
59 93 128
61 96 147
60 95 142
61 96 143
60 95 140
61 96 148
61 96 145
60 95 130
61 96 144
61 95 145
59 94 135
60 95 137
60 95 136
60 95 141
59 93 133
60 95 142
61 96 143
61 96 135
59 94 136
60 95 142
61 96 143
60 95 136
60 95 135
61 96 142
60 96 142
60 94 139
61 96 139
60 95 139
61 96 144
61 96 142
60 96 143
60 95 143
60 95 142
61 96 149
60 95 135
60 95 144
60 94 137
60 95 135
60 95 139
62 97 150
59 94 133
61 96 142
61 96 139
60 95 141
60 95 134
61 96 141
61 96 143
60 95 129
60 95 144
60 94 133
60 94 131
60 95 139
60 94 140
60 94 136
60 95 137
61 95 130
60 94 133
61 95 135
61 95 137
60 95 139
59 93 130
60 94 129
60 95 137
59 93 124
60 94 129
59 94 131
60 95 137
59 93 117
59 93 125
59 94 134
59 94 131
60 95 134
60 95 134
59 93 124
58 92 114
59 93 125
59 94 130
59 93 134
59 93 124
58 92 124
60 94 124
57 90 121
57 90 117
58 91 118
56 88 111
55 87 110
56 89 117
76 101 99
102 117 47
118 130 18
130 144 0
122 134 0
122 136 0
118 129 0
133 146 0
119 131 0
118 132 0
117 128 0
108 119 0
120 132 0
121 133 0
127 141 0
114 127 0
119 130 0
118 129 0
125 137 0
126 140 0
124 137 0
129 142 0
116 127 0
116 127 0
128 140 0
130 140 0
122 132 0
126 138 0
128 137 0
131 142 0
118 128 0
129 140 0
121 132 0
133 146 0
120 129 0
117 128 0
118 127 0
129 138 0
130 138 0
139 149 0
125 139 0
128 138 0
130 138 0
115 121 0
130 142 0
135 145 0
134 145 0
137 147 0
122 131 0
133 145 0
130 140 0
115 124 0
131 137 0
136 147 0
132 143 0
135 143 0
134 144 0
126 134 0
129 138 0
132 142 0
134 145 0
138 149 0
140 149 0
136 145 0
139 151 0
145 152 0
131 139 0
142 151 0
142 150 0
139 148 0
144 155 0
131 139 0
142 154 0
141 149 0
141 149 0
147 155 0
137 144 0
142 149 0
139 149 0
150 158 0
151 159 0
146 154 0
144 154 0
138 145 0
148 157 0
141 152 0
145 156 0
146 157 0
145 155 0
138 146 0
150 162 0
152 164 0
148 158 0
150 161 0
149 159 0
148 160 0
145 156 0
149 161 0
156 169 0
151 165 0
156 169 0
150 161 0
150 162 0
149 162 0
149 161 0
151 163 0
155 168 0
163 178 0
151 164 0
159 174 0
158 173 0
157 171 0
150 164 0
158 174 0
162 176 0
156 169 0
158 174 0
154 167 0
158 170 0
157 172 0
158 170 0
155 172 0
161 176 0
163 180 0
162 180 0
161 177 0
162 178 0
157 173 0
156 171 0
164 180 0
166 183 0
160 176 0
164 180 0
160 176 0
159 176 0
162 177 0
165 182 0
164 182 0
169 188 0
162 178 0
165 182 0
159 176 0
165 182 0
166 185 0
161 176 0
162 179 0
161 180 0
167 186 0
169 187 0
164 183 0
161 182 0
174 197 0
170 193 0
171 194 0
172 196 0
167 191 0
172 195 0
171 195 0
172 195 0
173 196 0
169 193 0
170 194 0
174 197 0
171 194 0
171 195 0
167 191 0
171 194 0
170 194 0
170 193 0
169 192 0
168 192 0
174 197 0
173 197 0
168 192 0
171 193 0
168 191 0
173 197 0
172 194 0
170 192 0
166 190 0
166 190 0
171 194 0
172 194 0
172 194 0
168 192 0
170 194 0
167 190 0
164 187 0
168 191 0
167 191 0
167 191 0
167 191 0
167 190 0
168 192 0
169 192 0
163 187 0
164 187 0
166 189 0
165 188 0
164 187 0
169 192 0
162 185 0
161 183 0
160 184 0
166 189 0
165 189 0
164 188 0
167 191 0
162 184 0
166 189 0
161 185 0
159 182 0
168 192 0
164 187 0
160 183 0
158 180 0
169 192 0
160 184 0
162 186 0
162 185 0
160 182 0
157 181 0
160 181 0
160 183 0
162 185 0
156 179 0
158 180 0
144 167 65
147 170 67
141 164 74
118 143 86
103 129 90
88 116 118
66 98 126
59 93 133
60 95 129
59 94 129
59 94 139
59 94 131
60 95 137
60 94 136
59 94 133
61 96 137
60 95 130
58 92 131
61 96 145
60 95 140
59 94 144
59 94 129
61 97 153
60 95 140
62 98 159
59 94 141
62 98 157
61 96 153
60 96 150
60 95 158
61 97 157
61 97 156
62 98 161
61 97 159
61 97 152
61 97 152
60 95 149
61 97 155
60 96 153
61 97 158
61 97 152
62 98 158
61 97 155
62 97 161
61 96 152
61 97 152
62 98 159
62 97 153
61 96 153
62 98 160
62 97 152
60 96 145
61 96 153
65 99 144
63 97 133
62 96 135
64 98 136
68 100 130
61 95 130
59 94 139
66 99 134
59 94 135
63 97 139
61 96 142
63 97 144
62 95 135
61 96 150
60 94 126
59 94 131
59 93 128
60 95 144
59 94 130
63 97 139
59 94 130
60 95 140
59 93 126
59 94 142
60 95 141
60 96 142
60 95 142
60 96 144
61 96 147
61 96 145
60 95 149
59 94 141
61 96 147
61 96 145
60 95 142
60 95 145
62 97 151
61 97 153
60 95 136
59 94 133
60 95 135
59 94 135
61 97 148
60 95 137
60 95 145
59 94 135
60 95 130
60 95 139
59 94 128
61 96 137
61 96 143
61 96 145
59 94 141
61 97 145
61 96 148
60 94 129
62 97 148
61 96 139
60 95 133
60 95 141
61 96 148
61 96 145
62 97 148
60 94 131
61 96 142
61 96 145
59 94 133
61 96 139
59 94 131
60 95 148
60 95 137
61 96 148
62 97 145
61 97 151
61 96 139
61 96 137
59 93 129
61 96 145
60 94 129
60 96 147
61 96 149
60 95 141
60 95 141
61 96 144
61 96 148
61 96 148
60 95 140
61 96 135
59 93 121
57 90 114
59 94 131
60 95 135
60 95 140
61 95 137
59 93 131
60 94 126
61 96 140
60 94 131
60 95 136
60 94 130
61 96 136
61 95 128
58 92 122
59 93 124
61 96 126
60 94 131
59 93 122
58 92 124
59 94 122
58 92 124
58 91 121
58 92 122
59 93 130
59 93 122
59 93 130
57 90 122
57 90 117
58 91 120
58 91 118
67 96 108
82 101 90
119 134 51
110 125 0
114 127 0
113 128 0
118 132 0
118 130 0
119 131 0
124 135 0
123 136 0
123 136 0
122 134 0
114 126 0
119 132 0
115 126 0
130 145 0
126 139 0
126 138 0
121 132 0
118 129 0
121 133 0
122 135 0
127 137 0
124 135 0
125 136 0
130 143 0
123 135 0
123 133 0
128 140 0
128 138 0
123 134 0
123 133 0
124 133 0
124 134 0
123 135 0
123 136 0
123 128 0
124 136 0
127 137 0
139 151 0
134 145 0
127 137 0
127 134 0
134 146 0
128 139 0
127 136 0
126 138 0
127 136 0
138 146 0
133 140 0
132 142 0
133 144 0
134 143 0
132 144 0
138 147 0
133 145 0
139 150 0
132 143 0
139 147 0
139 149 0
138 147 0
133 144 0
136 147 0
132 139 0
132 141 0
141 152 0
143 155 0
131 142 0
140 151 0
123 130 0
133 141 0
137 151 0
134 146 0
134 143 0
149 161 0
146 158 0
138 146 0
141 152 0
140 151 0
143 152 0
139 150 0
139 149 0
146 157 0
152 166 0
141 152 0
149 159 0
145 155 0
144 154 0
141 150 0
154 164 0
153 163 0
151 161 0
138 148 0
148 160 0
154 167 0
145 155 0
150 162 0
153 163 0
149 163 0
149 163 0
156 169 0
153 166 0
153 166 0
156 171 0
156 169 0
153 167 0
152 165 0
158 174 0
150 163 0
154 165 0
156 170 0
156 170 0
155 168 0
159 175 0
157 173 0
160 174 0
166 182 0
155 168 0
158 173 0
162 177 0
158 174 0
161 178 0
159 173 0
160 176 0
160 176 0
157 173 0
163 178 0
162 178 0
158 173 0
158 173 0
161 175 0
164 179 0
165 184 0
162 179 0
161 178 0
164 182 0
165 182 0
164 182 0
153 168 0
163 181 0
165 181 0
162 182 0
161 179 0
166 186 0
163 181 0
165 183 0
167 186 0
166 185 0
167 186 0
164 183 0
162 180 0
171 194 0
171 194 0
174 196 0
173 196 0
168 192 0
170 194 0
171 195 0
170 193 0
167 191 0
169 193 0
169 193 0
171 194 0
173 196 0
170 193 0
169 193 0
168 193 0
168 192 0
174 197 0
169 192 0
170 194 0
169 192 0
168 192 0
171 195 0
169 191 0
168 190 0
170 194 0
170 193 0
170 193 0
170 193 0
164 187 0
166 190 0
170 193 0
171 193 0
167 190 0
167 191 0
170 194 0
170 194 0
166 189 0
169 193 0
169 192 0
167 191 0
164 187 0
166 188 0
167 191 0
167 190 0
165 187 0
166 190 0
165 189 0
167 190 0
161 184 0
164 188 0
165 188 0
166 190 0
166 189 0
166 189 0
163 187 0
163 186 0
161 186 0
162 186 0
164 187 0
167 189 0
162 184 0
162 185 0
161 184 0
162 185 0
161 184 0
160 183 0
160 183 0
166 188 0
164 187 0
157 180 0
159 182 0
156 179 0
158 180 0
158 182 0
162 185 0
159 182 18
141 165 74
128 153 74
132 156 65
113 137 82
93 121 102
78 108 122
60 95 139
60 94 137
58 92 122
59 94 133
58 93 126
60 94 134
57 91 117
59 94 135
60 95 144
60 94 139
59 94 135
59 94 136
59 94 129
62 97 151
60 96 144
60 95 143
60 95 143
59 95 144
61 96 145
60 95 141
60 95 140
60 95 144
61 97 154
62 97 154
61 96 142
61 97 155
60 96 149
60 96 148
61 97 153
62 98 159
61 97 152
62 98 164
61 97 154
61 96 145
60 96 150
61 96 153
61 97 158
61 98 163
61 97 156
62 98 158
60 96 151
61 97 152
60 96 156
61 96 142
64 99 160
62 97 151
65 99 152
60 96 147
59 94 134
72 103 142
64 99 151
59 94 141
61 96 136
61 96 145
67 100 143
62 97 134
61 97 148
65 99 139
59 94 137
62 96 135
64 98 130
63 97 140
60 95 139
60 95 140
59 94 134
63 97 126
60 95 141
60 95 145
60 95 145
58 93 124
61 96 141
60 95 140
60 95 137
61 96 151
60 95 137
60 95 140
60 95 148
59 95 134
60 95 140
61 96 137
60 95 134
60 96 142
62 98 152
60 95 143
60 94 140
62 97 144
61 97 145
61 97 142
61 96 148
61 96 139
61 96 139
61 96 141
59 93 130
60 95 140
61 96 149
61 96 145
61 96 148
59 94 129
59 94 131
60 94 136
60 95 142
61 96 144
60 95 141
60 95 136
61 97 145
59 93 124
60 95 136
60 94 137
58 92 128
61 95 142
60 95 136
61 97 144
60 94 139
61 96 143
61 96 144
60 94 136
59 94 137
60 96 142
60 94 133
59 93 131
61 95 143
59 93 126
59 94 135
60 95 139
59 93 126
59 93 130
60 94 133
61 96 147
61 96 141
61 96 145
60 95 137
60 95 136
60 94 135
60 95 126
60 95 136
60 95 140
61 95 133
61 96 144
60 95 130
59 94 134
59 93 136
60 94 126
59 93 129
60 95 133
60 94 130
60 95 135
58 93 125
60 94 125
58 92 128
59 93 124
59 93 135
58 93 129
59 93 125
59 93 131
58 92 128
58 92 120
60 94 133
59 93 126
58 91 128
59 92 118
56 88 107
59 93 120
58 92 118
58 91 120
64 93 108
90 107 72
106 121 60
119 131 0
123 135 0
112 125 0
120 133 0
118 132 0
121 132 0
123 137 0
129 143 0
120 133 0
134 146 0
121 133 0
119 132 0
119 131 0
122 135 0
122 135 0
122 133 0
126 141 0
122 132 0
124 136 0
119 130 0
128 138 0
131 144 0
117 129 0
120 132 0
123 135 0
127 139 0
124 136 0
131 140 0
130 141 0
127 138 0
127 138 0
118 128 0
120 131 0
123 133 0
130 143 0
121 132 0
122 132 0
128 139 0
132 145 0
128 137 0
133 145 0
132 143 0
130 141 0
128 135 0
133 142 0
129 141 0
129 139 0
125 137 0
138 147 0
134 144 0
135 144 0
131 140 0
134 143 0
130 140 0
137 148 0
140 152 0
132 141 0
141 151 0
137 144 0
141 150 0
132 140 0
134 141 0
134 143 0
134 140 0
131 138 0
130 140 0
136 144 0
142 151 0
145 153 0
138 147 0
148 161 0
150 161 0
143 154 0
146 159 0
139 150 0
153 165 0
141 150 0
143 156 0
143 153 0
142 153 0
143 153 0
143 152 0
151 165 0
143 154 0
145 158 0
142 151 0
149 163 0
145 155 0
140 151 0
149 159 0
152 163 0
152 164 0
154 167 0
138 150 0
145 157 0
151 163 0
146 158 0
158 170 0
150 162 0
158 172 0
151 161 0
158 176 0
158 174 0
155 168 0
154 169 0
160 173 0
154 170 0
153 165 0
162 177 0
154 168 0
157 169 0
156 171 0
153 165 0
161 176 0
156 171 0
159 175 0
155 172 0
158 172 0
162 179 0
160 178 0
161 177 0
159 176 0
160 175 0
157 172 0
160 176 0
161 175 0
155 171 0
160 176 0
159 176 0
158 175 0
165 184 0
159 173 0
160 175 0
166 187 0
160 177 0
162 178 0
163 179 0
166 183 0
163 180 0
162 180 0
164 183 0
164 182 0
160 179 0
161 179 0
160 178 0
162 181 0
163 183 0
164 183 0
166 186 0
165 185 0
173 196 0
170 194 0
171 196 0
173 196 0
173 196 0
174 197 0
173 195 0
170 194 0
170 193 0
171 193 0
167 191 0
171 194 0
170 194 0
168 192 0
170 194 0
170 194 0
168 191 0
168 192 0
167 191 0
173 197 0
168 192 0
165 188 0
172 195 0
171 194 0
166 190 0
169 193 0
172 195 0
168 191 0
168 191 0
164 188 0
164 188 0
168 191 0
168 192 0
166 190 0
165 190 0
166 188 0
166 191 0
162 185 0
170 194 0
168 191 0
168 191 0
165 189 0
165 188 0
167 191 0
168 191 0
168 191 0
165 189 0
163 187 0
164 188 0
165 188 0
167 190 0
167 191 0
161 185 0
163 186 0
157 180 0
160 182 0
163 187 0
155 178 0
160 183 0
162 185 0
156 179 0
164 187 0
163 187 0
162 185 0
160 183 0
164 187 0
157 180 0
158 180 0
162 185 0
161 183 0
162 184 0
166 189 0
158 181 0
159 180 0
164 186 0
158 182 0
161 184 0
151 174 47
137 161 47
124 148 76
121 145 90
105 131 99
89 116 114
70 102 133
57 91 118
61 96 137
58 92 117
58 92 134
58 92 115
59 94 133
60 94 129
59 93 133
58 92 129
60 95 143
59 94 128
61 96 144
59 94 136
59 94 141
58 93 134
58 92 137
59 94 139
60 95 141
60 96 151
59 94 136
61 97 154
61 97 154
62 97 152
61 96 149
61 97 157
61 96 142
62 98 160
61 96 152
60 96 152
61 97 159
61 96 149
61 97 155
61 97 158
61 97 157
62 98 161
62 98 151
61 96 152
61 97 157
61 97 158
62 97 158
60 95 148
61 96 149
61 97 152
62 96 144
59 95 148
64 98 152
64 98 145
70 103 149
62 97 147
60 95 144
60 96 140
62 96 139
65 98 137
61 95 133
61 95 131
65 99 143
61 95 133
64 97 135
59 93 124
58 92 133
63 97 139
60 95 142
60 94 137
60 94 130
60 95 141
60 95 139
59 94 134
60 95 131
60 95 141
61 97 144
60 95 140
61 96 142
60 94 136
61 96 144
60 95 136
60 95 139
61 96 145
59 94 131
60 95 147
59 94 130
61 96 147
61 96 136
60 95 135
60 96 145
61 96 144
60 95 134
61 96 148
61 97 148
60 95 131
61 97 154
61 96 137
60 95 135
60 95 139
61 96 148
61 96 144
62 97 149
59 94 135
61 96 140
59 94 131
60 95 144
60 95 141
58 92 129
61 96 150
60 95 134
60 95 137
61 96 140
59 93 126
59 93 130
59 94 133
60 95 136
60 95 140
59 94 135
61 95 137
59 93 130
62 97 152
61 97 144
61 96 139
61 95 139
59 94 134
60 94 133
61 96 137
60 94 136
59 93 122
59 94 126
60 94 130
59 93 124
60 95 137
61 95 139
59 94 129
59 94 135
59 94 133
59 93 126
60 95 142
59 94 133
60 94 134
58 92 121
60 95 135
62 96 143
61 95 140
61 95 134
60 94 141
60 95 136
59 94 130
58 92 126
60 94 133
59 93 130
58 93 133
59 93 125
59 93 129
59 93 121
58 92 125
59 94 118
59 94 130
58 92 122
59 94 122
58 92 117
57 90 107
57 90 113
58 92 118
57 90 118
57 90 110
56 88 102
57 90 114
85 108 96
105 121 47
122 137 0
124 136 0
113 125 0
122 133 0
126 139 0
125 137 0
125 137 0
124 138 0
134 147 0
134 148 0
125 137 0
120 134 0
120 130 0
124 138 0
119 131 0
115 126 0
130 143 0
123 136 0
126 138 0
129 143 0
123 136 0
130 143 0
119 131 0
117 130 0
124 134 0
123 137 0
131 145 0
132 144 0
123 138 0
128 139 0
109 121 0
128 138 0
122 132 0
131 144 0
129 140 0
131 140 0
126 138 0
133 145 0
127 135 0
133 145 0
131 139 0
120 126 0
140 152 0
130 141 0
135 146 0
142 153 0
137 149 0
138 148 0
127 139 0
138 148 0
135 145 0
134 145 0
127 137 0
134 143 0
132 143 0
131 145 0
136 145 0
135 146 0
137 147 0
137 144 0
139 150 0
139 148 0
131 144 0
133 144 0
134 144 0
135 144 0
137 150 0
139 149 0
140 151 0
135 146 0
146 155 0
139 149 0
146 157 0
137 147 0
138 149 0
130 140 0
146 156 0
144 159 0
138 150 0
145 151 0
147 159 0
149 161 0
152 166 0
135 143 0
148 160 0
151 163 0
143 154 0
152 166 0
153 162 0
142 153 0
156 169 0
149 161 0
146 160 0
148 160 0
153 164 0
153 164 0
154 167 0
149 158 0
157 170 0
155 168 0
153 166 0
150 160 0
154 169 0
153 167 0
154 168 0
149 162 0
148 162 0
160 177 0
157 171 0
152 165 0
159 172 0
159 173 0
154 168 0
160 175 0
161 177 0
158 174 0
156 172 0
160 174 0
162 178 0
155 169 0
161 176 0
163 181 0
161 176 0
162 178 0
159 174 0
160 176 0
161 177 0
162 177 0
156 173 0
163 178 0
165 183 0
158 174 0
164 183 0
158 176 0
158 175 0
161 180 0
159 178 0
159 177 0
161 180 0
165 185 0
159 176 0
165 184 0
164 182 0
164 179 0
166 185 0
164 183 0
167 185 0
169 189 0
165 184 0
162 180 0
165 185 0
172 196 0
171 195 0
173 196 0
172 196 0
172 196 0
170 193 0
173 197 0
169 192 0
171 195 0
170 194 0
171 193 0
170 193 0
168 192 0
169 193 0
170 194 0
170 193 0
169 193 0
173 196 0
169 194 0
168 191 0
169 192 0
170 193 0
166 189 0
171 195 0
170 193 0
168 191 0
171 194 0
172 194 0
166 188 0
171 195 0
168 192 0
164 187 0
166 189 0
167 191 0
163 186 0
161 184 0
166 190 0
169 193 0
168 192 0
163 185 0
163 186 0
167 192 0
164 188 0
164 188 0
164 188 0
164 188 0
162 186 0
171 195 0
163 186 0
162 186 0
166 190 0
165 189 0
167 190 0
162 186 0
160 183 0
163 186 0
166 189 0
165 188 0
167 190 0
158 182 0
158 181 0
164 188 0
162 185 0
160 184 0
163 186 0
160 183 0
157 179 0
160 182 0
155 179 0
153 177 0
158 181 0
156 179 0
156 178 0
152 173 0
156 179 0
159 181 0
156 179 0
155 178 18
143 166 40
134 157 65
127 150 54
110 136 94
92 119 100
81 109 114
69 101 122
58 93 130
60 94 133
59 93 135
60 95 134
60 96 145
59 94 133
59 94 136
58 92 124
60 94 139
59 94 137
59 94 139
59 93 134
60 95 148
59 94 137
59 94 137
59 94 134
61 96 145
60 95 147
60 95 152
59 94 137
61 97 152
61 96 145
59 95 152
60 96 153
61 97 153
61 96 152
60 95 144
61 96 159
61 97 154
60 95 147
61 97 152
61 97 154
60 96 149
61 97 155
61 97 153
60 96 151
61 97 151
62 97 158
61 97 154
61 97 158
61 97 155
61 96 147
61 97 155
61 96 145
63 97 148
60 95 137
67 100 148
73 104 137
66 100 142
66 100 141
60 95 142
66 99 137
63 96 128
63 97 141
63 98 148
62 96 133
62 97 134
64 98 135
60 95 145
61 95 140
62 96 136
60 94 141
61 95 131
62 97 135
60 95 133
59 93 117
61 96 148
59 93 130
59 94 136
59 94 135
59 93 128
60 94 143
59 94 133
58 93 128
61 96 139
61 96 144
61 95 139
60 94 140
61 96 145
59 94 133
59 93 135
59 94 141
60 94 140
62 96 141
59 93 135
60 95 142
59 94 124
59 93 130
59 93 131
62 97 149
61 96 147
60 95 140
60 96 144
61 96 134
60 95 139
61 96 141
60 95 140
60 95 136
60 95 134
60 95 137
59 94 129
59 94 126
60 95 140
61 96 142
62 97 147
60 95 133
58 92 131
61 95 136
59 94 134
60 95 136
59 93 133
61 97 145
60 95 131
60 94 135
60 94 140
60 95 135
59 94 131
60 95 135
60 96 136
61 96 140
60 95 141
59 94 128
60 95 135
60 94 131
61 96 135
60 95 143
60 94 134
60 95 125
59 93 126
59 94 125
60 95 131
58 91 125
60 94 134
59 93 125
60 95 130
58 92 115
59 93 126
59 93 126
60 94 128
60 94 133
60 95 137
59 93 124
59 93 126
59 93 135
60 94 125
59 94 126
62 97 137
59 93 126
58 92 122
58 92 124
59 93 129
58 91 121
59 93 134
58 92 122
59 93 124
56 89 108
58 92 121
56 89 110
58 91 122
57 90 114
57 90 108
70 95 81
104 119 51
117 134 44
121 135 0
116 130 0
113 126 0
127 141 0
124 138 0
113 127 0
116 126 0
124 138 0
129 142 0
114 127 0
118 131 0
126 140 0
128 142 0
131 147 0
117 127 0
106 119 0
125 138 0
123 136 0
126 138 0
123 135 0
121 134 0
131 144 0
121 134 0
130 144 0
122 131 0
131 143 0
133 145 0
123 135 0
130 142 0
138 152 0
124 136 0
127 137 0
134 145 0
125 136 0
137 150 0
135 146 0
125 139 0
128 140 0
139 150 0
124 134 0
137 151 0
135 147 0
130 142 0
135 147 0
138 149 0
121 134 0
136 147 0
133 145 0
125 135 0
130 144 0
132 143 0
133 143 0
139 152 0
134 145 0
135 148 0
138 149 0
140 153 0
137 146 0
139 150 0
138 149 0
138 148 0
140 149 0
136 146 0
139 152 0
138 150 0
142 151 0
139 153 0
146 158 0
147 159 0
127 137 0
147 159 0
146 157 0
146 157 0
137 148 0
138 149 0
142 153 0
146 158 0
145 156 0
144 156 0
141 149 0
147 157 0
146 157 0
146 159 0
134 144 0
143 155 0
143 156 0
153 167 0
143 156 0
148 160 0
152 165 0
148 161 0
157 170 0
154 165 0
150 162 0
150 166 0
144 155 0
152 164 0
146 159 0
160 175 0
154 166 0
156 170 0
159 171 0
155 169 0
150 164 0
150 164 0
155 167 0
155 169 0
151 166 0
158 172 0
157 171 0
157 170 0
158 173 0
160 175 0
153 169 0
156 169 0
159 174 0
158 173 0
162 177 0
158 175 0
159 176 0
164 180 0
159 172 0
165 184 0
158 174 0
153 170 0
157 172 0
157 173 0
158 173 0
163 180 0
159 174 0
155 172 0
160 176 0
160 177 0
162 180 0
159 177 0
164 181 0
162 181 0
165 181 0
164 182 0
157 173 0
162 179 0
159 178 0
164 183 0
165 185 0
159 175 0
161 179 0
166 185 0
163 182 0
164 181 0
163 180 0
164 183 0
173 196 0
173 196 0
170 193 0
172 196 0
167 191 0
169 193 0
171 194 0
172 196 0
167 190 0
172 196 0
170 194 0
169 193 0
168 192 0
172 194 0
169 192 0
169 193 0
168 193 0
167 190 0
169 193 0
169 193 0
169 191 0
165 188 0
170 194 0
169 193 0
171 195 0
169 193 0
168 192 0
171 194 0
169 193 0
166 190 0
162 186 0
167 190 0
169 192 0
170 194 0
164 188 0
165 188 0
168 190 0
161 185 0
167 190 0
167 190 0
162 185 0
159 181 0
166 190 0
165 189 0
169 193 0
170 193 0
163 187 0
167 191 0
160 183 0
160 184 0
161 185 0
162 185 0
166 190 0
167 191 0
159 182 0
160 183 0
164 187 0
163 187 0
159 182 0
162 185 0
163 187 0
163 187 0
165 187 0
157 180 0
160 183 0
156 179 0
160 182 0
154 176 0
161 184 0
159 182 0
160 183 0
157 180 0
159 182 0
163 186 0
160 183 0
162 184 0
151 174 0
160 183 0
154 177 25
138 161 67
132 156 65
130 153 72
116 141 82
91 117 108
76 107 117
59 93 129
58 92 117
58 92 126
60 94 128
59 93 128
59 93 126
60 95 135
58 92 125
60 95 139
60 95 142
59 93 129
59 93 129
61 96 143
60 95 148
59 94 139
59 94 134
59 94 129
61 96 150
59 94 139
60 96 140
59 93 129
60 96 145
61 97 149
61 96 149
59 94 145
61 96 151
60 95 142
62 97 147
61 97 149
61 97 151
61 97 152
62 97 156
61 97 151
61 97 153
61 96 152
61 97 153
61 96 144
60 96 148
62 97 153
62 97 151
61 97 147
61 97 155
62 97 157
60 95 147
62 96 148
60 95 142
65 99 142
69 102 142
67 100 139
63 97 144
67 100 139
67 100 133
68 101 144
63 97 145
62 96 133
60 95 135
60 95 134
62 96 133
59 94 129
61 95 125
61 95 137
58 92 121
62 96 135
59 94 135
60 94 131
59 93 126
59 94 140
61 96 137
63 97 133
59 93 128
61 96 141
59 93 117
61 96 139
60 95 140
60 95 140
59 94 140
60 94 134
59 94 141
59 95 133
59 93 129
60 95 139
60 94 133
61 96 150
59 93 133
60 95 139
58 93 133
59 94 133
58 93 129
60 95 143
59 94 137
60 95 131
61 95 140
59 94 143
59 93 134
59 94 125
60 94 133
59 94 125
59 93 137
60 95 141
60 95 136
62 97 149
61 95 141
59 93 131
59 94 141
61 96 136
59 93 126
61 96 140
60 95 134
61 96 143
61 96 148
59 94 130
59 94 139
59 94 136
60 95 134
60 95 134
59 93 125
60 95 139
61 96 142
61 96 140
60 95 133
61 96 147
60 95 131
60 95 125
59 94 126
60 94 139
59 94 125
59 92 124
60 95 140
60 94 130
62 97 139
60 94 134
61 95 139
60 94 136
59 93 122
59 93 130
59 93 125
57 90 115
60 95 122
58 93 115
61 95 137
60 95 130
60 95 134
58 91 120
57 90 122
59 94 125
58 92 126
59 93 118
58 92 114
60 95 129
60 94 133
58 92 115
59 93 121
59 93 128
58 92 115
57 90 108
59 93 118
58 92 124
57 90 115
58 91 128
57 90 115
72 100 113
91 113 80
98 114 47
112 124 18
130 143 0
129 142 0
127 138 0
109 122 0
108 121 0
122 135 0
135 148 0
118 129 0
119 129 0
124 138 0
122 137 0
114 128 0
124 139 0
118 132 0
119 130 0
125 139 0
125 138 0
127 141 0
128 143 0
122 134 0
126 139 0
118 132 0
133 148 0
123 134 0
118 128 0
128 139 0
120 132 0
136 148 0
130 143 0
128 139 0
119 131 0
127 138 0
136 150 0
129 142 0
127 133 0
129 141 0
130 140 0
134 147 0
124 135 0
131 140 0
131 144 0
139 152 0
128 138 0
128 137 0
132 143 0
135 148 0
130 142 0
138 152 0
137 148 0
138 150 0
141 151 0
141 154 0
138 149 0
133 143 0
139 152 0
126 137 0
138 149 0
142 154 0
140 150 0
124 136 0
138 147 0
138 150 0
133 145 0
142 154 0
151 164 0
148 159 0
149 159 0
140 151 0
148 159 0
137 145 0
142 157 0
141 154 0
141 151 0
144 157 0
148 162 0
147 158 0
147 157 0
140 150 0
148 161 0
142 155 0
140 150 0
144 157 0
145 156 0
153 165 0
149 163 0
148 160 0
144 154 0
154 168 0
154 168 0
147 160 0
155 170 0
156 170 0
153 164 0
153 166 0
147 160 0
158 174 0
151 164 0
156 169 0
146 157 0
155 168 0
151 162 0
154 167 0
158 174 0
162 177 0
153 166 0
158 175 0
155 170 0
152 167 0
155 171 0
159 175 0
155 172 0
156 171 0
151 166 0
159 173 0
153 167 0
156 171 0
159 176 0
155 172 0
158 175 0
158 174 0
161 178 0
161 177 0
158 174 0
162 178 0
160 177 0
154 171 0
158 172 0
160 177 0
162 180 0
164 180 0
157 174 0
163 181 0
157 174 0
162 181 0
162 179 0
164 184 0
161 179 0
166 184 0
162 179 0
164 183 0
164 183 0
164 182 0
164 182 0
164 184 0
162 178 0
169 189 0
165 183 0
164 183 0
164 182 0
167 186 0
164 183 0
170 194 0
172 195 0
173 195 0
170 194 0
170 194 0
167 190 0
172 196 0
167 190 0
168 192 0
169 193 0
168 192 0
167 191 0
170 193 0
171 194 0
165 189 0
170 194 0
171 192 0
171 194 0
173 196 0
169 192 0
169 192 0
166 189 0
169 191 0
167 191 0
170 193 0
170 193 0
169 193 0
168 191 0
169 192 0
166 189 0
167 190 0
167 190 0
162 186 0
166 190 0
169 193 0
172 195 0
165 188 0
166 190 0
165 189 0
170 193 0
168 191 0
163 187 0
164 187 0
164 188 0
163 187 0
161 185 0
168 192 0
163 186 0
167 191 0
164 188 0
165 189 0
166 189 0
163 186 0
168 191 0
165 188 0
163 186 0
157 180 0
165 187 0
160 182 0
163 186 0
157 180 0
157 181 0
159 182 0
151 174 0
157 180 0
156 179 0
145 168 0
159 182 0
157 179 0
159 182 0
161 184 0
152 175 0
150 173 0
156 179 0
160 183 0
156 179 0
153 175 0
154 176 0
152 176 25
145 167 44
138 159 60
120 144 72
114 138 70
106 132 108
92 119 120
65 96 103
59 94 128
59 93 120
59 93 131
60 95 136
56 89 114
59 94 121
59 93 129
59 94 130
59 94 129
60 94 126
60 96 141
60 95 134
59 94 148
60 95 141
60 95 134
61 96 143
59 94 136
59 94 135
60 96 143
60 95 140
59 94 129
60 95 144
60 95 150
60 95 141
61 97 153
61 97 149
61 97 154
60 96 154
62 98 157
61 96 151
61 97 159
60 95 147
61 96 152
61 96 147
62 98 164
62 97 156
61 97 152
61 97 158
61 97 151
61 97 153
62 98 156
61 97 153
63 97 152
65 98 145
59 94 137
62 96 142
68 101 136
71 104 144
62 96 134
64 98 140
65 99 149
69 101 134
65 98 141
62 96 139
67 100 137
61 95 131
60 93 122
59 93 130
60 95 142
63 97 139
63 96 130
60 94 128
59 94 130
60 94 136
60 94 140
61 95 137
62 96 135
59 93 129
58 92 129
59 93 129
59 94 135
60 95 134
59 94 130
59 93 134
61 96 145
60 95 130
61 95 139
60 95 141
61 96 139
60 94 137
61 96 143
61 95 134
61 95 134
60 94 139
61 95 140
59 93 133
60 95 140
60 95 141
61 96 147
61 96 144
61 95 137
59 94 136
61 96 142
60 95 135
60 94 139
61 96 139
60 95 137
60 94 131
60 95 140
59 93 130
59 94 136
61 96 142
61 96 145
60 95 139
61 96 139
60 95 141
60 94 139
59 94 126
59 93 143
61 95 142
61 95 139
60 95 133
61 96 137
59 93 133
60 95 140
59 94 129
61 97 145
60 95 133
59 93 121
61 96 142
61 96 141
59 93 130
60 94 135
59 94 129
60 94 134
60 95 135
59 94 125
62 97 145
60 94 134
60 95 136
60 95 136
59 93 134
59 93 125
59 94 128
60 94 129
59 93 120
58 91 122
60 95 137
59 93 128
60 95 124
59 94 141
59 93 131
58 92 122
58 92 115
60 94 126
59 93 129
58 92 128
58 91 120
58 91 120
60 94 130
59 92 124
57 91 115
56 89 110
57 90 113
59 92 125
56 89 110
57 91 111
58 91 120
58 89 107
87 109 87
106 122 62
117 129 18
116 130 0
129 142 0
118 132 0
123 136 0
125 139 0
127 139 0
124 138 0
126 141 0
118 131 0
127 140 0
127 142 0
126 139 0
124 136 0
124 137 0
127 140 0
121 134 0
130 144 0
128 139 0
123 136 0
121 134 0
124 136 0
122 134 0
118 131 0
124 136 0
128 141 0
118 131 0
127 139 0
136 151 0
125 136 0
128 139 0
140 155 0
131 146 0
124 136 0
133 144 0
127 138 0
127 138 0
132 145 0
144 158 0
130 143 0
136 149 0
127 142 0
131 142 0
138 148 0
133 145 0
125 135 0
139 148 0
140 155 0
131 141 0
142 154 0
132 142 0
138 149 0
134 146 0
142 155 0
132 143 0
142 154 0
138 151 0
134 145 0
146 158 0
147 160 0
147 160 0
145 157 0
139 150 0
146 157 0
142 154 0
137 148 0
146 158 0
135 143 0
143 157 0
147 158 0
141 153 0
142 155 0
143 152 0
145 157 0
150 160 0
140 155 0
142 157 0
141 151 0
142 151 0
148 160 0
142 153 0
149 159 0
144 154 0
145 160 0
140 151 0
146 160 0
148 160 0
148 163 0
144 158 0
157 169 0
147 159 0
144 154 0
145 159 0
153 165 0
152 166 0
151 164 0
146 160 0
154 168 0
157 171 0
150 165 0
150 163 0
150 166 0
151 165 0
156 172 0
158 172 0
154 170 0
157 172 0
156 170 0
156 171 0
158 174 0
153 170 0
156 173 0
164 178 0
158 173 0
161 176 0
155 171 0
153 168 0
153 168 0
159 176 0
163 180 0
157 173 0
157 172 0
159 176 0
161 177 0
158 174 0
160 177 0
163 181 0
157 173 0
159 176 0
160 178 0
159 177 0
160 178 0
161 180 0
159 175 0
157 175 0
162 178 0
158 174 0
159 176 0
159 178 0
162 181 0
163 181 0
164 180 0
168 188 0
165 185 0
167 186 0
160 178 0
162 180 0
165 183 0
167 185 0
166 186 0
163 182 0
167 186 0
166 186 0
171 193 0
172 196 0
172 195 0
172 195 0
173 197 0
171 195 0
172 196 0
172 195 0
171 194 0
171 194 0
171 194 0
170 194 0
169 193 0
168 191 0
172 195 0
170 193 0
167 190 0
168 191 0
170 193 0
171 194 0
164 187 0
160 184 0
166 189 0
169 192 0
168 191 0
169 193 0
168 192 0
170 193 0
167 190 0
166 191 0
166 190 0
169 193 0
167 191 0
164 188 0
168 192 0
167 190 0
167 191 0
165 188 0
170 193 0
167 192 0
170 194 0
160 183 0
160 184 0
161 184 0
170 192 0
160 183 0
169 192 0
166 189 0
160 184 0
162 186 0
161 184 0
168 190 0
167 190 0
162 185 0
161 185 0
164 187 0
154 178 0
161 183 0
163 186 0
160 183 0
159 181 0
161 185 0
161 185 0
155 177 0
158 181 0
158 181 0
155 177 0
161 184 0
159 182 0
158 181 0
163 186 0
155 178 0
143 166 0
158 180 0
156 178 0
155 177 0
157 179 0
154 176 0
153 175 0
150 172 25
140 162 0
138 162 70
121 144 82
108 132 102
99 125 90
78 108 124
63 96 125
59 93 117
59 93 130
59 93 124
58 92 121
58 92 117
58 93 125
59 93 131
59 93 129
59 93 131
58 93 129
59 93 131
58 92 125
60 94 140
60 95 139
60 94 128
59 93 129
59 94 139
60 94 129
60 96 147
60 96 149
60 95 149
61 96 151
61 97 151
59 95 144
59 94 141
59 94 133
61 96 152
62 97 158
61 96 154
60 95 145
61 97 154
62 97 149
61 97 152
61 97 151
60 96 149
60 95 148
61 96 155
61 96 151
61 96 147
61 96 147
60 96 149
64 99 155
66 98 146
67 99 150
61 96 147
65 99 147
64 97 144
67 100 137
65 98 134
60 95 143
60 94 135
64 97 130
60 94 133
62 96 140
60 95 137
60 95 137
67 100 134
61 94 126
60 94 124
62 95 128
60 94 139
59 93 120
60 95 145
59 93 136
59 93 137
63 97 136
61 95 136
60 94 141
60 94 130
59 94 137
61 96 143
59 95 141
60 94 136
60 94 137
60 95 139
59 93 131
60 95 137
61 96 139
60 94 131
60 95 137
58 93 129
58 92 125
60 95 147
59 94 135
59 94 129
60 95 142
60 95 142
61 96 140
60 95 136
60 94 136
59 93 129
59 93 133
59 93 130
59 94 133
60 95 135
60 95 147
60 95 135
60 95 136
58 93 126
60 94 139
60 95 140
60 95 139
60 95 139
60 95 134
59 93 128
61 96 136
60 94 133
60 95 142
60 95 139
59 94 133
60 94 131
61 96 139
59 94 137
59 94 133
60 94 134
60 94 136
60 94 133
59 94 136
61 97 147
58 92 122
59 93 114
59 93 126
61 96 142
59 93 130
60 95 143
60 94 135
60 94 128
61 95 145
60 94 135
60 94 131
61 96 141
59 93 125
60 94 125
59 94 124
60 94 129
61 96 137
59 94 125
58 92 122
58 92 128
61 95 130
58 92 117
58 92 124
58 93 125
59 92 114
58 91 122
58 91 118
58 91 114
59 93 120
59 93 125
57 91 111
56 89 114
59 93 118
58 91 118
59 93 122
57 89 110
56 89 117
59 91 113
77 101 94
98 116 78
109 124 31
107 120 0
100 112 0
116 128 0
121 133 0
121 133 0
118 133 0
125 138 0
127 141 0
118 134 0
113 127 0
126 140 0
110 124 0
118 131 0
134 149 0
135 147 0
127 141 0
129 144 0
112 126 0
119 132 0
123 136 0
119 132 0
129 144 0
126 139 0
131 146 0
129 143 0
130 142 0
133 145 0
125 137 0
122 136 0
123 135 0
130 143 0
127 140 0
140 153 0
126 138 0
146 161 0
136 150 0
133 147 0
133 142 0
132 144 0
137 153 0
129 142 0
135 148 0
139 152 0
139 152 0
135 148 0
129 143 0
127 138 0
129 141 0
139 152 0
142 155 0
132 143 0
138 148 0
138 149 0
138 150 0
140 152 0
143 154 0
142 153 0
125 137 0
140 151 0
138 150 0
130 145 0
139 153 0
141 152 0
131 143 0
143 156 0
140 150 0
145 158 0
135 148 0
145 158 0
147 158 0
143 155 0
143 157 0
147 157 0
151 160 0
151 163 0
151 163 0
147 162 0
150 164 0
148 161 0
143 154 0
140 153 0
141 153 0
143 157 0
150 165 0
150 162 0
151 162 0
151 164 0
144 154 0
151 166 0
145 158 0
155 169 0
149 162 0
152 169 0
150 165 0
155 169 0
153 166 0
156 168 0
158 175 0
147 161 0
151 165 0
143 157 0
147 163 0
152 165 0
151 167 0
147 161 0
158 173 0
154 166 0
156 172 0
156 170 0
156 172 0
158 173 0
154 166 0
156 172 0
155 170 0
158 174 0
158 171 0
161 178 0
152 169 0
157 172 0
158 173 0
154 169 0
160 177 0
158 173 0
165 182 0
161 177 0
155 171 0
165 182 0
160 178 0
156 171 0
166 185 0
164 181 0
154 171 0
165 184 0
162 179 0
162 180 0
161 178 0
167 186 0
160 175 0
160 176 0
164 179 0
163 180 0
161 179 0
156 171 0
162 182 0
164 183 0
163 182 0
165 182 0
162 180 0
168 188 0
164 183 0
161 178 0
164 182 0
165 185 0
172 196 0
172 196 0
170 194 0
167 191 0
172 196 0
170 194 0
172 196 0
174 197 0
167 191 0
168 192 0
172 196 0
169 192 0
168 192 0
168 191 0
167 190 0
167 190 0
170 193 0
166 189 0
173 196 0
169 192 0
168 191 0
171 194 0
168 191 0
169 192 0
167 190 0
170 193 0
170 194 0
165 188 0
167 191 0
168 192 0
168 192 0
167 190 0
170 193 0
168 192 0
160 184 0
171 194 0
164 188 0
164 186 0
171 193 0
169 192 0
164 187 0
156 178 0
161 183 0
164 187 0
163 186 0
163 187 0
163 186 0
166 189 0
154 177 0
162 184 0
160 183 0
164 187 0
161 184 0
158 183 0
166 190 0
165 189 0
165 189 0
162 184 0
161 184 0
149 172 0
161 185 0
163 186 0
157 179 0
156 179 0
159 182 0
152 174 0
161 185 0
155 178 0
151 174 0
154 177 0
156 179 0
153 175 0
154 175 0
156 180 0
160 183 0
149 172 0
158 181 0
159 182 0
148 170 0
150 172 0
140 163 36
141 164 51
129 153 65
124 148 80
103 128 92
91 117 111
79 108 102
59 94 125
58 92 118
58 92 118
58 91 118
58 92 121
59 93 128
58 91 124
60 94 136
58 92 120
60 94 135
59 95 140
58 93 129
58 92 126
59 93 135
58 93 128
60 95 140
59 94 141
60 95 136
59 94 130
60 95 147
59 94 139
61 96 148
60 95 147
61 96 148
59 94 137
60 95 140
61 96 150
62 98 151
61 97 150
62 97 156
61 97 149
61 96 147
60 96 148
61 97 152
61 97 145
62 97 157
61 97 149
61 96 152
62 97 154
61 97 153
61 97 149
67 100 152
62 96 145
67 99 145
63 96 145
63 97 134
66 100 133
62 97 140
61 95 130
74 106 137
71 103 129
62 96 136
61 96 139
62 96 131
63 97 128
59 92 133
59 94 135
62 96 130
63 96 118
58 92 122
60 94 131
60 94 147
64 97 128
62 97 140
60 93 118
58 92 113
58 92 130
58 92 126
59 94 131
61 96 142
60 95 139
60 95 142
59 94 131
61 96 142
60 95 140
61 97 147
58 93 134
59 94 129
61 96 144
60 94 134
60 95 142
59 93 130
59 94 128
59 94 131
59 94 134
60 95 137
59 93 131
59 94 141
58 93 128
60 95 142
58 93 125
60 94 137
60 95 134
58 92 126
60 95 135
60 95 130
60 95 142
59 94 139
59 94 130
60 94 137
59 94 134
59 93 128
56 90 120
59 93 121
58 92 122
60 96 148
59 94 137
58 92 128
60 95 137
59 93 129
60 95 135
58 92 124
60 94 137
60 95 141
60 95 139
60 95 134
60 95 135
61 96 139
58 93 134
60 95 139
60 95 125
59 94 131
59 94 134
59 94 121
60 95 135
59 94 125
59 94 128
60 95 139
58 92 124
57 90 117
59 93 124
59 93 124
60 94 131
59 93 128
60 95 134
59 94 125
58 91 125
60 95 135
60 95 133
59 93 122
58 92 118
57 90 111
59 94 126
60 94 135
57 90 110
58 91 122
60 94 134
58 92 126
57 90 114
58 92 113
57 90 113
58 91 126
57 90 110
58 91 114
57 89 118
55 88 100
79 104 92
88 107 62
97 111 36
108 121 0
111 125 0
115 130 0
119 133 0
118 131 0
117 130 0
114 128 0
137 153 0
120 132 0
113 124 0
127 143 0
114 128 0
132 147 0
125 140 0
116 128 0
130 144 0
124 138 0
122 135 0
119 131 0
139 156 0
121 135 0
120 130 0
130 144 0
123 139 0
125 139 0
126 138 0
123 135 0
128 139 0
135 149 0
130 145 0
132 145 0
132 147 0
127 142 0
130 142 0
131 145 0
132 147 0
133 145 0
141 156 0
124 137 0
128 140 0
136 151 0
132 144 0
129 141 0
139 149 0
138 153 0
130 140 0
127 139 0
134 149 0
144 155 0
136 150 0
133 145 0
136 151 0
140 154 0
146 158 0
141 155 0
145 160 0
137 150 0
139 153 0
135 149 0
139 153 0
137 146 0
138 150 0
143 155 0
142 156 0
134 148 0
146 160 0
135 147 0
137 150 0
140 153 0
141 156 0
151 167 0
139 148 0
143 154 0
143 156 0
136 148 0
148 163 0
145 158 0
147 158 0
147 159 0
148 161 0
144 156 0
145 157 0
149 163 0
147 159 0
152 165 0
147 159 0
145 159 0
151 163 0
150 164 0
147 159 0
144 154 0
158 174 0
153 169 0
155 171 0
147 160 0
151 167 0
160 174 0
148 161 0
150 163 0
154 170 0
157 172 0
155 169 0
152 167 0
159 173 0
156 175 0
157 170 0
146 158 0
157 173 0
153 168 0
151 165 0
152 168 0
151 167 0
156 173 0
156 170 0
155 168 0
160 178 0
150 164 0
156 171 0
158 174 0
161 175 0
160 176 0
155 170 0
159 177 0
157 170 0
154 171 0
156 172 0
152 170 0
159 179 0
157 174 0
164 182 0
163 180 0
160 177 0
163 179 0
163 181 0
159 176 0
164 182 0
161 178 0
158 175 0
161 177 0
166 186 0
161 178 0
164 181 0
165 184 0
163 181 0
166 184 0
162 180 0
165 184 0
165 185 0
167 188 0
167 185 0
165 185 0
158 174 0
162 181 0
166 184 0
171 195 0
171 194 0
169 192 0
172 196 0
172 196 0
167 191 0
167 190 0
169 192 0
171 195 0
168 192 0
166 190 0
174 198 0
168 191 0
170 194 0
165 188 0
165 189 0
171 195 0
167 191 0
165 189 0
170 193 0
168 190 0
167 190 0
168 191 0
167 190 0
168 191 0
167 190 0
167 191 0
165 189 0
167 190 0
164 188 0
158 182 0
165 188 0
167 191 0
167 189 0
165 189 0
163 186 0
167 190 0
166 190 0
165 188 0
166 189 0
165 188 0
168 191 0
165 189 0
165 188 0
163 186 0
160 183 0
160 183 0
161 185 0
165 187 0
165 189 0
162 185 0
159 182 0
164 187 0
163 185 0
163 187 0
162 184 0
163 187 0
163 186 0
166 190 0
163 187 0
160 183 0
160 184 0
161 184 0
163 186 0
157 179 0
158 181 0
167 190 0
155 177 0
152 175 0
160 182 0
157 180 0
156 179 0
152 173 0
157 180 0
153 176 0
149 172 0
149 173 0
148 171 0
160 182 0
150 172 0
158 180 0
142 165 44
135 158 57
128 151 74
107 132 78
109 134 92
84 111 97
59 93 121
56 90 103
58 93 120
58 92 120
59 93 124
59 94 125
57 91 114
60 94 134
58 92 124
58 92 125
59 94 141
58 93 128
59 94 140
60 95 136
59 94 126
59 94 126
60 95 139
60 95 135
60 95 136
60 95 137
60 94 134
58 93 129
60 95 143
61 96 147
59 95 145
60 95 144
61 96 147
60 96 147
61 96 149
61 97 156
60 96 145
61 97 147
60 95 143
60 95 151
61 96 148
61 97 153
61 96 152
61 97 152
61 97 148
59 94 144
61 96 144
63 97 148
63 97 150
65 99 153
72 102 144
63 96 142
70 103 143
71 103 142
69 101 125
62 96 141
62 96 143
68 101 147
70 100 128
59 94 130
59 95 139
63 97 134
59 93 134
59 93 130
58 93 128
61 95 129
59 94 130
60 95 139
59 93 124
63 97 130
60 95 135
62 97 137
60 94 134
61 95 128
60 95 136
58 93 126
59 94 133
59 94 129
58 93 133
58 93 126
61 96 133
60 95 143
58 92 117
60 95 137
60 95 136
60 94 140
59 94 128
59 94 129
59 94 121
59 93 133
58 92 118
59 93 126
60 94 139
58 92 125
59 93 133
59 93 125
58 92 121
60 94 129
60 95 141
59 94 135
61 96 141
58 93 133
60 94 133
60 95 131
60 95 135
59 94 137
58 93 133
59 94 125
60 95 136
60 95 136
60 95 137
61 96 144
60 94 126
60 95 133
59 93 128
59 93 129
60 95 131
58 93 120
59 94 133
60 94 130
59 93 128
59 93 128
59 94 130
59 94 130
60 95 137
60 95 124
60 94 124
60 95 130
58 91 125
59 94 130
59 94 125
60 95 134
60 94 129
58 92 125
59 94 130
59 93 130
58 92 122
61 95 136
59 93 128
58 92 120
60 94 139
57 92 117
59 93 131
59 93 121
57 91 117
59 93 129
59 94 133
59 93 121
58 93 117
57 91 117
59 93 121
58 91 120
58 91 121
55 88 111
57 90 117
60 94 129
57 91 113
57 90 121
56 88 102
55 87 107
56 88 110
76 101 94
97 117 54
114 130 25
118 130 0
127 140 0
120 132 0
118 132 0
118 130 0
126 141 0
112 127 0
127 139 0
114 128 0
120 135 0
123 136 0
111 125 0
123 136 0
127 141 0
121 135 0
121 133 0
128 141 0
120 135 0
119 134 0
133 148 0
126 141 0
130 145 0
132 146 0
127 141 0
127 139 0
127 141 0
134 147 0
126 140 0
124 137 0
134 147 0
135 149 0
126 140 0
130 145 0
133 146 0
132 146 0
125 137 0
138 151 0
132 146 0
132 146 0
138 151 0
134 147 0
138 151 0
119 132 0
130 142 0
132 144 0
133 147 0
134 147 0
143 155 0
127 141 0
137 149 0
137 151 0
142 157 0
140 156 0
144 157 0
140 153 0
135 146 0
144 159 0
138 152 0
147 160 0
137 152 0
135 148 0
142 156 0
142 156 0
131 142 0
142 156 0
138 147 0
134 145 0
145 160 0
138 149 0
147 159 0
146 158 0
140 152 0
138 151 0
142 153 0
146 161 0
145 159 0
151 164 0
150 163 0
145 156 0
147 161 0
143 157 0
144 156 0
149 163 0
149 162 0
152 165 0
144 157 0
153 169 0
155 166 0
148 162 0
149 161 0
151 163 0
138 151 0
151 167 0
152 166 0
139 153 0
155 169 0
150 165 0
158 173 0
151 163 0
156 169 0
153 168 0
157 173 0
147 161 0
149 163 0
148 160 0
151 167 0
156 171 0
160 173 0
157 174 0
155 172 0
158 174 0
159 176 0
162 178 0
151 165 0
160 176 0
152 168 0
156 171 0
157 175 0
160 177 0
157 170 0
158 174 0
159 175 0
161 179 0
160 178 0
156 173 0
154 169 0
162 179 0
160 176 0
162 181 0
156 173 0
162 178 0
165 182 0
160 177 0
159 176 0
163 181 0
162 181 0
160 176 0
159 177 0
164 182 0
163 182 0
161 179 0
162 180 0
166 184 0
161 178 0
163 182 0
167 185 0
161 177 0
164 182 0
166 184 0
162 179 0
165 184 0
170 189 0
167 186 0
165 185 0
166 185 0
174 197 0
169 193 0
172 195 0
172 195 0
169 193 0
171 195 0
171 195 0
168 192 0
168 192 0
165 188 0
168 191 0
164 188 0
167 191 0
168 192 0
168 191 0
171 195 0
167 192 0
169 193 0
169 191 0
168 191 0
165 189 0
169 193 0
169 191 0
168 191 0
169 192 0
167 191 0
169 192 0
169 193 0
164 188 0
165 188 0
168 191 0
168 191 0
171 194 0
167 190 0
167 190 0
166 189 0
168 192 0
165 189 0
167 191 0
166 190 0
165 188 0
163 187 0
160 184 0
168 192 0
170 194 0
162 184 0
164 187 0
161 184 0
166 190 0
166 189 0
158 182 0
163 186 0
166 189 0
161 185 0
160 184 0
163 186 0
166 188 0
157 180 0
163 186 0
162 185 0
163 187 0
156 180 0
162 185 0
154 177 0
160 183 0
154 176 0
158 180 0
158 181 0
159 183 0
158 182 0
152 175 0
157 180 0
156 179 0
154 177 0
158 180 0
151 174 0
146 168 0
154 177 0
160 183 0
149 171 0
145 167 0
151 174 18
144 167 36
133 156 44
128 151 65
109 134 94
96 123 102
72 101 99
60 92 110
59 93 120
57 91 111
58 92 121
57 91 110
58 93 124
58 92 126
59 93 126
59 93 133
59 93 135
59 93 124
60 94 130
58 92 128
59 93 125
60 95 142
61 96 143
60 94 140
58 93 126
59 93 137
60 95 141
59 94 140
61 96 145
59 95 141
59 94 136
61 96 139
61 96 147
60 94 137
60 95 140
59 94 141
61 96 149
61 97 148
61 96 152
60 96 148
62 97 155
61 96 153
61 96 150
60 95 150
61 97 152
62 97 156
61 96 151
60 96 144
66 97 141
64 97 150
66 98 138
62 96 145
63 97 142
65 99 140
71 103 139
65 99 142
62 97 140
61 95 131
61 95 136
64 98 129
64 98 142
63 95 122
61 94 117
61 95 131
61 95 129
63 96 133
62 95 121
63 97 139
59 94 141
65 98 124
61 95 134
65 98 130
59 93 124
58 92 117
61 95 117
58 92 130
59 94 140
59 94 126
61 95 140
59 94 131
60 94 139
60 94 134
59 93 135
59 94 126
60 95 130
59 94 136
58 92 125
61 96 143
59 94 135
60 94 137
61 95 136
60 95 136
61 96 136
59 94 126
60 95 134
59 93 131
60 95 141
61 96 140
59 94 129
60 94 128
59 93 129
60 95 137
60 95 135
60 95 141
60 95 135
60 94 131
59 94 115
59 94 134
59 94 129
59 93 135
60 95 137
59 94 141
60 94 136
60 94 135
59 93 125
61 95 141
60 94 137
59 94 133
58 92 115
57 91 121
59 93 125
61 95 137
60 94 131
60 95 137
59 94 129
58 93 129
59 93 128
59 93 120
58 92 120
60 95 128
58 92 115
60 94 135
59 93 134
59 93 126
59 93 118
58 92 118
60 95 131
57 91 117
59 93 124
60 95 133
59 93 129
58 92 121
60 95 135
60 94 131
57 90 113
60 94 126
59 93 124
60 94 128
59 92 122
58 92 121
58 92 121
58 91 110
58 91 113
58 91 113
58 92 125
57 90 114
57 90 103
59 93 129
58 91 117
56 88 109
59 88 94
82 103 74
108 125 18
113 126 0
116 130 0
121 134 0
110 122 0
130 143 0
111 125 0
123 136 0
112 125 0
126 139 0
128 145 0
125 140 0
120 134 0
117 130 0
122 137 0
112 125 0
131 148 0
128 140 0
121 134 0
127 142 0
129 145 0
129 145 0
127 143 0
125 140 0
129 146 0
132 144 0
130 144 0
127 140 0
125 139 0
138 153 0
131 144 0
124 138 0
128 144 0
133 146 0
135 149 0
133 145 0
131 146 0
119 132 0
131 143 0
140 153 0
136 152 0
136 151 0
135 151 0
141 155 0
138 149 0
132 146 0
137 150 0
132 145 0
131 143 0
139 154 0
146 161 0
137 150 0
137 151 0
134 147 0
139 151 0
143 157 0
135 149 0
149 164 0
138 152 0
134 149 0
137 150 0
140 150 0
145 160 0
139 152 0
137 151 0
146 161 0
143 155 0
144 155 0
139 152 0
146 158 0
148 160 0
144 156 0
146 160 0
141 155 0
147 163 0
149 164 0
142 155 0
139 150 0
142 158 0
143 155 0
152 167 0
154 167 0
151 166 0
147 161 0
145 161 0
145 159 0
142 155 0
156 173 0
153 166 0
155 170 0
142 154 0
152 166 0
147 162 0
148 162 0
152 165 0
150 164 0
156 170 0
145 157 0
151 167 0
154 166 0
149 162 0
156 169 0
160 177 0
154 170 0
157 173 0
152 169 0
157 173 0
149 165 0
158 174 0
160 174 0
155 170 0
151 163 0
155 172 0
159 174 0
158 173 0
160 176 0
157 172 0
159 177 0
161 178 0
159 176 0
159 176 0
155 171 0
152 167 0
158 175 0
162 180 0
161 178 0
157 172 0
154 170 0
164 183 0
162 182 0
154 172 0
164 183 0
161 181 0
160 178 0
163 181 0
157 173 0
159 176 0
158 174 0
160 177 0
156 174 0
159 179 0
162 182 0
161 177 0
167 188 0
165 183 0
166 187 0
167 185 0
158 177 0
159 177 0
165 185 0
165 184 0
166 185 0
165 184 0
161 180 0
162 181 0
166 183 0
163 183 0
169 193 0
170 194 0
171 195 0
167 191 0
170 194 0
168 192 0
170 194 0
170 194 0
169 192 0
170 193 0
169 193 0
169 192 0
168 192 0
170 193 0
167 190 0
170 193 0
166 189 0
169 193 0
167 190 0
168 193 0
170 193 0
167 190 0
172 195 0
167 190 0
168 192 0
166 190 0
165 189 0
165 189 0
158 181 0
164 187 0
160 184 0
169 192 0
168 191 0
166 189 0
165 188 0
165 188 0
164 187 0
167 191 0
168 192 0
163 186 0
163 186 0
166 190 0
164 187 0
166 189 0
166 189 0
162 186 0
163 187 0
159 182 0
161 184 0
165 189 0
164 188 0
162 185 0
162 186 0
161 183 0
157 180 0
162 184 0
156 179 0
157 180 0
165 189 0
160 183 0
156 180 0
158 181 0
159 183 0
155 178 0
157 180 0
158 182 0
158 180 0
158 181 0
159 183 0
145 167 0
151 173 0
154 175 0
155 178 0
159 182 0
154 177 0
153 176 0
152 173 0
153 176 0
157 180 0
163 186 0
152 175 0
149 171 0
150 172 25
142 165 18
131 154 67
115 139 74
97 122 102
79 107 102
69 99 108
57 92 121
59 93 118
58 93 120
59 93 128
57 90 118
58 92 126
57 91 117
58 91 121
59 94 140
60 95 135
59 93 121
59 93 130
59 93 140
59 94 137
61 96 148
59 94 130
58 92 133
59 93 125
58 93 125
59 93 125
60 95 143
59 94 134
59 93 133
59 94 136
61 96 147
60 96 145
61 96 143
62 98 154
61 96 145
61 97 155
61 96 148
61 96 150
61 97 151
60 96 142
60 95 143
61 97 157
61 97 155
60 96 152
61 96 145
61 97 157
62 97 149
66 98 141
76 103 138
67 99 149
60 96 145
70 103 140
66 99 136
65 99 141
66 99 133
65 98 137
66 99 137
75 105 129
62 96 135
65 98 129
62 95 131
65 97 121
64 97 125
59 93 124
60 95 137
62 96 136
60 95 129
58 93 120
59 93 130
65 98 131
60 95 137
60 95 139
62 96 129
58 92 128
59 94 133
59 93 122
61 95 136
59 93 130
59 94 129
61 96 141
61 96 140
58 92 131
59 94 126
60 95 139
57 90 130
58 93 126
61 95 139
57 91 115
59 94 128
60 94 130
60 95 134
59 93 134
59 94 125
61 96 145
60 95 134
61 96 139
59 93 126
58 93 124
59 93 125
59 94 137
60 95 141
60 94 133
60 94 128
61 95 137
58 92 120
60 95 141
60 94 135
59 94 136
58 93 125
60 94 125
58 92 130
59 94 133
59 94 131
59 93 126
60 94 129
60 94 126
61 96 136
60 95 130
59 94 130
60 95 136
60 94 134
57 91 125
60 94 118
60 94 121
59 93 125
59 93 124
60 94 130
60 95 139
59 93 130
59 94 124
59 93 126
60 95 139
59 94 121
58 92 126
58 91 110
60 94 128
59 94 135
58 92 117
60 94 128
60 94 131
60 94 134
59 93 126
60 94 131
59 93 120
58 92 105
59 94 125
59 93 126
58 91 122
59 93 120
57 90 120
58 91 114
57 90 115
58 91 125
58 91 115
57 90 107
55 86 100
58 91 110
62 90 103
79 101 78
115 132 40
106 120 0
117 131 0
109 124 0
112 127 0
114 129 0
108 122 0
126 143 0
119 133 0
121 136 0
119 134 0
115 131 0
123 139 0
122 134 0
123 137 0
118 132 0
123 138 0
122 136 0
125 140 0
136 150 0
131 146 0
133 150 0
122 135 0
133 148 0
131 146 0
129 145 0
128 144 0
128 143 0
135 149 0
122 136 0
125 139 0
133 148 0
130 144 0
130 144 0
127 140 0
136 149 0
130 144 0
137 151 0
140 155 0
130 144 0
133 148 0
136 148 0
139 154 0
130 145 0
146 161 0
136 149 0
138 152 0
140 157 0
130 142 0
132 146 0
135 150 0
138 153 0
137 151 0
132 147 0
135 148 0
140 154 0
133 144 0
143 155 0
144 158 0
142 155 0
143 155 0
139 153 0
132 146 0
143 159 0
138 152 0
142 154 0
137 151 0
143 155 0
142 152 0
131 147 0
147 161 0
140 152 0
144 159 0
151 164 0
143 158 0
145 160 0
145 160 0
148 163 0
139 151 0
146 159 0
144 155 0
149 163 0
145 159 0
146 160 0
147 159 0
143 156 0
147 164 0
137 150 0
151 168 0
154 168 0
152 166 0
153 169 0
147 159 0
150 164 0
151 165 0
150 166 0
151 164 0
152 166 0
155 171 0
144 156 0
155 169 0
156 172 0
160 176 0
156 168 0
145 160 0
160 176 0
156 175 0
154 169 0
155 171 0
155 171 0
156 172 0
158 176 0
156 172 0
151 167 0
160 175 0
159 178 0
158 172 0
162 179 0
156 173 0
162 177 0
160 176 0
165 183 0
159 177 0
161 180 0
155 170 0
163 178 0
162 177 0
158 173 0
167 185 0
162 180 0
161 178 0
159 177 0
164 181 0
156 175 0
164 181 0
163 181 0
157 173 0
162 180 0
163 181 0
163 179 0
163 183 0
161 179 0
161 179 0
161 180 0
163 182 0
163 180 0
164 182 0
162 177 0
166 187 0
163 182 0
163 180 0
168 187 0
167 185 0
167 188 0
160 180 0
168 188 0
163 182 0
164 185 0
169 193 0
170 194 0
167 191 0
169 193 0
171 194 0
167 190 0
169 192 0
170 194 0
171 194 0
171 194 0
169 192 0
165 190 0
168 192 0
168 192 0
167 191 0
163 186 0
168 191 0
169 192 0
166 189 0
168 191 0
169 192 0
168 191 0
168 191 0
163 188 0
167 191 0
167 191 0
165 188 0
165 190 0
161 186 0
168 191 0
170 193 0
164 187 0
161 185 0
167 191 0
166 190 0
168 191 0
165 188 0
161 184 0
168 191 0
165 189 0
166 190 0
163 186 0
165 189 0
164 187 0
165 189 0
162 186 0
158 181 0
170 194 0
167 191 0
160 183 0
160 184 0
160 184 0
157 180 0
160 184 0
159 183 0
165 188 0
159 182 0
162 185 0
162 185 0
161 184 0
162 186 0
156 179 0
162 186 0
160 183 0
154 178 0
156 178 0
157 180 0
153 175 0
157 179 0
155 179 0
154 176 0
157 179 0
156 178 0
150 172 0
153 175 0
153 176 0
154 177 0
152 174 0
154 176 0
151 173 0
151 172 0
154 176 0
149 171 0
144 167 36
125 147 31
122 145 70
113 136 76
106 130 78
95 121 103
60 93 114
57 91 113
56 90 100
57 91 115
58 92 113
58 92 118
59 93 121
58 92 121
59 93 131
57 91 121
59 93 118
58 92 120
58 91 121
59 93 121
59 93 129
59 93 129
58 93 124
59 94 133
60 95 141
60 95 130
60 95 145
60 94 140
60 95 141
60 95 135
60 94 139
60 94 144
60 96 147
60 96 149
61 97 149
60 96 145
59 95 144
60 96 142
61 97 152
59 95 145
60 95 147
61 96 148
61 97 154
61 96 151
64 98 155
63 97 148
69 99 147
67 99 138
64 97 135
67 99 146
73 100 129
65 99 141
64 98 143
62 96 134
68 101 141
62 94 120
66 98 126
70 102 133
63 96 133
63 96 122
60 93 120
58 92 121
65 98 121
60 95 133
59 93 133
68 100 126
60 95 134
62 95 130
60 94 131
60 94 125
60 94 125
58 93 128
59 94 134
61 95 128
60 95 133
60 95 134
59 94 134
59 94 124
59 93 125
59 94 125
59 94 133
60 95 142
60 95 135
60 94 125
59 94 135
59 94 135
59 94 131
60 95 133
59 94 128
60 95 129
59 93 124
61 96 142
61 95 131
60 95 141
60 94 129
60 94 134
59 93 129
59 93 131
60 94 133
58 92 115
60 94 122
60 95 134
60 94 128
59 93 128
59 94 134
58 93 121
58 91 114
60 94 136
57 91 120
60 94 130
59 94 133
61 96 134
58 92 118
58 92 117
59 94 131
59 94 131
60 94 130
59 93 122
58 92 120
58 92 118
59 93 124
59 94 137
59 93 140
59 93 120
59 93 126
59 94 131
60 94 131
58 92 125
59 93 122
58 92 118
59 94 128
59 93 115
58 92 117
61 96 136
58 92 114
59 93 129
58 92 114
60 94 129
59 93 121
58 93 113
58 92 121
58 92 122
59 93 118
58 91 118
58 92 117
59 94 134
57 90 107
57 90 107
60 95 125
58 92 126
56 89 107
57 90 117
55 87 99
57 90 111
55 86 99
56 88 110
61 90 102
80 103 82
92 110 51
111 126 31
108 120 0
111 125 0
115 128 0
119 133 0
105 120 0
111 125 0
113 127 0
132 146 0
123 138 0
126 141 0
125 141 0
120 136 0
112 126 0
119 132 0
128 145 0
139 154 0
125 139 0
128 144 0
128 144 0
132 148 0
124 141 0
128 144 0
134 149 0
118 132 0
130 145 0
133 148 0
131 148 0
119 132 0
131 147 0
129 143 0
132 147 0
135 149 0
138 153 0
124 139 0
143 159 0
135 149 0
137 153 0
141 156 0
134 147 0
140 155 0
127 139 0
124 138 0
146 160 0
136 149 0
133 147 0
136 152 0
140 154 0
127 141 0
145 157 0
130 141 0
131 146 0
133 147 0
142 156 0
142 154 0
144 161 0
146 161 0
143 155 0
138 151 0
144 160 0
143 159 0
141 153 0
140 154 0
142 154 0
144 157 0
143 156 0
145 160 0
137 151 0
141 153 0
142 156 0
140 152 0
154 171 0
141 154 0
149 162 0
140 153 0
146 159 0
142 156 0
150 166 0
147 161 0
147 162 0
148 162 0
151 165 0
152 168 0
147 162 0
143 154 0
148 163 0
158 175 0
155 170 0
150 166 0
152 167 0
151 165 0
149 164 0
151 168 0
153 167 0
156 170 0
150 164 0
144 157 0
154 169 0
150 162 0
150 163 0
155 170 0
158 171 0
154 168 0
150 167 0
152 169 0
157 173 0
157 171 0
164 179 0
159 177 0
158 174 0
159 174 0
155 169 0
159 174 0
156 173 0
154 167 0
160 178 0
160 176 0
154 170 0
160 177 0
160 176 0
164 182 0
159 179 0
153 169 0
156 175 0
160 177 0
159 177 0
155 170 0
157 174 0
157 173 0
164 181 0
161 178 0
163 180 0
161 180 0
165 183 0
155 173 0
163 179 0
163 182 0
162 182 0
160 177 0
163 180 0
156 174 0
162 178 0
162 179 0
168 188 0
167 184 0
159 175 0
162 181 0
167 188 0
158 176 0
165 184 0
165 184 0
168 188 0
164 184 0
162 179 0
164 182 0
162 181 0
166 184 0
165 185 0
172 196 0
168 192 0
168 191 0
170 194 0
170 194 0
168 191 0
170 193 0
170 193 0
168 191 0
166 190 0
173 196 0
166 190 0
170 193 0
163 187 0
171 195 0
170 194 0
168 192 0
170 194 0
169 192 0
164 187 0
168 191 0
172 195 0
165 187 0
171 194 0
166 190 0
165 188 0
165 189 0
169 192 0
167 190 0
167 191 0
163 187 0
166 189 0
165 188 0
164 187 0
165 190 0
166 189 0
163 186 0
167 190 0
161 184 0
162 185 0
162 185 0
169 192 0
165 188 0
163 186 0
168 191 0
159 183 0
163 187 0
163 185 0
156 180 0
164 188 0
160 183 0
163 187 0
163 187 0
164 188 0
160 183 0
165 189 0
157 180 0
159 182 0
158 182 0
161 184 0
159 181 0
156 178 0
162 185 0
160 182 0
159 182 0
159 182 0
155 177 0
155 178 0
159 182 0
155 178 0
153 176 0
148 169 0
161 184 0
155 177 0
152 175 0
155 177 0
149 171 0
153 176 0
152 174 0
155 177 0
151 174 0
149 170 0
145 168 0
143 165 25
145 168 36
132 154 51
107 131 72
117 141 82
92 118 103
79 107 95
58 92 114
59 93 118
58 93 118
58 92 128
59 93 124
58 92 110
57 91 122
59 93 121
57 91 120
59 93 124
60 94 134
60 94 131
57 90 114
57 91 128
59 94 131
59 94 130
59 94 134
59 94 128
59 93 133
60 95 140
60 95 143
60 95 137
60 94 137
59 94 143
59 94 137
61 96 149
60 96 151
59 94 136
61 96 148
61 97 152
61 96 142
61 97 154
61 97 149
62 97 160
61 96 147
62 97 150
59 94 140
61 95 142
61 96 141
69 100 142
66 99 147
64 98 151
70 100 137
68 98 137
62 96 143
66 97 137
72 104 124
62 96 139
63 96 122
68 101 135
64 97 122
66 99 130
65 98 128
61 95 129
62 96 113
59 93 124
64 97 130
64 96 125
62 96 129
58 92 125
62 94 120
58 92 122
59 92 124
62 94 118
62 96 131
62 96 131
63 97 137
63 97 130
59 93 118
60 95 139
60 94 134
58 92 121
60 94 134
58 93 126
59 93 131
59 93 121
59 94 139
60 94 129
59 94 136
60 94 130
58 91 125
60 94 128
60 95 135
60 94 129
59 94 130
59 94 126
59 94 135
59 93 126
58 93 129
58 93 129
61 96 136
57 90 122
58 92 125
60 95 130
60 95 129
58 92 125
59 93 130
59 92 134
60 95 134
60 95 136
60 95 134
59 94 125
61 95 140
60 94 136
59 93 128
61 95 129
59 94 133
59 93 126
59 93 126
58 93 131
59 93 134
59 93 125
59 93 128
60 94 130
59 94 130
60 94 131
60 93 133
60 94 134
57 90 118
60 94 130
60 94 126
58 92 126
60 94 130
60 94 126
57 90 108
60 94 134
58 92 120
58 91 125
59 93 118
58 92 124
59 94 122
59 92 121
58 91 122
59 93 120
57 90 115
59 93 122
60 94 128
57 90 114
58 92 115
58 91 120
57 89 113
56 89 103
58 92 120
57 90 99
56 89 110
56 89 111
54 86 100
54 86 97
58 90 103
87 110 92
104 121 57
99 114 0
120 133 0
115 129 0
120 135 0
124 139 0
99 114 0
110 124 0
119 133 0
129 144 0
130 146 0
128 142 0
115 128 0
112 126 0
111 125 0
120 134 0
120 136 0
114 127 0
115 129 0
123 138 0
130 145 0
130 145 0
131 147 0
136 151 0
134 150 0
131 145 0
128 142 0
121 136 0
124 139 0
122 139 0
134 148 0
128 141 0
140 155 0
132 146 0
127 141 0
132 148 0
134 147 0
134 148 0
131 143 0
134 150 0
138 154 0
128 142 0
139 154 0
141 159 0
137 152 0
134 146 0
135 150 0
138 150 0
134 148 0
137 153 0
137 151 0
144 159 0
142 158 0
137 151 0
138 153 0
129 139 0
139 152 0
133 147 0
143 157 0
145 162 0
138 153 0
145 159 0
137 152 0
151 165 0
140 155 0
141 157 0
139 155 0
144 157 0
152 166 0
141 155 0
149 164 0
139 154 0
148 162 0
141 156 0
136 147 0
143 160 0
143 154 0
155 170 0
152 169 0
148 162 0
154 168 0
150 165 0
148 163 0
140 154 0
150 164 0
152 168 0
150 160 0
153 168 0
148 162 0
150 166 0
148 160 0
148 162 0
149 163 0
149 165 0
148 163 0
153 167 0
153 169 0
153 169 0
145 160 0
144 158 0
153 168 0
154 169 0
153 169 0
156 174 0
155 169 0
153 169 0
156 172 0
159 175 0
153 168 0
151 168 0
156 175 0
156 170 0
155 173 0
156 172 0
153 169 0
154 170 0
158 173 0
161 175 0
158 173 0
165 182 0
155 170 0
161 179 0
160 176 0
155 172 0
151 166 0
160 176 0
161 178 0
162 179 0
165 186 0
158 175 0
162 180 0
164 181 0
155 174 0
159 176 0
161 177 0
159 177 0
161 180 0
163 179 0
166 183 0
159 175 0
164 183 0
160 179 0
164 183 0
165 183 0
160 179 0
165 183 0
166 187 0
161 181 0
163 182 0
164 183 0
165 185 0
162 182 0
167 185 0
166 185 0
164 183 0
168 188 0
162 182 0
168 189 0
166 186 0
159 178 0
171 194 0
169 193 0
167 191 0
172 196 0
171 194 0
169 192 0
168 190 0
170 194 0
171 194 0
166 189 0
167 191 0
174 197 0
171 194 0
170 193 0
168 192 0
173 195 0
168 191 0
169 192 0
170 194 0
167 191 0
171 195 0
171 195 0
170 194 0
170 193 0
166 189 0
161 184 0
168 191 0
165 189 0
163 186 0
163 187 0
164 188 0
169 192 0
166 190 0
168 191 0
166 189 0
171 194 0
163 186 0
170 193 0
162 186 0
163 185 0
164 187 0
168 192 0
165 188 0
160 183 0
160 183 0
160 183 0
159 182 0
160 184 0
165 188 0
165 188 0
158 181 0
157 180 0
164 187 0
160 184 0
162 185 0
157 180 0
158 181 0
157 180 0
165 188 0
159 182 0
153 176 0
155 179 0
162 186 0
156 179 0
158 181 0
161 183 0
160 183 0
156 179 0
156 179 0
159 182 0
154 177 0
148 172 0
151 173 0
157 179 0
155 178 0
153 176 0
154 177 0
147 168 0
149 171 0
153 175 0
150 172 0
150 172 0
148 171 0
142 165 0
145 167 0
145 166 36
130 151 62
118 141 76
104 129 86
90 115 88
77 106 97
58 92 124
57 90 115
57 91 111
59 93 122
59 93 117
60 95 136
58 93 117
57 90 111
58 92 125
58 93 126
58 93 118
59 93 133
58 92 122
59 94 133
60 95 135
58 92 125
58 93 134
60 95 134
59 93 135
59 94 143
59 94 135
59 94 135
61 96 141
59 94 136
59 94 137
61 96 148
60 96 140
59 94 140
60 95 143
58 93 134
60 96 142
60 96 142
60 95 137
60 95 140
61 96 148
61 96 149
63 97 145
64 98 151
69 99 135
66 99 146
60 94 128
72 101 144
72 101 133
72 100 144
64 97 135
66 99 134
66 99 126
67 100 126
67 100 139
63 97 133
60 93 118
61 95 126
62 96 135
67 99 129
65 97 128
61 95 124
64 97 118
65 96 120
58 92 126
59 92 113
59 93 125
59 94 128
59 93 121
59 93 130
61 94 126
60 94 126
59 93 133
57 91 110
58 93 128
58 92 118
57 90 122
61 95 140
58 92 125
60 95 137
59 93 125
60 94 120
59 93 136
58 92 120
59 94 131
60 94 130
59 93 135
60 95 136
60 95 137
60 95 126
59 94 126
59 94 122
60 95 135
58 92 115
60 95 131
59 93 122
58 92 130
60 95 139
58 92 120
59 93 125
59 94 128
58 91 130
60 94 134
60 95 131
58 93 124
59 94 129
59 93 129
57 91 120
60 95 131
59 93 126
59 93 125
59 93 129
60 94 126
59 93 115
59 94 122
61 96 137
59 93 124
60 94 130
58 93 121
60 94 129
58 92 117
59 93 130
59 92 133
59 93 137
59 93 126
59 93 122
58 92 121
60 94 126
59 93 118
60 95 135
58 92 121
59 93 125
58 93 124
58 92 115
58 92 125
57 90 110
57 91 121
60 94 134
58 92 118
57 90 111
58 91 117
59 92 128
58 92 110
59 93 115
58 91 114
58 92 115
57 91 114
57 90 107
57 91 120
54 86 108
56 88 107
55 87 111
58 86 94
89 110 87
96 113 62
109 122 18
115 130 0
118 133 0
100 113 0
118 132 0
114 128 0
110 125 0
112 125 0
128 143 0
115 129 0
117 133 0
119 133 0
122 137 0
130 143 0
132 145 0
121 136 0
123 138 0
123 137 0
117 131 0
126 143 0
126 142 0
127 142 0
130 145 0
127 144 0
134 150 0
127 144 0
129 144 0
135 151 0
129 143 0
132 147 0
133 148 0
126 140 0
130 146 0
140 156 0
134 150 0
130 148 0
128 143 0
123 137 0
141 157 0
139 154 0
139 155 0
137 153 0
140 153 0
140 154 0
130 144 0
135 149 0
141 156 0
144 160 0
138 152 0
138 153 0
144 159 0
142 157 0
134 148 0
138 152 0
133 146 0
142 158 0
143 157 0
145 161 0
137 150 0
138 153 0
135 148 0
146 160 0
141 156 0
139 152 0
144 159 0
138 156 0
141 155 0
151 169 0
146 161 0
147 161 0
141 153 0
141 155 0
143 159 0
148 162 0
148 164 0
151 164 0
145 162 0
142 157 0
146 159 0
153 167 0
142 154 0
154 171 0
147 160 0
158 174 0
153 170 0
152 168 0
144 158 0
151 166 0
149 166 0
153 166 0
149 166 0
148 163 0
150 166 0
154 167 0
153 167 0
154 168 0
151 166 0
153 167 0
146 161 0
158 172 0
155 170 0
151 166 0
150 165 0
155 170 0
160 179 0
149 164 0
159 175 0
152 166 0
153 169 0
149 164 0
164 182 0
152 169 0
154 169 0
160 177 0
157 170 0
158 176 0
151 166 0
163 178 0
151 167 0
162 179 0
156 173 0
163 179 0
161 178 0
155 172 0
163 183 0
151 166 0
159 176 0
162 179 0
162 181 0
155 170 0
158 175 0
155 171 0
161 180 0
163 180 0
159 176 0
159 177 0
162 181 0
157 175 0
160 177 0
160 177 0
165 185 0
164 183 0
160 178 0
164 181 0
162 181 0
163 183 0
161 178 0
162 181 0
167 185 0
164 183 0
159 177 0
160 178 0
165 184 0
163 183 0
159 177 0
164 184 0
163 182 0
163 183 0
163 183 0
164 183 0
170 194 0
170 194 0
170 193 0
169 193 0
169 192 0
170 194 0
168 191 0
169 193 0
166 190 0
171 193 0
172 196 0
166 190 0
169 192 0
164 187 0
169 192 0
166 190 0
166 189 0
165 187 0
169 193 0
169 192 0
168 192 0
166 189 0
168 192 0
170 192 0
166 189 0
168 192 0
165 188 0
164 187 0
168 192 0
163 186 0
162 186 0
167 190 0
162 186 0
168 191 0
166 189 0
155 179 0
160 184 0
168 191 0
159 183 0
167 190 0
165 188 0
166 189 0
163 186 0
166 189 0
159 182 0
158 181 0
164 186 0
165 189 0
160 183 0
158 182 0
157 179 0
161 183 0
170 192 0
165 188 0
160 182 0
159 183 0
165 188 0
159 183 0
160 184 0
159 181 0
162 185 0
157 179 0
158 182 0
159 182 0
157 180 0
159 182 0
147 170 0
158 182 0
158 181 0
159 182 0
154 177 0
154 177 0
151 174 0
150 172 0
151 174 0
143 166 0
148 170 0
152 175 0
144 167 0
148 170 0
153 176 0
153 176 0
148 170 0
149 170 0
143 163 0
148 169 36
136 158 51
120 140 57
112 135 82
97 122 78
91 118 103
65 95 88
57 90 117
58 92 120
58 92 120
58 91 115
58 91 121
59 93 118
56 89 118
58 92 113
57 91 120
59 94 129
59 93 130
57 91 117
59 94 135
60 94 141
58 92 124
59 93 126
60 94 135
59 94 131
59 94 136
60 95 143
60 95 131
59 93 133
61 96 149
60 95 142
59 94 136
61 97 147
60 95 145
60 95 139
60 95 143
60 95 136
59 94 137
61 96 147
60 95 144
60 95 144
61 96 148
65 98 147
62 97 157
64 98 149
66 98 144
67 100 146
73 100 129
72 100 141
70 100 147
65 96 133
69 101 133
69 101 122
62 97 136
65 99 136
61 95 135
64 98 135
66 98 122
61 95 136
62 95 128
65 97 125
62 95 120
58 92 131
65 97 121
64 97 130
59 94 131
61 95 126
62 94 122
64 97 126
61 94 113
55 88 113
58 92 120
60 94 125
62 96 126
58 91 122
59 93 128
58 92 125
59 94 135
59 93 128
59 94 130
58 92 124
59 93 128
59 94 131
59 94 131
58 92 117
60 94 131
59 93 130
59 93 128
58 93 124
59 93 128
60 94 128
60 94 128
59 93 124
60 94 131
57 90 117
60 95 126
60 95 129
59 93 126
60 94 136
61 96 140
58 92 125
57 91 122
59 93 135
60 95 130
59 94 125
59 93 131
59 94 128
58 92 120
59 94 131
60 94 137
58 92 131
57 91 121
59 94 122
59 94 133
59 93 125
61 95 133
60 94 133
59 93 126
59 93 120
59 93 125
59 93 118
60 94 126
58 91 113
59 93 120
59 94 121
58 92 128
58 93 131
57 91 113
59 93 124
58 92 115
58 92 117
59 94 128
59 93 122
58 91 114
57 90 114
58 92 121
58 91 126
57 91 110
59 93 125
57 91 105
58 91 111
58 91 120
58 92 114
56 89 111
59 92 120
58 92 117
57 91 108
57 91 114
56 88 110
54 87 103
56 89 107
60 91 102
90 109 68
92 111 72
110 128 31
117 131 0
127 143 0
113 128 0
113 128 0
121 136 0
119 134 0
115 130 0
114 127 0
120 136 0
120 133 0
120 134 0
124 138 0
114 128 0
124 139 0
133 148 0
134 150 0
125 140 0
122 136 0
115 131 0
123 140 0
129 144 0
122 137 0
120 134 0
134 150 0
132 149 0
130 144 0
128 143 0
127 141 0
133 148 0
133 148 0
125 141 0
130 144 0
134 149 0
135 151 0
122 134 0
136 152 0
130 145 0
134 149 0
138 153 0
135 149 0
135 150 0
129 144 0
130 145 0
122 137 0
145 160 0
143 159 0
134 149 0
134 149 0
139 156 0
128 143 0
133 146 0
136 152 0
136 152 0
136 152 0
137 152 0
138 153 0
135 151 0
142 156 0
142 156 0
147 161 0
143 158 0
141 156 0
136 149 0
148 160 0
150 165 0
150 166 0
147 162 0
142 158 0
144 159 0
142 157 0
156 171 0
153 168 0
152 168 0
144 159 0
145 161 0
142 156 0
142 154 0
145 160 0
147 162 0
144 157 0
151 167 0
144 161 0
143 158 0
156 171 0
152 169 0
147 161 0
149 166 0
145 160 0
149 163 0
139 156 0
144 158 0
149 163 0
145 162 0
151 167 0
158 173 0
156 171 0
148 163 0
157 173 0
149 164 0
147 162 0
155 171 0
151 166 0
151 166 0
153 169 0
151 168 0
162 179 0
146 162 0
153 169 0
158 176 0
154 169 0
162 180 0
155 172 0
152 167 0
158 174 0
152 164 0
162 178 0
161 177 0
156 171 0
158 175 0
163 179 0
161 178 0
160 178 0
161 177 0
158 176 0
159 175 0
156 173 0
159 177 0
160 177 0
163 183 0
162 180 0
163 182 0
160 177 0
161 180 0
159 177 0
161 180 0
165 184 0
162 181 0
161 178 0
162 179 0
152 170 0
159 175 0
157 175 0
162 182 0
162 180 0
161 178 0
164 183 0
161 179 0
161 178 0
157 174 0
165 184 0
164 182 0
154 171 0
159 177 0
163 182 0
160 177 0
164 184 0
164 182 0
162 182 0
161 182 0
163 181 0
167 191 0
172 195 0
166 190 0
173 197 0
168 192 0
169 192 0
166 190 0
173 196 0
171 194 0
167 191 0
170 194 0
166 190 0
171 194 0
169 193 0
167 191 0
168 191 0
169 191 0
168 192 0
168 191 0
169 193 0
163 187 0
172 195 0
165 188 0
165 188 0
167 191 0
168 192 0
171 194 0
168 191 0
166 190 0
162 186 0
168 192 0
165 187 0
166 190 0
164 188 0
164 188 0
169 192 0
159 184 0
166 188 0
170 193 0
167 191 0
166 188 0
166 190 0
164 188 0
166 189 0
158 182 0
159 183 0
166 190 0
164 187 0
163 186 0
169 192 0
165 188 0
159 181 0
165 188 0
163 185 0
154 177 0
161 185 0
163 186 0
151 173 0
161 183 0
160 183 0
155 178 0
157 179 0
157 180 0
163 186 0
152 175 0
154 176 0
155 177 0
159 182 0
157 179 0
148 171 0
154 176 0
152 174 0
154 177 0
148 170 0
155 177 0
153 176 0
150 173 0
149 171 0
156 179 0
148 171 0
141 164 0
149 171 0
148 169 0
154 176 0
139 162 0
147 170 18
135 155 25
124 146 57
115 137 82
98 122 76
92 118 100
74 101 92
59 91 97
57 90 107
57 90 105
56 89 107
59 93 129
58 92 117
55 88 107
56 89 114
57 90 108
57 91 115
58 92 121
58 92 117
60 94 128
58 93 125
57 90 120
59 93 126
59 92 121
59 93 133
59 94 128
59 94 126
58 93 130
60 95 131
59 94 137
59 93 129
61 96 142
61 96 145
59 94 129
59 93 133
60 95 136
60 94 137
59 94 137
61 97 148
60 96 144
63 97 140
61 97 148
60 95 143
62 96 147
61 97 147
65 97 140
69 100 138
69 100 142
65 97 129
73 100 132
62 95 139
71 101 134
74 105 135
71 103 136
66 99 131
66 99 134
69 101 124
65 98 130
65 98 131
60 94 122
60 94 133
66 97 118
63 95 122
60 94 117
57 91 124
61 93 122
61 94 129
57 91 118
64 96 124
59 93 124
58 92 113
63 96 125
58 91 124
59 93 125
58 93 124
58 92 118
60 95 135
59 93 120
60 95 137
59 93 120
59 93 128
58 92 124
59 93 121
58 92 120
59 94 130
61 96 133
58 92 118
60 95 135
59 94 133
59 93 129
59 93 126
58 92 117
59 93 133
59 94 128
58 91 128
59 93 126
60 94 131
59 93 126
59 93 126
59 93 133
59 93 131
58 92 120
59 93 133
59 94 128
59 93 122
58 93 124
58 92 126
60 94 133
59 94 131
59 93 129
58 93 122
59 93 124
60 95 131
59 93 121
58 93 121
59 93 108
58 92 121
61 95 136
60 93 134
60 94 134
61 95 136
59 93 129
60 95 126
59 94 126
58 92 122
57 90 111
58 92 121
58 92 124
58 92 118
56 89 103
60 95 133
60 94 130
57 91 122
59 94 129
56 89 99
59 93 118
60 95 128
55 88 102
56 89 102
58 91 113
57 90 113
57 90 110
56 89 99
55 88 99
57 90 115
57 90 118
57 90 117
56 87 103
51 82 92
53 85 92
55 88 100
83 105 82
90 107 51
110 124 25
104 117 0
115 130 0
113 130 0
107 120 0
122 138 0
118 131 0
105 120 0
113 127 0
116 133 0
113 128 0
108 122 0
127 140 0
125 139 0
121 136 0
124 138 0
126 141 0
128 144 0
124 140 0
130 146 0
132 149 0
131 147 0
129 144 0
128 144 0
123 139 0
125 140 0
120 133 0
125 142 0
124 135 0
142 156 0
124 139 0
131 146 0
129 142 0
133 149 0
125 142 0
125 140 0
125 140 0
137 151 0
134 150 0
129 145 0
128 144 0
133 148 0
134 149 0
138 151 0
132 146 0
141 157 0
140 155 0
146 161 0
141 158 0
133 148 0
141 156 0
141 155 0
140 156 0
128 141 0
134 147 0
145 162 0
139 155 0
136 149 0
137 154 0
138 152 0
139 153 0
141 155 0
133 150 0
150 166 0
147 164 0
135 150 0
146 162 0
142 155 0
135 146 0
144 159 0
145 160 0
146 162 0
149 162 0
145 161 0
146 162 0
138 154 0
145 160 0
152 168 0
145 161 0
147 163 0
147 162 0
147 163 0
141 156 0
146 161 0
150 166 0
140 155 0
156 172 0
142 157 0
151 164 0
149 165 0
151 167 0
155 173 0
152 168 0
143 159 0
155 171 0
155 169 0
154 171 0
150 165 0
154 169 0
151 166 0
150 164 0
155 173 0
153 169 0
148 164 0
157 174 0
151 165 0
156 173 0
154 169 0
161 179 0
156 171 0
161 176 0
161 179 0
153 169 0
157 176 0
154 172 0
157 174 0
161 178 0
153 168 0
158 175 0
153 169 0
158 174 0
156 172 0
159 176 0
155 173 0
160 179 0
162 178 0
157 176 0
160 177 0
162 181 0
158 177 0
161 180 0
162 179 0
165 185 0
156 174 0
163 180 0
162 180 0
162 181 0
158 176 0
159 177 0
159 177 0
164 182 0
161 179 0
157 175 0
165 183 0
162 182 0
162 181 0
161 179 0
160 178 0
167 187 0
160 180 0
165 185 0
165 184 0
167 186 0
162 182 0
159 178 0
165 185 0
164 183 0
165 185 0
162 183 0
167 186 0
165 185 0
163 183 0
170 194 0
171 193 0
171 194 0
172 195 0
169 193 0
169 192 0
171 195 0
166 189 0
172 195 0
167 190 0
167 190 0
167 191 0
168 191 0
171 195 0
168 192 0
167 190 0
166 189 0
169 192 0
169 191 0
163 185 0
167 191 0
167 191 0
166 189 0
167 191 0
168 191 0
165 188 0
159 184 0
162 185 0
164 188 0
170 192 0
168 191 0
165 188 0
164 188 0
168 192 0
164 187 0
165 188 0
165 188 0
170 193 0
162 185 0
163 187 0
157 179 0
168 192 0
165 189 0
164 186 0
163 187 0
164 188 0
165 189 0
161 185 0
166 190 0
162 185 0
159 182 0
161 183 0
162 185 0
161 184 0
165 189 0
163 186 0
162 184 0
155 178 0
161 184 0
159 181 0
163 187 0
158 181 0
161 184 0
159 181 0
162 185 0
157 180 0
155 177 0
158 181 0
154 176 0
158 180 0
149 173 0
151 174 0
154 178 0
155 177 0
151 173 0
151 173 0
153 174 0
147 169 0
152 174 0
151 173 0
154 176 0
138 162 0
142 165 0
145 167 0
149 171 0
144 166 0
146 168 0
140 163 36
120 142 57
114 137 74
105 129 72
90 116 76
83 110 94
58 90 110
59 94 126
58 92 117
57 91 113
57 91 122
59 93 125
57 91 115
59 93 128
57 91 126
58 92 125
58 91 118
58 91 117
57 91 122
58 91 118
59 94 133
58 92 130
59 93 129
57 91 118
59 94 142
59 93 131
59 94 139
61 96 139
59 94 130
60 95 143
61 95 140
61 96 143
61 96 139
60 94 139
60 95 140
61 96 143
60 95 147
61 96 151
62 95 137
61 97 153
63 97 137
65 97 144
64 97 144
66 99 146
63 96 141
68 99 139
70 99 140
64 95 131
65 96 131
69 99 136
71 101 124
63 96 129
71 102 129
63 97 136
70 102 129
64 95 111
69 101 129
65 97 124
64 97 122
60 93 114
67 100 118
67 99 118
68 100 125
57 91 110
61 94 117
60 92 105
66 98 121
62 95 108
65 96 115
67 98 122
58 93 120
60 94 131
59 93 124
58 93 124
58 92 121
59 93 124
57 91 118
59 93 128
59 93 126
59 94 131
59 94 131
58 92 113
58 92 124
59 93 128
59 93 122
59 94 125
60 95 128
59 93 125
58 92 124
59 94 122
58 92 122
58 92 120
59 94 130
59 93 124
58 92 117
58 92 129
58 92 125
59 93 124
59 92 121
58 92 121
60 94 124
59 93 128
59 94 131
59 93 131
60 95 128
57 91 111
59 93 124
58 92 115
59 93 126
59 93 131
59 93 130
59 93 118
60 94 137
58 93 126
57 90 121
58 92 115
60 94 126
59 94 124
60 94 128
58 92 120
57 91 120
59 93 117
57 90 117
60 94 128
57 91 114
58 92 128
59 92 118
59 93 128
57 90 111
57 90 114
60 94 129
58 92 118
59 92 124
58 92 115
58 92 122
57 90 110
56 89 100
58 91 115
58 91 107
57 91 120
57 90 107
58 91 114
57 90 107
58 91 114
56 88 100
55 88 110
53 83 92
60 92 105
80 103 70
94 110 54
120 135 25
110 123 0
110 124 0
118 134 0
114 127 0
130 146 0
110 126 0
107 120 0
116 131 0
110 123 0
116 131 0
121 137 0
118 133 0
119 133 0
121 133 0
123 138 0
120 136 0
124 141 0
110 125 0
119 132 0
128 144 0
128 143 0
121 135 0
126 142 0
128 142 0
120 136 0
134 151 0
135 150 0
131 148 0
136 150 0
127 143 0
135 153 0
130 145 0
130 144 0
130 145 0
131 147 0
133 147 0
129 146 0
131 149 0
137 153 0
133 149 0
132 147 0
140 155 0
135 149 0
132 148 0
141 157 0
140 156 0
148 165 0
135 150 0
131 148 0
141 157 0
138 154 0
130 145 0
144 158 0
148 164 0
148 165 0
142 157 0
138 154 0
146 161 0
149 166 0
131 144 0
145 161 0
132 149 0
150 167 0
144 161 0
153 171 0
143 159 0
137 152 0
137 153 0
144 161 0
145 162 0
147 163 0
145 161 0
138 154 0
157 173 0
143 159 0
153 170 0
146 161 0
146 160 0
147 165 0
138 152 0
147 163 0
154 172 0
139 155 0
146 163 0
144 159 0
148 161 0
153 168 0
146 161 0
155 171 0
155 173 0
153 169 0
147 162 0
147 163 0
154 168 0
148 163 0
150 167 0
151 166 0
150 166 0
153 168 0
153 167 0
151 166 0
150 167 0
158 174 0
152 170 0
145 160 0
156 171 0
154 171 0
151 167 0
151 168 0
155 173 0
157 173 0
161 178 0
156 175 0
149 165 0
153 170 0
156 174 0
157 176 0
160 178 0
153 169 0
158 174 0
153 171 0
164 184 0
155 171 0
161 178 0
155 172 0
161 178 0
162 179 0
159 174 0
159 178 0
159 178 0
163 180 0
163 181 0
151 169 0
159 175 0
161 179 0
160 180 0
157 173 0
162 181 0
160 180 0
163 182 0
165 182 0
163 180 0
161 180 0
164 183 0
166 185 0
166 185 0
162 178 0
166 185 0
165 184 0
165 183 0
156 175 0
162 181 0
160 178 0
163 182 0
159 177 0
162 181 0
161 180 0
164 184 0
159 179 0
162 183 0
167 185 0
160 179 0
168 192 0
171 194 0
167 191 0
169 192 0
169 192 0
170 194 0
170 193 0
170 193 0
167 191 0
171 194 0
170 193 0
168 192 0
169 193 0
168 192 0
166 190 0
171 195 0
169 193 0
165 189 0
166 189 0
166 190 0
172 195 0
168 192 0
162 187 0
170 193 0
168 192 0
168 191 0
164 188 0
168 192 0
170 193 0
166 189 0
163 187 0
168 191 0
168 191 0
164 187 0
165 188 0
168 191 0
168 191 0
158 182 0
165 187 0
160 183 0
169 192 0
165 188 0
163 186 0
164 188 0
162 185 0
162 185 0
163 187 0
163 186 0
164 187 0
162 186 0
159 183 0
164 187 0
163 187 0
163 186 0
159 181 0
161 183 0
153 177 0
155 178 0
154 177 0
158 181 0
163 185 0
153 176 0
159 182 0
159 181 0
157 180 0
150 174 0
158 180 0
160 183 0
153 176 0
150 172 0
148 171 0
148 171 0
159 182 0
151 174 0
146 167 0
155 177 0
158 180 0
152 174 0
152 173 0
146 169 0
140 162 0
148 171 0
147 168 0
139 160 0
142 163 0
141 162 0
144 166 0
138 160 18
135 156 36
124 146 57
104 127 67
104 128 76
82 108 97
69 99 103
61 92 95
57 91 108
55 88 107
59 92 120
58 92 113
58 91 114
57 91 117
56 89 113
58 92 113
59 92 117
57 91 120
58 93 120
59 94 122
58 92 130
58 93 120
58 92 133
59 93 133
59 93 131
60 94 139
60 94 137
59 93 128
58 93 122
60 94 137
60 94 137
57 91 115
61 96 142
60 95 149
61 97 148
61 97 144
61 97 154
60 96 141
62 98 157
61 95 140
61 95 140
66 97 140
62 94 130
59 93 140
70 100 134
63 96 133
73 101 135
73 100 120
75 102 139
71 99 132
71 101 134
70 100 121
68 101 136
65 98 126
63 97 125
72 103 117
62 96 126
59 93 126
64 96 128
58 92 121
63 95 120
63 94 115
64 96 118
64 96 121
64 97 122
61 93 115
58 92 117
66 99 129
62 96 125
62 95 115
59 92 111
61 95 128
59 94 128
59 93 128
58 92 128
59 93 125
59 94 126
57 91 121
58 92 113
60 94 129
59 94 124
60 94 131
59 94 122
60 94 136
59 94 133
60 94 130
59 93 128
59 93 125
59 94 126
58 93 124
59 94 128
59 94 122
59 94 128
58 91 120
58 92 120
57 91 122
59 93 126
60 95 130
59 93 122
59 94 125
58 93 125
59 93 125
58 92 120
58 91 125
58 92 121
57 91 118
59 93 130
58 92 115
59 94 129
60 95 133
58 92 115
59 94 126
58 92 124
60 95 136
58 92 122
59 93 124
57 91 114
58 92 128
58 91 118
57 91 117
58 92 120
57 91 113
58 92 122
58 91 121
57 91 120
57 91 118
59 93 128
59 93 124
58 92 122
57 90 115
58 91 113
59 94 124
58 92 115
57 90 115
57 90 115
57 91 113
58 91 114
59 92 124
55 88 102
59 92 118
58 92 113
58 92 120
56 90 114
56 89 107
56 88 99
54 86 97
64 94 103
76 97 78
108 124 47
102 118 18
114 128 0
114 129 0
124 139 0
109 122 0
99 112 0
129 146 0
122 136 0
107 122 0
128 144 0
114 129 0
120 136 0
121 136 0
128 143 0
126 142 0
125 140 0
97 112 0
123 138 0
121 136 0
136 152 0
130 145 0
131 145 0
133 150 0
125 142 0
129 143 0
131 146 0
128 142 0
120 133 0
136 151 0
132 148 0
130 146 0
131 147 0
134 152 0
137 153 0
133 148 0
137 151 0
131 144 0
136 153 0
141 154 0
123 136 0
138 155 0
130 143 0
135 153 0
143 159 0
139 155 0
139 153 0
140 158 0
127 144 0
138 155 0
135 151 0
134 150 0
141 158 0
139 155 0
130 147 0
138 151 0
140 156 0
135 149 0
133 147 0
144 160 0
141 159 0
147 165 0
143 159 0
143 158 0
144 160 0
140 155 0
144 161 0
145 161 0
145 161 0
142 157 0
146 163 0
146 159 0
146 161 0
149 163 0
150 167 0
141 157 0
144 162 0
141 154 0
139 152 0
135 149 0
149 167 0
150 165 0
149 165 0
147 163 0
147 165 0
146 163 0
150 167 0
145 159 0
147 163 0
149 162 0
147 162 0
150 166 0
154 168 0
156 171 0
153 170 0
154 171 0
155 172 0
144 158 0
159 174 0
153 169 0
151 166 0
156 170 0
158 177 0
149 166 0
160 175 0
157 174 0
153 170 0
157 174 0
154 168 0
150 166 0
156 175 0
157 173 0
160 178 0
156 176 0
155 171 0
156 175 0
153 168 0
160 175 0
158 176 0
152 167 0
159 176 0
155 173 0
157 173 0
158 177 0
159 176 0
157 175 0
157 175 0
159 176 0
159 177 0
152 168 0
161 178 0
162 179 0
162 178 0
157 173 0
160 178 0
160 180 0
154 174 0
166 184 0
164 181 0
164 183 0
158 175 0
162 180 0
163 183 0
159 179 0
166 185 0
163 183 0
164 184 0
163 182 0
165 184 0
163 181 0
164 184 0
162 181 0
164 182 0
162 179 0
164 182 0
166 185 0
159 178 0
160 178 0
157 177 0
161 179 0
158 178 0
167 187 0
167 187 0
163 184 0
161 181 0
168 191 0
171 194 0
170 195 0
169 193 0
167 191 0
172 195 0
172 195 0
171 194 0
163 187 0
167 190 0
170 193 0
170 194 0
167 191 0
171 194 0
166 190 0
167 191 0
167 191 0
167 191 0
165 189 0
165 188 0
168 191 0
164 187 0
166 190 0
166 189 0
161 184 0
166 190 0
170 194 0
164 187 0
163 187 0
168 191 0
167 190 0
167 190 0
165 189 0
169 193 0
167 191 0
160 183 0
162 185 0
163 186 0
165 188 0
162 185 0
165 188 0
166 189 0
165 189 0
160 183 0
160 182 0
165 188 0
169 192 0
165 188 0
156 179 0
159 181 0
154 176 0
161 184 0
164 187 0
160 182 0
155 178 0
154 178 0
168 191 0
160 184 0
160 184 0
150 173 0
155 177 0
154 178 0
158 181 0
155 178 0
153 176 0
157 179 0
158 180 0
158 180 0
149 172 0
159 182 0
150 172 0
155 177 0
150 175 0
156 179 0
151 174 0
150 172 0
144 168 0
143 165 0
153 176 0
146 169 0
158 180 0
147 171 0
142 164 0
144 166 0
142 164 0
139 160 0
142 163 0
143 166 0
137 157 0
124 145 31
129 152 54
104 126 74
101 125 80
92 118 86
71 100 92
57 91 110
56 89 99
57 90 108
56 89 105
58 91 121
58 92 117
59 94 133
58 92 124
56 89 110
57 91 117
57 91 118
60 94 134
58 92 122
59 93 122
58 92 122
57 91 122
56 88 113
56 88 107
59 93 128
59 93 129
58 92 111
59 94 130
60 94 134
59 94 128
60 95 139
61 96 149
60 95 143
60 95 141
60 95 141
61 96 148
60 95 139
61 97 149
64 97 148
63 97 144
66 96 136
63 96 138
69 99 134
68 99 144
74 102 141
76 102 126
69 99 133
69 98 129
71 100 131
77 105 124
64 96 114
63 97 141
63 96 128
64 97 125
66 99 130
67 98 108
63 96 125
74 104 122
65 98 134
64 97 124
64 96 115
56 89 118
62 95 117
59 93 114
61 94 121
61 95 124
60 93 118
59 94 126
57 90 117
59 94 129
59 92 115
59 93 125
59 93 114
59 93 133
57 91 114
58 92 129
59 92 120
58 92 129
57 91 118
60 94 128
57 91 113
59 93 131
58 91 113
60 95 128
58 93 125
59 93 122
58 91 118
60 95 135
59 93 125
58 91 115
59 93 122
59 93 121
58 91 122
58 92 117
59 93 111
57 90 118
58 92 122
59 93 122
57 91 114
60 94 133
57 90 114
59 93 125
59 93 120
59 93 128
56 90 110
58 92 114
59 93 118
61 95 136
58 92 121
58 92 126
59 93 125
58 93 122
58 91 113
57 91 110
59 93 122
59 93 129
60 94 131
59 93 118
60 94 126
59 93 120
60 94 135
58 92 124
58 91 114
59 94 131
57 90 113
59 93 129
57 90 114
58 91 118
58 92 103
59 93 129
58 92 126
58 91 111
57 90 120
57 90 100
55 88 95
58 91 117
57 90 115
58 91 117
53 85 99
56 89 107
56 90 105
55 87 99
54 86 90
69 95 90
85 106 67
104 120 36
102 118 0
111 128 0
107 122 0
111 123 0
115 131 0
119 134 0
115 130 0
118 134 0
116 131 0
122 135 0
115 132 0
114 128 0
128 142 0
116 131 0
126 141 0
124 138 0
130 147 0
124 138 0
118 132 0
117 131 0
119 134 0
121 135 0
136 152 0
124 140 0
128 143 0
128 144 0
124 138 0
135 150 0
128 143 0
120 134 0
129 146 0
134 151 0
126 142 0
134 150 0
122 138 0
142 159 0
126 141 0
131 148 0
134 149 0
131 146 0
134 151 0
138 155 0
145 162 0
135 151 0
147 163 0
137 153 0
136 152 0
146 162 0
138 152 0
144 160 0
135 152 0
141 158 0
144 159 0
141 158 0
133 150 0
141 160 0
138 154 0
137 155 0
134 147 0
136 151 0
138 155 0
142 160 0
133 148 0
133 149 0
146 163 0
145 162 0
140 155 0
144 160 0
135 150 0
146 162 0
150 164 0
140 153 0
141 155 0
143 160 0
145 159 0
151 169 0
141 158 0
152 167 0
147 165 0
145 160 0
154 171 0
156 171 0
154 171 0
145 162 0
146 163 0
145 161 0
146 163 0
150 166 0
156 171 0
148 163 0
149 167 0
151 168 0
149 165 0
146 163 0
158 173 0
143 159 0
155 172 0
157 172 0
148 165 0
143 160 0
159 178 0
153 167 0
142 157 0
151 167 0
152 166 0
153 170 0
155 172 0
154 169 0
155 173 0
155 172 0
145 160 0
156 173 0
156 173 0
152 167 0
153 170 0
154 170 0
154 171 0
157 175 0
159 176 0
158 177 0
160 178 0
161 178 0
159 177 0
161 179 0
161 178 0
159 178 0
160 177 0
151 169 0
153 171 0
155 174 0
158 174 0
159 178 0
161 179 0
164 183 0
156 173 0
160 176 0
155 174 0
159 177 0
159 176 0
157 176 0
162 178 0
164 181 0
158 178 0
162 181 0
162 183 0
164 183 0
166 187 0
157 173 0
163 181 0
162 181 0
163 182 0
165 183 0
163 181 0
165 183 0
159 178 0
164 183 0
168 189 0
160 179 0
164 183 0
165 183 0
164 182 0
166 186 0
168 187 0
163 181 0
166 186 0
170 194 0
169 193 0
169 192 0
171 195 0
166 190 0
169 193 0
168 192 0
171 194 0
169 192 0
173 196 0
170 193 0
170 194 0
169 192 0
168 192 0
166 189 0
168 192 0
170 194 0
170 193 0
169 193 0
172 195 0
167 191 0
164 188 0
166 189 0
169 192 0
167 191 0
165 189 0
164 188 0
167 190 0
166 190 0
164 188 0
167 190 0
168 191 0
166 189 0
168 192 0
166 189 0
165 187 0
160 183 0
164 188 0
162 186 0
158 180 0
165 188 0
159 182 0
159 182 0
165 188 0
164 187 0
165 189 0
158 181 0
160 182 0
169 192 0
158 181 0
164 187 0
159 182 0
162 185 0
165 188 0
158 182 0
162 184 0
166 189 0
159 183 0
158 181 0
157 180 0
156 179 0
157 180 0
159 181 0
155 178 0
156 178 0
160 181 0
157 180 0
158 181 0
154 177 0
156 179 0
148 170 0
155 177 0
144 165 0
153 175 0
146 169 0
146 168 0
148 170 0
146 169 0
143 166 0
157 178 0
140 162 0
143 166 0
140 163 0
142 165 0
145 166 0
142 163 0
145 167 0
146 167 0
142 163 0
134 155 0
131 153 36
115 138 60
102 125 62
96 119 70
79 106 90
67 97 102
56 89 102
57 91 111
56 89 105
55 88 108
57 90 113
56 89 105
58 92 125
59 93 126
58 91 115
58 92 124
59 93 126
58 93 120
56 90 110
56 89 113
58 92 125
59 93 125
57 90 108
59 94 134
59 93 126
60 95 141
60 95 137
59 93 120
60 94 133
59 94 137
58 93 128
60 95 139
60 95 139
59 93 118
62 97 145
63 96 140
63 96 139
64 96 128
59 94 135
62 96 145
69 99 137
70 100 142
65 97 132
71 98 125
66 97 132
84 107 138
84 104 119
72 98 109
78 105 129
75 102 111
65 98 126
69 101 124
63 95 122
62 95 125
69 100 117
61 95 130
67 100 126
58 92 117
68 98 111
69 100 115
69 100 110
63 96 115
64 97 129
62 95 114
65 97 121
60 92 103
60 94 128
61 95 113
62 94 118
60 93 114
60 94 125
58 92 124
59 93 122
57 91 124
58 93 120
58 92 122
60 95 129
56 89 107
59 93 130
58 92 122
59 93 133
59 93 128
58 92 129
59 93 120
58 92 114
59 92 118
58 92 118
59 93 125
59 92 115
60 94 130
59 93 126
59 93 126
59 93 125
59 93 120
58 91 117
59 92 125
59 92 128
59 93 118
58 93 122
59 93 125
58 92 128
60 94 126
58 91 118
59 94 124
57 91 103
59 93 117
57 90 120
58 91 102
57 90 117
57 90 114
59 93 113
58 91 111
57 90 108
58 92 126
59 93 122
57 91 115
58 92 125
56 89 99
57 90 110
57 90 111
58 91 121
58 92 107
59 93 126
57 89 113
58 91 120
58 92 118
59 93 117
58 92 110
57 89 111
56 88 115
56 88 108
57 90 111
57 91 107
56 89 118
56 88 100
56 89 107
56 89 110
56 89 107
55 88 114
56 88 97
54 87 99
63 90 86
93 113 67
94 111 44
115 130 31
112 127 0
106 118 0
117 134 0
108 123 0
116 133 0
105 119 0
110 123 0
106 121 0
113 131 0
118 132 0
123 137 0
113 127 0
121 137 0
124 140 0
118 133 0
116 132 0
127 141 0
114 127 0
122 137 0
124 137 0
124 137 0
127 143 0
127 142 0
135 150 0
123 140 0
137 152 0
133 147 0
121 138 0
128 143 0
132 148 0
134 152 0
125 142 0
131 146 0
140 156 0
135 152 0
140 158 0
129 146 0
128 145 0
138 155 0
133 148 0
137 155 0
137 152 0
141 158 0
139 156 0
126 140 0
134 151 0
141 156 0
135 150 0
142 159 0
140 155 0
138 154 0
137 152 0
142 158 0
137 152 0
144 160 0
139 154 0
144 162 0
136 152 0
143 160 0
146 162 0
141 158 0
146 161 0
137 151 0
138 153 0
142 157 0
145 161 0
150 167 0
145 161 0
147 160 0
150 168 0
140 158 0
149 164 0
149 167 0
139 156 0
147 165 0
147 165 0
152 168 0
146 164 0
144 160 0
153 170 0
151 168 0
144 159 0
153 172 0
152 170 0
141 156 0
154 169 0
147 165 0
151 167 0
148 166 0
162 179 0
151 167 0
146 163 0
158 174 0
146 163 0
148 165 0
151 168 0
156 173 0
150 164 0
150 169 0
153 170 0
158 176 0
157 173 0
162 178 0
159 177 0
151 164 0
151 166 0
153 172 0
154 172 0
154 169 0
158 176 0
161 181 0
156 172 0
161 177 0
156 172 0
146 164 0
158 176 0
161 179 0
160 177 0
157 175 0
158 174 0
158 175 0
152 168 0
154 173 0
164 183 0
159 177 0
163 180 0
159 177 0
164 182 0
161 181 0
160 180 0
160 177 0
160 177 0
159 178 0
161 181 0
167 186 0
159 178 0
159 177 0
159 178 0
164 182 0
162 181 0
160 178 0
154 173 0
159 178 0
166 184 0
158 177 0
162 181 0
161 179 0
160 180 0
164 185 0
165 184 0
164 183 0
164 184 0
167 187 0
161 180 0
166 186 0
160 180 0
166 184 0
164 185 0
162 180 0
163 181 0
155 174 0
163 183 0
166 186 0
165 185 0
160 180 0
168 192 0
169 193 0
170 195 0
166 190 0
163 187 0
167 191 0
167 191 0
170 193 0
166 188 0
167 190 0
171 195 0
172 195 0
168 192 0
171 194 0
171 195 0
169 193 0
170 193 0
169 193 0
163 186 0
170 194 0
161 185 0
169 192 0
168 191 0
168 192 0
164 187 0
164 187 0
168 191 0
163 186 0
163 186 0
164 188 0
166 189 0
165 188 0
167 190 0
165 189 0
168 191 0
165 188 0
160 183 0
163 186 0
162 184 0
163 186 0
170 193 0
163 185 0
163 187 0
159 182 0
161 184 0
160 184 0
164 188 0
162 184 0
161 185 0
161 184 0
150 174 0
168 191 0
159 182 0
157 180 0
163 187 0
149 172 0
154 176 0
159 182 0
159 182 0
163 187 0
148 172 0
156 178 0
156 178 0
152 175 0
160 183 0
149 172 0
147 170 0
152 175 0
160 184 0
151 174 0
158 181 0
155 178 0
146 168 0
153 175 0
155 178 0
159 182 0
146 167 0
150 172 0
150 173 0
145 167 0
136 158 0
143 165 0
142 164 0
149 170 0
144 165 0
137 158 0
150 172 0
145 166 0
135 155 0
137 158 0
132 153 18
129 151 40
122 144 44
110 133 76
100 126 86
77 104 94
69 100 107
57 90 108
56 89 103
58 92 108
59 93 124
58 92 124
59 93 110
57 91 107
55 88 100
58 92 118
57 91 117
58 92 126
58 91 120
58 92 115
57 90 115
59 93 128
59 93 131
58 92 125
61 96 141
59 94 141
58 93 129
59 94 134
58 92 124
61 95 137
59 93 131
59 94 130
59 93 131
60 94 134
60 95 140
62 95 139
61 94 130
64 96 140
65 97 134
71 99 129
67 97 131
61 94 134
66 96 119
65 96 122
72 99 126
81 106 142
79 102 125
70 97 125
66 95 124
74 104 121
69 100 134
70 101 122
71 102 129
63 96 114
63 96 128
68 99 120
62 94 122
60 93 121
60 93 122
63 96 115
66 96 111
58 92 124
63 97 126
59 91 102
64 97 125
59 92 111
63 96 133
61 94 124
60 93 124
61 95 125
58 92 115
58 91 114
58 92 121
58 92 124
59 94 124
57 91 120
59 93 121
58 92 115
58 92 115
57 90 117
57 91 111
58 92 121
58 93 124
59 93 126
59 93 126
59 93 120
57 91 120
59 93 128
59 93 126
58 92 121
59 93 128
59 93 115
57 90 118
59 93 126
60 94 133
59 93 121
59 93 126
59 92 114
58 92 120
58 92 122
60 94 131
60 95 133
59 93 126
57 91 111
58 92 120
58 91 122
59 93 129
57 91 110
57 91 120
58 92 114
58 91 108
59 93 120
57 91 108
59 92 128
56 89 110
59 93 118
59 93 121
57 91 115
58 92 108
59 93 124
57 91 120
58 91 117
58 92 125
57 91 108
57 91 113
59 93 126
58 92 115
57 91 114
58 91 114
57 90 102
57 91 99
58 91 113
56 90 102
55 86 105
57 89 108
57 89 111
56 89 114
57 90 108
55 86 107
54 85 92
65 92 86
95 115 62
107 122 40
109 122 0
110 123 0
108 123 0
100 116 0
107 123 0
108 122 0
121 135 0
108 122 0
114 132 0
123 140 0
116 131 0
124 139 0
118 132 0
112 127 0
127 143 0
123 137 0
126 141 0
128 144 0
120 135 0
118 134 0
126 141 0
122 138 0
129 144 0
117 131 0
134 151 0
127 141 0
120 138 0
133 150 0
129 146 0
130 144 0
126 139 0
136 153 0
139 156 0
131 147 0
130 145 0
138 157 0
131 147 0
133 151 0
127 142 0
142 158 0
129 145 0
132 148 0
136 153 0
143 160 0
136 152 0
137 153 0
135 154 0
142 158 0
136 152 0
130 147 0
134 150 0
143 161 0
143 159 0
140 157 0
136 151 0
140 157 0
141 156 0
141 156 0
135 152 0
142 157 0
142 157 0
138 157 0
138 154 0
139 157 0
143 158 0
142 158 0
147 163 0
148 165 0
144 160 0
143 159 0
135 150 0
147 165 0
144 160 0
145 160 0
149 162 0
138 152 0
151 168 0
138 155 0
152 169 0
150 167 0
147 162 0
150 166 0
144 160 0
149 165 0
141 157 0
153 170 0
145 163 0
147 164 0
150 165 0
152 168 0
153 171 0
146 165 0
154 172 0
153 170 0
153 170 0
156 174 0
152 166 0
157 175 0
150 166 0
156 173 0
146 162 0
151 168 0
160 177 0
153 168 0
152 168 0
158 173 0
157 177 0
151 169 0
152 168 0
150 165 0
158 175 0
152 170 0
162 179 0
156 175 0
157 173 0
160 179 0
153 171 0
159 176 0
164 183 0
158 174 0
156 174 0
153 170 0
155 173 0
162 181 0
158 174 0
162 181 0
156 173 0
158 178 0
160 180 0
158 177 0
160 178 0
152 169 0
160 177 0
161 180 0
162 179 0
159 177 0
159 178 0
161 180 0
164 185 0
157 176 0
160 179 0
166 186 0
162 180 0
155 173 0
162 181 0
159 176 0
161 180 0
157 175 0
160 179 0
167 187 0
167 185 0
165 184 0
164 184 0
162 181 0
161 180 0
166 186 0
167 188 0
163 185 0
166 186 0
168 188 0
166 185 0
166 186 0
165 185 0
170 190 0
165 183 0
167 188 0
163 185 0
166 189 0
172 196 0
170 194 0
170 194 0
165 189 0
171 194 0
167 191 0
164 188 0
168 192 0
167 190 0
170 193 0
169 192 0
168 191 0
164 188 0
166 189 0
168 191 0
164 188 0
167 189 0
167 191 0
162 185 0
170 193 0
161 184 0
166 189 0
170 195 0
168 191 0
168 191 0
163 186 0
166 190 0
167 190 0
163 187 0
160 183 0
170 193 0
165 189 0
159 182 0
160 182 0
162 184 0
165 188 0
161 185 0
162 185 0
165 188 0
162 185 0
162 185 0
163 186 0
162 186 0
160 182 0
161 184 0
159 181 0
158 181 0
155 178 0
162 185 0
155 178 0
157 180 0
160 183 0
166 189 0
163 186 0
154 177 0
160 183 0
158 181 0
158 181 0
160 183 0
154 177 0
157 180 0
158 181 0
152 175 0
158 181 0
161 184 0
159 182 0
157 179 0
154 175 0
149 171 0
156 178 0
153 176 0
153 176 0
143 165 0
145 168 0
146 168 0
150 172 0
150 173 0
151 173 0
154 177 0
156 178 0
153 175 0
141 163 0
133 155 0
143 166 0
139 162 0
141 162 0
135 156 0
139 160 0
135 157 0
138 160 0
125 146 25
127 147 31
94 116 74
97 121 70
96 120 80
86 112 94
62 94 103
53 84 78
56 89 97
57 90 108
56 89 105
57 90 108
58 92 121
56 90 118
59 93 122
58 91 118
56 89 120
57 91 113
58 92 124
59 94 128
57 91 117
57 91 117
59 94 134
59 94 126
59 93 129
58 93 126
60 95 135
60 95 135
60 95 139
58 92 125
59 94 142
61 96 147
60 95 134
61 95 140
61 95 130
64 96 133
62 96 140
64 95 131
68 99 140
67 97 123
73 101 136
72 99 132
70 98 128
74 102 140
80 103 131
69 96 128
79 102 122
63 93 135
68 98 114
79 107 102
62 96 131
75 104 117
73 104 124
64 95 111
59 92 121
69 99 114
68 98 113
69 100 118
65 97 129
65 96 108
59 93 117
61 94 110
59 92 117
64 95 111
62 94 105
62 95 117
64 96 121
59 93 126
61 94 125
59 93 122
59 94 131
59 93 125
58 93 117
57 90 114
58 91 115
57 90 111
59 92 115
59 93 114
59 93 121
60 94 122
59 93 114
58 92 120
59 93 114
57 91 111
57 90 110
57 91 117
59 93 126
57 90 120
58 93 122
57 90 115
59 93 120
59 93 130
58 92 107
56 89 118
58 91 117
57 90 99
57 90 111
57 91 115
58 92 129
58 92 124
60 95 126
59 93 125
58 92 120
58 91 114
59 93 135
58 92 117
58 92 118
61 95 130
58 91 111
57 91 115
58 92 110
57 90 111
58 93 121
58 92 114
59 94 121
57 90 115
56 88 102
58 92 125
58 92 117
57 90 103
57 91 114
57 90 113
58 91 115
56 88 110
58 92 120
56 89 100
56 88 108
57 90 118
57 89 102
57 91 110
56 88 113
57 90 114
58 91 122
55 87 102
56 89 111
54 85 108
54 86 99
55 87 102
74 97 85
96 113 51
99 117 25
103 117 0
108 122 0
103 117 0
110 126 0
113 129 0
117 132 0
112 129 0
125 141 0
114 130 0
124 140 0
115 131 0
117 132 0
114 129 0
117 133 0
110 125 0
131 146 0
120 137 0
127 143 0
133 148 0
123 140 0
124 138 0
124 139 0
132 147 0
119 136 0
124 138 0
122 139 0
122 139 0
140 156 0
131 148 0
137 152 0
135 151 0
123 140 0
126 140 0
129 145 0
130 146 0
133 150 0
124 142 0
130 145 0
136 155 0
132 148 0
135 151 0
127 142 0
131 148 0
137 155 0
127 144 0
135 152 0
135 152 0
136 152 0
138 156 0
129 145 0
133 150 0
141 158 0
141 159 0
149 168 0
146 162 0
135 151 0
134 150 0
139 155 0
141 159 0
141 160 0
143 159 0
152 170 0
145 162 0
148 164 0
138 153 0
153 172 0
144 160 0
143 158 0
145 163 0
140 152 0
150 169 0
152 169 0
134 149 0
147 164 0
140 155 0
148 164 0
137 152 0
139 153 0
150 167 0
150 167 0
148 163 0
146 162 0
145 163 0
153 170 0
146 163 0
150 169 0
154 172 0
148 165 0
147 164 0
150 168 0
142 160 0
151 167 0
152 168 0
150 167 0
158 176 0
153 171 0
157 174 0
152 168 0
154 171 0
152 169 0
150 168 0
153 169 0
148 164 0
153 172 0
158 176 0
152 169 0
150 165 0
152 171 0
152 168 0
158 175 0
153 171 0
156 173 0
154 172 0
155 172 0
157 176 0
155 172 0
152 167 0
160 178 0
155 173 0
155 174 0
159 178 0
161 180 0
160 176 0
157 175 0
157 174 0
160 179 0
154 173 0
160 179 0
156 173 0
155 174 0
157 173 0
164 181 0
160 179 0
163 182 0
162 181 0
165 184 0
161 180 0
159 178 0
160 179 0
163 183 0
161 177 0
159 177 0
167 187 0
166 185 0
158 176 0
164 183 0
158 176 0
162 181 0
166 185 0
164 184 0
162 181 0
165 187 0
157 176 0
168 185 0
166 187 0
161 180 0
165 184 0
164 185 0
162 181 0
160 179 0
161 181 0
163 182 0
163 182 0
166 187 0
164 185 0
164 183 0
163 182 0
168 189 0
168 191 0
171 194 0
167 192 0
167 190 0
171 194 0
167 191 0
171 194 0
169 193 0
167 192 0
166 190 0
167 191 0
167 191 0
168 192 0
166 190 0
171 195 0
168 191 0
169 193 0
169 192 0
167 191 0
165 189 0
164 187 0
168 191 0
169 192 0
170 193 0
168 191 0
167 190 0
167 192 0
159 182 0
166 189 0
164 186 0
165 189 0
163 186 0
164 188 0
166 189 0
164 187 0
163 187 0
159 182 0
165 187 0
163 186 0
167 190 0
163 186 0
164 188 0
159 182 0
154 178 0
160 183 0
154 177 0
165 188 0
160 183 0
157 180 0
160 183 0
161 184 0
156 178 0
163 186 0
151 173 0
158 181 0
156 179 0
157 180 0
154 177 0
159 181 0
160 182 0
159 182 0
158 181 0
160 183 0
155 178 0
156 180 0
155 178 0
156 179 0
158 181 0
153 177 0
159 181 0
148 170 0
155 177 0
149 172 0
148 170 0
147 169 0
145 167 0
160 182 0
143 165 0
143 165 0
150 172 0
146 167 0
147 170 0
140 161 0
139 160 0
129 150 0
141 162 0
139 160 0
136 156 0
141 161 0
133 154 0
125 147 0
134 155 18
128 149 44
110 131 51
105 127 65
91 114 60
79 106 78
87 114 88
64 94 82
57 90 103
54 86 92
56 88 99
56 90 107
56 89 113
57 90 111
56 89 107
57 91 118
58 92 115
58 92 121
57 91 118
59 93 118
58 92 113
58 92 122
58 92 122
56 89 114
59 93 134
58 92 125
59 94 134
59 93 124
58 93 128
58 93 131
59 94 128
60 95 142
60 95 130
61 95 140
59 94 135
58 93 125
60 95 135
62 96 135
65 97 136
63 95 129
65 96 134
69 97 123
71 99 128
73 100 137
79 104 135
78 101 114
81 104 121
79 101 124
87 112 118
81 107 117
68 97 121
65 97 124
64 96 118
64 95 113
68 100 121
66 97 110
70 101 107
67 98 111
65 97 118
64 96 118
62 95 115
66 98 126
65 96 113
68 97 118
63 95 118
63 95 114
64 96 111
59 92 117
59 92 114
57 91 118
58 92 117
58 92 120
57 90 118
59 93 118
58 92 122
58 92 125
59 93 133
58 92 111
59 93 118
59 94 133
57 91 107
57 91 118
56 90 110
59 93 110
59 93 125
58 92 117
60 93 130
57 90 124
58 93 117
58 92 125
60 94 129
57 91 122
58 92 121
59 93 114
59 92 120
57 90 103
61 95 142
58 91 115
59 93 125
58 92 128
57 90 114
57 90 117
58 92 121
56 89 103
58 92 115
58 92 107
58 92 114
57 90 111
58 91 122
58 91 118
59 92 114
58 92 121
55 88 107
58 92 111
55 87 102
59 93 121
57 91 114
59 93 118
57 91 110
59 93 121
57 91 110
58 91 107
56 89 102
59 93 125
57 90 108
57 90 113
56 88 108
57 91 122
56 89 114
58 92 114
55 87 103
57 91 113
55 87 95
57 89 107
55 86 103
54 85 99
53 84 100
71 95 76
103 121 57
103 120 36
105 120 0
97 111 0
102 118 0
102 116 0
117 131 0
107 122 0
110 125 0
118 135 0
118 132 0
118 134 0
118 132 0
119 135 0
125 141 0
120 135 0
122 137 0
121 136 0
110 126 0
116 133 0
119 135 0
122 140 0
124 139 0
122 141 0
129 147 0
142 159 0
125 140 0
120 138 0
123 141 0
128 145 0
132 149 0
134 150 0
135 152 0
129 145 0
132 150 0
132 150 0
131 147 0
129 146 0
125 142 0
145 160 0
137 152 0
135 150 0
134 151 0
135 149 0
133 151 0
131 147 0
136 153 0
140 158 0
134 151 0
139 157 0
133 150 0
133 148 0
140 157 0
141 159 0
131 146 0
142 160 0
142 159 0
137 153 0
136 150 0
144 158 0
140 155 0
139 154 0
146 163 0
147 165 0
146 165 0
144 161 0
144 162 0
144 161 0
138 155 0
141 155 0
131 148 0
145 163 0
147 165 0
146 162 0
142 158 0
143 160 0
144 160 0
141 159 0
145 163 0
153 170 0
154 171 0
154 171 0
147 163 0
145 162 0
149 165 0
149 168 0
149 166 0
152 171 0
141 156 0
155 174 0
152 168 0
148 163 0
149 166 0
147 162 0
149 167 0
148 164 0
156 174 0
152 168 0
153 172 0
157 174 0
155 171 0
147 163 0
153 170 0
150 167 0
150 168 0
155 174 0
153 168 0
150 166 0
158 175 0
155 172 0
149 167 0
161 178 0
153 172 0
155 171 0
159 176 0
149 163 0
154 171 0
149 168 0
151 167 0
156 174 0
162 180 0
156 174 0
160 179 0
158 177 0
157 174 0
160 177 0
161 180 0
158 177 0
164 183 0
152 169 0
160 179 0
160 179 0
165 183 0
166 184 0
164 183 0
165 183 0
161 179 0
159 179 0
159 178 0
162 182 0
160 178 0
160 180 0
167 185 0
162 181 0
156 174 0
157 176 0
164 185 0
161 177 0
152 170 0
159 179 0
163 183 0
155 173 0
160 180 0
165 185 0
158 177 0
161 180 0
164 184 0
164 185 0
164 185 0
164 184 0
165 183 0
164 183 0
166 187 0
167 187 0
164 184 0
160 181 0
167 187 0
164 183 0
167 187 0
165 184 0
164 184 0
170 194 0
172 195 0
169 193 0
166 190 0
172 195 0
168 192 0
171 194 0
168 192 0
167 191 0
167 190 0
171 194 0
166 190 0
163 186 0
166 189 0
164 188 0
165 188 0
164 188 0
166 190 0
166 189 0
170 192 0
166 190 0
165 187 0
169 193 0
165 188 0
161 184 0
167 190 0
172 195 0
167 191 0
161 185 0
166 189 0
165 188 0
164 188 0
169 192 0
161 185 0
158 181 0
161 184 0
168 191 0
162 185 0
166 188 0
162 185 0
163 186 0
160 182 0
162 185 0
168 191 0
162 185 0
158 182 0
162 186 0
162 186 0
155 178 0
156 178 0
162 186 0
160 183 0
165 187 0
159 181 0
164 186 0
153 176 0
157 180 0
156 179 0
156 179 0
163 185 0
157 180 0
157 179 0
159 182 0
160 183 0
157 181 0
155 177 0
160 182 0
153 174 0
153 176 0
153 175 0
149 172 0
156 179 0
146 168 0
157 179 0
153 175 0
142 164 0
141 164 0
152 173 0
138 161 0
149 171 0
149 171 0
145 168 0
146 167 0
132 152 0
142 163 0
142 164 0
142 164 0
136 157 0
133 153 0
131 152 0
139 160 0
139 160 0
133 153 18
123 144 51
107 128 57
109 130 57
102 125 62
82 108 74
82 108 76
59 91 100
55 88 102
57 91 108
57 90 94
58 92 111
56 88 103
58 91 120
56 89 108
57 90 117
58 91 117
58 92 128
57 90 111
56 89 114
57 91 118
58 92 126
59 93 118
57 90 120
59 93 117
59 93 125
59 94 126
58 93 121
60 94 134
61 96 141
60 95 140
61 95 135
62 95 136
60 94 143
62 96 136
61 94 136
70 99 127
65 97 137
69 98 135
66 96 129
65 96 135
81 106 124
81 105 129
77 102 126
76 101 121
80 104 131
73 98 120
74 99 113
83 109 125
75 104 107
67 98 118
67 99 118
71 101 126
69 101 120
71 102 130
59 91 105
63 95 107
72 102 113
59 92 108
62 92 105
65 98 120
65 96 103
62 95 122
60 93 114
63 96 120
59 92 111
58 91 117
60 93 117
62 94 114
61 95 121
58 92 118
56 88 111
57 91 108
58 91 111
57 90 120
57 90 122
57 90 115
57 90 111
58 93 118
59 93 126
58 92 103
58 92 124
57 90 117
58 92 117
57 91 122
57 91 108
59 93 113
60 94 118
60 94 124
59 93 125
58 92 125
59 93 120
59 93 118
58 92 129
57 91 105
59 93 122
58 91 117
58 92 120
59 94 117
59 92 122
58 93 120
57 90 110
57 90 113
57 90 111
57 89 118
58 92 122
55 88 108
58 91 108
58 91 113
57 91 111
56 88 105
57 90 111
56 89 118
57 89 117
56 89 107
57 90 111
57 91 103
58 92 121
56 88 110
56 89 110
54 87 100
57 90 105
56 89 100
56 89 102
57 91 115
57 90 115
56 89 108
54 87 97
54 87 103
54 86 95
56 88 97
55 87 97
56 88 88
55 86 84
65 90 84
70 93 57
109 125 36
109 123 0
92 105 0
109 124 0
124 138 0
108 122 0
101 116 0
111 127 0
109 124 0
118 132 0
111 127 0
119 136 0
118 134 0
113 128 0
121 137 0
114 131 0
108 122 0
118 134 0
120 136 0
122 139 0
120 136 0
129 148 0
133 151 0
124 139 0
123 140 0
124 141 0
126 143 0
110 126 0
132 149 0
125 143 0
135 154 0
129 146 0
119 133 0
135 150 0
123 139 0
117 133 0
121 138 0
128 145 0
129 146 0
138 155 0
133 149 0
136 150 0
135 151 0
126 143 0
135 153 0
140 159 0
133 150 0
146 162 0
143 160 0
143 161 0
135 153 0
140 158 0
140 157 0
136 153 0
143 159 0
142 158 0
145 162 0
137 156 0
147 162 0
146 162 0
142 160 0
143 161 0
143 160 0
141 159 0
140 157 0
144 160 0
147 164 0
137 154 0
149 167 0
139 158 0
143 158 0
149 166 0
149 166 0
149 166 0
143 159 0
153 170 0
150 167 0
150 168 0
139 154 0
143 160 0
141 155 0
150 165 0
151 169 0
138 153 0
151 169 0
153 170 0
150 167 0
151 168 0
156 173 0
150 166 0
137 152 0
150 167 0
156 173 0
150 166 0
157 177 0
156 173 0
152 169 0
149 166 0
153 171 0
148 164 0
154 171 0
149 166 0
154 170 0
149 168 0
155 173 0
142 159 0
146 164 0
155 173 0
160 179 0
149 166 0
154 172 0
157 174 0
150 168 0
156 174 0
156 174 0
155 172 0
152 169 0
154 171 0
156 174 0
157 175 0
159 177 0
158 175 0
160 177 0
159 176 0
153 171 0
154 173 0
158 174 0
160 179 0
158 175 0
162 179 0
159 175 0
152 171 0
166 185 0
161 181 0
159 178 0
158 178 0
162 180 0
157 177 0
160 180 0
163 183 0
162 181 0
160 179 0
159 177 0
160 178 0
159 180 0
161 181 0
161 178 0
161 181 0
162 180 0
164 182 0
160 181 0
164 181 0
168 189 0
164 183 0
162 184 0
165 184 0
162 180 0
166 186 0
170 190 0
165 184 0
170 189 0
163 183 0
165 186 0
166 185 0
162 179 0
166 186 0
167 188 0
164 182 0
168 189 0
166 186 0
166 189 0
163 183 0
167 190 0
165 189 0
170 194 0
170 194 0
170 193 0
166 190 0
168 192 0
169 193 0
171 194 0
166 190 0
169 192 0
171 195 0
167 191 0
168 191 0
164 188 0
168 192 0
171 195 0
166 190 0
163 185 0
165 189 0
166 190 0
164 188 0
165 188 0
165 189 0
166 190 0
168 192 0
161 184 0
169 193 0
165 189 0
170 193 0
167 191 0
166 189 0
167 190 0
166 189 0
169 192 0
162 186 0
167 190 0
153 176 0
162 186 0
163 186 0
161 184 0
165 189 0
164 187 0
159 182 0
153 177 0
158 181 0
164 187 0
164 188 0
157 181 0
161 184 0
161 185 0
159 181 0
162 185 0
162 185 0
159 183 0
160 184 0
161 183 0
164 187 0
162 185 0
148 171 0
158 181 0
156 178 0
163 186 0
161 184 0
158 181 0
153 176 0
155 179 0
151 173 0
154 177 0
148 170 0
151 173 0
154 177 0
153 175 0
148 171 0
153 174 0
145 168 0
147 168 0
148 171 0
149 171 0
150 172 0
141 164 0
147 169 0
147 170 0
142 164 0
141 162 0
137 158 0
144 165 0
131 152 0
127 147 0
139 160 0
135 157 0
135 156 0
142 162 0
127 148 18
120 140 31
111 132 40
105 126 44
86 109 67
78 103 84
71 99 92
62 92 94
58 92 108
55 88 99
55 88 97
55 87 105
57 90 120
56 89 105
56 89 108
57 91 114
57 90 105
57 90 108
57 90 111
56 89 102
57 90 120
57 90 111
58 93 114
56 90 111
59 93 126
57 90 113
58 92 125
60 95 135
59 93 122
60 95 136
60 95 133
60 95 149
60 94 139
63 95 129
63 97 137
63 93 117
68 97 129
74 100 122
71 100 122
78 103 135
68 96 121
77 101 116
78 103 120
72 100 122
79 103 121
80 104 112
86 109 104
78 101 101
72 99 107
64 95 120
67 99 121
71 102 125
66 98 114
66 97 111
61 95 125
64 96 107
67 98 115
63 95 114
63 96 114
58 89 92
68 100 128
64 96 120
66 96 102
59 92 110
65 96 100
63 95 113
59 91 113
64 96 113
57 90 113
57 91 115
58 92 115
58 92 120
56 90 105
57 91 100
59 93 125
58 91 121
57 91 111
58 92 122
58 91 117
59 92 129
57 91 107
58 92 117
57 90 115
57 90 108
59 93 120
59 93 121
58 91 115
58 92 122
58 92 124
59 94 121
57 90 105
59 94 124
57 90 110
57 90 122
56 90 114
58 91 114
59 93 126
58 92 113
57 90 107
58 92 121
58 92 113
56 89 103
57 91 114
57 91 113
59 93 122
58 92 113
57 90 118
59 93 130
56 89 114
57 90 105
58 92 110
58 91 107
58 92 117
58 92 117
56 89 110
58 91 124
57 89 122
56 88 103
56 89 103
57 91 111
55 87 90
56 88 118
55 87 100
57 91 105
57 90 107
57 90 108
55 87 107
52 84 99
55 88 99
57 90 103
53 84 95
62 91 94
75 99 82
92 113 65
101 116 36
95 109 0
96 113 0
110 126 0
103 119 0
114 130 0
115 132 0
96 112 0
98 113 0
106 122 0
110 125 0
122 138 0
109 124 0
122 139 0
127 140 0
123 139 0
121 139 0
118 133 0
128 145 0
121 137 0
127 144 0
124 141 0
135 152 0
132 151 0
121 136 0
130 147 0
120 138 0
125 140 0
131 148 0
129 146 0
127 146 0
135 151 0
134 150 0
131 150 0
139 156 0
137 154 0
132 149 0
131 146 0
136 152 0
134 151 0
137 155 0
133 151 0
136 154 0
131 149 0
130 146 0
141 160 0
146 163 0
144 161 0
140 159 0
135 152 0
135 151 0
136 151 0
144 163 0
131 150 0
142 160 0
146 165 0
135 152 0
134 150 0
148 166 0
142 157 0
149 164 0
140 158 0
134 150 0
139 156 0
147 166 0
141 158 0
142 160 0
150 167 0
140 157 0
139 156 0
145 160 0
144 161 0
146 166 0
142 158 0
139 156 0
153 172 0
146 166 0
148 163 0
154 172 0
145 161 0
145 163 0
152 170 0
148 164 0
150 166 0
146 162 0
145 163 0
154 172 0
151 168 0
150 168 0
146 164 0
150 169 0
147 164 0
144 160 0
151 170 0
155 174 0
146 161 0
154 172 0
142 156 0
155 172 0
147 162 0
149 166 0
152 170 0
153 169 0
148 164 0
156 174 0
158 176 0
153 167 0
156 175 0
153 171 0
159 177 0
154 169 0
159 177 0
159 176 0
156 173 0
155 172 0
156 174 0
157 174 0
154 169 0
157 174 0
155 173 0
157 176 0
157 174 0
158 177 0
153 171 0
160 178 0
155 173 0
155 172 0
156 175 0
157 173 0
157 175 0
160 178 0
159 178 0
158 176 0
157 174 0
161 180 0
167 184 0
159 178 0
156 175 0
160 178 0
161 181 0
162 181 0
160 179 0
159 178 0
159 178 0
164 183 0
159 177 0
163 183 0
158 179 0
166 186 0
162 182 0
165 183 0
162 182 0
161 180 0
164 183 0
158 177 0
159 177 0
163 181 0
158 177 0
158 176 0
161 180 0
162 181 0
166 183 0
168 188 0
164 183 0
165 183 0
163 184 0
170 191 0
157 176 0
164 183 0
169 188 0
162 181 0
165 183 0
161 180 0
171 194 0
168 192 0
169 193 0
170 193 0
172 195 0
173 195 0
166 190 0
160 184 0
164 188 0
171 194 0
167 190 0
166 190 0
163 187 0
166 189 0
165 189 0
171 195 0
167 190 0
167 190 0
164 188 0
164 188 0
167 191 0
168 191 0
166 190 0
167 190 0
163 186 0
164 186 0
166 190 0
165 189 0
169 192 0
166 190 0
160 184 0
162 186 0
163 187 0
162 185 0
163 187 0
165 187 0
160 184 0
165 189 0
166 190 0
159 183 0
164 188 0
162 184 0
160 183 0
160 183 0
163 187 0
162 186 0
164 187 0
159 182 0
159 183 0
159 182 0
159 182 0
161 184 0
151 174 0
162 184 0
160 184 0
163 186 0
160 183 0
161 184 0
159 182 0
156 179 0
154 176 0
151 174 0
159 182 0
157 180 0
148 171 0
154 177 0
147 170 0
152 174 0
147 170 0
156 178 0
147 169 0
147 170 0
156 179 0
138 161 0
147 169 0
152 175 0
149 170 0
151 172 0
140 161 0
140 161 0
141 164 0
134 155 0
142 164 0
148 169 0
140 161 0
141 162 0
139 160 0
142 163 0
127 149 0
142 162 0
141 161 0
142 163 0
141 162 0
141 161 0
127 146 18
116 136 36
114 135 40
103 125 57
100 124 65
85 110 80
66 96 90
55 87 99
56 89 97
58 92 108
57 90 110
58 91 107
57 90 107
56 89 103
57 91 121
56 89 105
56 89 113
57 91 110
57 90 111
57 90 107
58 92 110
55 88 105
56 89 108
58 92 113
59 93 128
59 93 125
57 91 111
58 92 128
59 93 130
59 94 131
61 95 133
63 96 133
66 96 128
59 94 130
64 96 135
70 99 131
72 96 117
64 96 135
71 99 127
70 99 127
75 101 128
74 99 116
90 115 125
74 99 121
80 106 113
83 108 113
86 110 106
77 104 107
75 98 100
68 99 121
79 107 115
71 101 114
72 102 114
64 95 114
68 98 114
67 99 124
69 99 111
59 91 107
69 98 94
70 99 97
61 93 110
60 92 107
65 95 107
61 94 111
57 91 113
57 91 111
60 92 111
59 91 111
57 90 115
58 92 121
57 90 117
57 91 113
58 91 113
57 90 111
57 90 108
57 91 111
55 88 97
55 87 100
58 92 125
59 93 115
59 92 128
55 89 110
58 92 110
58 92 115
58 91 122
57 90 114
59 93 117
58 91 108
57 91 120
59 93 124
58 91 115
57 91 107
57 90 111
57 91 118
59 93 120
57 91 108
58 91 107
58 91 113
56 90 110
57 90 99
58 91 117
58 92 113
57 90 113
56 89 102
57 90 110
57 91 111
57 90 110
57 90 103
56 90 100
58 92 115
56 90 113
58 92 118
58 91 103
57 91 102
57 89 110
57 90 105
58 91 115
57 90 115
57 91 110
52 83 103
55 88 102
56 89 105
56 89 92
53 84 88
56 88 110
55 87 99
55 86 100
54 86 97
56 87 88
69 94 76
70 93 54
76 93 57
107 125 40
107 123 0
107 122 0
111 127 0
106 123 0
112 127 0
106 123 0
108 123 0
106 121 0
119 136 0
121 135 0
98 113 0
114 130 0
118 135 0
106 120 0
107 121 0
123 139 0
125 140 0
114 130 0
116 131 0
111 128 0
123 140 0
122 137 0
123 139 0
112 129 0
123 140 0
117 132 0
123 139 0
122 138 0
129 147 0
122 139 0
133 152 0
131 150 0
133 146 0
128 144 0
122 139 0
133 151 0
133 152 0
134 151 0
133 148 0
136 152 0
138 157 0
145 162 0
142 158 0
144 161 0
136 153 0
131 147 0
138 157 0
129 145 0
133 151 0
143 161 0
139 155 0
135 152 0
149 167 0
128 145 0
136 150 0
133 150 0
131 146 0
135 153 0
131 150 0
135 154 0
150 168 0
151 168 0
140 156 0
141 159 0
140 157 0
145 163 0
144 161 0
144 162 0
150 168 0
138 153 0
145 163 0
147 162 0
149 167 0
137 154 0
145 162 0
143 160 0
142 161 0
147 163 0
144 161 0
144 162 0
151 168 0
143 161 0
154 173 0
150 169 0
145 163 0
145 161 0
148 166 0
150 167 0
155 173 0
161 178 0
151 169 0
150 168 0
147 165 0
151 169 0
150 165 0
146 163 0
151 168 0
156 173 0
153 172 0
154 172 0
156 175 0
148 163 0
154 170 0
156 175 0
155 172 0
158 176 0
154 172 0
157 175 0
149 166 0
162 179 0
154 171 0
157 177 0
157 175 0
154 172 0
162 180 0
151 169 0
155 172 0
150 169 0
154 172 0
158 175 0
153 170 0
163 181 0
158 176 0
164 184 0
156 174 0
158 175 0
156 175 0
163 180 0
160 178 0
154 173 0
153 169 0
165 185 0
158 177 0
160 178 0
161 179 0
161 180 0
162 182 0
160 177 0
158 176 0
159 179 0
156 174 0
160 180 0
162 181 0
163 185 0
161 181 0
163 183 0
159 179 0
165 184 0
168 188 0
164 184 0
167 188 0
161 180 0
164 184 0
166 186 0
164 184 0
161 181 0
164 183 0
157 175 0
162 182 0
163 184 0
163 183 0
162 181 0
165 185 0
166 187 0
165 185 0
168 187 0
168 187 0
163 182 0
164 186 0
167 187 0
167 187 0
165 183 0
167 188 0
168 191 0
167 190 0
169 191 0
170 193 0
167 190 0
167 191 0
168 192 0
169 192 0
166 190 0
165 188 0
167 191 0
166 190 0
168 192 0
163 187 0
170 194 0
168 191 0
166 189 0
169 192 0
165 189 0
167 190 0
168 191 0
166 189 0
173 196 0
167 190 0
164 187 0
168 191 0
166 189 0
163 186 0
163 187 0
164 187 0
165 189 0
166 189 0
163 186 0
160 184 0
167 191 0
161 184 0
164 189 0
163 186 0
166 189 0
163 187 0
164 186 0
158 181 0
165 189 0
159 183 0
160 183 0
157 180 0
159 182 0
149 171 0
157 180 0
162 186 0
160 183 0
159 182 0
160 183 0
156 179 0
146 169 0
152 175 0
157 180 0
152 176 0
158 182 0
160 184 0
161 184 0
160 183 0
159 182 0
159 181 0
159 181 0
155 178 0
152 175 0
156 179 0
146 169 0
148 171 0
155 178 0
155 178 0
150 172 0
150 172 0
137 159 0
156 178 0
148 170 0
152 174 0
155 177 0
138 160 0
146 168 0
149 170 0
146 167 0
138 160 0
137 159 0
150 171 0
141 163 0
139 160 0
150 171 0
133 154 0
140 162 0
130 150 0
129 149 0
122 142 0
132 152 0
120 139 31
112 133 25
125 146 47
97 120 67
93 116 78
75 100 84
74 101 82
63 94 92
55 88 92
55 88 99
55 87 99
56 89 100
57 90 102
56 89 108
55 88 102
57 90 111
58 92 114
59 92 128
58 92 117
58 92 126
57 91 110
58 92 122
58 91 110
58 92 121
59 93 126
59 93 122
59 93 120
60 94 128
58 91 126
59 92 121
58 92 128
61 93 130
62 93 127
67 96 125
62 94 120
69 98 121
73 101 133
70 99 131
69 99 127
75 102 112
70 100 123
84 111 121
77 103 109
76 103 121
86 110 118
86 109 105
80 106 111
82 108 112
77 104 107
73 103 111
71 102 113
63 94 107
69 101 129
72 102 115
61 93 120
68 97 99
58 90 110
58 90 102
57 90 99
61 92 102
63 93 100
64 95 111
60 93 114
62 94 115
68 99 108
56 88 110
58 92 125
56 88 117
56 90 110
57 90 111
59 93 122
58 92 122
56 89 111
57 90 117
57 90 114
58 91 114
57 90 105
57 91 102
57 91 108
58 92 117
59 93 122
57 91 117
57 91 108
57 90 117
58 91 113
58 92 125
56 89 110
59 93 121
57 91 103
57 90 111
57 90 111
57 91 111
59 94 130
58 92 114
58 92 125
58 91 111
58 92 115
57 91 108
55 87 103
57 90 103
57 90 107
59 92 125
58 91 108
57 89 110
59 92 113
56 89 111
57 90 108
57 91 110
55 88 100
57 91 92
56 89 110
55 88 99
58 91 111
56 89 105
57 89 107
57 91 103
56 89 105
54 86 97
54 86 92
55 87 97
55 87 103
55 87 107
56 88 99
56 89 110
57 90 97
55 87 102
67 95 84
78 100 82
90 109 40
98 115 36
111 127 0
106 120 0
102 116 0
105 120 0
107 121 0
101 116 0
114 130 0
116 130 0
99 113 0
108 122 0
94 109 0
113 128 0
109 124 0
105 122 0
114 131 0
127 141 0
108 124 0
130 147 0
109 123 0
114 128 0
113 130 0
129 147 0
117 133 0
121 139 0
126 143 0
129 146 0
125 140 0
120 136 0
124 139 0
128 145 0
132 150 0
131 146 0
131 148 0
124 141 0
122 139 0
138 155 0
130 146 0
136 153 0
133 151 0
128 144 0
131 149 0
135 151 0
140 158 0
139 156 0
131 148 0
121 139 0
133 151 0
143 161 0
145 164 0
138 156 0
144 163 0
142 158 0
137 156 0
139 155 0
140 157 0
143 161 0
135 152 0
141 160 0
140 157 0
140 159 0
140 158 0
135 153 0
148 166 0
142 160 0
136 151 0
135 151 0
136 153 0
146 164 0
138 155 0
151 169 0
148 165 0
143 161 0
154 173 0
151 170 0
148 165 0
146 164 0
144 163 0
143 160 0
149 166 0
150 167 0
152 169 0
144 160 0
147 165 0
143 160 0
152 168 0
156 174 0
150 169 0
150 168 0
148 165 0
149 165 0
155 173 0
152 170 0
154 172 0
152 172 0
149 166 0
151 167 0
150 167 0
150 168 0
147 163 0
151 168 0
152 169 0
151 166 0
144 162 0
153 170 0
149 165 0
151 169 0
153 171 0
152 171 0
162 182 0
153 171 0
151 169 0
148 165 0
158 176 0
154 172 0
148 166 0
160 178 0
158 177 0
154 174 0
159 177 0
157 174 0
161 180 0
158 176 0
157 173 0
161 179 0
159 177 0
152 172 0
158 176 0
153 169 0
161 180 0
158 176 0
162 181 0
159 179 0
162 181 0
156 174 0
164 185 0
160 178 0
161 180 0
158 173 0
167 186 0
159 176 0
158 177 0
157 174 0
161 181 0
162 181 0
160 177 0
163 182 0
166 187 0
165 184 0
161 179 0
162 182 0
159 178 0
163 184 0
165 184 0
167 185 0
162 183 0
165 185 0
165 185 0
164 185 0
161 179 0
164 183 0
168 189 0
163 183 0
162 181 0
160 179 0
163 183 0
168 189 0
161 181 0
163 182 0
163 183 0
161 179 0
160 180 0
167 187 0
164 183 0
163 183 0
162 182 0
171 195 0
165 189 0
167 191 0
168 191 0
167 191 0
170 193 0
165 189 0
170 193 0
165 189 0
171 194 0
166 190 0
167 191 0
171 195 0
170 195 0
169 192 0
166 190 0
166 189 0
168 191 0
169 192 0
166 189 0
165 189 0
166 190 0
169 192 0
162 185 0
165 190 0
169 193 0
164 187 0
162 185 0
162 186 0
163 187 0
170 193 0
162 186 0
161 184 0
167 191 0
160 182 0
163 186 0
163 186 0
159 182 0
162 186 0
161 184 0
157 179 0
162 186 0
153 177 0
163 186 0
155 178 0
159 183 0
158 181 0
163 186 0
162 184 0
152 175 0
160 183 0
157 181 0
158 182 0
160 184 0
151 174 0
157 179 0
158 181 0
153 176 0
158 180 0
154 177 0
152 175 0
149 171 0
153 176 0
152 174 0
156 179 0
155 177 0
151 174 0
150 173 0
158 181 0
155 177 0
152 175 0
152 175 0
148 170 0
151 173 0
153 175 0
151 173 0
150 172 0
145 167 0
143 165 0
149 172 0
146 169 0
144 166 0
141 162 0
144 165 0
141 163 0
141 162 0
144 166 0
137 158 0
132 152 0
137 157 0
135 156 0
128 148 0
130 151 0
127 147 0
121 141 0
139 159 18
108 127 36
125 146 25
110 130 47
100 121 44
98 121 78
88 112 84
76 102 70
72 99 99
56 89 103
56 88 94
58 91 102
56 88 100
56 88 99
54 86 105
56 88 105
58 91 113
56 89 100
55 88 111
55 88 97
56 88 100
55 89 105
57 90 111
58 91 120
58 91 111
59 93 126
59 93 120
61 94 133
62 94 125
57 91 125
58 92 130
63 94 129
64 97 121
65 96 125
75 102 121
65 95 123
73 103 129
70 99 120
78 106 124
91 114 127
84 108 119
82 107 120
84 109 119
81 106 100
93 117 107
82 104 104
86 108 103
77 103 117
72 100 100
67 95 107
73 104 118
68 96 99
66 98 115
63 94 107
67 98 121
64 94 88
61 94 115
66 97 110
60 93 118
67 98 103
67 98 108
61 92 100
64 95 102
60 90 108
64 94 95
56 88 100
57 90 115
59 92 128
57 91 110
58 91 120
56 89 105
56 88 103
58 91 110
56 89 102
58 91 118
58 91 121
56 90 107
58 92 113
57 90 107
59 94 125
57 91 111
56 88 99
56 89 108
59 92 118
58 92 120
57 90 110
58 91 115
58 91 110
57 91 103
58 91 114
57 90 120
58 92 115
57 90 107
59 93 121
57 91 111
59 93 121
58 92 117
57 90 117
57 90 117
57 90 102
55 88 100
57 91 114
58 91 108
57 91 107
55 88 97
56 88 113
58 91 113
57 91 111
57 90 115
55 88 99
56 89 113
57 90 108
56 88 107
58 91 105
58 91 117
58 91 115
56 89 105
57 91 114
56 88 105
57 90 118
57 89 102
56 88 100
55 87 102
52 83 94
53 84 94
69 95 86
69 87 57
102 120 40
93 109 18
104 119 0
114 131 0
105 122 0
103 119 0
110 124 0
103 117 0
108 123 0
99 114 0
105 120 0
113 127 0
94 108 0
113 130 0
115 131 0
112 128 0
101 117 0
113 130 0
117 132 0
117 134 0
126 144 0
114 130 0
127 145 0
130 146 0
124 141 0
126 142 0
129 146 0
126 143 0
137 154 0
130 148 0
122 139 0
117 133 0
127 145 0
116 131 0
118 135 0
131 149 0
132 150 0
132 148 0
132 150 0
126 145 0
118 135 0
124 141 0
135 154 0
147 165 0
134 152 0
132 147 0
136 154 0
130 149 0
132 150 0
139 157 0
131 149 0
136 154 0
137 156 0
148 165 0
140 157 0
140 158 0
147 166 0
138 154 0
143 161 0
139 156 0
144 162 0
137 155 0
135 151 0
138 155 0
143 160 0
138 157 0
139 157 0
141 157 0
144 160 0
142 160 0
148 166 0
140 157 0
147 169 0
144 163 0
140 156 0
150 168 0
152 171 0
145 163 0
143 161 0
138 156 0
144 161 0
147 166 0
142 158 0
148 166 0
147 166 0
152 169 0
145 162 0
147 165 0
145 160 0
150 169 0
140 156 0
149 169 0
150 167 0
146 165 0
143 160 0
155 174 0
145 163 0
151 168 0
154 172 0
153 172 0
152 171 0
154 173 0
151 170 0
151 169 0
156 175 0
160 178 0
157 176 0
149 165 0
151 169 0
158 177 0
151 167 0
153 172 0
151 171 0
154 172 0
164 183 0
153 170 0
152 171 0
159 178 0
159 176 0
157 179 0
159 178 0
152 170 0
154 172 0
158 176 0
160 179 0
154 173 0
159 179 0
157 175 0
156 173 0
156 173 0
159 178 0
162 180 0
161 180 0
159 178 0
160 177 0
158 177 0
157 176 0
159 176 0
157 176 0
163 182 0
163 182 0
153 171 0
158 177 0
160 176 0
165 185 0
163 181 0
164 184 0
159 177 0
162 182 0
157 178 0
160 180 0
162 181 0
166 186 0
165 185 0
164 185 0
161 179 0
162 180 0
160 179 0
158 177 0
164 184 0
156 176 0
166 187 0
160 180 0
162 181 0
160 180 0
168 187 0
165 184 0
164 184 0
165 186 0
166 187 0
160 179 0
165 185 0
166 188 0
166 186 0
164 183 0
160 180 0
163 181 0
165 186 0
170 194 0
171 194 0
164 187 0
170 193 0
166 190 0
170 194 0
170 194 0
167 191 0
168 192 0
165 188 0
167 191 0
157 181 0
168 191 0
166 189 0
167 191 0
169 193 0
164 187 0
164 188 0
165 187 0
167 190 0
164 186 0
172 195 0
168 192 0
163 187 0
166 189 0
163 188 0
162 186 0
169 191 0
168 191 0
169 192 0
162 186 0
163 186 0
163 187 0
162 186 0
169 192 0
163 187 0
160 183 0
164 187 0
161 183 0
162 185 0
161 184 0
160 183 0
163 187 0
163 187 0
158 181 0
155 178 0
157 181 0
153 177 0
144 167 0
161 184 0
159 181 0
159 182 0
157 179 0
158 180 0
157 180 0
163 186 0
161 184 0
161 184 0
154 177 0
161 184 0
156 179 0
157 179 0
157 179 0
158 182 0
154 177 0
152 175 0
154 176 0
148 171 0
148 171 0
150 171 0
155 178 0
153 175 0
152 175 0
145 166 0
147 170 0
157 179 0
148 171 0
144 166 0
142 165 0
150 173 0
146 169 0
149 171 0
145 166 0
145 167 0
133 154 0
138 159 0
142 162 0
133 155 0
138 160 0
135 156 0
146 166 0
139 159 0
131 152 0
131 151 0
133 153 0
122 142 0
116 136 0
128 148 25
118 138 51
105 125 54
104 125 44
86 109 82
74 99 80
70 96 80
61 91 107
54 86 80
55 87 92
56 88 107
55 87 99
56 89 100
55 88 103
58 91 117
55 87 102
57 91 114
57 90 107
58 92 114
58 92 121
57 90 118
56 89 108
57 90 108
59 93 117
58 92 125
60 94 122
60 94 131
60 93 121
61 93 117
62 95 120
72 100 135
66 97 133
72 102 128
73 102 117
71 97 118
74 102 124
79 105 126
77 105 115
85 109 108
80 108 121
80 102 109
73 102 120
87 111 109
92 115 109
82 109 111
83 107 110
72 99 100
81 106 100
73 100 95
65 96 113
75 105 113
58 90 102
65 93 103
66 97 94
70 99 95
66 97 114
58 89 102
67 98 108
70 99 100
60 91 102
59 91 97
65 95 99
71 101 114
60 92 108
64 95 107
58 92 117
57 90 111
56 89 100
58 92 115
57 90 113
57 90 103
58 91 111
56 88 108
58 92 118
57 90 108
56 89 107
58 91 121
56 89 105
58 91 113
57 91 107
56 89 107
59 93 114
59 92 111
54 86 92
57 91 113
57 90 110
58 92 108
57 90 118
56 89 105
58 91 120
57 90 110
57 90 102
57 91 111
58 92 113
56 88 114
55 88 97
56 89 95
58 91 115
56 89 102
58 91 122
58 91 120
54 87 97
57 91 114
56 89 111
57 91 107
56 89 97
56 89 105
56 89 100
56 88 100
58 92 114
55 87 92
55 87 97
55 87 103
54 85 102
55 88 95
57 90 111
55 88 108
55 87 95
55 87 94
52 83 72
55 88 97
60 86 76
75 96 65
94 110 36
95 109 25
94 108 0
103 116 0
111 128 0
104 119 0
104 120 0
113 129 0
102 117 0
107 121 0
108 121 0
113 129 0
112 128 0
118 133 0
113 128 0
115 132 0
101 118 0
117 134 0
109 125 0
128 144 0
105 122 0
112 130 0
117 134 0
122 139 0
130 149 0
130 145 0
130 147 0
126 142 0
124 140 0
121 138 0
118 133 0
114 132 0
136 153 0
130 149 0
124 141 0
128 145 0
133 149 0
130 147 0
134 150 0
131 148 0
140 158 0
133 151 0
135 152 0
129 146 0
134 152 0
127 144 0
129 146 0
131 148 0
138 157 0
131 149 0
139 157 0
140 158 0
137 154 0
134 150 0
127 143 0
153 172 0
128 146 0
137 155 0
147 165 0
143 161 0
142 158 0
145 163 0
137 155 0
142 162 0
138 157 0
145 164 0
140 157 0
141 159 0
138 155 0
142 162 0
139 158 0
140 158 0
146 163 0
150 167 0
142 159 0
148 167 0
151 168 0
142 159 0
151 170 0
149 168 0
142 159 0
138 154 0
149 168 0
146 163 0
151 169 0
143 162 0
153 170 0
145 164 0
151 171 0
148 165 0
156 175 0
146 165 0
153 171 0
151 169 0
146 164 0
151 170 0
148 166 0
152 170 0
154 174 0
150 170 0
155 173 0
154 173 0
149 168 0
150 168 0
153 172 0
153 171 0
155 175 0
159 178 0
153 172 0
145 162 0
157 176 0
154 172 0
152 171 0
154 172 0
157 178 0
146 164 0
151 169 0
156 174 0
149 169 0
159 177 0
163 184 0
159 178 0
158 176 0
159 178 0
153 172 0
162 182 0
157 176 0
159 177 0
158 177 0
154 172 0
155 172 0
156 173 0
157 176 0
156 174 0
163 181 0
156 176 0
162 181 0
157 176 0
161 180 0
161 181 0
157 172 0
160 178 0
167 186 0
160 179 0
161 181 0
159 179 0
157 177 0
162 181 0
160 180 0
160 179 0
161 182 0
159 177 0
158 175 0
160 179 0
163 184 0
159 178 0
165 187 0
163 181 0
164 183 0
166 186 0
161 181 0
160 181 0
164 185 0
165 185 0
169 188 0
159 178 0
163 183 0
167 187 0
162 181 0
163 183 0
165 185 0
163 183 0
164 183 0
167 187 0
164 184 0
165 186 0
167 188 0
162 182 0
165 186 0
168 188 0
171 195 0
170 194 0
162 185 0
171 194 0
169 193 0
166 189 0
167 192 0
165 189 0
167 191 0
165 189 0
168 192 0
165 189 0
169 193 0
165 189 0
168 191 0
169 192 0
166 189 0
165 189 0
164 187 0
168 192 0
171 194 0
169 192 0
166 190 0
169 192 0
163 186 0
164 188 0
169 193 0
168 191 0
160 183 0
165 188 0
161 184 0
158 181 0
163 187 0
168 191 0
169 193 0
164 187 0
163 186 0
158 181 0
158 182 0
161 185 0
160 184 0
167 190 0
164 187 0
157 179 0
163 185 0
155 178 0
160 184 0
163 187 0
160 182 0
153 176 0
155 179 0
158 180 0
152 175 0
157 180 0
157 180 0
161 185 0
157 180 0
158 181 0
154 177 0
155 177 0
153 176 0
152 175 0
161 184 0
151 174 0
156 179 0
154 177 0
155 178 0
157 180 0
150 173 0
156 178 0
152 175 0
145 167 0
143 166 0
150 172 0
154 177 0
139 161 0
149 171 0
141 163 0
149 172 0
147 169 0
148 169 0
137 158 0
146 167 0
155 176 0
146 168 0
146 167 0
140 161 0
129 149 0
146 167 0
135 157 0
125 145 0
131 152 0
137 157 0
129 149 0
128 148 0
138 158 0
130 150 0
117 136 0
122 141 25
108 128 40
102 123 51
91 113 67
83 107 67
87 111 74
74 101 80
60 90 86
52 83 97
58 91 111
54 86 94
57 90 97
55 88 95
57 90 107
56 89 100
57 90 103
56 89 105
58 91 114
57 89 113
57 90 117
59 94 125
57 90 108
58 91 117
59 92 115
59 94 128
57 91 113
59 93 135
65 95 124
61 95 129
70 97 113
67 96 122
71 98 125
70 99 128
84 108 117
77 106 122
95 115 97
79 105 113
84 107 100
83 106 112
88 109 113
96 118 103
75 100 103
76 102 97
86 109 98
79 102 108
86 110 93
81 105 90
72 103 105
78 106 97
65 97 108
74 102 110
61 92 100
65 96 103
62 94 111
60 91 99
63 94 102
56 89 110
68 98 92
58 90 100
63 91 94
64 94 100
57 89 100
69 99 102
63 94 103
57 90 114
57 90 118
56 89 103
56 89 103
57 90 113
57 91 99
56 90 103
56 89 99
56 89 100
58 92 117
57 91 103
57 91 118
56 89 107
57 90 105
55 87 103
56 90 103
57 91 118
57 91 115
55 87 110
55 87 102
58 92 124
58 92 118
57 91 103
57 91 102
57 90 100
57 90 103
57 90 107
55 88 108
56 89 105
58 92 117
57 91 103
55 88 108
57 90 115
56 89 110
54 86 94
54 86 97
56 88 102
58 92 107
57 90 102
57 89 110
56 89 108
58 91 100
57 90 105
55 88 99
55 88 108
55 87 107
55 87 97
54 86 97
54 85 94
55 88 97
55 87 99
57 90 110
55 87 100
56 87 70
65 92 74
81 103 57
91 109 57
85 100 40
76 90 0
93 109 0
106 123 0
92 107 0
110 125 0
107 122 0
110 125 0
107 121 0
95 112 0
101 116 0
111 126 0
106 122 0
111 126 0
109 127 0
107 123 0
116 131 0
109 124 0
105 120 0
127 146 0
107 123 0
120 135 0
118 134 0
115 132 0
122 139 0
124 141 0
127 145 0
137 154 0
129 145 0
119 137 0
125 142 0
133 150 0
126 142 0
121 140 0
129 146 0
125 142 0
139 156 0
137 155 0
131 149 0
129 146 0
139 157 0
136 153 0
129 148 0
138 157 0
129 146 0
129 147 0
119 136 0
122 137 0
135 153 0
128 145 0
126 143 0
137 155 0
133 151 0
133 151 0
144 162 0
140 158 0
132 148 0
144 161 0
135 152 0
136 154 0
140 155 0
137 154 0
143 161 0
140 156 0
138 155 0
144 164 0
140 157 0
145 163 0
146 165 0
142 160 0
141 159 0
143 162 0
142 160 0
145 165 0
145 163 0
142 158 0
155 175 0
141 158 0
152 169 0
145 163 0
137 156 0
144 161 0
156 176 0
142 160 0
140 158 0
146 165 0
149 169 0
151 168 0
154 172 0
147 164 0
148 165 0
147 165 0
155 173 0
146 165 0
152 171 0
147 165 0
150 167 0
149 167 0
150 169 0
147 164 0
154 171 0
154 173 0
153 171 0
150 169 0
155 173 0
147 163 0
156 173 0
152 171 0
159 178 0
157 176 0
152 169 0
158 177 0
152 172 0
152 170 0
156 173 0
158 177 0
157 175 0
158 178 0
160 178 0
158 179 0
160 179 0
154 172 0
156 173 0
159 178 0
163 181 0
161 180 0
152 171 0
162 183 0
162 183 0
152 171 0
158 175 0
157 173 0
165 185 0
163 182 0
156 172 0
152 169 0
161 181 0
163 183 0
155 174 0
157 178 0
162 181 0
159 177 0
157 175 0
155 172 0
162 182 0
155 173 0
163 183 0
161 180 0
159 177 0
159 177 0
163 183 0
163 185 0
168 188 0
162 182 0
162 182 0
159 177 0
165 185 0
164 183 0
163 182 0
166 186 0
158 178 0
164 183 0
158 180 0
167 187 0
161 180 0
166 187 0
165 187 0
164 185 0
164 184 0
165 184 0
165 185 0
163 182 0
166 186 0
166 186 0
164 184 0
168 190 0
162 182 0
164 185 0
164 186 0
168 192 0
160 180 0
162 186 0
167 191 0
165 189 0
167 191 0
170 194 0
168 192 0
169 193 0
166 190 0
168 192 0
165 187 0
167 191 0
165 187 0
166 190 0
165 189 0
170 193 0
171 194 0
169 193 0
161 184 0
164 188 0
166 189 0
164 187 0
161 184 0
163 187 0
170 193 0
169 191 0
164 187 0
162 185 0
163 187 0
160 184 0
164 187 0
158 181 0
163 187 0
161 185 0
161 184 0
165 189 0
159 183 0
166 190 0
164 186 0
168 191 0
166 190 0
158 181 0
159 183 0
165 187 0
168 192 0
160 183 0
162 186 0
165 187 0
162 186 0
155 178 0
158 181 0
161 184 0
155 178 0
157 180 0
162 185 0
164 187 0
162 185 0
158 181 0
150 172 0
156 180 0
156 179 0
159 182 0
154 176 0
154 176 0
153 177 0
155 176 0
157 180 0
151 173 0
154 177 0
150 173 0
152 175 0
155 178 0
146 169 0
155 178 0
149 172 0
146 169 0
144 168 0
158 180 0
138 161 0
150 173 0
141 163 0
151 173 0
150 172 0
145 167 0
152 174 0
144 166 0
132 153 0
141 162 0
124 145 0
145 166 0
139 159 0
133 154 0
142 162 0
135 156 0
127 147 0
125 146 0
124 144 0
126 146 0
131 151 0
111 130 18
111 131 31
110 131 31
102 122 44
91 114 54
78 101 62
91 115 82
57 85 70
57 86 70
55 87 99
55 87 95
57 89 111
53 84 94
57 90 113
56 89 103
56 89 100
57 90 107
56 89 117
55 87 90
56 89 108
58 92 117
55 87 95
60 94 133
58 92 118
59 91 111
65 95 111
62 93 126
61 92 116
63 95 118
68 98 123
78 104 117
72 101 110
71 99 117
82 106 127
84 109 115
81 107 114
80 104 111
85 108 113
89 113 110
87 110 94
86 109 106
93 116 94
84 108 107
104 122 90
89 114 97
81 109 110
82 107 84
72 99 97
66 96 108
63 93 100
71 100 86
59 91 103
69 99 111
65 95 111
69 97 94
63 94 110
61 92 99
58 90 99
60 90 86
60 90 99
72 99 92
61 92 103
61 92 99
55 88 92
56 89 108
57 91 105
58 91 102
56 88 110
56 89 107
57 90 108
58 91 113
55 87 97
58 91 110
57 90 110
55 87 99
57 91 113
59 93 118
57 90 117
56 89 99
57 90 103
56 89 102
58 92 117
57 90 117
56 90 108
57 90 111
56 89 99
56 89 107
56 88 100
57 90 107
57 90 111
57 90 103
57 91 108
56 88 92
56 89 100
55 87 92
55 87 102
56 88 95
56 89 110
58 91 118
57 90 105
54 86 84
57 90 124
57 89 105
56 88 102
56 89 100
54 87 102
55 86 100
54 86 97
54 85 100
54 86 92
54 87 94
55 87 92
55 88 95
53 85 95
55 87 92
55 85 82
55 83 86
70 94 76
85 103 40
98 115 25
103 119 25
104 120 0
109 124 0
105 120 0
105 121 0
108 123 0
107 123 0
101 118 0
112 127 0
116 133 0
105 121 0
107 124 0
122 137 0
107 122 0
112 126 0
113 130 0
103 116 0
111 127 0
117 136 0
123 140 0
114 130 0
112 127 0
117 133 0
126 141 0
118 135 0
126 142 0
124 140 0
123 139 0
118 132 0
129 145 0
125 144 0
128 147 0
133 151 0
123 138 0
126 143 0
131 149 0
131 149 0
132 148 0
125 143 0
136 153 0
127 144 0
137 155 0
135 154 0
134 153 0
136 154 0
135 153 0
133 150 0
137 154 0
133 152 0
127 144 0
139 156 0
134 153 0
132 148 0
131 149 0
141 157 0
134 152 0
142 161 0
146 165 0
142 161 0
144 163 0
140 156 0
137 156 0
134 151 0
140 159 0
142 161 0
131 150 0
148 168 0
144 161 0
144 163 0
142 159 0
146 164 0
143 161 0
150 169 0
147 165 0
149 169 0
141 161 0
147 166 0
146 163 0
144 164 0
148 166 0
152 172 0
150 170 0
138 156 0
150 168 0
148 164 0
142 159 0
145 163 0
155 175 0
150 168 0
151 171 0
151 170 0
145 161 0
147 166 0
148 166 0
148 165 0
156 177 0
151 169 0
159 180 0
151 170 0
149 165 0
160 180 0
142 159 0
147 163 0
156 174 0
148 166 0
152 170 0
148 165 0
158 176 0
147 165 0
157 176 0
150 168 0
158 177 0
154 172 0
156 174 0
153 173 0
159 178 0
158 177 0
161 181 0
150 167 0
154 173 0
154 172 0
155 174 0
156 173 0
160 180 0
160 179 0
158 178 0
155 174 0
158 177 0
161 181 0
154 175 0
152 169 0
160 179 0
157 176 0
151 168 0
161 181 0
159 178 0
151 171 0
152 171 0
160 180 0
161 181 0
162 184 0
159 179 0
159 180 0
159 178 0
165 183 0
165 184 0
163 182 0
157 177 0
161 181 0
165 185 0
163 182 0
170 190 0
166 185 0
159 179 0
165 184 0
161 181 0
168 188 0
166 185 0
163 182 0
165 183 0
167 187 0
161 180 0
163 184 0
158 175 0
160 180 0
160 178 0
160 179 0
167 186 0
166 188 0
162 182 0
159 178 0
164 182 0
168 189 0
162 181 0
161 179 0
161 182 0
166 186 0
164 184 0
168 189 0
166 186 0
169 188 0
164 185 0
168 191 0
164 188 0
172 196 0
169 192 0
168 191 0
164 188 0
163 186 0
165 189 0
170 193 0
164 187 0
171 194 0
168 191 0
170 194 0
167 190 0
165 189 0
167 191 0
164 187 0
164 188 0
171 193 0
170 194 0
161 183 0
171 195 0
161 185 0
169 193 0
167 189 0
165 189 0
167 191 0
161 185 0
168 192 0
163 187 0
166 190 0
167 190 0
163 187 0
164 187 0
166 189 0
157 180 0
163 187 0
161 184 0
165 190 0
163 186 0
163 186 0
163 186 0
159 182 0
156 179 0
155 178 0
167 189 0
155 178 0
159 183 0
157 180 0
159 182 0
157 180 0
157 180 0
155 179 0
157 180 0
161 184 0
155 179 0
162 185 0
154 177 0
152 175 0
150 173 0
156 180 0
158 180 0
159 182 0
156 179 0
149 172 0
155 178 0
150 172 0
149 171 0
155 177 0
148 171 0
146 168 0
157 179 0
152 175 0
152 175 0
153 176 0
144 166 0
136 158 0
152 173 0
150 172 0
149 170 0
152 174 0
157 179 0
149 171 0
149 171 0
137 158 0
137 158 0
139 161 0
139 160 0
133 155 0
130 152 0
130 151 0
139 162 0
129 150 0
133 154 0
129 149 0
127 147 0
129 149 0
118 138 0
126 144 0
119 137 18
111 129 0
109 128 36
100 119 47
83 104 67
103 125 62
85 108 72
62 89 67
66 94 82
56 87 86
54 86 86
56 89 100
55 88 95
56 88 100
57 90 113
57 91 108
55 87 88
57 91 108
56 89 97
55 88 105
57 90 121
56 88 111
62 94 115
63 94 128
62 94 117
65 95 108
79 105 108
67 97 113
73 100 117
77 104 126
72 103 130
78 104 118
77 102 118
83 108 113
72 98 116
93 114 109
89 113 111
83 110 110
88 114 118
94 117 88
90 115 107
98 121 99
101 125 88
96 118 92
98 123 95
77 103 100
83 107 90
71 98 94
69 99 114
69 98 97
72 100 99
66 96 100
67 96 88
73 103 108
64 94 107
63 92 90
62 93 88
68 97 100
66 97 107
59 91 100
58 91 108
63 93 100
64 94 108
59 92 99
57 90 99
54 86 95
57 90 114
55 87 99
58 91 111
56 89 99
57 90 103
55 87 90
56 89 108
56 89 103
55 88 102
56 88 102
56 89 103
56 89 102
56 88 108
54 85 88
57 90 114
57 90 108
55 88 90
54 87 95
55 88 95
57 91 114
55 87 100
56 89 99
56 90 107
58 90 114
56 89 103
56 89 107
54 87 95
57 90 102
56 88 108
55 88 108
55 88 107
54 87 86
54 86 90
57 90 105
56 88 92
55 87 100
54 86 100
56 88 105
55 88 94
54 85 100
57 90 103
56 88 92
55 87 99
54 85 92
54 86 102
53 85 86
55 86 92
63 90 80
89 108 57
76 96 62
91 107 0
103 118 25
98 115 0
98 113 0
96 109 0
103 118 0
106 122 0
102 117 0
110 127 0
106 119 0
101 114 0
105 121 0
94 110 0
105 120 0
107 122 0
113 129 0
115 132 0
112 127 0
118 132 0
107 124 0
124 141 0
116 132 0
112 127 0
120 137 0
126 142 0
119 136 0
126 145 0
122 138 0
123 139 0
136 155 0
126 143 0
120 137 0
129 145 0
117 135 0
122 140 0
130 147 0
128 144 0
124 141 0
128 145 0
136 153 0
135 151 0
115 134 0
132 149 0
122 139 0
144 161 0
125 141 0
132 151 0
135 154 0
137 153 0
148 167 0
135 154 0
148 165 0
144 162 0
133 151 0
141 160 0
129 147 0
139 157 0
142 162 0
138 156 0
133 150 0
146 166 0
142 161 0
128 144 0
140 159 0
141 158 0
135 152 0
144 164 0
141 160 0
139 158 0
132 150 0
138 155 0
145 163 0
147 163 0
143 161 0
143 162 0
150 170 0
146 166 0
140 160 0
142 161 0
150 169 0
149 168 0
146 163 0
147 166 0
143 159 0
153 172 0
153 171 0
147 164 0
144 162 0
150 167 0
149 167 0
151 168 0
151 170 0
150 169 0
151 170 0
149 168 0
150 167 0
151 169 0
148 168 0
154 174 0
151 170 0
153 170 0
151 169 0
153 170 0
150 168 0
150 168 0
155 174 0
158 178 0
151 170 0
155 173 0
152 172 0
145 162 0
152 169 0
157 175 0
146 166 0
153 171 0
160 179 0
155 174 0
152 170 0
160 180 0
159 177 0
153 174 0
155 174 0
156 173 0
159 178 0
156 176 0
156 174 0
163 182 0
153 171 0
157 178 0
153 171 0
152 168 0
159 178 0
163 182 0
161 181 0
157 177 0
159 181 0
157 175 0
159 179 0
155 171 0
150 169 0
164 183 0
163 182 0
160 179 0
164 184 0
162 182 0
162 182 0
163 182 0
161 180 0
157 174 0
160 182 0
160 178 0
160 178 0
157 174 0
161 179 0
163 183 0
159 178 0
160 178 0
163 181 0
160 180 0
159 178 0
169 191 0
164 184 0
165 186 0
168 187 0
160 179 0
166 186 0
161 179 0
167 188 0
164 184 0
163 183 0
165 185 0
165 185 0
165 184 0
162 183 0
163 183 0
167 187 0
164 186 0
165 186 0
162 183 0
163 185 0
168 188 0
165 186 0
167 185 0
155 174 0
164 184 0
166 189 0
169 192 0
168 191 0
169 193 0
166 190 0
171 194 0
168 191 0
170 193 0
170 194 0
166 189 0
166 189 0
169 193 0
164 188 0
171 194 0
168 191 0
164 187 0
169 192 0
168 191 0
162 186 0
163 186 0
166 188 0
165 188 0
168 191 0
161 184 0
162 185 0
167 190 0
170 193 0
166 190 0
169 193 0
164 187 0
166 189 0
166 189 0
161 184 0
159 183 0
162 186 0
165 188 0
161 183 0
158 181 0
162 185 0
161 184 0
161 184 0
167 189 0
162 185 0
162 186 0
154 178 0
163 186 0
161 184 0
157 180 0
160 183 0
162 185 0
161 184 0
161 185 0
156 179 0
158 181 0
163 186 0
150 173 0
154 177 0
158 181 0
158 181 0
163 186 0
152 175 0
157 180 0
156 179 0
156 178 0
156 178 0
153 176 0
144 166 0
159 182 0
162 185 0
150 172 0
152 174 0
152 174 0
142 165 0
146 167 0
148 170 0
151 173 0
145 166 0
147 169 0
148 170 0
142 164 0
150 172 0
145 167 0
151 172 0
144 166 0
136 157 0
148 169 0
146 166 0
148 170 0
134 155 0
136 157 0
135 156 0
132 153 0
133 154 0
134 155 0
131 151 0
134 154 0
134 154 0
122 141 0
133 153 0
123 142 0
113 132 18
112 132 25
107 127 40
94 114 44
97 117 54
83 105 62
74 99 76
77 100 65
60 89 72
56 87 90
53 85 78
55 87 105
57 90 108
54 85 108
53 85 80
57 90 102
57 90 117
56 89 103
57 90 107
57 90 107
56 89 103
60 92 110
59 91 111
61 92 113
65 95 113
68 96 117
65 94 111
71 101 114
73 100 105
75 102 118
76 103 115
78 106 113
77 104 110
76 103 118
92 111 97
89 112 101
84 109 105
93 117 109
89 113 100
94 116 82
99 124 100
94 117 100
98 121 100
87 108 84
87 111 72
84 107 88
81 107 90
72 101 99
59 91 86
64 93 88
58 89 90
70 100 90
69 98 110
67 97 102
64 94 99
68 98 113
64 95 105
62 92 86
64 93 90
66 95 95
58 89 88
59 90 103
57 88 80
55 88 86
55 87 99
56 89 105
54 87 90
57 91 110
55 87 102
54 87 99
57 90 113
56 89 103
56 89 113
56 89 100
53 85 97
56 89 103
56 89 102
54 85 103
56 89 103
58 91 113
58 92 111
55 87 105
57 90 105
54 87 92
56 89 103
55 87 110
57 90 110
57 90 108
55 88 92
56 89 105
56 89 105
56 89 100
54 86 102
56 88 99
56 89 105
55 88 99
54 87 90
54 86 95
53 85 78
57 90 97
55 87 99
54 86 90
52 83 90
53 85 76
56 88 95
55 88 103
53 85 78
53 83 94
53 84 92
55 84 92
56 84 80
71 93 60
81 97 18
90 108 31
103 117 25
99 116 25
99 113 0
90 104 0
104 119 0
102 118 0
97 113 0
103 119 0
98 112 0
98 112 0
107 123 0
107 122 0
109 124 0
109 125 0
112 128 0
104 118 0
110 127 0
109 127 0
101 117 0
119 136 0
117 133 0
105 120 0
123 140 0
128 144 0
128 145 0
124 142 0
109 127 0
126 144 0
128 145 0
122 139 0
123 141 0
125 142 0
124 142 0
130 146 0
124 142 0
129 147 0
130 148 0
121 140 0
122 140 0
126 143 0
128 144 0
125 141 0
133 152 0
127 145 0
127 148 0
133 151 0
126 144 0
139 158 0
125 143 0
134 152 0
128 144 0
139 159 0
126 144 0
140 159 0
141 159 0
136 153 0
126 143 0
132 150 0
140 160 0
137 158 0
136 156 0
138 157 0
144 163 0
146 164 0
138 157 0
146 165 0
144 162 0
139 158 0
141 160 0
138 157 0
138 155 0
143 162 0
144 163 0
151 170 0
150 168 0
154 174 0
147 167 0
151 171 0
140 157 0
151 171 0
148 166 0
153 173 0
149 167 0
152 173 0
153 172 0
147 166 0
149 167 0
155 172 0
148 166 0
152 172 0
150 168 0
142 161 0
154 171 0
153 173 0
154 173 0
157 178 0
158 177 0
156 174 0
151 171 0
148 166 0
151 171 0
151 170 0
156 176 0
151 168 0
151 170 0
160 178 0
149 168 0
156 173 0
156 176 0
149 169 0
152 172 0
153 172 0
154 174 0
150 168 0
150 169 0
159 176 0
159 179 0
154 174 0
156 176 0
151 168 0
153 173 0
159 179 0
156 175 0
154 171 0
151 167 0
155 174 0
156 175 0
160 180 0
159 179 0
160 178 0
156 176 0
161 181 0
160 180 0
156 174 0
154 173 0
154 174 0
160 181 0
161 182 0
155 175 0
157 176 0
163 181 0
167 186 0
156 176 0
160 177 0
163 183 0
160 179 0
162 181 0
158 177 0
160 180 0
162 181 0
164 185 0
157 174 0
164 184 0
165 184 0
160 180 0
163 183 0
161 181 0
160 179 0
163 182 0
163 183 0
164 183 0
161 182 0
162 184 0
162 180 0
156 176 0
162 183 0
162 182 0
163 182 0
166 187 0
156 177 0
163 184 0
164 184 0
166 185 0
159 178 0
160 182 0
165 186 0
166 186 0
164 183 0
167 189 0
166 185 0
163 185 0
167 188 0
164 184 0
165 185 0
164 186 0
163 184 0
169 193 0
166 189 0
168 192 0
168 191 0
165 188 0
168 191 0
168 192 0
170 193 0
163 187 0
169 192 0
172 196 0
172 195 0
167 191 0
165 189 0
166 191 0
165 189 0
169 193 0
166 189 0
166 190 0
165 189 0
166 190 0
162 185 0
169 193 0
169 192 0
160 184 0
167 191 0
162 186 0
163 186 0
166 189 0
166 188 0
167 190 0
160 183 0
163 187 0
159 183 0
162 184 0
169 192 0
157 180 0
167 190 0
160 183 0
158 181 0
163 187 0
165 188 0
163 186 0
158 181 0
162 185 0
158 181 0
159 182 0
155 179 0
152 175 0
156 179 0
159 182 0
155 177 0
163 186 0
159 181 0
160 183 0
157 179 0
162 185 0
154 176 0
156 178 0
156 179 0
153 175 0
151 174 0
152 174 0
161 184 0
162 186 0
153 176 0
147 170 0
153 176 0
152 175 0
153 176 0
148 170 0
149 172 0
144 167 0
150 172 0
155 177 0
150 172 0
144 166 0
146 168 0
147 170 0
151 172 0
142 163 0
137 159 0
146 167 0
139 161 0
140 162 0
139 160 0
143 165 0
144 164 0
144 165 0
140 162 0
143 163 0
127 147 0
132 153 0
138 159 0
136 156 0
127 147 0
134 154 0
113 133 0
121 140 0
112 131 0
130 148 0
111 129 0
125 143 18
113 132 36
106 126 44
89 110 47
88 110 54
70 95 67
71 97 78
61 89 70
57 87 84
54 86 92
55 88 90
55 87 86
54 87 92
55 87 94
56 89 90
57 90 114
58 92 126
56 90 110
58 91 108
58 92 117
62 93 108
66 96 114
73 103 110
63 95 115
73 99 113
69 96 95
69 99 120
88 112 118
76 102 115
81 107 111
80 105 104
90 113 106
87 113 111
86 110 120
80 106 110
102 123 95
92 116 95
102 125 100
107 130 88
94 116 78
94 116 80
98 117 99
104 124 82
78 102 99
86 111 90
75 101 84
75 102 92
73 100 82
75 102 92
69 98 92
64 93 88
61 91 86
66 95 97
54 85 95
66 95 92
60 89 88
56 86 99
67 97 94
61 91 90
62 92 105
59 90 95
54 86 100
55 87 88
55 87 100
56 88 100
54 86 94
55 88 97
56 89 107
56 89 102
56 89 105
56 89 100
56 89 113
55 87 99
56 89 97
54 86 113
56 89 103
55 87 95
57 90 113
55 88 92
58 91 110
54 86 97
55 87 103
53 85 90
57 89 114
56 89 103
54 86 95
57 89 100
56 89 107
55 88 100
56 89 100
54 87 102
53 84 84
54 86 90
52 83 84
53 85 88
56 89 110
56 90 103
52 82 92
55 87 97
57 89 113
54 85 99
54 86 97
52 83 90
52 82 94
53 85 82
54 83 65
63 89 80
74 94 62
86 105 44
88 104 40
101 116 0
94 110 18
84 98 0
102 118 0
104 119 0
116 132 0
92 107 0
98 113 0
103 119 0
116 132 0
113 128 0
108 123 0
105 119 0
106 123 0
106 123 0
120 134 0
128 146 0
116 131 0
119 137 0
106 122 0
106 124 0
111 128 0
119 137 0
116 134 0
128 146 0
122 141 0
135 152 0
131 148 0
116 132 0
131 149 0
120 139 0
120 139 0
128 145 0
129 147 0
126 145 0
127 144 0
124 143 0
135 151 0
122 139 0
129 146 0
125 143 0
132 151 0
132 151 0
139 156 0
142 161 0
137 154 0
124 141 0
134 152 0
137 158 0
141 160 0
138 157 0
123 140 0
140 160 0
141 160 0
127 144 0
140 159 0
133 151 0
141 159 0
143 160 0
135 153 0
142 160 0
146 163 0
139 158 0
138 156 0
144 164 0
150 168 0
136 156 0
150 168 0
150 168 0
142 161 0
144 163 0
143 162 0
141 161 0
146 165 0
139 159 0
148 165 0
145 164 0
144 163 0
140 157 0
146 166 0
143 160 0
153 171 0
146 164 0
146 164 0
145 164 0
149 167 0
152 172 0
140 158 0
145 163 0
152 169 0
152 172 0
151 169 0
147 167 0
151 169 0
157 176 0
143 160 0
152 170 0
151 168 0
161 178 0
148 167 0
149 168 0
149 168 0
150 168 0
154 175 0
153 172 0
151 170 0
158 177 0
151 170 0
158 177 0
151 169 0
155 172 0
154 173 0
152 174 0
155 174 0
152 172 0
152 172 0
157 177 0
154 172 0
154 172 0
156 175 0
151 170 0
157 178 0
156 171 0
158 178 0
160 179 0
154 173 0
157 176 0
155 174 0
154 173 0
163 182 0
162 181 0
154 172 0
153 172 0
155 175 0
160 179 0
158 178 0
155 174 0
156 175 0
161 179 0
159 179 0
159 178 0
159 177 0
162 182 0
160 180 0
162 183 0
153 172 0
160 180 0
160 179 0
157 178 0
163 183 0
155 175 0
165 185 0
161 181 0
162 180 0
161 179 0
162 181 0
167 187 0
163 182 0
163 184 0
160 179 0
160 179 0
162 183 0
163 183 0
160 179 0
165 186 0
158 179 0
160 181 0
163 183 0
163 183 0
165 183 0
162 181 0
163 186 0
166 187 0
169 189 0
165 185 0
166 185 0
167 188 0
160 179 0
163 183 0
160 181 0
164 186 0
166 186 0
165 187 0
167 188 0
168 189 0
164 184 0
163 183 0
168 188 0
168 192 0
170 193 0
166 189 0
165 189 0
170 193 0
171 194 0
168 192 0
171 195 0
167 190 0
170 193 0
165 189 0
166 189 0
168 192 0
165 187 0
167 190 0
160 183 0
164 187 0
168 191 0
169 192 0
167 190 0
164 187 0
165 189 0
165 189 0
166 190 0
164 187 0
171 194 0
170 192 0
164 187 0
160 183 0
164 187 0
163 186 0
165 189 0
166 190 0
161 183 0
164 187 0
165 188 0
164 188 0
157 181 0
162 186 0
161 184 0
159 182 0
158 181 0
159 182 0
160 184 0
164 186 0
159 182 0
166 188 0
154 177 0
162 185 0
159 182 0
160 184 0
158 181 0
155 178 0
155 178 0
150 173 0
152 176 0
158 181 0
163 187 0
156 178 0
155 178 0
156 179 0
158 181 0
153 175 0
154 177 0
157 179 0
152 174 0
152 175 0
156 178 0
155 177 0
152 175 0
143 165 0
150 173 0
145 167 0
147 169 0
151 173 0
154 175 0
147 168 0
147 169 0
136 159 0
151 173 0
143 164 0
144 165 0
137 160 0
134 156 0
128 149 0
140 162 0
140 161 0
136 157 0
138 159 0
144 165 0
127 147 0
146 166 0
129 149 0
125 145 0
134 154 0
135 156 0
130 150 0
118 138 0
126 144 0
124 144 0
121 139 0
124 143 0
114 133 0
119 138 18
95 114 25
95 116 40
93 114 62
87 109 62
85 107 80
68 94 82
67 94 78
57 86 76
54 87 94
56 88 102
53 85 88
56 88 99
57 91 103
54 86 100
55 87 111
56 89 99
57 89 90
62 92 107
59 91 107
72 99 103
68 99 115
68 97 111
81 108 113
76 104 113
79 105 115
76 102 107
89 113 111
73 100 121
83 106 99
79 106 107
90 112 107
96 119 103
85 112 111
98 120 105
104 126 82
107 131 90
102 124 78
97 120 99
107 128 92
99 121 82
86 109 90
95 116 78
81 108 90
76 101 90
72 99 86
74 101 94
65 94 78
68 96 95
65 94 84
57 87 90
69 97 90
73 101 88
58 88 76
63 91 80
61 90 82
70 97 84
66 96 103
57 89 92
55 88 103
55 88 95
54 87 92
55 87 92
55 87 90
57 90 95
57 90 108
54 86 97
56 88 103
56 89 99
55 87 90
56 89 100
56 89 103
56 89 97
55 87 95
57 90 115
52 82 84
56 88 102
55 87 90
55 88 97
53 85 90
54 86 90
54 87 92
57 90 110
55 86 95
54 86 99
55 87 99
55 87 82
56 88 105
55 87 103
57 90 99
54 86 99
57 90 102
56 88 108
55 88 94
53 85 92
56 88 95
53 84 86
51 82 76
53 85 90
52 83 74
52 83 88
56 86 88
50 80 76
65 87 54
84 103 54
70 88 36
83 98 0
99 114 0
99 113 0
101 118 0
110 125 0
102 117 0
99 114 0
105 121 0
99 116 0
97 112 0
106 122 0
109 126 0
103 118 0
108 123 0
98 112 0
118 136 0
111 129 0
106 123 0
119 136 0
107 124 0
118 135 0
106 121 0
109 126 0
112 127 0
114 131 0
128 144 0
123 138 0
119 136 0
104 119 0
111 128 0
125 144 0
119 136 0
124 141 0
124 140 0
126 141 0
122 138 0
144 161 0
128 145 0
132 150 0
125 143 0
129 148 0
121 137 0
122 141 0
134 152 0
131 148 0
136 155 0
126 144 0
131 149 0
125 144 0
129 147 0
140 160 0
141 160 0
142 161 0
136 154 0
135 152 0
134 153 0
140 158 0
138 158 0
137 156 0
133 152 0
143 162 0
140 158 0
141 159 0
134 153 0
129 146 0
142 162 0
137 155 0
138 157 0
132 151 0
141 160 0
151 170 0
143 162 0
146 164 0
144 162 0
149 167 0
141 160 0
145 163 0
141 161 0
136 154 0
141 160 0
144 160 0
150 167 0
153 171 0
152 170 0
151 171 0
149 168 0
143 162 0
153 172 0
141 159 0
152 172 0
139 159 0
151 169 0
159 177 0
149 168 0
152 171 0
152 171 0
151 169 0
152 171 0
151 169 0
154 175 0
144 164 0
147 165 0
154 174 0
153 172 0
163 183 0
149 168 0
144 160 0
154 173 0
160 181 0
158 177 0
148 167 0
163 183 0
160 178 0
155 176 0
159 180 0
160 181 0
156 174 0
152 171 0
156 175 0
152 170 0
163 182 0
157 175 0
159 177 0
153 172 0
157 177 0
156 174 0
157 176 0
151 168 0
160 180 0
154 174 0
161 180 0
160 179 0
159 177 0
153 172 0
153 171 0
163 184 0
153 171 0
159 179 0
145 164 0
162 183 0
160 181 0
159 176 0
157 175 0
155 175 0
160 180 0
153 172 0
160 181 0
166 186 0
161 180 0
158 178 0
160 180 0
157 178 0
160 180 0
156 175 0
164 184 0
160 179 0
166 187 0
158 177 0
163 183 0
157 176 0
161 179 0
161 180 0
161 182 0
160 180 0
162 182 0
157 174 0
162 183 0
163 184 0
166 186 0
161 180 0
162 183 0
161 179 0
162 182 0
157 178 0
170 191 0
167 187 0
164 184 0
165 184 0
166 185 0
164 186 0
162 182 0
165 186 0
164 184 0
168 190 0
163 185 0
164 185 0
161 182 0
167 189 0
166 188 0
165 187 0
169 190 0
171 194 0
169 193 0
163 186 0
169 192 0
167 191 0
166 189 0
167 191 0
166 190 0
161 186 0
167 191 0
168 192 0
166 189 0
165 189 0
167 191 0
168 192 0
164 188 0
161 184 0
166 190 0
163 186 0
164 188 0
166 188 0
163 187 0
168 191 0
160 185 0
163 186 0
167 190 0
164 187 0
156 180 0
159 183 0
157 180 0
163 187 0
165 188 0
158 182 0
160 184 0
161 184 0
165 188 0
159 182 0
157 180 0
164 187 0
166 190 0
162 185 0
164 187 0
161 184 0
160 184 0
157 180 0
166 189 0
161 185 0
162 186 0
161 184 0
159 182 0
160 183 0
157 180 0
156 179 0
162 184 0
160 182 0
152 175 0
166 189 0
154 178 0
158 182 0
161 184 0
158 182 0
156 180 0
149 172 0
159 182 0
153 175 0
151 173 0
156 178 0
158 181 0
154 177 0
153 176 0
149 172 0
154 177 0
154 176 0
141 164 0
145 168 0
144 166 0
147 170 0
148 171 0
149 170 0
148 170 0
148 169 0
143 165 0
147 168 0
140 162 0
137 158 0
145 168 0
141 162 0
146 167 0
135 156 0
134 155 0
136 156 0
131 151 0
143 163 0
135 154 0
127 147 0
137 158 0
139 159 0
136 157 0
116 136 0
132 151 0
114 134 0
118 138 0
113 131 0
115 133 0
122 140 25
104 122 25
100 119 47
83 104 47
82 104 60
83 105 67
66 90 80
66 93 65
62 89 72
55 87 97
55 88 86
56 89 110
55 87 97
55 88 95
57 90 94
57 90 108
59 91 114
62 91 94
68 97 108
68 96 107
72 98 108
73 100 107
77 103 103
78 105 110
73 101 113
95 117 99
92 113 99
87 111 99
96 118 102
88 112 100
102 123 92
84 109 97
92 115 94
99 121 100
100 123 88
103 124 82
103 124 84
102 123 88
102 120 76
94 115 86
95 116 82
91 114 99
88 110 76
76 99 84
92 115 82
81 107 88
68 94 76
67 95 80
62 90 72
65 94 94
60 90 90
70 98 95
59 88 72
65 93 82
61 91 84
68 96 76
65 94 82
61 90 86
65 94 102
62 94 99
52 84 76
55 87 88
55 88 94
54 86 90
54 87 97
54 86 90
55 87 94
55 87 92
55 87 95
54 86 80
57 89 103
53 84 92
55 88 108
54 86 100
55 87 97
55 87 105
52 83 97
55 87 97
55 88 103
55 87 97
55 87 95
53 84 84
53 85 100
53 83 82
54 87 99
52 83 82
52 83 80
53 85 82
53 85 86
54 87 94
55 87 90
55 87 95
53 85 86
54 86 82
56 88 100
53 84 76
52 84 78
59 89 90
55 83 78
61 85 60
77 95 51
78 98 36
80 97 51
80 95 25
94 109 18
90 105 0
104 119 0
92 107 0
92 107 0
110 126 0
94 109 0
106 120 0
91 106 0
99 115 0
107 123 0
95 111 0
108 124 0
105 121 0
107 124 0
105 121 0
100 116 0
112 128 0
108 123 0
108 123 0
108 126 0
107 123 0
127 145 0
116 134 0
114 130 0
115 132 0
122 141 0
112 127 0
111 127 0
131 147 0
124 141 0
121 135 0
122 139 0
128 145 0
129 147 0
126 143 0
129 145 0
125 142 0
136 154 0
132 150 0
130 147 0
130 149 0
132 150 0
135 153 0
135 153 0
129 146 0
138 157 0
131 149 0
134 153 0
136 155 0
134 153 0
139 158 0
127 144 0
136 153 0
130 146 0
131 148 0
141 161 0
134 151 0
144 164 0
138 155 0
147 166 0
140 159 0
144 163 0
149 166 0
140 159 0
140 159 0
143 164 0
149 168 0
134 153 0
147 166 0
142 160 0
143 164 0
140 158 0
146 165 0
143 161 0
145 166 0
138 157 0
150 171 0
140 159 0
148 165 0
147 167 0
139 157 0
148 170 0
145 164 0
154 173 0
148 169 0
140 157 0
151 170 0
143 162 0
150 169 0
147 166 0
139 156 0
147 167 0
148 168 0
148 168 0
151 171 0
151 169 0
156 175 0
151 170 0
159 178 0
154 175 0
149 166 0
151 169 0
150 169 0
155 174 0
153 172 0
157 174 0
149 166 0
151 169 0
156 174 0
155 175 0
154 173 0
154 173 0
151 167 0
155 172 0
155 175 0
158 177 0
150 168 0
155 173 0
155 173 0
151 168 0
152 172 0
159 180 0
163 180 0
161 182 0
147 165 0
161 179 0
150 170 0
152 169 0
152 172 0
153 171 0
162 181 0
157 177 0
157 177 0
157 175 0
152 172 0
158 179 0
156 177 0
155 175 0
163 181 0
155 174 0
158 176 0
159 178 0
157 178 0
157 176 0
160 182 0
157 178 0
162 183 0
159 179 0
160 179 0
164 183 0
157 178 0
156 175 0
160 178 0
161 182 0
162 180 0
162 182 0
160 181 0
165 185 0
161 180 0
164 182 0
160 180 0
163 183 0
164 184 0
164 186 0
165 185 0
158 178 0
163 183 0
162 183 0
158 178 0
165 184 0
163 184 0
164 186 0
164 184 0
164 185 0
163 183 0
163 183 0
166 188 0
165 185 0
170 189 0
161 181 0
166 185 0
162 181 0
166 187 0
164 185 0
166 187 0
169 192 0
165 186 0
156 175 0
166 187 0
165 186 0
163 185 0
172 195 0
167 191 0
167 191 0
166 190 0
162 186 0
168 192 0
168 192 0
161 185 0
172 194 0
165 189 0
171 195 0
166 190 0
167 191 0
166 190 0
165 189 0
165 189 0
164 188 0
172 194 0
168 191 0
166 190 0
161 185 0
162 185 0
163 187 0
162 186 0
163 187 0
161 185 0
166 190 0
166 189 0
164 187 0
168 191 0
163 186 0
165 188 0
160 184 0
162 185 0
166 189 0
161 184 0
169 192 0
162 185 0
156 179 0
168 191 0
156 179 0
163 188 0
161 185 0
164 187 0
163 186 0
165 188 0
152 175 0
158 180 0
158 182 0
161 184 0
167 190 0
158 181 0
159 183 0
158 181 0
160 182 0
157 179 0
157 180 0
156 179 0
156 179 0
156 179 0
154 176 0
157 179 0
153 176 0
155 178 0
153 176 0
151 174 0
157 179 0
147 169 0
146 169 0
146 169 0
150 173 0
144 167 0
148 171 0
149 171 0
151 173 0
148 170 0
148 170 0
145 167 0
147 169 0
149 172 0
145 167 0
145 165 0
148 169 0
136 158 0
144 166 0
144 164 0
147 168 0
146 167 0
137 160 0
134 154 0
132 154 0
124 145 0
139 159 0
141 162 0
137 157 0
126 146 0
132 153 0
128 147 0
130 149 0
121 140 0
131 150 0
122 141 0
128 147 0
95 113 0
105 123 0
101 119 36
102 120 36
92 111 44
89 110 62
89 108 57
76 99 60
78 102 67
73 97 74
67 94 70
61 89 92
54 87 95
53 85 80
54 86 92
54 86 95
56 88 102
56 89 103
63 94 100
69 95 94
70 95 102
67 96 114
71 98 102
73 100 102
79 105 102
83 109 113
85 108 103
93 115 102
93 115 110
96 119 110
100 123 106
92 114 92
97 121 99
102 125 88
103 125 84
105 127 80
104 124 82
108 130 92
91 112 84
107 127 65
100 119 57
92 112 74
100 120 62
82 105 76
99 119 78
83 107 65
72 97 74
70 97 94
65 94 90
71 99 90
71 100 86
66 94 78
57 85 72
65 95 95
74 101 84
70 97 82
65 93 76
67 95 80
61 91 80
58 88 84
59 88 82
53 83 86
55 87 92
56 89 97
54 86 99
53 84 90
55 88 92
54 86 86
54 87 95
55 88 86
55 87 94
53 85 86
55 87 97
55 88 103
54 87 92
53 84 90
55 88 97
54 86 94
52 84 80
53 84 82
54 86 103
51 82 84
51 81 86
55 87 99
53 84 92
54 86 92
51 82 76
54 85 105
53 84 84
53 85 90
53 84 94
53 84 88
53 84 92
51 82 80
54 86 94
59 88 78
56 84 70
67 90 74
72 92 54
77 95 31
60 77 36
90 106 25
89 104 0
97 112 0
92 107 0
102 116 0
97 113 0
102 118 0
99 114 0
99 115 0
93 107 0
107 120 0
103 120 0
101 117 0
105 120 0
104 121 0
104 118 0
116 131 0
109 125 0
112 128 0
105 119 0
119 136 0
115 130 0
112 129 0
120 137 0
109 127 0
106 122 0
113 129 0
119 137 0
117 134 0
115 132 0
115 132 0
118 136 0
121 137 0
119 137 0
129 148 0
131 149 0
129 147 0
130 148 0
119 137 0
130 149 0
129 145 0
138 157 0
141 159 0
128 144 0
119 135 0
126 144 0
120 139 0
133 152 0
126 144 0
143 163 0
130 148 0
138 156 0
132 149 0
136 155 0
143 164 0
139 157 0
138 156 0
132 151 0
145 164 0
137 155 0
134 152 0
142 163 0
140 159 0
137 156 0
142 160 0
137 156 0
135 153 0
149 168 0
142 160 0
144 162 0
129 147 0
136 153 0
139 157 0
140 159 0
146 166 0
148 168 0
147 166 0
140 158 0
143 161 0
147 167 0
141 161 0
150 170 0
150 170 0
143 162 0
142 161 0
151 171 0
143 161 0
145 163 0
147 167 0
143 161 0
146 164 0
160 179 0
148 167 0
144 162 0
148 169 0
146 166 0
156 175 0
147 164 0
155 174 0
153 173 0
154 174 0
144 162 0
148 165 0
152 172 0
149 170 0
149 169 0
155 175 0
149 167 0
137 157 0
152 171 0
154 174 0
147 166 0
154 172 0
151 168 0
154 174 0
155 173 0
157 177 0
157 174 0
149 168 0
159 178 0
161 182 0
156 174 0
163 181 0
156 174 0
153 172 0
156 177 0
153 173 0
156 176 0
161 182 0
158 177 0
155 173 0
150 168 0
156 176 0
162 183 0
159 180 0
162 182 0
152 171 0
160 181 0
161 180 0
159 180 0
156 173 0
156 176 0
161 180 0
159 181 0
163 184 0
162 182 0
162 181 0
152 171 0
157 176 0
159 180 0
161 180 0
160 182 0
163 183 0
167 188 0
157 175 0
162 182 0
161 182 0
160 180 0
162 182 0
160 181 0
166 187 0
162 183 0
162 183 0
153 172 0
160 179 0
159 179 0
159 179 0
167 189 0
163 182 0
164 183 0
163 183 0
166 187 0
167 188 0
166 186 0
164 186 0
162 182 0
160 181 0
161 182 0
168 189 0
165 186 0
163 184 0
169 190 0
166 187 0
162 183 0
165 185 0
166 186 0
166 188 0
166 186 0
164 184 0
165 188 0
161 181 0
164 182 0
161 181 0
168 189 0
168 189 0
163 185 0
166 190 0
165 188 0
170 194 0
164 187 0
168 191 0
168 192 0
164 188 0
169 193 0
167 190 0
168 191 0
168 192 0
166 191 0
163 187 0
171 195 0
165 188 0
165 189 0
163 186 0
164 189 0
169 193 0
165 189 0
167 189 0
168 192 0
165 188 0
170 194 0
165 189 0
167 190 0
166 189 0
163 186 0
166 189 0
167 190 0
158 182 0
166 188 0
166 189 0
161 185 0
164 187 0
159 182 0
156 180 0
160 184 0
160 184 0
155 178 0
159 182 0
165 188 0
162 185 0
155 179 0
162 185 0
158 181 0
159 182 0
163 186 0
159 183 0
157 180 0
162 185 0
158 181 0
156 179 0
158 181 0
162 186 0
161 185 0
157 180 0
158 180 0
156 180 0
151 174 0
158 181 0
154 176 0
164 186 0
153 175 0
155 178 0
155 177 0
147 170 0
150 173 0
154 177 0
155 178 0
150 172 0
146 168 0
152 174 0
152 175 0
148 171 0
148 170 0
150 172 0
158 180 0
146 169 0
143 165 0
144 167 0
146 168 0
145 168 0
141 162 0
146 168 0
138 159 0
136 157 0
145 167 0
138 159 0
139 160 0
131 153 0
137 158 0
138 159 0
131 152 0
125 146 0
126 146 0
117 137 0
116 136 0
128 148 0
120 140 0
123 142 0
121 140 0
118 138 0
108 126 0
130 147 0
106 123 0
110 128 0
89 108 40
97 115 44
85 107 72
83 104 62
90 110 54
69 92 70
67 93 76
73 98 74
58 87 80
52 83 90
53 84 95
55 88 90
55 87 97
55 87 99
60 92 102
59 90 105
65 93 95
72 99 90
79 105 86
61 92 105
75 102 90
90 115 100
94 115 92
99 121 100
93 116 94
94 117 97
90 115 107
102 121 88
98 121 90
100 123 80
101 123 90
89 112 88
102 123 74
99 122 70
111 132 76
109 132 80
107 127 82
93 114 74
96 115 62
88 108 62
102 123 67
86 107 70
100 122 65
81 104 76
90 113 78
69 96 88
70 95 80
62 89 70
69 96 88
68 96 80
60 90 76
56 85 70
72 99 78
62 90 86
55 82 60
55 85 74
61 90 74
52 82 90
53 85 95
51 82 62
54 86 84
55 87 90
52 84 86
55 87 94
54 85 99
55 87 76
52 83 82
54 86 86
55 86 94
53 85 88
53 85 78
50 81 78
53 85 76
52 83 84
53 83 82
52 83 84
53 84 90
52 84 78
53 84 99
53 85 80
53 84 88
52 84 72
51 82 90
54 85 88
52 83 80
52 82 70
51 81 76
55 84 78
59 88 78
74 99 86
60 82 54
81 98 51
87 105 51
78 95 40
87 103 31
93 107 0
92 106 0
94 109 0
102 117 0
111 125 0
96 110 0
108 123 0
104 120 0
92 106 0
88 105 0
110 127 0
96 112 0
109 124 0
109 124 0
116 133 0
98 114 0
95 111 0
106 121 0
115 131 0
105 121 0
107 123 0
102 118 0
111 128 0
114 131 0
122 139 0
119 136 0
120 136 0
113 131 0
117 134 0
114 132 0
126 144 0
116 131 0
127 144 0
133 150 0
122 140 0
135 152 0
121 137 0
127 143 0
126 144 0
121 139 0
131 148 0
131 149 0
126 143 0
124 142 0
137 156 0
113 132 0
123 140 0
128 146 0
132 151 0
130 148 0
134 152 0
138 156 0
141 160 0
126 145 0
124 141 0
141 161 0
139 160 0
130 149 0
130 149 0
131 151 0
136 155 0
139 157 0
135 154 0
134 153 0
136 156 0
137 156 0
136 155 0
141 162 0
145 164 0
139 157 0
147 166 0
147 166 0
142 161 0
138 156 0
146 165 0
144 165 0
147 168 0
139 156 0
137 156 0
142 159 0
146 166 0
144 161 0
150 170 0
143 162 0
144 163 0
147 166 0
143 161 0
145 164 0
151 169 0
141 161 0
136 154 0
146 164 0
147 168 0
143 163 0
155 177 0
143 162 0
152 172 0
158 178 0
151 167 0
158 178 0
155 175 0
151 171 0
153 172 0
146 165 0
149 168 0
152 172 0
153 171 0
148 166 0
152 170 0
154 173 0
151 170 0
149 168 0
150 169 0
157 177 0
151 170 0
153 171 0
151 171 0
151 171 0
158 176 0
150 169 0
156 175 0
157 176 0
158 175 0
151 170 0
158 177 0
157 177 0
160 178 0
159 179 0
156 175 0
155 173 0
155 175 0
157 177 0
162 182 0
161 180 0
163 183 0
161 181 0
161 181 0
151 170 0
160 181 0
157 177 0
160 179 0
150 169 0
156 176 0
162 182 0
157 178 0
156 174 0
156 176 0
158 180 0
163 182 0
160 178 0
158 177 0
151 169 0
157 178 0
160 179 0
162 183 0
160 180 0
161 181 0
157 179 0
161 182 0
166 186 0
162 182 0
162 182 0
156 177 0
160 180 0
161 182 0
161 182 0
164 183 0
163 181 0
160 180 0
165 184 0
160 181 0
159 179 0
162 182 0
163 183 0
165 186 0
162 183 0
165 186 0
165 187 0
164 185 0
164 185 0
165 187 0
163 184 0
164 185 0
161 181 0
163 182 0
165 185 0
162 183 0
162 183 0
162 183 0
159 178 0
166 188 0
165 185 0
166 187 0
168 189 0
166 187 0
162 182 0
168 189 0
164 186 0
171 195 0
171 194 0
168 192 0
170 194 0
164 188 0
167 190 0
166 189 0
168 190 0
164 188 0
167 190 0
162 186 0
169 192 0
165 188 0
169 192 0
165 188 0
166 190 0
169 192 0
170 193 0
166 189 0
164 187 0
165 188 0
166 190 0
167 191 0
164 187 0
165 188 0
165 189 0
171 194 0
163 188 0
159 182 0
164 188 0
163 186 0
166 189 0
167 190 0
166 189 0
159 183 0
162 185 0
160 183 0
156 180 0
158 181 0
155 178 0
163 187 0
161 184 0
157 181 0
157 181 0
157 180 0
158 182 0
159 182 0
159 181 0
150 174 0
158 181 0
152 175 0
161 184 0
154 177 0
163 186 0
155 178 0
151 174 0
156 179 0
157 180 0
156 179 0
156 180 0
162 184 0
157 180 0
151 173 0
156 179 0
154 178 0
149 172 0
151 174 0
148 170 0
155 178 0
151 174 0
158 181 0
150 173 0
153 175 0
152 175 0
149 172 0
149 171 0
146 168 0
144 166 0
145 167 0
142 164 0
151 172 0
150 172 0
149 171 0
145 166 0
147 169 0
146 167 0
139 162 0
144 166 0
138 159 0
136 158 0
138 157 0
139 160 0
134 155 0
133 153 0
136 156 0
128 150 0
121 140 0
131 151 0
126 146 0
123 143 0
114 133 0
127 146 0
116 134 0
119 136 0
114 132 0
123 141 0
112 128 0
102 120 0
92 110 25
95 113 25
84 105 51
87 106 51
77 99 67
73 97 70
68 93 67
58 82 51
57 87 95
55 85 84
54 86 90
56 89 97
56 88 97
54 86 92
59 90 105
71 98 95
74 100 103
82 106 94
87 111 97
79 102 82
80 103 94
80 107 90
95 116 92
94 117 95
102 123 84
93 116 102
90 113 88
97 120 84
107 130 97
98 118 94
107 129 78
109 129 76
114 134 54
115 135 70
105 125 70
110 128 65
111 130 67
112 131 57
95 118 74
95 117 80
89 111 67
87 108 60
86 105 54
94 112 57
84 105 57
79 102 65
71 93 60
74 97 54
64 89 60
74 100 80
62 89 65
58 85 60
60 90 78
59 89 82
56 86 70
52 84 84
51 82 76
54 85 95
53 84 80
53 85 94
51 82 76
54 86 90
53 84 95
51 82 70
51 82 82
52 83 84
54 86 82
52 83 88
52 84 82
53 84 92
54 86 92
55 87 100
53 84 76
53 85 82
49 79 70
52 83 86
54 85 82
53 84 82
52 82 82
49 79 74
52 82 88
55 85 86
49 77 70
68 93 82
63 86 44
74 96 60
75 95 44
79 97 57
81 98 54
81 97 18
76 91 25
80 95 0
84 98 18
89 104 0
96 111 0
100 116 0
86 99 0
93 109 0
92 107 0
107 122 0
101 115 0
93 108 0
102 118 0
106 122 0
110 124 0
102 118 0
98 113 0
111 127 0
109 125 0
109 127 0
99 116 0
99 116 0
110 128 0
107 123 0
105 121 0
120 136 0
112 130 0
126 141 0
124 140 0
114 130 0
114 129 0
115 131 0
114 133 0
115 133 0
121 138 0
116 133 0
129 145 0
117 135 0
116 134 0
120 138 0
122 140 0
133 152 0
127 145 0
118 136 0
131 149 0
118 136 0
131 151 0
130 148 0
121 140 0
122 138 0
122 139 0
124 142 0
128 146 0
134 153 0
139 159 0
125 142 0
129 148 0
134 152 0
137 156 0
120 139 0
136 153 0
137 156 0
133 151 0
131 148 0
140 159 0
145 164 0
140 158 0
134 153 0
127 145 0
147 166 0
135 154 0
131 149 0
140 159 0
143 160 0
130 147 0
136 154 0
152 171 0
142 160 0
146 166 0
143 162 0
139 158 0
141 159 0
139 160 0
141 161 0
148 169 0
142 161 0
147 167 0
143 163 0
139 158 0
139 158 0
151 171 0
152 170 0
145 164 0
150 169 0
150 170 0
151 171 0
149 168 0
153 173 0
148 166 0
145 165 0
145 164 0
150 169 0
154 173 0
156 175 0
149 169 0
145 165 0
160 180 0
149 169 0
154 173 0
155 174 0
152 172 0
151 171 0
156 176 0
151 170 0
154 173 0
154 174 0
152 173 0
156 175 0
153 172 0
149 167 0
158 178 0
149 168 0
156 176 0
161 181 0
157 177 0
158 179 0
156 174 0
159 178 0
159 178 0
159 180 0
151 172 0
157 176 0
159 178 0
159 178 0
160 178 0
158 178 0
159 176 0
157 175 0
149 168 0
149 166 0
156 175 0
156 176 0
157 177 0
151 169 0
154 173 0
149 169 0
154 174 0
153 171 0
163 184 0
159 179 0
163 183 0
156 176 0
163 184 0
163 183 0
159 180 0
160 180 0
163 184 0
157 178 0
159 179 0
160 179 0
163 183 0
161 180 0
161 181 0
159 177 0
168 188 0
167 187 0
158 177 0
161 182 0
159 178 0
162 182 0
166 186 0
165 184 0
160 181 0
165 187 0
160 180 0
155 175 0
163 184 0
156 177 0
161 182 0
161 180 0
160 181 0
161 181 0
164 184 0
164 184 0
167 188 0
166 186 0
164 184 0
169 190 0
167 187 0
164 184 0
168 188 0
164 187 0
160 181 0
166 188 0
167 188 0
164 184 0
166 187 0
166 186 0
168 188 0
167 189 0
164 186 0
168 189 0
166 190 0
168 191 0
167 191 0
169 192 0
168 192 0
171 195 0
168 191 0
167 190 0
170 193 0
167 190 0
169 192 0
166 191 0
167 191 0
168 192 0
169 192 0
168 191 0
167 191 0
166 190 0
163 187 0
161 185 0
163 187 0
166 189 0
163 186 0
163 187 0
168 192 0
167 189 0
167 191 0
160 183 0
166 190 0
161 186 0
168 191 0
169 192 0
166 189 0
166 189 0
165 189 0
163 186 0
158 182 0
161 185 0
162 186 0
164 187 0
161 184 0
163 187 0
160 182 0
155 178 0
160 183 0
160 182 0
166 189 0
164 187 0
165 188 0
164 187 0
160 183 0
157 181 0
158 182 0
160 182 0
154 178 0
158 181 0
160 183 0
154 177 0
154 178 0
161 184 0
160 184 0
149 172 0
151 174 0
162 185 0
151 173 0
157 179 0
154 176 0
153 175 0
151 173 0
153 177 0
152 174 0
151 174 0
151 172 0
149 171 0
149 172 0
138 160 0
151 173 0
146 169 0
144 166 0
146 169 0
145 167 0
151 173 0
143 164 0
148 168 0
139 161 0
146 168 0
144 166 0
133 154 0
130 151 0
139 160 0
137 158 0
128 149 0
132 153 0
130 150 0
133 154 0
138 159 0
122 142 0
138 158 0
135 154 0
128 146 0
114 134 0
129 148 0
126 144 0
122 140 0
116 135 0
107 125 0
113 130 0
114 131 0
104 121 18
98 117 40
95 114 31
80 100 51
81 103 60
65 88 57
69 92 76
56 81 62
60 86 82
62 91 80
54 82 80
56 87 90
57 89 99
55 88 97
65 94 80
64 92 82
68 95 99
82 105 78
79 104 94
79 103 88
90 111 76
94 115 86
89 110 74
83 107 103
91 114 99
98 123 92
98 119 78
109 128 74
102 124 78
98 118 70
102 121 82
102 123 72
97 118 76
109 131 70
106 126 70
104 124 74
116 136 47
110 130 70
104 123 67
95 114 47
103 124 70
101 120 36
100 119 54
95 114 51
99 119 54
92 111 47
89 107 44
74 93 47
81 100 40
83 103 60
91 109 31
82 102 54
73 94 47
80 101 51
68 93 57
57 82 60
56 84 65
54 84 84
49 78 76
52 83 90
53 82 67
51 81 76
51 81 80
51 81 72
52 82 80
52 83 84
53 85 78
53 84 84
49 79 80
51 82 76
51 82 65
53 83 72
48 77 74
51 82 86
53 84 78
52 80 70
55 83 78
55 81 70
55 81 72
66 88 60
72 94 57
75 94 47
82 101 40
74 92 40
80 97 31
80 96 25
86 101 0
85 98 0
97 110 0
92 105 0
93 107 0
87 101 0
89 105 0
87 104 0
87 104 0
96 111 0
103 118 0
92 106 0
109 125 0
101 115 0
94 109 0
103 118 0
107 123 0
97 112 0
99 115 0
100 116 0
99 115 0
118 134 0
98 115 0
111 127 0
114 131 0
106 121 0
108 125 0
100 117 0
99 116 0
125 141 0
108 125 0
121 139 0
108 125 0
119 138 0
117 135 0
119 135 0
126 142 0
108 125 0
123 141 0
118 135 0
126 143 0
119 135 0
114 133 0
121 140 0
123 141 0
127 145 0
131 149 0
132 150 0
128 146 0
129 148 0
121 138 0
126 145 0
122 140 0
141 161 0
139 159 0
131 150 0
127 143 0
137 154 0
137 156 0
127 146 0
130 150 0
132 151 0
132 149 0
124 140 0
140 157 0
131 151 0
141 161 0
137 155 0
135 153 0
136 154 0
135 153 0
139 158 0
151 170 0
138 157 0
133 152 0
141 161 0
147 166 0
151 170 0
145 165 0
140 158 0
139 156 0
148 168 0
140 159 0
137 157 0
148 167 0
148 167 0
137 156 0
148 167 0
142 162 0
145 162 0
150 171 0
156 174 0
150 170 0
144 164 0
153 173 0
131 150 0
148 167 0
148 168 0
148 166 0
136 154 0
147 168 0
146 165 0
148 169 0
143 165 0
144 163 0
152 173 0
150 170 0
146 166 0
151 171 0
144 164 0
150 169 0
149 167 0
152 173 0
150 171 0
152 171 0
161 180 0
145 165 0
153 173 0
160 181 0
160 179 0
148 168 0
153 173 0
155 175 0
152 173 0
156 176 0
154 173 0
155 175 0
157 174 0
159 179 0
159 179 0
158 175 0
149 169 0
153 170 0
157 177 0
154 173 0
152 170 0
150 169 0
155 175 0
156 175 0
155 173 0
160 181 0
158 178 0
158 176 0
157 177 0
157 175 0
159 180 0
158 179 0
162 183 0
160 180 0
158 176 0
157 176 0
153 171 0
160 180 0
159 179 0
157 176 0
160 181 0
159 178 0
157 176 0
160 181 0
161 181 0
161 182 0
166 187 0
162 182 0
161 178 0
164 184 0
161 181 0
165 186 0
161 182 0
157 176 0
154 175 0
159 180 0
161 182 0
160 179 0
160 179 0
158 176 0
164 183 0
162 181 0
167 187 0
164 183 0
162 182 0
159 179 0
160 182 0
158 178 0
161 180 0
165 186 0
158 179 0
159 180 0
162 182 0
163 184 0
164 183 0
163 184 0
159 178 0
166 187 0
165 186 0
163 185 0
165 186 0
165 185 0
164 184 0
166 187 0
168 187 0
166 187 0
166 188 0
166 187 0
161 183 0
163 185 0
164 185 0
167 190 0
169 192 0
169 193 0
165 189 0
169 193 0
171 195 0
169 192 0
167 191 0
160 184 0
163 186 0
166 190 0
168 191 0
167 191 0
168 192 0
166 189 0
168 192 0
161 185 0
164 188 0
162 184 0
164 188 0
161 185 0
169 193 0
166 190 0
159 182 0
165 188 0
168 191 0
158 182 0
155 179 0
163 187 0
161 183 0
165 189 0
164 187 0
164 187 0
164 186 0
160 184 0
161 183 0
166 188 0
165 187 0
159 183 0
163 186 0
157 179 0
163 187 0
162 184 0
159 183 0
166 190 0
158 182 0
161 184 0
157 181 0
165 188 0
162 185 0
158 181 0
155 178 0
155 178 0
159 182 0
157 180 0
158 181 0
162 185 0
153 176 0
155 178 0
150 172 0
157 179 0
154 176 0
157 179 0
157 179 0
152 175 0
161 183 0
141 163 0
152 174 0
154 176 0
149 172 0
161 184 0
153 174 0
153 175 0
145 166 0
148 171 0
150 172 0
151 173 0
146 168 0
150 171 0
151 174 0
153 175 0
153 175 0
144 166 0
147 169 0
141 162 0
138 158 0
136 156 0
142 163 0
128 148 0
141 162 0
138 159 0
133 154 0
125 145 0
151 171 0
129 149 0
139 160 0
133 153 0
129 148 0
132 152 0
126 146 0
125 144 0
123 142 0
115 133 0
116 134 0
117 134 0
113 129 0
115 132 0
114 131 0
95 112 0
109 125 18
93 111 36
81 98 40
101 120 47
82 103 47
92 111 65
76 98 51
65 88 62
67 92 86
59 86 62
56 84 78
52 83 76
55 85 67
55 84 82
67 94 90
74 99 78
81 104 82
95 118 80
86 109 78
96 119 80
93 114 76
93 114 86
103 124 78
103 121 74
99 121 84
92 113 82
107 129 76
103 120 57
102 124 78
120 140 65
106 127 60
111 130 54
95 116 74
113 134 60
112 128 57
108 128 60
97 117 47
111 131 60
97 117 57
106 124 40
102 120 44
111 129 36
96 117 62
98 117 54
90 108 40
95 114 47
94 112 40
83 101 44
80 99 31
77 94 25
97 114 31
89 104 25
92 109 31
90 107 36
83 102 40
78 96 36
68 85 40
73 93 36
75 94 31
70 90 47
66 87 40
65 87 65
60 83 67
67 89 54
73 96 60
75 97 72
51 74 57
70 90 54
69 91 57
54 77 40
74 96 54
71 91 57
75 93 25
70 88 44
65 83 44
78 95 44
81 98 31
84 101 36
59 75 0
79 94 25
90 106 18
77 92 0
95 109 18
99 114 0
85 98 0
102 117 0
87 100 0
100 115 0
105 120 0
92 105 0
91 106 0
100 116 0
84 100 0
88 104 0
93 109 0
96 113 0
93 108 0
92 108 0
107 122 0
96 111 0
114 131 0
104 121 0
106 124 0
94 110 0
104 120 0
90 104 0
103 118 0
99 115 0
93 108 0
118 135 0
97 113 0
100 117 0
119 136 0
114 131 0
114 133 0
115 133 0
111 128 0
111 128 0
104 122 0
115 134 0
117 134 0
124 143 0
128 147 0
122 140 0
117 135 0
123 143 0
128 147 0
118 133 0
122 139 0
119 138 0
127 146 0
127 147 0
138 156 0
134 153 0
126 144 0
124 141 0
137 157 0
122 140 0
132 151 0
134 154 0
126 144 0
126 145 0
143 162 0
137 154 0
140 159 0
133 151 0
126 143 0
133 151 0
133 149 0
131 148 0
142 161 0
144 165 0
142 163 0
137 156 0
130 149 0
142 161 0
126 145 0
145 165 0
141 160 0
134 152 0
143 161 0
145 163 0
140 158 0
150 169 0
139 158 0
136 154 0
138 156 0
146 165 0
142 161 0
150 169 0
146 167 0
147 165 0
149 168 0
149 168 0
148 167 0
150 170 0
146 165 0
150 170 0
150 169 0
147 168 0
142 160 0
149 167 0
150 168 0
145 163 0
148 169 0
151 169 0
149 168 0
140 158 0
152 170 0
154 174 0
155 175 0
147 167 0
150 170 0
150 170 0
145 164 0
158 180 0
151 171 0
150 168 0
154 174 0
154 173 0
157 176 0
157 175 0
152 172 0
149 169 0
157 175 0
149 170 0
158 177 0
149 168 0
157 179 0
157 178 0
155 175 0
151 170 0
149 169 0
157 174 0
153 171 0
158 176 0
158 178 0
153 171 0
158 177 0
159 179 0
159 177 0
162 183 0
155 175 0
157 177 0
158 179 0
161 180 0
161 181 0
157 177 0
155 174 0
157 178 0
163 183 0
162 182 0
162 182 0
156 175 0
157 179 0
160 178 0
160 180 0
160 181 0
166 187 0
163 184 0
155 174 0
160 179 0
158 180 0
166 187 0
163 183 0
160 179 0
160 181 0
165 185 0
162 181 0
163 184 0
159 179 0
164 185 0
161 180 0
156 176 0
164 183 0
158 179 0
163 183 0
155 176 0
165 185 0
163 181 0
162 183 0
164 183 0
167 187 0
163 182 0
163 182 0
167 187 0
161 181 0
164 185 0
166 188 0
163 183 0
163 183 0
160 180 0
165 184 0
164 183 0
165 187 0
164 186 0
167 188 0
163 182 0
166 186 0
164 183 0
167 188 0
163 183 0
168 190 0
167 186 0
162 182 0
161 182 0
162 184 0
165 187 0
165 185 0
162 184 0
169 191 0
169 192 0
166 189 0
168 193 0
169 192 0
165 189 0
166 188 0
167 190 0
164 188 0
170 193 0
168 191 0
169 193 0
170 193 0
158 181 0
162 185 0
166 189 0
167 190 0
168 192 0
164 187 0
164 187 0
164 188 0
164 189 0
161 184 0
167 191 0
172 195 0
164 187 0
161 185 0
162 186 0
159 183 0
163 186 0
157 180 0
164 187 0
161 185 0
167 191 0
169 192 0
160 184 0
158 181 0
164 187 0
163 186 0
162 185 0
161 185 0
159 182 0
160 183 0
160 183 0
160 183 0
157 180 0
159 182 0
160 183 0
159 181 0
163 186 0
159 182 0
166 190 0
151 174 0
163 186 0
160 183 0
152 174 0
159 184 0
153 176 0
158 181 0
157 180 0
153 176 0
160 183 0
155 178 0
148 169 0
157 180 0
152 173 0
151 174 0
156 179 0
156 178 0
144 166 0
161 183 0
151 173 0
149 172 0
154 175 0
145 166 0
153 175 0
146 169 0
156 178 0
147 169 0
154 176 0
151 173 0
140 162 0
142 164 0
148 169 0
145 168 0
147 169 0
145 167 0
140 161 0
137 159 0
144 165 0
132 154 0
151 172 0
137 158 0
138 158 0
144 163 0
125 146 0
139 159 0
140 160 0
131 151 0
133 153 0
130 150 0
129 150 0
134 154 0
130 150 0
125 145 0
120 138 0
109 127 0
115 134 0
118 135 0
104 122 0
109 125 0
101 118 0
94 111 25
94 112 47
98 115 31
83 101 44
79 97 44
58 81 62
62 85 70
61 84 65
72 96 67
58 84 72
62 91 82
61 90 70
68 95 92
83 106 82
90 113 82
87 109 67
93 118 92
98 119 72
90 111 76
107 126 60
102 124 67
104 124 70
101 121 74
106 127 100
109 129 76
109 131 72
115 135 76
112 132 65
106 124 54
113 132 57
116 135 65
110 129 60
108 129 62
119 137 44
116 135 54
114 132 51
99 117 47
111 129 44
98 118 54
103 121 40
104 123 31
101 118 40
98 117 44
106 123 40
94 113 44
87 104 36
95 112 18
92 109 18
87 102 0
101 118 0
95 109 0
104 119 0
78 93 0
85 99 0
92 107 0
82 98 0
84 100 18
87 101 18
97 112 31
82 98 18
93 109 0
79 94 0
91 107 25
79 94 25
79 94 18
94 108 18
90 105 36
83 98 31
94 108 18
76 91 0
71 86 0
82 96 18
87 102 18
85 97 0
83 99 0
80 96 0
79 92 0
99 115 0
75 90 0
87 101 0
98 113 0
78 94 0
89 103 0
97 111 0
98 113 0
93 107 0
84 100 0
99 113 0
101 116 0
106 121 0
80 95 0
98 114 0
95 110 0
89 104 0
87 101 0
100 116 0
106 122 0
86 103 0
115 132 0
97 114 0
98 116 0
108 124 0
104 118 0
108 125 0
106 122 0
101 117 0
116 133 0
94 109 0
109 126 0
124 141 0
114 131 0
119 136 0
128 145 0
118 134 0
116 135 0
110 127 0
118 136 0
113 129 0
109 126 0
118 136 0
115 132 0
126 144 0
140 159 0
126 144 0
132 150 0
129 147 0
125 143 0
123 142 0
122 141 0
122 142 0
125 143 0
122 142 0
136 155 0
127 146 0
130 148 0
121 139 0
133 153 0
132 152 0
132 149 0
136 156 0
126 146 0
138 156 0
135 154 0
129 149 0
124 141 0
130 148 0
136 155 0
132 151 0
133 152 0
122 141 0
140 159 0
139 157 0
137 156 0
144 165 0
140 157 0
146 166 0
140 160 0
144 162 0
138 157 0
138 158 0
141 160 0
144 163 0
141 161 0
141 162 0
142 163 0
146 165 0
144 164 0
142 161 0
142 161 0
144 164 0
145 166 0
152 172 0
147 166 0
149 170 0
149 169 0
154 173 0
146 166 0
141 158 0
150 170 0
153 172 0
144 161 0
151 172 0
141 159 0
154 176 0
153 173 0
153 173 0
150 171 0
152 172 0
151 172 0
156 177 0
156 175 0
154 176 0
149 171 0
149 166 0
148 169 0
144 165 0
152 173 0
160 180 0
149 170 0
152 171 0
151 170 0
159 180 0
154 174 0
161 181 0
160 179 0
151 171 0
158 179 0
149 170 0
158 177 0
157 178 0
155 177 0
149 167 0
155 174 0
157 178 0
156 175 0
154 173 0
160 180 0
153 173 0
156 176 0
155 177 0
160 181 0
157 177 0
155 176 0
148 168 0
160 180 0
162 182 0
156 175 0
161 178 0
156 176 0
153 172 0
158 177 0
160 180 0
159 179 0
156 176 0
158 178 0
150 168 0
159 181 0
158 176 0
160 181 0
163 183 0
160 180 0
162 181 0
156 178 0
164 183 0
165 185 0
157 177 0
161 181 0
161 181 0
159 181 0
163 182 0
154 174 0
158 179 0
159 179 0
159 179 0
160 181 0
164 186 0
160 180 0
161 180 0
164 186 0
165 186 0
158 177 0
168 188 0
161 183 0
163 183 0
165 187 0
157 177 0
161 181 0
165 187 0
166 187 0
159 179 0
161 182 0
161 182 0
164 185 0
165 185 0
165 185 0
163 184 0
168 190 0
166 187 0
168 191 0
157 178 0
163 185 0
167 187 0
167 188 0
168 190 0
166 186 0
164 185 0
165 186 0
167 188 0
165 186 0
168 192 0
168 192 0
168 192 0
170 194 0
167 191 0
169 193 0
168 192 0
166 190 0
170 193 0
168 192 0
167 191 0
163 187 0
168 191 0
165 188 0
170 193 0
166 190 0
169 193 0
167 190 0
166 190 0
165 188 0
167 190 0
166 190 0
163 187 0
164 187 0
165 188 0
169 192 0
162 186 0
163 185 0
162 186 0
167 190 0
165 189 0
161 184 0
168 191 0
167 190 0
167 190 0
159 182 0
162 185 0
160 183 0
160 183 0
163 186 0
158 181 0
161 184 0
159 182 0
162 186 0
164 187 0
165 188 0
154 178 0
162 185 0
159 182 0
165 188 0
152 174 0
161 184 0
159 183 0
165 187 0
152 174 0
154 177 0
160 182 0
155 178 0
159 181 0
158 180 0
154 177 0
152 175 0
155 177 0
153 176 0
156 179 0
160 183 0
158 180 0
154 177 0
152 174 0
147 169 0
153 176 0
145 168 0
161 183 0
146 169 0
152 174 0
147 169 0
148 170 0
148 170 0
152 174 0
154 177 0
142 164 0
151 173 0
149 170 0
144 166 0
149 171 0
142 163 0
132 154 0
148 170 0
135 157 0
137 158 0
143 165 0
144 166 0
137 157 0
137 158 0
139 159 0
132 151 0
127 147 0
133 153 0
125 145 0
125 144 0
122 141 0
110 129 0
126 145 0
127 145 0
113 132 0
107 125 0
117 136 0
112 130 0
110 128 0
96 114 0
98 115 0
91 107 18
92 110 36
88 105 31
105 122 36
78 97 44
93 112 40
73 94 57
72 95 65
66 90 57
61 86 74
62 87 67
65 90 78
72 94 67
73 97 74
84 107 80
86 108 74
99 121 62
89 109 76
93 114 72
102 123 65
105 123 65
105 127 78
103 124 65
102 123 67
112 133 67
115 134 60
109 128 54
112 131 51
126 146 51
108 126 40
125 142 36
111 128 51
115 133 60
112 131 47
116 134 36
107 124 31
118 136 25
117 137 36
95 115 51
113 132 40
105 122 18
94 114 36
100 118 31
99 117 25
111 129 44
87 104 18
106 124 25
85 101 18
94 110 0
95 111 0
95 109 0
87 102 0
102 116 0
81 97 0
99 112 0
102 116 0
95 109 0
91 105 0
84 99 0
77 89 0
100 114 0
92 107 0
91 104 0
80 94 0
83 97 0
82 95 0
66 81 0
97 110 0
99 113 0
92 106 0
80 95 0
91 106 0
90 105 0
81 95 0
79 93 0
86 101 0
87 103 0
96 111 0
83 98 0
95 110 0
95 110 0
98 112 0
94 109 0
82 97 0
90 104 0
83 99 0
99 114 0
91 106 0
97 113 0
108 123 0
103 118 0
97 111 0
106 123 0
89 104 0
100 116 0
101 117 0
104 118 0
105 121 0
109 126 0
98 115 0
103 119 0
116 132 0
102 119 0
100 117 0
110 128 0
109 127 0
102 120 0
127 143 0
119 137 0
121 137 0
105 122 0
122 140 0
113 132 0
123 140 0
124 142 0
119 137 0
121 140 0
126 144 0
128 146 0
128 145 0
123 140 0
115 133 0
132 150 0
125 143 0
130 148 0
124 141 0
130 148 0
127 146 0
124 142 0
124 142 0
133 152 0
129 147 0
127 145 0
126 145 0
129 147 0
127 144 0
134 152 0
123 140 0
121 139 0
134 153 0
137 156 0
143 162 0
137 157 0
124 145 0
133 152 0
137 156 0
133 152 0
141 162 0
136 155 0
140 159 0
132 151 0
142 163 0
137 156 0
145 164 0
142 160 0
149 168 0
133 154 0
142 162 0
137 156 0
138 157 0
137 155 0
149 168 0
135 154 0
146 164 0
147 166 0
144 164 0
145 165 0
144 161 0
141 160 0
150 167 0
139 158 0
150 169 0
145 166 0
148 168 0
146 167 0
148 168 0
148 168 0
151 170 0
140 158 0
145 163 0
147 166 0
146 166 0
146 165 0
158 176 0
148 167 0
151 171 0
146 165 0
149 168 0
152 173 0
150 169 0
155 174 0
146 165 0
151 170 0
146 164 0
152 171 0
151 172 0
150 171 0
150 171 0
160 182 0
153 173 0
150 169 0
153 172 0
149 169 0
147 166 0
151 170 0
160 181 0
153 173 0
154 174 0
156 176 0
158 178 0
150 168 0
162 182 0
159 179 0
153 172 0
149 169 0
161 182 0
160 180 0
156 176 0
158 178 0
157 176 0
161 180 0
160 180 0
160 179 0
153 173 0
157 178 0
158 178 0
155 176 0
151 170 0
160 181 0
161 181 0
159 179 0
158 179 0
160 179 0
157 176 0
157 179 0
159 180 0
158 177 0
155 174 0
161 180 0
160 181 0
159 179 0
161 179 0
162 180 0
165 186 0
161 181 0
163 184 0
159 180 0
156 177 0
156 177 0
160 179 0
161 181 0
159 179 0
166 188 0
165 185 0
156 177 0
164 186 0
159 179 0
160 180 0
163 183 0
167 188 0
165 186 0
161 182 0
164 186 0
165 185 0
162 181 0
167 188 0
159 179 0
164 186 0
167 189 0
166 186 0
165 186 0
150 169 0
167 189 0
165 186 0
164 184 0
161 181 0
169 190 0
160 181 0
162 184 0
161 182 0
163 185 0
169 190 0
166 188 0
165 187 0
168 188 0
165 187 0
167 189 0
166 189 0
166 187 0
166 189 0
171 193 0
169 192 0
171 195 0
171 193 0
167 192 0
170 193 0
171 194 0
163 187 0
169 193 0
172 194 0
164 187 0
171 194 0
166 190 0
165 188 0
167 190 0
164 188 0
169 192 0
166 189 0
169 192 0
167 189 0
162 185 0
167 191 0
171 194 0
161 185 0
161 185 0
161 185 0
165 188 0
164 187 0
164 187 0
162 185 0
164 188 0
166 188 0
169 193 0
166 190 0
159 182 0
162 185 0
164 188 0
157 181 0
157 181 0
161 185 0
159 182 0
157 180 0
162 185 0
160 183 0
160 184 0
162 185 0
156 180 0
161 183 0
158 181 0
163 186 0
165 188 0
155 178 0
160 184 0
155 178 0
160 182 0
156 179 0
156 178 0
154 177 0
160 183 0
157 179 0
148 172 0
151 174 0
155 177 0
152 175 0
151 174 0
146 169 0
160 183 0
160 182 0
158 181 0
154 176 0
161 183 0
156 179 0
140 163 0
146 169 0
154 177 0
151 174 0
152 174 0
152 174 0
142 164 0
147 169 0
149 171 0
141 162 0
142 164 0
143 164 0
142 164 0
138 159 0
150 172 0
135 156 0
144 166 0
140 161 0
136 158 0
131 152 0
136 156 0
134 155 0
134 154 0
124 143 0
134 154 0
134 154 0
133 153 0
134 154 0
137 156 0
115 134 0
123 141 0
111 128 0
126 145 0
110 127 0
109 127 0
117 135 0
105 124 0
107 124 0
113 130 0
107 124 0
99 117 25
110 127 0
91 108 31
81 100 44
76 95 47
74 95 51
67 89 65
72 94 82
68 90 60
83 104 62
73 94 67
81 101 51
96 116 51
105 125 47
98 117 57
100 118 65
99 120 67
102 123 65
107 126 65
106 126 62
109 128 62
109 128 47
113 131 47
118 136 51
103 123 57
110 127 60
122 140 54
105 122 51
120 139 44
121 138 25
124 145 47
126 144 44
118 135 36
111 130 25
110 127 25
99 118 36
106 124 36
117 135 40
110 127 25
110 127 25
102 119 0
102 118 18
105 122 0
95 110 18
109 125 0
102 118 0
97 113 0
91 107 0
92 108 0
111 128 0
100 115 0
97 112 0
89 105 0
93 108 0
88 103 0
108 123 0
89 103 0
91 105 0
78 91 0
95 110 0
87 102 0
82 96 0
92 107 0
93 107 0
96 112 0
100 114 0
101 116 0
96 112 0
93 107 0
89 104 0
89 104 0
101 115 0
97 112 0
92 106 0
87 103 0
91 108 0
101 117 0
100 116 0
86 102 0
90 106 0
90 106 0
92 107 0
95 111 0
101 117 0
97 112 0
97 112 0
107 123 0
110 126 0
101 116 0
99 115 0
107 123 0
95 110 0
104 120 0
117 132 0
105 123 0
115 131 0
122 139 0
108 125 0
100 118 0
106 124 0
100 117 0
99 116 0
117 133 0
112 128 0
116 134 0
115 133 0
120 137 0
113 131 0
114 132 0
117 134 0
109 127 0
128 145 0
119 137 0
116 133 0
122 141 0
119 137 0
120 138 0
124 142 0
129 146 0
125 143 0
128 147 0
128 147 0
128 146 0
131 150 0
119 139 0
137 155 0
119 136 0
136 155 0
122 140 0
130 149 0
132 151 0
138 157 0
132 150 0
127 147 0
143 164 0
136 156 0
131 150 0
133 153 0
135 154 0
131 151 0
134 153 0
134 152 0
130 148 0
134 153 0
139 159 0
138 155 0
133 152 0
133 153 0
134 152 0
143 163 0
142 164 0
138 158 0
132 152 0
139 158 0
140 162 0
143 163 0
148 167 0
149 169 0
144 164 0
147 167 0
137 156 0
149 170 0
154 175 0
143 162 0
143 163 0
147 167 0
144 164 0
147 167 0
143 163 0
154 174 0
154 174 0
144 163 0
147 165 0
148 168 0
148 167 0
145 164 0
146 165 0
148 168 0
157 178 0
148 169 0
152 173 0
152 173 0
151 171 0
144 165 0
147 168 0
148 168 0
152 173 0
152 172 0
151 173 0
154 174 0
156 178 0
151 172 0
154 174 0
146 168 0
150 169 0
151 172 0
157 178 0
145 165 0
152 172 0
153 174 0
157 178 0
162 181 0
159 179 0
156 177 0
155 175 0
156 175 0
155 175 0
160 180 0
148 170 0
157 178 0
157 176 0
158 178 0
154 173 0
157 177 0
159 180 0
156 177 0
160 179 0
157 178 0
155 175 0
160 179 0
154 175 0
162 183 0
161 181 0
155 176 0
159 179 0
161 181 0
158 178 0
160 180 0
153 172 0
155 174 0
150 168 0
157 176 0
157 175 0
165 185 0
161 180 0
157 177 0
156 175 0
159 181 0
161 182 0
159 180 0
157 178 0
165 185 0
153 173 0
161 181 0
159 180 0
168 188 0
159 178 0
159 181 0
162 183 0
168 190 0
159 180 0
160 181 0
164 184 0
165 187 0
163 182 0
159 180 0
166 186 0
161 182 0
162 183 0
167 189 0
166 187 0
160 181 0
161 181 0
164 185 0
163 183 0
166 187 0
167 189 0
167 189 0
160 179 0
161 182 0
158 178 0
162 183 0
161 182 0
159 180 0
172 193 0
167 188 0
164 185 0
167 190 0
157 177 0
159 181 0
168 188 0
162 182 0
166 187 0
162 185 0
169 190 0
164 187 0
162 183 0
166 190 0
168 191 0
168 192 0
166 190 0
169 193 0
167 191 0
168 192 0
167 189 0
168 191 0
169 192 0
169 193 0
166 190 0
169 192 0
167 191 0
165 190 0
165 188 0
157 180 0
167 191 0
167 190 0
163 186 0
161 185 0
165 188 0
156 179 0
163 187 0
167 191 0
165 188 0
165 188 0
166 189 0
168 192 0
165 188 0
167 190 0
168 191 0
163 187 0
156 180 0
163 186 0
162 185 0
158 182 0
161 184 0
164 187 0
161 183 0
162 185 0
163 185 0
167 191 0
165 188 0
165 188 0
163 185 0
165 187 0
161 183 0
158 182 0
163 186 0
160 182 0
154 178 0
154 177 0
159 182 0
156 179 0
159 182 0
152 176 0
151 174 0
164 187 0
158 181 0
157 180 0
157 179 0
162 185 0
152 175 0
154 177 0
152 174 0
155 177 0
154 175 0
160 183 0
150 172 0
152 175 0
155 178 0
149 171 0
147 169 0
154 176 0
148 170 0
154 177 0
151 173 0
146 168 0
154 177 0
143 164 0
150 172 0
142 164 0
141 162 0
140 161 0
149 171 0
138 161 0
138 159 0
134 155 0
141 162 0
138 159 0
136 155 0
142 163 0
129 150 0
135 155 0
131 151 0
139 159 0
131 151 0
133 152 0
134 155 0
136 156 0
131 150 0
130 150 0
124 142 0
121 141 0
118 136 0
112 131 0
126 144 0
120 138 0
103 122 0
117 134 0
108 126 0
99 117 0
104 120 0
94 111 25
91 107 25
93 109 18
94 112 47
83 102 31
79 97 44
82 100 51
87 107 40
75 94 51
72 94 65
90 108 54
82 103 70
102 119 51
105 123 51
102 122 60
103 122 57
108 128 70
118 138 47
114 133 57
112 133 67
112 131 54
110 129 47
121 139 51
118 138 44
111 131 40
124 142 25
131 147 31
109 126 18
120 137 25
115 133 36
118 136 31
111 130 36
102 120 31
117 135 18
120 139 0
108 127 18
103 120 0
105 121 18
126 144 18
119 135 18
111 128 0
119 136 0
91 106 0
92 107 0
95 111 0
103 119 0
103 119 0
94 110 0
101 116 0
102 119 0
93 109 0
88 106 0
96 112 0
91 106 0
104 120 0
90 106 0
96 112 0
97 111 0
87 102 0
88 103 0
82 97 0
102 117 0
93 109 0
103 119 0
88 103 0
100 114 0
93 109 0
93 107 0
86 100 0
105 121 0
97 112 0
66 81 0
104 119 0
89 104 0
92 107 0
104 119 0
89 103 0
99 114 0
109 124 0
94 109 0
86 102 0
112 128 0
104 120 0
108 125 0
104 121 0
106 122 0
101 117 0
101 117 0
106 123 0
108 125 0
98 116 0
111 127 0
110 125 0
115 131 0
107 124 0
109 124 0
112 129 0
113 131 0
108 125 0
113 129 0
119 137 0
108 124 0
112 130 0
112 129 0
119 137 0
113 130 0
125 143 0
102 119 0
127 146 0
109 126 0
114 131 0
126 145 0
129 149 0
117 135 0
120 138 0
111 129 0
125 142 0
122 140 0
127 146 0
129 146 0
120 139 0
128 147 0
124 143 0
130 149 0
120 140 0
128 147 0
128 146 0
123 140 0
135 153 0
136 155 0
128 147 0
133 153 0
129 148 0
129 148 0
125 142 0
137 155 0
131 151 0
139 158 0
131 150 0
128 147 0
145 165 0
139 159 0
139 158 0
139 160 0
137 156 0
142 161 0
142 162 0
135 155 0
143 163 0
130 150 0
147 167 0
135 152 0
139 158 0
140 159 0
143 163 0
141 160 0
144 164 0
133 152 0
146 167 0
144 163 0
147 167 0
141 162 0
150 170 0
139 159 0
147 167 0
148 168 0
149 169 0
145 166 0
155 175 0
144 164 0
142 160 0
155 176 0
153 172 0
150 171 0
155 176 0
140 160 0
150 170 0
145 164 0
146 167 0
146 164 0
151 171 0
151 171 0
147 167 0
146 167 0
145 164 0
154 173 0
146 167 0
147 167 0
149 167 0
150 169 0
156 178 0
147 167 0
151 172 0
157 176 0
151 170 0
154 175 0
153 175 0
156 175 0
155 174 0
148 168 0
156 175 0
155 176 0
152 171 0
158 177 0
154 174 0
157 177 0
156 177 0
158 179 0
155 177 0
157 179 0
161 181 0
157 177 0
153 173 0
158 178 0
159 179 0
159 179 0
157 177 0
154 176 0
158 179 0
157 177 0
159 179 0
165 186 0
156 174 0
162 183 0
161 179 0
162 182 0
160 179 0
157 178 0
164 186 0
161 181 0
159 179 0
162 182 0
161 181 0
158 178 0
158 179 0
157 177 0
156 176 0
156 175 0
155 174 0
166 188 0
164 185 0
166 187 0
165 187 0
162 181 0
164 184 0
160 181 0
163 182 0
158 180 0
160 179 0
161 180 0
160 181 0
161 182 0
157 179 0
164 185 0
166 189 0
166 186 0
167 187 0
162 183 0
162 183 0
159 180 0
164 184 0
163 183 0
167 187 0
168 189 0
165 185 0
159 180 0
165 186 0
164 186 0
165 186 0
168 188 0
162 183 0
164 185 0
161 181 0
169 190 0
166 185 0
163 185 0
164 184 0
161 182 0
165 187 0
162 184 0
162 182 0
160 180 0
168 188 0
168 190 0
166 187 0
163 185 0
166 190 0
167 190 0
169 192 0
169 194 0
166 190 0
169 193 0
165 189 0
163 187 0
165 189 0
164 187 0
163 186 0
164 188 0
167 191 0
166 190 0
166 190 0
166 189 0
170 193 0
166 190 0
163 188 0
162 186 0
161 184 0
160 184 0
167 191 0
163 186 0
168 190 0
166 189 0
162 185 0
164 188 0
158 181 0
164 187 0
162 186 0
159 181 0
160 182 0
166 190 0
167 191 0
161 184 0
163 186 0
166 189 0
157 179 0
161 185 0
164 187 0
160 183 0
158 181 0
158 181 0
159 182 0
164 187 0
160 183 0
155 178 0
160 183 0
161 183 0
154 177 0
156 179 0
156 178 0
161 184 0
151 174 0
156 179 0
161 184 0
163 187 0
154 177 0
149 172 0
154 177 0
155 177 0
157 180 0
159 182 0
160 182 0
160 182 0
151 173 0
150 173 0
152 175 0
151 173 0
158 180 0
149 171 0
147 169 0
148 169 0
146 167 0
155 178 0
150 172 0
148 170 0
151 174 0
147 169 0
150 172 0
146 166 0
154 175 0
149 171 0
141 163 0
133 155 0
141 163 0
146 167 0
147 167 0
148 170 0
144 166 0
141 163 0
132 152 0
136 156 0
125 146 0
143 165 0
140 161 0
148 168 0
131 151 0
137 157 0
124 144 0
116 135 0
123 141 0
131 151 0
126 145 0
127 146 0
127 147 0
109 127 0
122 140 0
123 141 0
108 126 0
119 138 0
106 123 0
107 123 0
88 104 0
101 118 25
95 111 25
91 108 31
88 105 18
86 105 44
88 106 31
82 101 47
87 106 54
84 103 57
92 110 51
97 116 54
92 110 51
90 108 57
114 131 25
102 121 51
113 130 51
121 140 47
117 136 47
115 132 40
121 139 47
118 137 47
124 144 40
129 146 44
121 137 25
126 144 31
121 137 31
129 146 0
120 136 0
127 145 25
123 142 18
123 141 0
123 140 0
121 137 0
113 130 0
106 123 18
110 126 0
128 145 0
113 131 0
100 117 0
100 116 0
89 106 0
108 125 0
99 115 0
94 110 0
109 126 0
105 122 0
112 128 0
106 124 0
97 113 0
99 115 0
86 102 0
89 105 0
98 115 0
90 105 0
112 129 0
103 118 0
101 115 0
100 117 0
102 116 0
104 119 0
95 112 0
100 115 0
91 108 0
102 117 0
104 120 0
91 106 0
106 123 0
95 110 0
101 118 0
96 111 0
95 111 0
102 117 0
90 105 0
108 123 0
100 114 0
114 130 0
106 124 0
83 98 0
104 121 0
102 119 0
104 122 0
116 132 0
113 129 0
102 118 0
101 116 0
106 121 0
112 128 0
116 133 0
105 122 0
97 114 0
111 128 0
97 115 0
100 117 0
97 115 0
121 138 0
109 127 0
103 121 0
104 119 0
116 134 0
122 140 0
124 141 0
125 142 0
116 133 0
116 133 0
118 135 0
111 128 0
115 133 0
115 134 0
128 145 0
124 143 0
121 139 0
126 145 0
113 130 0
118 137 0
133 150 0
131 149 0
130 149 0
114 131 0
128 147 0
129 148 0
124 143 0
132 151 0
132 150 0
132 150 0
131 150 0
127 146 0
136 156 0
132 151 0
126 144 0
135 153 0
132 153 0
137 155 0
133 152 0
137 155 0
134 153 0
136 155 0
142 162 0
127 145 0
135 156 0
147 165 0
143 161 0
140 160 0
143 162 0
144 164 0
145 164 0
133 153 0
144 164 0
131 150 0
133 153 0
152 170 0
144 165 0
135 155 0
140 157 0
140 161 0
142 161 0
143 163 0
140 158 0
149 169 0
141 160 0
153 173 0
142 162 0
147 167 0
143 162 0
142 162 0
151 171 0
148 169 0
143 162 0
152 171 0
145 163 0
150 169 0
148 168 0
148 168 0
146 166 0
151 172 0
151 170 0
159 180 0
153 174 0
158 178 0
146 166 0
150 171 0
148 167 0
144 163 0
145 164 0
150 170 0
152 173 0
149 171 0
154 174 0
153 173 0
148 168 0
153 173 0
158 178 0
155 177 0
155 176 0
153 174 0
153 173 0
156 175 0
155 174 0
153 174 0
151 171 0
161 181 0
157 177 0
150 169 0
159 180 0
158 176 0
156 178 0
158 177 0
158 177 0
156 175 0
146 166 0
155 175 0
159 179 0
159 179 0
157 178 0
160 182 0
164 185 0
157 178 0
156 176 0
160 180 0
162 183 0
156 175 0
162 183 0
158 178 0
155 174 0
159 178 0
159 178 0
162 183 0
164 184 0
166 186 0
159 178 0
160 181 0
158 177 0
157 178 0
166 186 0
160 179 0
162 183 0
167 188 0
159 179 0
161 184 0
161 181 0
159 180 0
162 182 0
162 182 0
157 178 0
165 186 0
165 185 0
163 183 0
166 184 0
156 176 0
162 182 0
163 184 0
160 180 0
157 176 0
161 182 0
169 190 0
163 184 0
163 185 0
166 188 0
164 184 0
168 190 0
165 185 0
164 184 0
166 188 0
159 177 0
162 182 0
166 187 0
160 181 0
165 185 0
165 185 0
165 186 0
168 188 0
164 185 0
165 186 0
161 181 0
163 185 0
162 184 0
168 188 0
164 185 0
163 184 0
167 190 0
166 186 0
161 181 0
168 190 0
167 188 0
169 190 0
166 188 0
164 188 0
169 193 0
168 191 0
170 194 0
169 193 0
165 190 0
169 193 0
166 189 0
165 189 0
166 189 0
167 191 0
165 189 0
171 194 0
161 184 0
167 190 0
165 188 0
165 189 0
167 191 0
163 188 0
166 190 0
169 192 0
166 189 0
166 189 0
165 188 0
154 177 0
158 181 0
161 185 0
161 185 0
165 189 0
166 189 0
167 191 0
161 184 0
157 181 0
167 190 0
162 185 0
159 183 0
170 192 0
158 181 0
163 187 0
162 187 0
156 179 0
167 190 0
160 183 0
154 177 0
159 182 0
161 184 0
154 176 0
162 186 0
154 177 0
156 179 0
163 187 0
159 181 0
155 178 0
155 178 0
155 177 0
157 180 0
158 182 0
159 183 0
149 171 0
161 183 0
152 175 0
153 176 0
153 176 0
157 180 0
153 175 0
157 179 0
154 176 0
157 179 0
158 181 0
149 172 0
154 177 0
150 171 0
166 187 0
152 175 0
145 168 0
149 170 0
143 164 0
148 171 0
156 179 0
151 173 0
144 166 0
144 167 0
147 170 0
148 168 0
151 173 0
148 169 0
148 169 0
139 161 0
139 161 0
142 163 0
138 160 0
137 158 0
146 167 0
133 153 0
139 161 0
139 159 0
138 158 0
135 155 0
133 153 0
128 148 0
125 145 0
130 150 0
136 155 0
115 134 0
127 147 0
131 150 0
118 137 0
115 134 0
118 137 0
107 124 0
118 136 0
116 134 0
106 122 0
91 108 0
92 108 0
110 127 0
100 118 0
108 124 31
85 103 36
90 107 31
86 105 40
70 87 31
85 104 54
85 103 40
98 116 51
106 123 47
107 126 36
114 132 51
112 130 36
124 142 36
108 126 31
112 131 31
122 140 36
123 140 44
123 142 44
116 132 36
115 133 18
117 137 25
122 140 18
122 140 0
131 147 0
128 148 18
113 131 36
128 146 0
131 148 0
120 136 0
120 137 0
119 137 0
109 127 0
105 123 0
109 125 0
118 136 0
110 128 0
106 124 0
100 117 0
115 132 0
107 124 0
110 126 0
91 107 0
103 119 0
103 121 0
108 126 0
101 116 0
99 116 0
88 105 0
92 108 0
98 114 0
97 112 0
91 107 0
92 107 0
114 131 0
107 123 0
104 121 0
97 111 0
94 109 0
102 117 0
95 109 0
92 108 0
83 98 0
113 129 0
97 112 0
110 127 0
93 109 0
103 118 0
109 125 0
105 122 0
99 114 0
92 108 0
99 115 0
106 123 0
103 120 0
96 112 0
101 118 0
104 119 0
95 111 0
103 118 0
100 115 0
103 120 0
124 141 0
96 114 0
107 124 0
107 123 0
100 117 0
112 129 0
107 124 0
114 131 0
112 128 0
109 126 0
109 127 0
111 129 0
103 121 0
112 130 0
127 145 0
109 127 0
110 128 0
125 143 0
123 140 0
108 126 0
110 129 0
121 138 0
107 124 0
126 143 0
116 135 0
129 148 0
124 142 0
124 143 0
126 145 0
121 139 0
125 143 0
129 147 0
130 148 0
120 138 0
127 145 0
123 142 0
143 162 0
128 148 0
131 151 0
131 151 0
139 159 0
139 159 0
113 131 0
137 156 0
125 143 0
129 149 0
134 153 0
142 163 0
129 147 0
127 147 0
136 156 0
135 153 0
135 154 0
129 148 0
138 157 0
133 151 0
135 156 0
131 152 0
145 165 0
141 161 0
144 165 0
136 156 0
147 168 0
144 162 0
141 160 0
134 153 0
138 159 0
139 160 0
135 155 0
140 158 0
146 166 0
149 170 0
143 163 0
151 171 0
147 168 0
146 166 0
144 164 0
137 156 0
142 163 0
149 170 0
154 175 0
142 161 0
141 161 0
146 167 0
147 169 0
148 169 0
140 160 0
151 170 0
147 167 0
151 172 0
146 166 0
157 179 0
154 174 0
146 165 0
146 166 0
149 169 0
147 168 0
148 169 0
151 172 0
153 171 0
151 172 0
150 170 0
150 170 0
153 174 0
150 171 0
148 169 0
154 174 0
150 169 0
142 163 0
152 172 0
149 170 0
152 172 0
151 170 0
156 175 0
145 164 0
154 177 0
150 171 0
151 172 0
158 176 0
147 166 0
163 184 0
159 181 0
157 178 0
155 175 0
160 181 0
156 176 0
155 175 0
161 182 0
151 171 0
155 174 0
156 177 0
149 166 0
160 180 0
159 178 0
161 180 0
154 173 0
157 177 0
155 174 0
160 180 0
157 178 0
160 181 0
158 179 0
156 179 0
158 179 0
167 187 0
155 176 0
162 183 0
167 188 0
162 182 0
161 182 0
161 180 0
152 171 0
166 188 0
163 183 0
159 180 0
162 182 0
161 183 0
161 182 0
158 179 0
163 183 0
158 177 0
165 185 0
162 183 0
165 186 0
167 189 0
165 186 0
162 181 0
163 183 0
165 185 0
162 182 0
163 185 0
167 188 0
155 175 0
159 180 0
167 188 0
164 186 0
165 186 0
162 181 0
167 188 0
168 190 0
163 185 0
167 188 0
160 181 0
160 180 0
155 175 0
166 186 0
163 184 0
163 184 0
166 188 0
167 189 0
167 189 0
165 185 0
165 186 0
163 184 0
165 186 0
168 190 0
165 186 0
166 188 0
162 184 0
164 186 0
162 185 0
167 188 0
168 191 0
168 192 0
171 194 0
172 195 0
164 188 0
163 187 0
168 192 0
168 191 0
167 190 0
161 185 0
172 195 0
162 185 0
166 189 0
166 190 0
167 191 0
168 192 0
166 189 0
166 189 0
165 187 0
171 194 0
165 188 0
167 189 0
160 184 0
162 186 0
159 182 0
168 192 0
162 185 0
171 194 0
161 183 0
160 184 0
159 181 0
165 189 0
164 187 0
165 189 0
163 185 0
169 192 0
161 184 0
159 181 0
151 175 0
156 180 0
162 185 0
160 183 0
163 187 0
157 180 0
162 185 0
153 176 0
161 184 0
155 178 0
160 183 0
165 187 0
157 180 0
157 180 0
150 173 0
153 175 0
154 176 0
158 182 0
154 177 0
153 175 0
156 178 0
153 176 0
153 175 0
157 180 0
150 173 0
161 184 0
158 181 0
155 177 0
149 172 0
159 182 0
154 177 0
154 176 0
157 179 0
150 172 0
157 179 0
150 172 0
146 168 0
157 179 0
150 172 0
150 172 0
139 162 0
142 165 0
151 172 0
148 170 0
145 166 0
146 168 0
142 164 0
136 157 0
150 171 0
146 168 0
145 167 0
141 162 0
134 156 0
144 166 0
133 154 0
135 156 0
138 160 0
124 144 0
132 152 0
132 153 0
137 158 0
135 154 0
136 157 0
132 153 0
123 143 0
131 152 0
123 143 0
122 141 0
118 137 0
121 140 0
111 130 0
110 128 0
125 144 0
116 133 0
111 129 0
118 137 0
110 127 0
104 120 0
86 103 0
99 116 0
92 108 31
105 121 0
90 107 36
107 124 40
100 117 31
90 109 36
108 125 31
112 128 40
106 122 36
118 136 36
114 132 36
123 143 51
116 134 18
122 138 25
128 147 31
118 135 31
112 130 18
125 141 0
135 152 18
135 154 0
128 144 0
127 144 0
121 138 18
127 144 18
139 157 0
123 140 18
112 129 0
126 145 0
128 146 0
115 135 0
119 137 0
111 129 0
105 123 0
95 112 0
123 142 0
115 132 0
110 128 0
109 127 0
122 139 0
109 126 0
108 125 0
101 119 0
115 132 0
114 130 0
105 122 0
92 111 0
101 118 0
99 115 0
101 117 0
105 122 0
88 105 0
104 119 0
91 107 0
92 109 0
92 109 0
105 120 0
99 116 0
113 130 0
109 125 0
111 126 0
101 117 0
102 118 0
96 111 0
99 115 0
95 112 0
115 131 0
106 123 0
85 101 0
100 116 0
104 120 0
104 120 0
89 104 0
108 126 0
92 108 0
108 124 0
105 121 0
104 121 0
112 128 0
103 120 0
97 115 0
111 128 0
117 134 0
116 134 0
118 136 0
121 137 0
120 139 0
106 124 0
109 126 0
101 119 0
105 122 0
115 133 0
121 139 0
115 133 0
124 143 0
109 126 0
117 134 0
121 140 0
113 129 0
120 138 0
110 128 0
110 129 0
121 139 0
126 144 0
113 132 0
120 137 0
129 148 0
132 150 0
125 142 0
113 131 0
124 143 0
128 148 0
129 149 0
131 150 0
128 147 0
124 143 0
119 136 0
129 146 0
130 149 0
131 150 0
121 140 0
128 147 0
130 149 0
131 150 0
138 158 0
130 150 0
129 148 0
132 151 0
139 158 0
134 154 0
134 156 0
136 157 0
133 152 0
136 155 0
134 154 0
133 153 0
143 163 0
126 144 0
141 161 0
140 159 0
134 152 0
141 161 0
134 154 0
140 161 0
141 160 0
143 164 0
139 159 0
140 159 0
139 159 0
145 166 0
143 163 0
145 165 0
143 163 0
146 167 0
149 168 0
145 164 0
147 165 0
147 169 0
142 162 0
141 159 0
155 176 0
151 171 0
145 166 0
152 173 0
141 163 0
148 168 0
150 170 0
146 166 0
147 167 0
152 173 0
144 164 0
149 169 0
156 176 0
150 170 0
152 172 0
152 173 0
149 169 0
147 167 0
153 173 0
142 162 0
151 172 0
156 175 0
156 177 0
160 180 0
160 181 0
145 164 0
153 174 0
149 168 0
156 176 0
159 179 0
154 175 0
156 177 0
156 175 0
155 177 0
160 180 0
152 172 0
159 180 0
150 169 0
158 180 0
156 177 0
155 176 0
154 174 0
156 176 0
153 174 0
156 177 0
154 174 0
159 181 0
159 179 0
158 178 0
155 176 0
160 180 0
161 183 0
150 170 0
157 178 0
157 177 0
157 177 0
163 182 0
159 177 0
155 174 0
155 175 0
153 174 0
162 182 0
161 182 0
155 174 0
160 181 0
163 183 0
157 178 0
160 181 0
163 183 0
158 179 0
157 177 0
159 179 0
156 175 0
163 184 0
158 179 0
160 179 0
161 183 0
162 183 0
159 179 0
164 185 0
157 178 0
157 179 0
164 186 0
157 178 0
162 182 0
165 186 0
163 184 0
165 186 0
164 187 0
165 184 0
162 183 0
157 176 0
164 184 0
162 182 0
161 181 0
166 188 0
166 187 0
165 184 0
166 188 0
165 186 0
157 178 0
166 185 0
164 185 0
165 186 0
166 188 0
160 181 0
168 189 0
161 182 0
162 183 0
162 184 0
163 185 0
169 190 0
167 188 0
165 187 0
167 188 0
169 189 0
165 188 0
163 184 0
163 184 0
164 185 0
162 184 0
167 189 0
168 189 0
168 191 0
168 192 0
165 189 0
167 191 0
165 188 0
170 193 0
168 191 0
164 187 0
166 190 0
164 188 0
165 189 0
171 194 0
165 188 0
164 187 0
167 191 0
165 189 0
163 187 0
165 189 0
161 185 0
160 183 0
170 194 0
165 188 0
168 191 0
164 187 0
166 189 0
161 185 0
163 187 0
160 184 0
165 188 0
169 192 0
156 180 0
166 188 0
163 186 0
165 188 0
165 188 0
159 182 0
162 185 0
156 180 0
157 180 0
166 189 0
158 182 0
165 188 0
165 188 0
161 184 0
162 184 0
160 182 0
161 183 0
157 179 0
163 186 0
164 187 0
158 181 0
159 183 0
159 183 0
159 182 0
160 183 0
154 178 0
160 183 0
156 179 0
155 178 0
156 178 0
162 184 0
154 176 0
155 178 0
155 176 0
157 179 0
152 174 0
151 174 0
149 172 0
152 174 0
157 179 0
155 178 0
155 178 0
155 176 0
157 180 0
154 175 0
151 173 0
148 170 0
152 173 0
152 174 0
154 175 0
139 162 0
144 165 0
144 166 0
146 167 0
154 176 0
143 164 0
147 168 0
145 167 0
148 169 0
146 167 0
140 161 0
136 157 0
145 165 0
136 157 0
125 147 0
140 162 0
139 161 0
137 157 0
131 151 0
129 149 0
138 157 0
131 151 0
136 156 0
136 156 0
121 141 0
117 136 0
120 139 0
105 124 0
130 149 0
131 150 0
127 146 0
123 144 0
99 118 0
120 138 0
104 122 0
116 132 0
110 129 0
103 119 0
109 125 0
100 116 0
87 104 18
102 119 31
100 115 25
96 114 36
111 128 44
98 114 36
107 125 18
105 122 0
108 125 18
131 147 0
117 135 36
122 140 25
119 136 25
115 133 0
131 149 0
133 151 0
126 144 0
131 149 0
128 146 0
136 153 0
127 143 0
121 136 0
119 137 0
130 148 0
122 140 0
116 134 0
115 133 0
121 139 0
116 133 0
116 133 0
120 136 0
124 141 0
120 139 0
121 139 0
115 133 0
115 131 0
114 131 0
111 129 0
112 129 0
109 126 0
106 124 0
104 121 0
98 116 0
105 122 0
109 126 0
99 116 0
115 131 0
97 115 0
119 136 0
101 117 0
91 105 0
88 104 0
94 111 0
96 113 0
106 121 0
104 121 0
118 136 0
110 127 0
111 128 0
104 119 0
94 110 0
82 99 0
96 114 0
91 106 0
99 115 0
96 115 0
113 129 0
114 132 0
111 127 0
117 135 0
117 134 0
109 126 0
111 130 0
118 134 0
115 132 0
111 127 0
105 123 0
121 138 0
113 132 0
107 124 0
121 138 0
108 126 0
107 126 0
117 135 0
104 122 0
104 122 0
106 124 0
123 140 0
120 136 0
119 138 0
118 135 0
115 133 0
100 117 0
107 125 0
116 136 0
119 137 0
128 145 0
117 134 0
123 140 0
114 132 0
126 144 0
128 147 0
134 153 0
127 146 0
130 146 0
122 141 0
126 142 0
123 141 0
125 142 0
111 129 0
127 145 0
123 141 0
127 146 0
135 154 0
128 146 0
128 147 0
117 136 0
133 153 0
127 147 0
137 155 0
127 146 0
127 148 0
132 152 0
142 160 0
127 146 0
137 157 0
134 153 0
133 151 0
138 157 0
131 150 0
135 154 0
126 144 0
147 168 0
137 157 0
137 158 0
143 164 0
141 161 0
141 159 0
145 164 0
139 159 0
138 157 0
135 156 0
138 158 0
135 153 0
138 158 0
145 165 0
147 167 0
136 155 0
145 164 0
136 155 0
145 166 0
139 158 0
152 171 0
138 157 0
150 170 0
135 156 0
146 166 0
147 168 0
151 171 0
151 171 0
142 162 0
147 167 0
137 157 0
149 168 0
152 172 0
147 167 0
138 157 0
155 176 0
153 174 0
148 169 0
142 162 0
149 167 0
150 169 0
158 180 0
150 170 0
150 170 0
144 164 0
152 173 0
155 175 0
152 172 0
150 170 0
158 178 0
148 170 0
155 174 0
148 168 0
154 176 0
152 172 0
146 167 0
155 176 0
156 177 0
156 176 0
157 177 0
157 178 0
156 178 0
156 177 0
157 175 0
150 169 0
158 178 0
154 173 0
152 174 0
162 183 0
160 181 0
162 182 0
159 182 0
156 177 0
159 182 0
153 172 0
157 178 0
156 177 0
157 176 0
161 183 0
158 180 0
155 177 0
163 183 0
155 177 0
154 175 0
156 175 0
161 181 0
159 180 0
151 171 0
159 180 0
156 176 0
157 179 0
162 184 0
161 182 0
159 180 0
159 181 0
156 175 0
162 181 0
157 178 0
157 178 0
156 177 0
164 183 0
164 184 0
163 185 0
164 184 0
157 177 0
161 181 0
159 180 0
156 177 0
158 179 0
164 183 0
162 183 0
162 183 0
167 189 0
161 181 0
162 183 0
159 179 0
159 181 0
169 191 0
165 186 0
166 188 0
163 183 0
161 180 0
163 183 0
163 182 0
166 187 0
160 182 0
162 184 0
164 184 0
163 185 0
165 188 0
165 185 0
166 189 0
163 185 0
162 184 0
166 186 0
163 183 0
166 187 0
166 188 0
167 188 0
165 186 0
163 184 0
163 184 0
163 185 0
166 188 0
168 189 0
167 188 0
166 188 0
167 189 0
169 193 0
169 192 0
169 192 0
168 191 0
168 191 0
166 189 0
170 193 0
161 186 0
168 191 0
168 192 0
165 189 0
165 188 0
171 194 0
165 188 0
165 188 0
162 185 0
162 186 0
166 190 0
166 189 0
164 186 0
159 182 0
167 189 0
162 185 0
165 188 0
160 183 0
161 185 0
166 190 0
164 187 0
165 188 0
160 184 0
161 184 0
165 188 0
158 181 0
168 191 0
165 189 0
156 179 0
170 193 0
159 181 0
159 181 0
164 186 0
160 183 0
164 186 0
158 181 0
164 187 0
160 182 0
160 183 0
161 183 0
152 175 0
154 177 0
159 182 0
160 183 0
161 184 0
159 181 0
163 186 0
154 177 0
154 178 0
159 181 0
158 182 0
154 176 0
158 179 0
152 175 0
155 178 0
156 177 0
155 178 0
156 178 0
159 182 0
157 180 0
152 174 0
151 174 0
155 177 0
152 173 0
149 173 0
160 182 0
156 179 0
151 172 0
139 161 0
160 183 0
151 173 0
152 175 0
159 181 0
148 170 0
145 167 0
149 171 0
147 168 0
148 169 0
159 182 0
141 164 0
136 156 0
139 161 0
148 170 0
142 163 0
146 168 0
141 161 0
139 160 0
135 155 0
154 174 0
140 161 0
130 150 0
129 149 0
130 151 0
134 155 0
133 153 0
132 153 0
127 147 0
130 150 0
134 154 0
124 145 0
122 141 0
125 145 0
130 149 0
123 142 0
116 134 0
120 138 0
110 128 0
121 139 0
114 132 0
104 121 0
99 115 0
107 124 0
115 132 0
109 126 0
90 107 0
107 125 18
95 112 25
103 121 18
105 123 18
109 125 0
118 135 0
123 140 18
113 131 25
120 137 0
125 143 0
132 151 0
129 147 0
129 146 0
127 144 0
132 149 0
130 149 0
120 139 0
127 147 0
115 130 0
128 146 0
128 147 0
124 140 0
127 146 0
130 150 0
128 146 0
123 143 0
118 137 0
109 128 0
124 142 0
122 140 0
105 122 0
122 140 0
111 129 0
115 132 0
107 124 0
103 121 0
124 143 0
112 129 0
109 126 0
116 134 0
103 120 0
119 137 0
114 130 0
106 122 0
107 123 0
95 113 0
105 123 0
109 125 0
100 116 0
102 120 0
109 126 0
104 120 0
105 121 0
97 114 0
108 126 0
108 126 0
111 128 0
98 115 0
115 132 0
95 112 0
108 125 0
101 118 0
99 116 0
100 117 0
104 121 0
91 109 0
100 117 0
108 124 0
109 125 0
107 124 0
121 138 0
107 125 0
111 129 0
108 123 0
119 137 0
89 107 0
99 116 0
116 134 0
114 132 0
118 135 0
109 125 0
112 129 0
112 130 0
120 138 0
123 141 0
118 137 0
122 140 0
102 118 0
112 130 0
116 133 0
117 134 0
117 134 0
126 145 0
132 150 0
119 137 0
122 141 0
123 141 0
116 135 0
124 141 0
115 135 0
129 148 0
102 120 0
130 147 0
116 135 0
131 150 0
129 147 0
133 151 0
128 147 0
123 142 0
123 141 0
133 153 0
134 152 0
127 147 0
142 162 0
124 144 0
140 160 0
136 156 0
136 156 0
138 158 0
119 139 0
138 157 0
132 150 0
137 157 0
124 143 0
139 158 0
137 157 0
134 153 0
136 154 0
128 149 0
139 160 0
141 161 0
142 161 0
141 160 0
136 155 0
132 152 0
140 160 0
143 163 0
135 155 0
144 165 0
139 157 0
141 160 0
142 162 0
142 161 0
140 160 0
142 162 0
145 165 0
139 158 0
144 165 0
142 164 0
149 169 0
143 164 0
148 169 0
134 153 0
146 166 0
142 163 0
145 165 0
147 167 0
147 167 0
142 161 0
145 165 0
152 171 0
145 165 0
150 169 0
151 172 0
156 176 0
150 169 0
155 175 0
155 177 0
152 174 0
151 171 0
149 169 0
150 169 0
152 172 0
158 180 0
149 170 0
155 175 0
149 169 0
154 175 0
153 174 0
147 167 0
157 178 0
149 169 0
147 166 0
155 175 0
149 169 0
156 177 0
154 172 0
151 172 0
154 174 0
152 171 0
160 181 0
160 181 0
157 177 0
156 176 0
154 174 0
157 178 0
155 174 0
154 175 0
162 183 0
153 173 0
153 173 0
160 180 0
162 182 0
157 179 0
154 175 0
162 183 0
158 178 0
161 181 0
159 180 0
161 183 0
153 174 0
159 178 0
154 174 0
157 176 0
158 178 0
154 172 0
156 176 0
161 184 0
160 181 0
162 182 0
164 185 0
163 184 0
161 182 0
163 184 0
158 177 0
163 183 0
157 177 0
156 176 0
158 179 0
156 176 0
164 183 0
160 181 0
161 181 0
162 183 0
158 179 0
161 182 0
158 178 0
166 187 0
164 187 0
168 189 0
161 181 0
163 185 0
162 182 0
156 176 0
165 185 0
168 190 0
159 179 0
159 179 0
162 183 0
165 187 0
164 186 0
169 190 0
166 187 0
158 181 0
169 189 0
162 183 0
166 186 0
165 187 0
160 180 0
164 186 0
167 188 0
166 187 0
166 188 0
167 187 0
159 181 0
166 188 0
164 187 0
166 187 0
164 184 0
165 187 0
169 190 0
169 191 0
169 190 0
163 185 0
165 186 0
163 186 0
165 185 0
165 186 0
171 194 0
165 189 0
168 191 0
166 189 0
161 185 0
170 193 0
164 188 0
164 188 0
168 192 0
167 191 0
168 191 0
164 187 0
162 184 0
164 188 0
166 189 0
169 192 0
161 185 0
164 187 0
164 188 0
161 184 0
166 189 0
162 186 0
162 184 0
162 185 0
164 188 0
165 188 0
166 189 0
163 186 0
166 188 0
164 188 0
162 185 0
163 186 0
164 187 0
160 183 0
162 186 0
165 187 0
162 185 0
158 181 0
157 180 0
169 192 0
163 186 0
161 184 0
154 178 0
158 182 0
161 185 0
165 187 0
160 183 0
159 183 0
154 177 0
158 180 0
158 181 0
163 186 0
164 186 0
165 188 0
160 182 0
153 175 0
153 176 0
158 181 0
152 174 0
161 184 0
162 184 0
154 177 0
151 174 0
151 174 0
158 179 0
155 177 0
153 176 0
154 176 0
155 177 0
146 168 0
154 176 0
161 183 0
148 170 0
154 176 0
147 170 0
151 173 0
151 173 0
142 164 0
152 174 0
152 174 0
147 170 0
147 169 0
142 164 0
143 164 0
149 170 0
147 168 0
140 161 0
142 164 0
149 171 0
141 162 0
134 155 0
145 166 0
144 166 0
144 164 0
142 163 0
140 161 0
139 159 0
145 167 0
133 153 0
139 160 0
131 151 0
124 144 0
135 156 0
132 152 0
127 147 0
129 149 0
123 143 0
126 146 0
125 145 0
128 147 0
126 145 0
119 139 0
117 137 0
115 133 0
119 136 0
118 136 0
108 125 0
109 126 0
100 117 0
107 124 0
109 126 0
111 129 0
99 115 0
108 126 0
116 133 0
108 125 0
115 132 0
128 146 0
130 149 0
127 144 0
126 144 0
127 146 0
112 130 0
129 147 0
133 150 0
122 138 0
127 146 0
126 145 0
136 155 0
130 149 0
126 145 0
131 150 0
142 161 0
133 152 0
127 145 0
129 148 0
124 143 0
119 137 0
124 145 0
122 140 0
114 133 0
122 141 0
126 143 0
121 140 0
126 145 0
115 133 0
101 120 0
112 129 0
112 131 0
105 124 0
113 131 0
100 117 0
108 126 0
114 132 0
112 129 0
91 108 0
112 130 0
101 118 0
118 135 0
125 143 0
110 127 0
105 121 0
113 130 0
106 124 0
112 130 0
99 117 0
116 133 0
91 107 0
111 129 0
107 124 0
108 124 0
101 119 0
110 128 0
114 132 0
110 128 0
104 120 0
105 121 0
101 118 0
114 132 0
101 116 0
111 127 0
120 136 0
122 140 0
95 113 0
111 129 0
112 130 0
101 119 0
108 125 0
116 133 0
118 137 0
118 135 0
113 130 0
117 135 0
101 120 0
108 124 0
127 145 0
119 137 0
119 139 0
107 125 0
116 135 0
114 132 0
120 138 0
105 124 0
126 145 0
124 141 0
114 131 0
123 141 0
115 132 0
130 150 0
124 142 0
127 146 0
118 137 0
124 143 0
124 143 0
132 150 0
118 136 0
129 148 0
126 145 0
135 155 0
127 145 0
119 138 0
130 150 0
131 151 0
120 139 0
126 145 0
135 155 0
123 142 0
135 154 0
133 151 0
132 152 0
132 152 0
136 155 0
131 149 0
141 162 0
136 154 0
149 169 0
135 155 0
124 142 0
143 163 0
136 156 0
133 155 0
136 156 0
139 159 0
139 159 0
139 157 0
134 154 0
138 158 0
136 156 0
142 162 0
133 153 0
139 158 0
150 169 0
150 169 0
143 163 0
141 161 0
143 163 0
155 175 0
132 150 0
136 157 0
150 168 0
148 168 0
143 164 0
142 162 0
139 159 0
151 171 0
150 170 0
150 170 0
151 174 0
141 161 0
146 166 0
142 162 0
152 171 0
155 176 0
141 162 0
144 162 0
155 175 0
151 171 0
153 175 0
145 163 0
145 166 0
145 164 0
150 169 0
151 171 0
145 166 0
151 171 0
146 165 0
156 177 0
155 176 0
148 168 0
151 172 0
148 171 0
154 175 0
157 178 0
146 164 0
151 172 0
157 176 0
152 174 0
152 173 0
152 174 0
150 170 0
158 180 0
153 174 0
154 174 0
160 182 0
154 174 0
152 174 0
156 176 0
156 175 0
159 179 0
153 175 0
158 178 0
160 182 0
160 181 0
162 183 0
161 181 0
162 183 0
160 181 0
152 172 0
158 179 0
155 176 0
157 176 0
163 183 0
157 178 0
156 176 0
157 179 0
164 185 0
161 181 0
156 177 0
154 174 0
163 184 0
154 173 0
159 180 0
157 178 0
161 182 0
158 179 0
164 186 0
161 182 0
155 176 0
159 181 0
161 183 0
161 181 0
162 183 0
158 178 0
158 180 0
165 185 0
162 183 0
165 188 0
162 184 0
157 178 0
164 184 0
162 182 0
166 187 0
154 172 0
163 183 0
164 186 0
167 187 0
165 183 0
165 187 0
164 185 0
165 188 0
160 180 0
164 185 0
166 189 0
159 181 0
163 186 0
164 186 0
163 184 0
168 191 0
164 186 0
164 185 0
166 186 0
167 188 0
163 185 0
163 183 0
165 187 0
165 186 0
165 186 0
171 192 0
166 187 0
164 186 0
164 185 0
163 181 0
164 186 0
166 189 0
170 192 0
164 186 0
167 188 0
169 191 0
161 181 0
164 185 0
165 188 0
164 188 0
164 188 0
168 192 0
165 188 0
172 196 0
161 184 0
167 192 0
167 191 0
170 193 0
168 190 0
169 193 0
172 194 0
168 191 0
166 190 0
165 188 0
169 192 0
167 191 0
162 186 0
164 187 0
165 188 0
162 185 0
169 192 0
167 191 0
161 185 0
168 191 0
158 181 0
165 188 0
158 181 0
163 186 0
161 184 0
159 182 0
160 183 0
160 183 0
160 184 0
162 186 0
159 183 0
164 187 0
162 185 0
162 185 0
161 186 0
166 188 0
163 187 0
162 185 0
159 182 0
166 189 0
164 188 0
155 179 0
159 182 0
160 183 0
156 180 0
155 178 0
156 178 0
165 188 0
162 185 0
153 176 0
158 182 0
153 176 0
157 180 0
159 182 0
158 181 0
146 169 0
151 174 0
155 178 0
164 187 0
156 178 0
159 182 0
156 177 0
158 180 0
158 181 0
151 174 0
148 169 0
157 181 0
142 164 0
152 174 0
156 178 0
156 176 0
147 168 0
158 181 0
149 172 0
142 164 0
150 172 0
145 167 0
141 162 0
142 164 0
134 157 0
149 171 0
139 162 0
147 169 0
142 163 0
140 162 0
145 166 0
143 164 0
141 162 0
137 158 0
143 163 0
132 154 0
141 161 0
136 157 0
132 153 0
137 158 0
130 151 0
131 152 0
124 144 0
130 150 0
138 157 0
127 146 0
127 147 0
132 152 0
115 134 0
127 145 0
118 137 0
136 156 0
113 131 0
111 130 0
119 137 0
113 130 0
115 133 0
105 122 0
112 129 0
105 121 0
105 122 0
109 125 0
97 112 0
114 133 0
115 132 0
121 138 0
125 142 0
127 145 0
119 136 0
125 143 0
128 147 0
129 148 0
138 157 0
136 154 0
127 146 0
135 154 0
141 161 0
136 154 0
133 153 0
131 149 0
134 152 0
133 150 0
125 144 0
134 152 0
125 143 0
129 149 0
132 151 0
127 146 0
122 141 0
125 143 0
118 136 0
115 132 0
123 140 0
120 139 0
121 140 0
112 131 0
112 131 0
119 138 0
119 135 0
119 138 0
107 125 0
118 136 0
113 133 0
105 122 0
110 128 0
104 121 0
104 121 0
110 128 0
117 135 0
118 135 0
117 134 0
101 118 0
115 133 0
89 106 0
97 114 0
109 126 0
103 121 0
107 125 0
99 117 0
104 120 0
112 130 0
109 127 0
115 133 0
114 132 0
119 136 0
114 133 0
116 134 0
100 120 0
113 132 0
98 115 0
108 125 0
113 130 0
117 135 0
120 138 0
119 139 0
103 120 0
102 119 0
99 115 0
102 119 0
116 134 0
110 128 0
116 135 0
109 125 0
112 130 0
112 131 0
113 131 0
118 135 0
108 125 0
108 126 0
116 134 0
110 128 0
116 134 0
120 137 0
130 149 0
118 136 0
127 145 0
121 139 0
125 144 0
124 141 0
118 137 0
121 140 0
128 147 0
116 134 0
120 140 0
134 154 0
140 160 0
132 149 0
126 144 0
128 147 0
126 145 0
133 152 0
121 141 0
131 151 0
136 154 0
132 150 0
129 148 0
135 155 0
125 145 0
137 157 0
136 155 0
131 152 0
132 150 0
134 155 0
131 150 0
135 155 0
132 153 0
139 159 0
140 159 0
137 157 0
134 153 0
136 157 0
140 160 0
139 159 0
143 162 0
144 164 0
138 158 0
149 168 0
145 164 0
142 163 0
145 165 0
142 162 0
141 161 0
148 170 0
151 170 0
145 167 0
150 169 0
145 164 0
144 163 0
146 167 0
135 152 0
146 165 0
148 167 0
147 168 0
151 172 0
144 164 0
155 176 0
150 170 0
148 168 0
143 163 0
139 158 0
144 165 0
152 173 0
147 167 0
146 167 0
151 173 0
155 176 0
149 169 0
149 170 0
145 165 0
153 173 0
155 175 0
151 170 0
159 178 0
142 163 0
155 175 0
148 170 0
154 174 0
153 172 0
156 176 0
153 174 0
150 172 0
161 182 0
156 177 0
155 177 0
159 180 0
158 179 0
147 168 0
152 173 0
148 168 0
155 174 0
154 174 0
159 180 0
151 171 0
164 184 0
157 179 0
155 175 0
153 174 0
156 177 0
158 178 0
157 177 0
157 178 0
157 178 0
161 181 0
156 177 0
159 181 0
158 178 0
156 178 0
162 182 0
159 180 0
159 180 0
165 185 0
156 176 0
164 185 0
163 183 0
156 177 0
159 181 0
160 179 0
158 182 0
156 176 0
158 179 0
157 177 0
161 182 0
155 176 0
162 183 0
164 186 0
152 175 0
161 182 0
162 184 0
160 180 0
163 186 0
158 178 0
163 185 0
162 184 0
165 187 0
159 181 0
162 183 0
163 184 0
163 184 0
159 180 0
162 183 0
160 181 0
163 184 0
157 178 0
158 180 0
161 182 0
160 180 0
167 189 0
164 186 0
160 180 0
166 188 0
166 187 0
160 180 0
162 181 0
164 186 0
167 187 0
166 188 0
162 183 0
166 188 0
163 183 0
163 184 0
169 192 0
163 186 0
165 185 0
163 184 0
170 191 0
166 188 0
164 186 0
171 192 0
165 185 0
170 191 0
165 188 0
161 180 0
168 189 0
169 191 0
165 187 0
167 189 0
169 191 0
168 188 0
163 184 0
168 192 0
167 191 0
166 189 0
168 192 0
166 189 0
165 189 0
168 192 0
169 194 0
167 191 0
166 188 0
171 194 0
164 187 0
164 188 0
163 186 0
159 183 0
164 187 0
165 189 0
168 191 0
160 184 0
167 190 0
160 184 0
169 192 0
166 189 0
161 185 0
167 191 0
157 180 0
162 186 0
162 185 0
162 185 0
164 188 0
165 188 0
156 179 0
162 185 0
165 188 0
163 187 0
164 187 0
161 184 0
164 188 0
163 186 0
167 190 0
159 183 0
160 182 0
166 190 0
162 185 0
164 187 0
163 186 0
161 184 0
165 188 0
156 179 0
159 183 0
165 187 0
162 185 0
156 179 0
160 184 0
157 179 0
156 178 0
157 180 0
156 179 0
164 188 0
155 178 0
157 180 0
163 185 0
156 178 0
160 182 0
163 187 0
150 172 0
155 177 0
156 179 0
155 178 0
151 173 0
154 175 0
153 175 0
160 182 0
158 181 0
155 178 0
154 177 0
140 162 0
149 171 0
149 172 0
150 172 0
150 172 0
141 163 0
154 176 0
149 171 0
150 172 0
140 161 0
151 172 0
149 170 0
137 159 0
142 163 0
147 169 0
138 160 0
144 165 0
143 165 0
139 160 0
136 156 0
149 171 0
131 152 0
130 150 0
136 156 0
140 161 0
133 153 0
140 159 0
132 153 0
131 151 0
134 153 0
118 136 0
129 149 0
125 144 0
119 138 0
121 141 0
122 141 0
133 153 0
128 146 0
128 147 0
109 128 0
117 135 0
118 136 0
109 126 0
126 144 0
121 139 0
118 136 0
105 121 0
117 135 0
115 132 0
103 120 0
122 141 0
122 138 0
126 145 0
127 144 0
132 151 0
127 145 0
122 140 0
141 159 0
140 159 0
132 151 0
132 152 0
135 155 0
122 140 0
131 148 0
130 148 0
130 149 0
128 146 0
129 148 0
134 153 0
128 148 0
128 147 0
119 138 0
138 157 0
118 137 0
120 138 0
115 134 0
124 143 0
109 127 0
117 134 0
119 139 0
111 129 0
131 150 0
127 145 0
98 117 0
120 138 0
117 134 0
108 127 0
96 113 0
104 122 0
113 131 0
103 120 0
113 130 0
106 124 0
109 126 0
103 120 0
126 144 0
109 126 0
115 133 0
108 126 0
108 126 0
106 124 0
112 129 0
111 129 0
108 125 0
119 136 0
106 123 0
118 136 0
106 122 0
124 142 0
112 129 0
113 132 0
115 133 0
111 130 0
102 120 0
118 135 0
119 138 0
115 134 0
113 131 0
112 130 0
109 127 0
117 136 0
118 135 0
113 130 0
119 137 0
116 135 0
116 136 0
114 133 0
123 143 0
122 140 0
114 133 0
110 128 0
116 134 0
122 141 0
120 138 0
122 139 0
113 131 0
122 139 0
127 147 0
123 142 0
125 144 0
123 142 0
123 143 0
118 138 0
128 147 0
121 140 0
132 150 0
128 147 0
127 148 0
130 149 0
129 148 0
133 152 0
132 149 0
121 141 0
135 153 0
123 143 0
126 144 0
133 153 0
132 152 0
134 152 0
133 152 0
131 151 0
132 151 0
138 158 0
137 157 0
137 157 0
134 154 0
135 155 0
132 151 0
139 158 0
134 153 0
134 155 0
145 165 0
140 161 0
135 152 0
136 156 0
135 155 0
140 159 0
140 160 0
140 157 0
148 171 0
151 171 0
137 158 0
147 168 0
137 157 0
146 167 0
145 164 0
137 157 0
137 157 0
138 158 0
142 161 0
150 168 0
148 170 0
141 162 0
144 164 0
147 166 0
140 161 0
147 166 0
156 175 0
152 171 0
143 163 0
152 172 0
155 176 0
144 165 0
144 165 0
146 166 0
150 171 0
150 172 0
147 167 0
147 166 0
158 179 0
156 178 0
148 169 0
153 174 0
149 168 0
150 171 0
149 169 0
156 177 0
155 175 0
154 173 0
148 169 0
154 175 0
154 176 0
155 176 0
156 177 0
157 178 0
152 172 0
153 176 0
157 176 0
153 173 0
156 176 0
157 179 0
155 176 0
158 179 0
159 178 0
159 179 0
152 172 0
161 182 0
154 175 0
160 182 0
153 173 0
160 181 0
155 175 0
156 177 0
156 178 0
158 179 0
154 174 0
157 179 0
154 177 0
155 178 0
162 185 0
159 181 0
162 182 0
156 177 0
161 180 0
154 174 0
158 178 0
160 180 0
156 178 0
156 176 0
163 184 0
155 174 0
162 184 0
157 178 0
161 182 0
163 183 0
160 182 0
157 177 0
159 180 0
160 181 0
165 186 0
164 185 0
159 178 0
158 179 0
163 185 0
161 181 0
162 184 0
167 188 0
162 184 0
160 182 0
164 186 0
167 188 0
164 185 0
165 186 0
162 184 0
163 184 0
156 176 0
165 187 0
163 184 0
162 183 0
163 185 0
164 186 0
168 189 0
162 183 0
163 183 0
165 185 0
162 184 0
163 184 0
162 185 0
164 185 0
163 182 0
165 186 0
162 185 0
164 186 0
161 183 0
165 187 0
164 185 0
163 185 0
161 182 0
166 187 0
160 182 0
163 183 0
160 181 0
165 185 0
164 186 0
166 188 0
166 188 0
164 186 0
166 187 0
164 186 0
169 191 0
164 187 0
173 195 0
165 185 0
162 183 0
161 184 0
169 192 0
168 191 0
165 189 0
166 189 0
164 187 0
164 188 0
168 192 0
168 191 0
168 192 0
168 191 0
166 188 0
160 184 0
169 192 0
165 189 0
168 191 0
165 189 0
165 188 0
167 190 0
171 194 0
164 186 0
163 186 0
162 185 0
162 185 0
163 186 0
163 186 0
162 185 0
164 188 0
162 185 0
158 182 0
161 184 0
163 186 0
161 185 0
163 186 0
167 189 0
162 186 0
165 188 0
162 186 0
154 177 0
166 189 0
162 186 0
157 180 0
157 180 0
156 179 0
163 187 0
156 179 0
156 179 0
159 182 0
161 183 0
162 184 0
164 186 0
156 179 0
154 176 0
158 181 0
152 174 0
156 178 0
156 179 0
162 185 0
162 185 0
154 177 0
157 179 0
151 174 0
156 178 0
154 177 0
155 178 0
159 182 0
153 176 0
157 179 0
150 173 0
160 182 0
150 173 0
158 180 0
149 171 0
150 172 0
145 166 0
156 178 0
148 170 0
139 161 0
152 174 0
155 177 0
152 175 0
149 171 0
158 180 0
155 176 0
150 172 0
138 161 0
148 170 0
146 168 0
148 170 0
144 165 0
141 162 0
148 169 0
135 156 0
145 167 0
145 166 0
130 150 0
144 165 0
139 160 0
136 156 0
140 161 0
143 162 0
138 158 0
137 157 0
129 148 0
137 157 0
133 154 0
136 155 0
128 148 0
138 158 0
128 148 0
129 148 0
127 146 0
121 139 0
122 142 0
118 138 0
119 137 0
129 148 0
115 133 0
121 140 0
115 132 0
111 130 0
110 128 0
116 134 0
116 133 0
123 140 0
113 130 0
139 158 0
130 147 0
122 142 0
129 148 0
128 146 0
126 144 0
130 148 0
142 160 0
139 160 0
142 162 0
134 154 0
139 158 0
134 154 0
146 165 0
142 163 0
135 156 0
139 157 0
136 155 0
141 161 0
139 159 0
127 147 0
137 156 0
119 137 0
120 139 0
114 133 0
133 151 0
133 153 0
112 129 0
115 133 0
126 144 0
110 127 0
122 141 0
125 144 0
112 130 0
111 129 0
120 137 0
123 141 0
118 137 0
99 117 0
115 132 0
113 131 0
105 122 0
112 130 0
124 142 0
115 132 0
108 127 0
111 128 0
101 117 0
121 138 0
117 136 0
103 121 0
116 134 0
109 127 0
121 139 0
112 129 0
115 132 0
110 129 0
107 125 0
109 126 0
119 136 0
112 130 0
117 135 0
106 124 0
120 138 0
124 143 0
119 137 0
116 134 0
117 136 0
126 144 0
100 119 0
114 132 0
114 132 0
121 140 0
114 132 0
115 134 0
123 141 0
121 140 0
113 131 0
123 142 0
118 138 0
119 138 0
118 137 0
125 145 0
122 141 0
114 133 0
120 138 0
118 135 0
123 143 0
130 149 0
133 153 0
130 150 0
119 138 0
122 141 0
118 137 0
121 140 0
127 146 0
123 143 0
123 142 0
132 153 0
127 147 0
125 145 0
117 137 0
139 159 0
131 150 0
137 156 0
131 150 0
140 159 0
129 149 0
135 155 0
139 159 0
136 157 0
130 149 0
137 158 0
140 159 0
140 161 0
131 150 0
142 162 0
131 151 0
135 155 0
141 161 0
146 167 0
142 162 0
141 162 0
142 162 0
136 155 0
138 157 0
137 157 0
145 165 0
145 165 0
131 151 0
140 162 0
140 159 0
136 157 0
143 162 0
138 158 0
151 172 0
147 168 0
141 161 0
136 157 0
142 164 0
140 160 0
145 166 0
151 171 0
149 171 0
135 156 0
146 167 0
149 170 0
147 167 0
140 159 0
143 164 0
149 169 0
155 176 0
148 168 0
146 166 0
148 168 0
144 165 0
144 163 0
135 154 0
150 170 0
147 166 0
146 168 0
138 159 0
157 179 0
156 177 0
153 174 0
155 175 0
154 175 0
156 178 0
156 177 0
153 173 0
156 177 0
153 174 0
160 180 0
152 173 0
155 175 0
158 178 0
150 170 0
160 180 0
157 179 0
156 177 0
156 176 0
160 182 0
151 171 0
156 178 0
152 173 0
153 170 0
157 178 0
160 181 0
158 178 0
162 183 0
162 183 0
157 177 0
153 174 0
161 183 0
155 176 0
157 178 0
156 176 0
156 174 0
158 178 0
161 183 0
157 178 0
154 175 0
161 184 0
163 184 0
159 181 0
159 181 0
162 184 0
157 179 0
163 187 0
156 178 0
158 179 0
158 179 0
159 181 0
159 179 0
159 182 0
164 185 0
161 182 0
158 181 0
159 179 0
164 183 0
164 185 0
155 174 0
169 191 0
163 183 0
165 187 0
156 178 0
158 180 0
161 182 0
162 184 0
163 185 0
161 182 0
160 181 0
160 181 0
156 177 0
162 183 0
162 183 0
163 185 0
164 186 0
162 184 0
162 183 0
157 180 0
159 180 0
159 180 0
163 185 0
162 184 0
165 187 0
162 183 0
165 188 0
166 187 0
166 187 0
166 189 0
164 184 0
165 186 0
166 188 0
165 185 0
160 182 0
159 180 0
170 192 0
168 190 0
167 187 0
161 182 0
165 187 0
166 188 0
164 186 0
162 182 0
166 188 0
164 187 0
164 185 0
166 187 0
169 191 0
162 183 0
168 191 0
168 188 0
163 187 0
168 192 0
170 193 0
167 191 0
167 191 0
165 188 0
168 192 0
167 191 0
169 193 0
165 189 0
162 186 0
163 186 0
165 189 0
161 185 0
159 183 0
162 186 0
164 188 0
164 187 0
169 193 0
164 187 0
167 190 0
166 189 0
168 191 0
165 188 0
167 190 0
167 190 0
164 187 0
166 191 0
163 186 0
162 185 0
165 187 0
165 188 0
159 182 0
164 187 0
161 184 0
163 186 0
170 193 0
167 190 0
164 186 0
164 187 0
152 175 0
156 180 0
155 178 0
157 180 0
158 181 0
161 184 0
161 184 0
157 180 0
163 186 0
163 186 0
161 184 0
151 175 0
162 185 0
160 183 0
162 185 0
159 181 0
155 178 0
160 183 0
157 180 0
151 173 0
163 185 0
158 181 0
153 175 0
157 179 0
155 178 0
148 171 0
153 176 0
148 171 0
157 180 0
152 173 0
151 173 0
154 176 0
154 177 0
154 175 0
152 173 0
151 173 0
146 168 0
154 175 0
145 168 0
159 181 0
147 168 0
157 179 0
146 167 0
143 165 0
153 176 0
146 168 0
148 170 0
145 166 0
141 163 0
145 168 0
140 162 0
146 168 0
134 154 0
139 160 0
137 158 0
144 165 0
139 161 0
137 157 0
140 161 0
139 161 0
141 162 0
137 158 0
135 154 0
123 144 0
132 154 0
131 150 0
129 150 0
129 149 0
131 151 0
137 157 0
129 147 0
138 157 0
141 161 0
132 151 0
126 145 0
137 157 0
106 125 0
123 140 0
124 143 0
121 139 0
130 148 0
108 126 0
131 149 0
131 150 0
118 136 0
124 142 0
123 142 0
121 141 0
126 144 0
135 156 0
136 156 0
137 155 0
138 157 0
138 156 0
132 151 0
126 145 0
130 149 0
144 165 0
131 150 0
136 156 0
129 147 0
133 152 0
144 164 0
132 150 0
138 157 0
132 151 0
126 147 0
137 155 0
129 146 0
140 159 0
126 145 0
133 152 0
120 139 0
123 142 0
129 148 0
119 137 0
116 135 0
124 143 0
120 138 0
120 139 0
125 143 0
119 137 0
123 141 0
115 134 0
104 122 0
107 126 0
124 141 0
113 131 0
119 137 0
105 123 0
108 125 0
114 131 0
119 138 0
115 134 0
109 127 0
115 134 0
111 128 0
108 127 0
108 126 0
117 135 0
114 131 0
112 131 0
127 145 0
125 143 0
116 135 0
119 135 0
113 132 0
113 131 0
125 143 0
116 135 0
111 129 0
108 125 0
113 131 0
122 140 0
119 138 0
104 122 0
124 142 0
110 128 0
118 137 0
112 131 0
108 126 0
118 136 0
114 132 0
117 135 0
115 134 0
118 137 0
124 142 0
122 139 0
123 141 0
130 149 0
123 142 0
127 146 0
134 152 0
127 146 0
125 144 0
124 143 0
132 153 0
123 141 0
129 149 0
124 143 0
131 150 0
126 145 0
129 149 0
123 142 0
132 152 0
127 145 0
124 144 0
130 149 0
130 149 0
127 146 0
130 149 0
129 148 0
132 150 0
136 157 0
131 151 0
135 155 0
132 150 0
125 145 0
137 157 0
122 144 0
134 154 0
129 149 0
144 165 0
140 160 0
134 156 0
136 156 0
136 155 0
131 151 0
137 155 0
130 152 0
141 161 0
139 159 0
138 159 0
140 161 0
139 160 0
135 155 0
138 159 0
143 162 0
148 167 0
143 165 0
137 157 0
139 160 0
149 169 0
141 160 0
153 172 0
137 156 0
142 162 0
149 170 0
143 164 0
141 161 0
153 175 0
144 164 0
147 169 0
138 159 0
145 163 0
151 173 0
145 166 0
146 166 0
140 159 0
149 169 0
146 167 0
137 157 0
150 170 0
149 168 0
155 175 0
153 174 0
154 174 0
148 169 0
147 168 0
150 172 0
160 181 0
153 174 0
152 171 0
160 180 0
157 177 0
160 181 0
152 173 0
151 173 0
154 176 0
155 176 0
154 173 0
151 171 0
157 179 0
152 173 0
147 167 0
158 179 0
149 170 0
159 181 0
148 170 0
158 177 0
154 175 0
156 178 0
155 177 0
153 174 0
156 176 0
161 183 0
161 182 0
161 183 0
157 179 0
152 172 0
153 174 0
158 181 0
157 179 0
151 172 0
154 175 0
152 172 0
153 174 0
155 174 0
156 178 0
159 180 0
167 189 0
159 179 0
158 177 0
159 181 0
161 183 0
157 178 0
159 182 0
160 181 0
156 177 0
158 179 0
163 185 0
162 182 0
160 180 0
160 180 0
166 187 0
159 180 0
159 180 0
160 180 0
158 178 0
160 182 0
162 186 0
162 184 0
161 182 0
154 175 0
157 179 0
163 185 0
160 181 0
163 185 0
162 183 0
164 186 0
165 187 0
158 180 0
163 185 0
164 186 0
161 182 0
165 186 0
157 177 0
164 185 0
157 178 0
166 188 0
164 184 0
166 188 0
167 188 0
163 185 0
163 185 0
166 188 0
162 183 0
165 185 0
164 185 0
164 185 0
165 186 0
166 188 0
160 180 0
155 176 0
166 187 0
165 187 0
168 190 0
159 180 0
164 184 0
167 189 0
163 185 0
167 188 0
165 188 0
161 182 0
163 183 0
164 185 0
164 185 0
164 186 0
164 187 0
167 188 0
168 191 0
165 188 0
167 190 0
168 191 0
165 189 0
163 186 0
163 186 0
166 189 0
164 188 0
164 186 0
167 190 0
166 191 0
170 193 0
163 187 0
164 187 0
169 193 0
164 187 0
160 183 0
164 187 0
167 190 0
168 192 0
166 189 0
165 188 0
162 186 0
157 181 0
163 186 0
165 188 0
168 191 0
167 190 0
167 191 0
165 189 0
162 185 0
167 189 0
165 188 0
159 182 0
166 189 0
160 184 0
166 190 0
162 185 0
162 185 0
154 177 0
165 188 0
161 184 0
158 182 0
157 179 0
159 183 0
164 187 0
157 181 0
156 178 0
161 183 0
159 183 0
158 181 0
157 180 0
153 176 0
154 176 0
158 180 0
158 181 0
161 184 0
155 178 0
155 177 0
154 177 0
155 178 0
160 182 0
159 182 0
156 179 0
158 181 0
152 175 0
154 177 0
160 182 0
156 179 0
156 177 0
158 181 0
145 167 0
150 171 0
147 170 0
149 170 0
154 176 0
142 165 0
149 170 0
158 180 0
152 174 0
146 168 0
149 170 0
148 171 0
146 169 0
154 176 0
147 169 0
142 164 0
142 164 0
150 171 0
148 170 0
145 168 0
146 167 0
152 174 0
148 168 0
150 172 0
150 171 0
141 163 0
142 162 0
141 161 0
141 161 0
128 149 0
138 158 0
127 148 0
136 156 0
135 156 0
127 147 0
132 152 0
137 156 0
127 147 0
132 152 0
133 154 0
137 156 0
138 158 0
127 146 0
125 145 0
132 151 0
126 146 0
113 133 0
129 148 0
120 137 0
122 142 0
129 147 0
123 141 0
122 141 0
121 140 0
122 139 0
125 144 0
122 141 0
134 153 0
136 156 0
122 142 0
135 156 0
135 153 0
134 153 0
133 151 0
130 151 0
140 160 0
141 160 0
127 146 0
136 156 0
145 165 0
127 144 0
132 151 0
140 158 0
126 145 0
124 144 0
131 149 0
138 159 0
132 152 0
128 148 0
123 143 0
129 150 0
127 146 0
128 147 0
124 143 0
122 140 0
124 144 0
104 124 0
128 147 0
125 143 0
125 143 0
115 134 0
112 131 0
114 132 0
132 151 0
116 134 0
126 144 0
122 140 0
118 137 0
121 139 0
114 132 0
113 131 0
121 139 0
127 146 0
109 126 0
118 136 0
126 145 0
120 138 0
114 133 0
119 138 0
112 130 0
117 135 0
112 130 0
120 138 0
113 131 0
120 139 0
120 138 0
120 138 0
117 136 0
110 129 0
128 147 0
112 130 0
114 133 0
113 131 0
118 137 0
123 142 0
118 138 0
114 133 0
109 126 0
129 147 0
118 138 0
129 147 0
123 141 0
114 133 0
125 143 0
120 140 0
129 148 0
118 137 0
128 146 0
122 140 0
126 146 0
117 137 0
125 144 0
121 140 0
131 148 0
134 154 0
136 156 0
137 156 0
129 148 0
126 145 0
124 143 0
138 156 0
121 141 0
123 140 0
134 153 0
134 152 0
129 148 0
141 160 0
129 148 0
133 153 0
146 167 0
127 148 0
127 146 0
134 154 0
138 158 0
140 161 0
136 156 0
141 161 0
140 160 0
136 156 0
141 162 0
138 159 0
142 162 0
133 152 0
144 165 0
134 154 0
138 158 0
136 154 0
141 161 0
143 163 0
146 165 0
138 159 0
143 164 0
145 166 0
143 164 0
140 161 0
146 166 0
141 161 0
142 163 0
138 159 0
141 164 0
142 161 0
148 169 0
146 166 0
147 168 0
151 172 0
141 162 0
149 170 0
143 164 0
143 164 0
142 163 0
145 166 0
143 163 0
148 170 0
143 163 0
146 165 0
141 160 0
146 165 0
151 172 0
154 175 0
149 169 0
152 171 0
147 166 0
152 172 0
152 173 0
152 172 0
146 166 0
147 168 0
154 176 0
147 167 0
155 176 0
144 165 0
149 168 0
153 173 0
155 175 0
157 178 0
151 173 0
154 176 0
149 170 0
147 167 0
159 181 0
161 182 0
159 179 0
155 177 0
159 180 0
155 175 0
159 179 0
158 179 0
152 174 0
155 175 0
155 177 0
156 179 0
155 177 0
160 180 0
157 178 0
157 176 0
164 186 0
159 180 0
157 178 0
152 172 0
161 182 0
160 182 0
153 173 0
159 180 0
157 178 0
168 188 0
157 179 0
160 179 0
157 177 0
154 176 0
156 177 0
160 181 0
156 177 0
157 177 0
160 182 0
158 178 0
164 184 0
161 185 0
161 182 0
161 180 0
162 181 0
156 176 0
160 182 0
162 185 0
168 190 0
162 185 0
161 181 0
157 178 0
163 184 0
162 183 0
161 182 0
162 184 0
164 183 0
165 186 0
165 187 0
162 184 0
165 188 0
159 179 0
164 186 0
161 182 0
161 182 0
163 183 0
158 179 0
161 181 0
159 179 0
168 189 0
160 182 0
167 189 0
163 184 0
159 180 0
163 183 0
161 181 0
167 190 0
168 190 0
161 183 0
162 183 0
164 187 0
164 187 0
162 183 0
167 189 0
165 188 0
163 184 0
159 180 0
163 184 0
160 180 0
167 188 0
163 184 0
162 185 0
165 186 0
163 184 0
168 190 0
167 189 0
164 185 0
166 188 0
166 187 0
163 187 0
169 193 0
168 188 0
164 184 0
164 185 0
168 192 0
170 194 0
167 191 0
163 186 0
169 192 0
168 191 0
170 192 0
166 190 0
169 192 0
165 189 0
165 189 0
168 190 0
164 188 0
168 190 0
162 186 0
168 191 0
164 188 0
165 188 0
165 189 0
164 187 0
163 186 0
158 182 0
160 183 0
156 179 0
156 180 0
165 189 0
167 191 0
166 189 0
166 189 0
167 190 0
164 187 0
164 187 0
161 184 0
168 192 0
165 188 0
159 183 0
167 190 0
158 181 0
160 183 0
163 186 0
162 185 0
163 187 0
158 180 0
158 181 0
163 186 0
161 184 0
158 181 0
163 186 0
160 182 0
161 184 0
160 184 0
154 177 0
155 178 0
160 183 0
145 168 0
155 178 0
155 177 0
150 173 0
153 177 0
158 181 0
162 185 0
156 179 0
157 180 0
153 175 0
156 179 0
151 173 0
158 180 0
155 178 0
156 178 0
156 179 0
154 176 0
157 179 0
147 170 0
152 173 0
153 175 0
155 177 0
154 176 0
141 163 0
157 178 0
151 173 0
153 174 0
145 167 0
148 171 0
139 160 0
151 173 0
139 162 0
144 166 0
149 170 0
151 173 0
148 170 0
139 160 0
143 165 0
139 161 0
148 170 0
143 165 0
138 160 0
141 162 0
136 156 0
137 158 0
129 150 0
140 161 0
133 153 0
141 162 0
128 149 0
138 159 0
137 156 0
133 154 0
132 153 0
128 148 0
123 143 0
134 155 0
129 148 0
125 144 0
128 147 0
114 134 0
132 151 0
116 134 0
120 139 0
123 142 0
120 139 0
121 140 0
123 142 0
120 140 0
121 139 0
123 142 0
122 141 0
121 141 0
140 160 0
133 152 0
121 141 0
135 154 0
135 156 0
132 151 0
132 152 0
137 158 0
129 148 0
141 162 0
137 157 0
141 160 0
139 159 0
141 158 0
138 158 0
137 157 0
141 162 0
138 157 0
138 159 0
135 156 0
134 154 0
137 157 0
125 145 0
124 143 0
118 139 0
113 132 0
116 135 0
122 140 0
118 137 0
120 139 0
130 149 0
124 143 0
117 137 0
130 150 0
119 138 0
128 146 0
118 137 0
128 148 0
115 133 0
124 142 0
116 134 0
120 140 0
126 145 0
119 138 0
128 147 0
117 136 0
122 142 0
128 148 0
123 141 0
119 137 0
115 134 0
120 139 0
124 143 0
110 128 0
118 138 0
113 132 0
131 150 0
120 137 0
116 134 0
125 145 0
112 131 0
132 151 0
123 141 0
126 145 0
112 133 0
127 146 0
121 140 0
121 140 0
116 134 0
113 131 0
107 127 0
118 136 0
122 143 0
109 129 0
123 142 0
122 141 0
121 140 0
126 143 0
115 135 0
122 140 0
128 147 0
122 142 0
129 149 0
111 130 0
128 148 0
125 144 0
126 144 0
119 138 0
129 148 0
126 146 0
120 139 0
121 141 0
138 159 0
128 148 0
133 153 0
127 146 0
141 160 0
125 144 0
136 155 0
134 154 0
136 156 0
137 157 0
140 159 0
144 163 0
137 156 0
141 160 0
139 159 0
142 163 0
137 156 0
137 156 0
136 156 0
138 157 0
137 157 0
129 149 0
141 161 0
138 157 0
140 160 0
133 155 0
136 155 0
137 157 0
137 158 0
138 159 0
146 168 0
146 168 0
141 163 0
148 167 0
141 162 0
142 161 0
144 163 0
144 164 0
152 173 0
143 165 0
145 165 0
143 163 0
150 169 0
145 164 0
140 160 0
147 168 0
155 175 0
151 170 0
145 165 0
150 173 0
155 174 0
148 170 0
148 168 0
145 165 0
152 173 0
141 161 0
140 160 0
154 174 0
151 171 0
151 172 0
149 168 0
149 168 0
152 172 0
149 169 0
151 170 0
148 170 0
152 172 0
150 171 0
153 174 0
155 176 0
151 172 0
155 177 0
149 170 0
144 165 0
154 173 0
157 178 0
147 169 0
151 171 0
153 172 0
151 172 0
150 170 0
160 181 0
156 173 0
153 173 0
153 173 0
155 177 0
155 176 0
157 178 0
158 179 0
156 175 0
156 176 0
163 184 0
155 174 0
155 178 0
154 174 0
162 182 0
149 170 0
156 176 0
157 179 0
159 181 0
154 175 0
162 184 0
157 178 0
161 182 0
161 181 0
158 180 0
160 180 0
161 181 0
166 187 0
162 182 0
157 178 0
160 182 0
155 176 0
155 176 0
165 185 0
158 178 0
156 177 0
160 181 0
160 180 0
164 186 0
165 188 0
158 179 0
165 187 0
160 182 0
161 184 0
163 184 0
158 180 0
163 185 0
164 186 0
163 183 0
157 180 0
162 183 0
157 177 0
165 185 0
163 185 0
163 184 0
163 184 0
167 189 0
162 184 0
165 186 0
160 181 0
166 187 0
160 181 0
156 177 0
161 182 0
162 181 0
159 178 0
163 185 0
165 187 0
167 189 0
165 187 0
162 183 0
164 185 0
168 190 0
158 177 0
159 179 0
156 177 0
165 186 0
166 188 0
164 184 0
168 188 0
165 186 0
158 179 0
167 188 0
164 186 0
165 188 0
159 181 0
165 187 0
165 187 0
162 184 0
163 184 0
164 185 0
169 191 0
160 179 0
165 186 0
165 188 0
169 192 0
167 189 0
166 188 0
167 188 0
169 189 0
166 188 0
166 190 0
166 190 0
166 189 0
165 188 0
165 189 0
168 192 0
170 193 0
167 190 0
169 193 0
168 191 0
163 187 0
167 190 0
165 188 0
160 184 0
164 187 0
165 189 0
164 187 0
166 190 0
166 189 0
163 187 0
167 190 0
161 185 0
168 191 0
168 191 0
164 187 0
161 185 0
165 189 0
161 184 0
166 190 0
166 190 0
161 184 0
161 184 0
162 186 0
160 183 0
165 187 0
164 187 0
164 187 0
165 188 0
162 186 0
161 185 0
161 183 0
162 185 0
163 185 0
157 181 0
166 188 0
163 186 0
160 183 0
160 184 0
158 181 0
159 182 0
163 186 0
160 183 0
159 182 0
162 186 0
158 181 0
163 186 0
154 177 0
151 174 0
155 178 0
154 176 0
157 179 0
150 173 0
156 178 0
160 183 0
160 182 0
153 175 0
156 179 0
153 175 0
160 184 0
158 180 0
158 181 0
153 174 0
150 172 0
152 173 0
151 173 0
142 164 0
148 169 0
154 177 0
153 175 0
149 170 0
147 170 0
148 171 0
148 171 0
145 167 0
137 158 0
151 173 0
149 171 0
151 172 0
151 173 0
150 172 0
144 165 0
139 160 0
144 165 0
142 163 0
146 168 0
131 151 0
144 164 0
145 167 0
136 157 0
138 159 0
139 160 0
140 161 0
138 159 0
133 154 0
149 170 0
135 155 0
127 149 0
128 149 0
124 143 0
139 159 0
121 141 0
125 145 0
133 153 0
119 138 0
114 133 0
130 150 0
132 151 0
118 138 0
127 146 0
135 155 0
125 143 0
122 141 0
121 141 0
123 141 0
133 154 0
136 156 0
137 156 0
126 145 0
122 142 0
144 163 0
123 143 0
130 150 0
135 156 0
140 160 0
135 154 0
129 148 0
132 152 0
131 151 0
141 161 0
132 153 0
143 163 0
127 147 0
138 158 0
132 152 0
133 154 0
138 159 0
132 152 0
138 158 0
124 145 0
127 148 0
118 136 0
126 147 0
128 148 0
135 154 0
125 144 0
128 148 0
124 144 0
121 141 0
115 134 0
111 130 0
124 143 0
120 139 0
124 142 0
130 150 0
119 139 0
119 137 0
124 144 0
123 141 0
119 138 0
119 139 0
114 132 0
111 130 0
131 151 0
117 136 0
131 149 0
113 130 0
127 146 0
125 145 0
111 130 0
125 144 0
120 138 0
115 135 0
123 140 0
125 144 0
122 141 0
117 134 0
118 136 0
124 143 0
125 143 0
125 143 0
116 136 0
130 149 0
123 143 0
118 137 0
126 145 0
125 146 0
127 144 0
126 146 0
116 134 0
131 150 0
119 138 0
123 141 0
122 140 0
129 148 0
128 147 0
128 147 0
122 141 0
127 146 0
121 138 0
121 142 0
133 154 0
120 140 0
138 158 0
127 146 0
130 150 0
121 138 0
131 152 0
134 154 0
134 154 0
130 150 0
127 147 0
125 144 0
133 153 0
128 147 0
127 148 0
132 154 0
136 155 0
131 151 0
130 150 0
130 150 0
132 151 0
131 151 0
137 156 0
135 155 0
142 163 0
135 155 0
138 158 0
134 153 0
136 156 0
132 152 0
133 154 0
133 153 0
146 166 0
144 162 0
138 160 0
144 163 0
142 163 0
139 159 0
140 161 0
139 159 0
145 167 0
143 163 0
151 171 0
141 160 0
144 165 0
146 167 0
146 165 0
144 164 0
145 163 0
141 162 0
138 159 0
145 166 0
142 161 0
148 170 0
141 162 0
143 164 0
145 166 0
143 165 0
142 163 0
147 168 0
145 166 0
149 171 0
148 168 0
154 175 0
144 165 0
144 164 0
150 170 0
146 166 0
149 170 0
154 174 0
152 172 0
153 171 0
145 165 0
151 174 0
152 172 0
150 171 0
158 178 0
150 173 0
153 173 0
153 175 0
147 168 0
154 175 0
153 175 0
155 176 0
156 177 0
151 170 0
151 172 0
158 178 0
157 178 0
156 178 0
155 175 0
161 182 0
150 170 0
157 178 0
160 181 0
153 173 0
159 181 0
162 185 0
152 170 0
156 177 0
156 178 0
159 180 0
162 183 0
154 175 0
155 174 0
157 177 0
158 179 0
160 183 0
156 177 0
161 179 0
164 186 0
157 178 0
161 183 0
160 182 0
160 182 0
161 184 0
158 180 0
157 178 0
160 182 0
155 176 0
158 179 0
158 179 0
157 179 0
162 184 0
156 178 0
160 180 0
163 184 0
164 185 0
162 184 0
159 181 0
164 185 0
162 185 0
159 179 0
164 185 0
165 186 0
158 179 0
160 182 0
165 187 0
161 183 0
165 186 0
164 187 0
162 183 0
161 183 0
162 182 0
164 186 0
163 183 0
165 186 0
165 187 0
160 183 0
161 181 0
163 185 0
162 182 0
164 185 0
163 185 0
163 185 0
164 185 0
164 185 0
168 190 0
163 183 0
164 186 0
163 186 0
162 184 0
167 189 0
168 190 0
166 187 0
164 186 0
169 189 0
166 188 0
165 187 0
166 188 0
164 186 0
164 186 0
166 188 0
165 186 0
164 185 0
166 187 0
167 188 0
164 186 0
164 186 0
163 184 0
164 185 0
156 176 0
167 190 0
165 186 0
167 187 0
167 188 0
168 189 0
164 186 0
167 189 0
172 195 0
165 189 0
170 194 0
169 191 0
172 194 0
168 190 0
165 188 0
161 186 0
167 191 0
163 186 0
162 185 0
164 188 0
171 195 0
168 191 0
168 191 0
167 190 0
165 188 0
166 189 0
160 184 0
167 190 0
165 189 0
168 191 0
161 184 0
170 193 0
162 185 0
162 184 0
166 189 0
162 186 0
167 190 0
164 187 0
163 186 0
164 188 0
160 183 0
162 185 0
160 182 0
164 186 0
166 189 0
164 187 0
165 188 0
156 178 0
165 187 0
155 178 0
161 184 0
161 184 0
159 182 0
162 184 0
161 184 0
162 185 0
154 177 0
162 184 0
162 185 0
157 179 0
157 179 0
158 182 0
158 181 0
155 177 0
157 179 0
154 177 0
148 171 0
152 175 0
155 178 0
158 180 0
162 184 0
157 180 0
154 176 0
162 186 0
152 175 0
155 177 0
157 179 0
152 174 0
152 174 0
157 179 0
148 170 0
156 178 0
151 174 0
151 173 0
157 178 0
157 179 0
152 174 0
148 169 0
148 170 0
149 171 0
150 171 0
151 173 0
149 170 0
147 168 0
148 170 0
149 170 0
151 173 0
143 164 0
144 166 0
145 166 0
143 165 0
142 163 0
133 154 0
145 166 0
145 166 0
148 169 0
139 160 0
145 167 0
137 159 0
135 155 0
140 161 0
143 163 0
147 168 0
142 162 0
142 161 0
120 141 0
133 153 0
118 137 0
139 158 0
128 147 0
125 146 0
142 162 0
126 146 0
131 151 0
130 148 0
130 151 0
129 149 0
127 147 0
127 148 0
120 139 0
126 145 0
127 146 0
123 143 0
132 152 0
127 147 0
132 152 0
135 155 0
124 144 0
142 162 0
136 157 0
141 161 0
145 166 0
146 166 0
133 154 0
144 165 0
137 158 0
130 150 0
138 157 0
144 165 0
138 158 0
136 157 0
147 168 0
139 160 0
129 148 0
138 157 0
133 154 0
130 150 0
130 150 0
136 155 0
135 155 0
131 152 0
125 144 0
114 133 0
126 146 0
127 147 0
125 144 0
124 142 0
119 139 0
120 138 0
118 137 0
126 145 0
122 141 0
115 134 0
128 148 0
116 134 0
134 153 0
115 134 0
128 148 0
120 139 0
125 144 0
113 131 0
120 139 0
116 135 0
120 139 0
123 141 0
130 150 0
122 142 0
120 139 0
126 145 0
133 151 0
118 137 0
123 142 0
114 133 0
123 142 0
120 139 0
131 151 0
121 141 0
118 137 0
129 149 0
132 151 0
129 148 0
129 148 0
121 140 0
118 138 0
134 153 0
121 140 0
125 144 0
108 126 0
122 140 0
126 146 0
123 142 0
119 138 0
121 140 0
122 141 0
118 137 0
131 150 0
115 134 0
136 157 0
130 150 0
128 147 0
123 141 0
133 151 0
123 143 0
137 157 0
124 142 0
140 158 0
135 155 0
137 157 0
131 151 0
137 157 0
135 156 0
142 163 0
153 174 0
129 146 0
138 157 0
125 143 0
137 157 0
141 161 0
141 161 0
137 157 0
140 160 0
140 160 0
135 156 0
143 164 0
135 156 0
135 155 0
140 162 0
123 142 0
141 161 0
133 153 0
135 154 0
145 165 0
136 158 0
140 160 0
146 166 0
139 161 0
141 162 0
147 167 0
143 164 0
142 162 0
147 167 0
144 166 0
142 162 0
146 167 0
141 160 0
147 167 0
140 159 0
145 165 0
146 166 0
149 170 0
140 162 0
150 171 0
153 174 0
145 165 0
142 163 0
149 170 0
143 164 0
147 168 0
146 166 0
148 171 0
141 162 0
146 166 0
149 171 0
143 162 0
147 167 0
150 170 0
153 174 0
147 166 0
148 167 0
149 171 0
143 163 0
146 167 0
155 175 0
146 166 0
150 172 0
151 174 0
151 173 0
148 168 0
156 177 0
149 171 0
152 173 0
146 168 0
153 173 0
146 166 0
155 176 0
157 178 0
155 177 0
158 179 0
154 176 0
156 178 0
150 171 0
158 178 0
154 174 0
148 169 0
152 174 0
160 181 0
160 181 0
155 177 0
152 173 0
156 178 0
164 186 0
162 185 0
162 182 0
162 182 0
158 180 0
161 181 0
158 180 0
157 179 0
156 177 0
159 179 0
157 176 0
158 180 0
159 181 0
155 175 0
154 175 0
160 181 0
156 178 0
157 178 0
157 179 0
161 182 0
162 182 0
162 183 0
159 182 0
162 183 0
162 184 0
163 185 0
161 183 0
160 181 0
162 184 0
164 186 0
162 184 0
162 184 0
166 188 0
157 178 0
168 189 0
162 182 0
159 179 0
166 188 0
156 176 0
164 184 0
165 185 0
159 181 0
164 186 0
160 182 0
164 185 0
159 182 0
163 185 0
163 185 0
166 187 0
165 184 0
166 188 0
165 188 0
165 187 0
166 188 0
161 182 0
167 189 0
163 184 0
163 183 0
161 181 0
162 185 0
164 186 0
160 182 0
158 179 0
160 182 0
165 186 0
162 184 0
165 186 0
159 181 0
166 188 0
167 189 0
168 191 0
165 186 0
170 191 0
162 182 0
165 187 0
163 184 0
161 182 0
163 185 0
164 185 0
168 189 0
169 192 0
164 186 0
160 182 0
168 191 0
168 190 0
171 192 0
168 191 0
161 183 0
168 191 0
170 194 0
173 196 0
163 186 0
167 190 0
168 191 0
169 193 0
169 192 0
167 190 0
166 188 0
167 190 0
169 192 0
167 190 0
166 190 0
162 185 0
169 193 0
162 186 0
167 192 0
168 192 0
164 188 0
163 187 0
169 193 0
167 191 0
170 193 0
165 188 0
162 186 0
168 192 0
163 187 0
166 190 0
162 185 0
166 190 0
163 186 0
164 187 0
163 185 0
162 186 0
167 190 0
160 184 0
165 188 0
166 189 0
164 187 0
164 186 0
160 183 0
158 182 0
163 187 0
159 182 0
151 174 0
159 182 0
161 184 0
162 184 0
153 175 0
157 180 0
160 182 0
159 182 0
160 183 0
160 182 0
160 183 0
161 184 0
158 180 0
156 178 0
158 180 0
161 184 0
159 182 0
151 174 0
160 183 0
157 180 0
151 173 0
163 186 0
165 187 0
159 182 0
156 179 0
151 173 0
157 179 0
148 169 0
147 169 0
150 172 0
151 173 0
161 183 0
139 161 0
158 181 0
153 175 0
151 174 0
148 169 0
145 167 0
156 178 0
142 163 0
145 167 0
147 169 0
145 167 0
141 162 0
144 166 0
141 162 0
153 174 0
144 165 0
148 170 0
140 161 0
147 168 0
146 168 0
145 166 0
142 163 0
142 164 0
133 154 0
148 169 0
133 153 0
135 156 0
138 160 0
129 150 0
139 160 0
142 162 0
135 155 0
133 154 0
122 143 0
139 159 0
128 149 0
128 149 0
132 153 0
128 148 0
134 154 0
136 156 0
137 157 0
130 149 0
133 153 0
123 143 0
133 153 0
119 139 0
132 152 0
139 159 0
127 147 0
130 150 0
129 149 0
146 167 0
138 159 0
150 170 0
138 156 0
140 160 0
140 161 0
144 164 0
137 158 0
138 158 0
141 159 0
138 159 0
147 167 0
140 160 0
131 152 0
142 163 0
134 154 0
138 156 0
144 166 0
128 148 0
133 153 0
119 138 0
138 158 0
131 151 0
138 158 0
123 142 0
124 144 0
130 150 0
121 141 0
127 148 0
123 142 0
119 138 0
124 143 0
124 143 0
118 137 0
117 137 0
121 141 0
131 151 0
118 138 0
119 139 0
132 151 0
120 140 0
114 131 0
119 139 0
115 134 0
117 136 0
115 134 0
127 146 0
116 136 0
119 138 0
122 140 0
130 149 0
125 145 0
131 151 0
128 147 0
120 139 0
134 153 0
123 142 0
118 138 0
126 144 0
110 129 0
128 147 0
132 152 0
107 127 0
114 132 0
120 139 0
126 145 0
123 143 0
130 148 0
121 139 0
125 145 0
129 149 0
127 147 0
126 145 0
120 139 0
123 142 0
131 149 0
132 152 0
127 146 0
123 143 0
138 159 0
128 148 0
126 146 0
137 156 0
134 154 0
119 139 0
136 157 0
135 156 0
132 151 0
131 151 0
136 157 0
135 155 0
129 148 0
130 149 0
124 142 0
143 162 0
130 151 0
136 156 0
132 151 0
119 138 0
144 166 0
129 149 0
125 147 0
137 158 0
147 168 0
140 160 0
133 154 0
138 158 0
135 155 0
131 151 0
138 158 0
134 154 0
143 163 0
140 159 0
144 165 0
146 168 0
142 163 0
140 161 0
146 167 0
146 167 0
144 165 0
149 170 0
141 162 0
148 167 0
139 160 0
137 158 0
144 165 0
151 172 0
134 154 0
142 163 0
152 173 0
129 149 0
146 167 0
143 164 0
146 169 0
148 169 0
153 174 0
146 167 0
148 169 0
140 159 0
143 163 0
142 162 0
146 165 0
151 173 0
150 172 0
152 172 0
146 168 0
150 171 0
145 165 0
155 176 0
153 175 0
158 178 0
148 169 0
145 166 0
152 173 0
152 172 0
153 174 0
158 180 0
149 169 0
153 173 0
154 175 0
147 168 0
149 170 0
151 172 0
155 176 0
152 173 0
152 173 0
152 174 0
153 175 0
155 176 0
161 182 0
151 173 0
159 181 0
159 179 0
155 176 0
151 172 0
156 177 0
155 177 0
148 167 0
151 172 0
154 175 0
161 183 0
155 177 0
156 176 0
154 174 0
163 184 0
156 178 0
160 179 0
162 184 0
157 178 0
159 180 0
162 185 0
160 182 0
161 182 0
160 181 0
159 181 0
159 179 0
165 185 0
159 179 0
162 182 0
159 179 0
161 183 0
165 188 0
159 181 0
156 177 0
165 189 0
160 182 0
161 182 0
157 177 0
162 184 0
160 181 0
163 185 0
163 185 0
164 186 0
161 183 0
160 181 0
164 184 0
161 182 0
165 187 0
161 182 0
163 185 0
161 182 0
164 187 0
164 186 0
164 186 0
163 186 0
167 188 0
161 182 0
168 188 0
157 178 0
164 186 0
164 185 0
167 188 0
163 186 0
168 191 0
167 188 0
164 187 0
166 188 0
165 185 0
165 186 0
168 189 0
161 182 0
167 189 0
160 181 0
167 190 0
166 187 0
167 189 0
164 186 0
165 187 0
163 185 0
166 188 0
165 188 0
164 184 0
167 188 0
166 187 0
164 185 0
164 186 0
164 187 0
165 186 0
165 187 0
164 186 0
164 185 0
168 189 0
164 185 0
164 185 0
168 190 0
167 188 0
163 183 0
163 185 0
163 185 0
166 188 0
164 186 0
171 194 0
167 191 0
168 191 0
168 191 0
168 192 0
168 192 0
166 190 0
165 189 0
168 191 0
168 192 0
165 189 0
165 188 0
165 188 0
166 190 0
167 190 0
169 193 0
164 188 0
168 191 0
163 187 0
166 190 0
168 191 0
167 191 0
167 190 0
168 191 0
162 185 0
164 186 0
167 190 0
166 189 0
163 187 0
166 189 0
165 189 0
163 187 0
159 183 0
167 190 0
161 185 0
160 183 0
158 180 0
161 184 0
164 187 0
162 184 0
161 184 0
162 185 0
165 189 0
167 190 0
163 186 0
162 185 0
157 180 0
158 181 0
159 182 0
159 182 0
158 181 0
165 188 0
160 183 0
162 184 0
154 176 0
160 183 0
156 179 0
158 181 0
159 182 0
153 175 0
148 170 0
152 175 0
161 183 0
157 179 0
152 174 0
157 180 0
153 176 0
157 179 0
151 174 0
148 171 0
160 183 0
147 170 0
148 170 0
147 168 0
152 173 0
163 184 0
147 169 0
152 174 0
151 173 0
160 182 0
154 176 0
153 175 0
147 169 0
150 172 0
154 176 0
150 171 0
155 178 0
146 168 0
144 165 0
149 170 0
147 169 0
143 164 0
146 168 0
152 173 0
147 168 0
156 178 0
135 156 0
134 155 0
143 164 0
139 160 0
149 170 0
140 160 0
147 168 0
146 167 0
147 168 0
135 155 0
144 164 0
140 161 0
130 151 0
133 154 0
130 150 0
133 153 0
136 156 0
129 149 0
133 154 0
143 164 0
130 151 0
131 151 0
134 154 0
126 145 0
132 151 0
126 145 0
130 149 0
137 157 0
129 148 0
134 154 0
141 162 0
126 147 0
143 164 0
134 153 0
139 160 0
142 163 0
141 161 0
142 163 0
149 169 0
139 160 0
150 170 0
145 164 0
149 170 0
139 159 0
141 161 0
144 165 0
142 164 0
143 164 0
144 165 0
135 156 0
138 157 0
135 154 0
129 148 0
131 150 0
134 153 0
127 146 0
141 162 0
130 150 0
119 139 0
125 145 0
135 154 0
141 162 0
132 153 0
122 141 0
128 148 0
130 148 0
136 155 0
131 151 0
112 131 0
112 130 0
129 150 0
124 143 0
133 153 0
118 138 0
125 145 0
122 141 0
118 138 0
116 135 0
117 136 0
136 154 0
132 151 0
125 144 0
124 144 0
123 143 0
124 145 0
124 143 0
127 147 0
121 141 0
126 144 0
127 147 0
119 138 0
122 141 0
129 148 0
119 139 0
128 147 0
119 140 0
126 147 0
120 139 0
120 140 0
132 154 0
124 144 0
125 143 0
116 135 0
135 154 0
125 144 0
120 139 0
127 146 0
120 140 0
123 142 0
126 146 0
125 144 0
128 149 0
129 149 0
132 153 0
132 153 0
131 151 0
133 153 0
126 146 0
134 153 0
129 148 0
128 148 0
134 153 0
141 160 0
139 160 0
129 149 0
130 151 0
115 137 0
131 151 0
146 166 0
131 152 0
149 169 0
144 165 0
128 148 0
137 157 0
137 157 0
134 155 0
139 160 0
142 162 0
143 164 0
135 154 0
134 154 0
144 165 0
130 151 0
136 157 0
137 158 0
147 167 0
145 167 0
138 159 0
145 166 0
141 161 0
142 163 0
148 168 0
142 161 0
138 161 0
139 162 0
142 163 0
150 171 0
146 167 0
137 157 0
148 168 0
144 164 0
143 163 0
152 173 0
148 168 0
141 162 0
147 168 0
146 167 0
148 169 0
148 171 0
146 167 0
148 170 0
145 166 0
158 181 0
154 174 0
149 169 0
152 172 0
160 181 0
142 163 0
147 167 0
145 165 0
144 164 0
155 175 0
143 164 0
150 169 0
144 165 0
147 168 0
147 167 0
150 171 0
152 173 0
152 174 0
154 176 0
146 167 0
152 172 0
150 172 0
152 172 0
149 170 0
160 180 0
150 172 0
160 181 0
160 181 0
151 172 0
159 182 0
155 177 0
158 179 0
152 173 0
162 183 0
158 180 0
145 167 0
151 172 0
155 177 0
155 176 0
157 177 0
157 178 0
159 180 0
156 176 0
156 178 0
159 182 0
161 183 0
157 178 0
160 183 0
159 181 0
162 184 0
158 179 0
153 174 0
158 181 0
156 178 0
158 180 0
160 180 0
162 183 0
165 186 0
156 177 0
159 180 0
154 174 0
163 185 0
159 179 0
164 185 0
163 185 0
162 184 0
161 182 0
166 187 0
164 184 0
163 184 0
157 180 0
165 186 0
163 186 0
163 184 0
167 188 0
163 185 0
157 178 0
162 185 0
160 181 0
164 185 0
163 184 0
163 183 0
163 185 0
162 182 0
162 183 0
164 186 0
159 180 0
165 185 0
164 184 0
165 186 0
160 181 0
162 184 0
161 184 0
159 180 0
164 187 0
162 182 0
166 187 0
160 182 0
166 186 0
169 189 0
162 183 0
164 185 0
166 186 0
165 187 0
160 181 0
165 187 0
164 185 0
168 190 0
165 187 0
167 189 0
168 189 0
163 185 0
165 188 0
168 190 0
163 183 0
162 183 0
164 185 0
166 188 0
164 185 0
165 187 0
169 190 0
168 189 0
166 186 0
168 191 0
169 190 0
166 189 0
168 190 0
166 189 0
169 191 0
165 187 0
166 187 0
164 184 0
169 192 0
170 194 0
165 188 0
165 188 0
166 190 0
169 192 0
163 187 0
165 189 0
165 188 0
170 194 0
169 192 0
167 190 0
169 192 0
166 189 0
163 187 0
164 187 0
165 188 0
168 191 0
165 188 0
158 182 0
167 190 0
166 189 0
167 190 0
163 187 0
160 183 0
161 184 0
165 189 0
167 189 0
161 184 0
163 186 0
165 188 0
167 189 0
164 187 0
161 183 0
163 186 0
167 190 0
165 188 0
162 184 0
161 184 0
161 183 0
169 191 0
165 187 0
157 178 0
164 186 0
158 180 0
161 184 0
156 179 0
164 186 0
162 185 0
157 180 0
162 185 0
159 182 0
160 183 0
163 186 0
154 176 0
163 185 0
163 185 0
153 176 0
160 183 0
161 184 0
156 179 0
157 179 0
160 182 0
157 179 0
154 176 0
157 180 0
156 179 0
153 175 0
155 178 0
149 171 0
156 178 0
157 179 0
155 178 0
152 174 0
159 181 0
156 179 0
147 169 0
154 176 0
157 179 0
144 166 0
144 166 0
153 175 0
139 161 0
153 175 0
155 178 0
153 175 0
154 176 0
155 176 0
146 167 0
149 169 0
146 168 0
147 169 0
152 174 0
148 170 0
139 160 0
144 164 0
146 168 0
149 171 0
143 164 0
140 160 0
138 160 0
143 164 0
143 165 0
147 168 0
148 168 0
137 158 0
134 155 0
146 167 0
137 159 0
130 151 0
144 165 0
134 154 0
141 162 0
144 165 0
135 155 0
132 152 0
136 157 0
136 157 0
126 146 0
132 153 0
133 154 0
132 153 0
139 159 0
134 155 0
136 156 0
143 164 0
132 153 0
137 158 0
141 162 0
131 152 0
138 158 0
134 154 0
144 164 0
149 169 0
145 167 0
147 168 0
138 159 0
144 163 0
145 165 0
148 168 0
141 161 0
137 158 0
140 161 0
135 156 0
149 170 0
155 176 0
135 156 0
137 158 0
131 151 0
133 154 0
126 146 0
139 160 0
131 151 0
134 154 0
137 158 0
134 153 0
133 152 0
127 147 0
135 155 0
132 151 0
125 144 0
133 152 0
126 145 0
126 146 0
123 143 0
125 145 0
131 150 0
122 142 0
132 151 0
128 147 0
135 154 0
125 144 0
116 135 0
120 140 0
120 140 0
130 149 0
129 150 0
114 134 0
121 140 0
127 146 0
130 150 0
124 143 0
133 152 0
127 147 0
124 145 0
124 143 0
118 137 0
112 132 0
126 145 0
140 159 0
132 152 0
134 154 0
141 161 0
125 144 0
133 152 0
133 153 0
138 156 0
120 141 0
124 144 0
137 157 0
133 153 0
130 150 0
123 144 0
127 147 0
129 148 0
131 150 0
130 150 0
128 148 0
136 156 0
126 145 0
132 153 0
131 151 0
130 149 0
142 162 0
122 142 0
141 161 0
140 161 0
128 148 0
125 144 0
135 155 0
131 152 0
147 169 0
126 145 0
138 158 0
143 165 0
139 160 0
140 160 0
130 150 0
139 159 0
141 162 0
139 160 0
136 156 0
130 150 0
129 149 0
138 158 0
150 170 0
132 151 0
142 161 0
144 164 0
135 156 0
139 160 0
136 157 0
140 161 0
141 161 0
144 164 0
134 156 0
134 155 0
142 164 0
141 162 0
141 163 0
138 158 0
144 166 0
145 167 0
149 169 0
136 157 0
155 176 0
146 169 0
152 173 0
145 166 0
142 162 0
144 165 0
146 167 0
143 163 0
145 165 0
144 163 0
148 169 0
142 162 0
144 165 0
149 170 0
150 171 0
150 170 0
151 171 0
153 174 0
146 168 0
150 170 0
150 170 0
151 173 0
154 175 0
151 172 0
153 174 0
149 170 0
151 173 0
151 171 0
149 170 0
146 167 0
144 166 0
152 174 0
156 177 0
153 174 0
154 175 0
156 177 0
154 177 0
158 180 0
156 177 0
153 175 0
157 180 0
157 179 0
155 176 0
155 177 0
149 171 0
156 176 0
155 176 0
158 180 0
161 182 0
156 178 0
157 178 0
159 180 0
156 176 0
156 177 0
159 180 0
158 180 0
162 182 0
162 183 0
161 182 0
160 182 0
158 180 0
158 180 0
158 180 0
156 178 0
159 181 0
157 179 0
159 180 0
150 172 0
158 179 0
153 174 0
165 186 0
162 181 0
164 184 0
162 184 0
155 176 0
158 179 0
156 176 0
161 182 0
157 178 0
160 182 0
163 185 0
167 189 0
158 179 0
157 179 0
158 179 0
164 185 0
162 184 0
163 186 0
156 178 0
160 180 0
162 182 0
164 186 0
163 184 0
161 182 0
163 185 0
163 184 0
162 184 0
166 187 0
160 181 0
162 184 0
163 184 0
161 183 0
161 183 0
161 182 0
161 182 0
158 178 0
165 187 0
161 183 0
165 188 0
163 184 0
161 183 0
163 184 0
161 181 0
164 185 0
161 181 0
165 187 0
162 183 0
163 185 0
168 189 0
164 185 0
165 187 0
163 184 0
162 184 0
162 185 0
160 182 0
166 188 0
165 187 0
159 182 0
163 186 0
166 186 0
167 188 0
163 185 0
165 187 0
168 190 0
167 189 0
166 187 0
164 188 0
166 189 0
166 189 0
169 191 0
166 188 0
167 188 0
164 186 0
167 189 0
168 190 0
168 191 0
162 186 0
164 188 0
168 191 0
164 187 0
166 188 0
166 189 0
168 192 0
163 186 0
166 189 0
169 192 0
163 186 0
164 187 0
164 187 0
166 190 0
163 186 0
168 192 0
168 192 0
161 183 0
169 192 0
168 190 0
169 192 0
161 185 0
166 189 0
165 188 0
168 191 0
164 187 0
166 189 0
160 183 0
161 184 0
162 186 0
162 185 0
163 186 0
165 187 0
163 187 0
165 188 0
164 186 0
164 187 0
160 183 0
168 191 0
165 188 0
162 185 0
160 183 0
165 188 0
162 185 0
156 179 0
163 187 0
156 179 0
160 182 0
156 177 0
162 185 0
156 180 0
160 181 0
159 181 0
156 178 0
157 179 0
161 185 0
161 183 0
159 181 0
149 172 0
163 185 0
153 175 0
162 185 0
153 175 0
158 180 0
157 179 0
161 183 0
161 184 0
153 175 0
147 169 0
155 176 0
152 174 0
150 173 0
159 181 0
160 182 0
148 170 0
152 175 0
151 173 0
153 176 0
148 169 0
147 169 0
145 167 0
150 172 0
152 174 0
144 165 0
155 176 0
152 174 0
157 179 0
151 172 0
152 173 0
147 168 0
146 168 0
141 162 0
143 164 0
147 169 0
153 174 0
159 180 0
145 166 0
146 168 0
139 161 0
149 170 0
135 156 0
152 174 0
131 152 0
130 150 0
141 162 0
137 157 0
141 163 0
130 150 0
130 151 0
128 148 0
138 158 0
133 153 0
122 142 0
133 154 0
144 164 0
144 165 0
134 155 0
126 147 0
130 150 0
126 147 0
134 154 0
125 146 0
134 154 0
139 160 0
140 161 0
141 161 0
145 167 0
139 160 0
137 156 0
131 151 0
150 172 0
144 166 0
139 159 0
140 161 0
143 165 0
136 157 0
144 165 0
135 156 0
152 173 0
139 159 0
148 168 0
146 166 0
133 153 0
142 164 0
126 146 0
143 162 0
139 159 0
133 154 0
137 157 0
138 159 0
132 153 0
133 153 0
134 154 0
128 148 0
130 149 0
131 151 0
128 148 0
131 151 0
138 158 0
128 148 0
125 144 0
132 151 0
128 148 0
128 148 0
127 146 0
136 155 0
127 147 0
124 143 0
124 144 0
131 150 0
125 144 0
122 142 0
130 149 0
129 149 0
129 149 0
122 141 0
129 148 0
120 140 0
117 136 0
128 147 0
128 147 0
132 152 0
133 153 0
127 148 0
116 136 0
119 138 0
117 136 0
124 143 0
130 151 0
132 151 0
130 150 0
129 149 0
121 140 0
136 156 0
123 142 0
132 152 0
125 145 0
119 139 0
139 158 0
137 158 0
126 145 0
135 155 0
129 149 0
136 156 0
137 155 0
134 153 0
132 151 0
128 147 0
137 157 0
134 153 0
130 150 0
134 155 0
125 144 0
133 153 0
139 159 0
135 155 0
128 148 0
131 151 0
132 153 0
135 154 0
129 150 0
145 166 0
136 157 0
138 158 0
140 161 0
143 163 0
141 162 0
139 159 0
135 155 0
138 159 0
133 154 0
132 151 0
135 155 0
139 159 0
143 164 0
140 161 0
134 155 0
144 166 0
139 160 0
146 167 0
139 160 0
148 170 0
140 160 0
141 162 0
146 167 0
149 169 0
141 162 0
148 169 0
146 167 0
148 169 0
137 158 0
150 171 0
146 167 0
141 162 0
152 173 0
156 177 0
144 165 0
142 161 0
141 163 0
154 174 0
145 166 0
142 162 0
149 171 0
147 168 0
146 165 0
148 168 0
151 173 0
154 176 0
150 171 0
144 164 0
149 172 0
154 177 0
153 174 0
141 161 0
154 175 0
151 173 0
151 171 0
145 166 0
146 166 0
161 183 0
147 168 0
151 172 0
152 174 0
156 176 0
153 175 0
158 179 0
151 173 0
156 177 0
155 177 0
153 174 0
153 173 0
155 177 0
149 171 0
159 180 0
158 180 0
159 181 0
157 179 0
147 170 0
161 183 0
150 172 0
155 177 0
157 181 0
158 178 0
157 177 0
159 180 0
153 173 0
153 173 0
155 177 0
153 174 0
152 174 0
160 182 0
150 171 0
154 175 0
153 175 0
157 178 0
162 184 0
153 175 0
162 185 0
157 179 0
160 182 0
160 181 0
154 177 0
158 179 0
154 175 0
160 182 0
160 181 0
157 178 0
165 186 0
166 188 0
159 180 0
155 175 0
162 182 0
165 187 0
154 175 0
162 184 0
165 187 0
161 183 0
156 178 0
164 186 0
161 183 0
163 185 0
167 189 0
160 182 0
166 188 0
154 175 0
164 184 0
159 181 0
164 186 0
161 184 0
159 179 0
158 179 0
162 184 0
163 184 0
163 184 0
155 175 0
167 190 0
166 188 0
165 187 0
165 187 0
167 188 0
163 184 0
161 181 0
163 185 0
169 190 0
160 181 0
168 190 0
166 187 0
167 188 0
163 184 0
160 181 0
164 187 0
165 188 0
163 185 0
163 183 0
163 184 0
161 183 0
169 191 0
164 187 0
161 182 0
163 184 0
168 191 0
165 187 0
167 189 0
163 185 0
169 191 0
165 188 0
164 185 0
166 186 0
164 186 0
166 188 0
164 186 0
167 187 0
166 187 0
167 191 0
166 188 0
168 190 0
168 189 0
169 192 0
162 185 0
168 191 0
167 190 0
167 191 0
168 191 0
170 193 0
167 190 0
164 187 0
168 191 0
167 190 0
164 188 0
164 188 0
172 195 0
165 188 0
166 190 0
169 192 0
164 187 0
162 184 0
169 192 0
162 186 0
159 182 0
162 186 0
165 188 0
164 187 0
161 183 0
163 187 0
165 188 0
157 180 0
170 192 0
164 187 0
167 190 0
163 187 0
162 185 0
169 192 0
163 185 0
163 186 0
164 187 0
164 187 0
157 179 0
161 183 0
165 189 0
158 181 0
157 179 0
161 184 0
158 182 0
169 191 0
158 181 0
165 188 0
156 179 0
156 180 0
152 174 0
151 174 0
157 179 0
159 182 0
151 175 0
164 187 0
160 183 0
158 180 0
160 183 0
159 181 0
161 183 0
164 186 0
154 176 0
157 180 0
162 185 0
155 178 0
155 178 0
160 181 0
158 180 0
156 177 0
153 174 0
161 184 0
150 173 0
157 179 0
158 181 0
151 173 0
151 174 0
152 174 0
151 174 0
151 174 0
149 171 0
147 168 0
149 171 0
157 179 0
152 174 0
154 176 0
157 178 0
146 169 0
143 164 0
146 168 0
141 163 0
145 166 0
153 175 0
156 178 0
154 176 0
140 161 0
146 168 0
148 170 0
146 167 0
148 170 0
141 164 0
149 169 0
137 158 0
150 171 0
150 171 0
134 155 0
137 159 0
141 162 0
130 150 0
151 171 0
149 171 0
135 156 0
132 153 0
130 152 0
131 151 0
139 160 0
135 155 0
135 155 0
135 156 0
144 164 0
145 167 0
137 157 0
141 161 0
141 162 0
129 150 0
139 161 0
145 166 0
145 166 0
139 160 0
145 166 0
149 170 0
146 167 0
144 166 0
144 167 0
137 158 0
149 171 0
148 171 0
144 166 0
145 165 0
136 156 0
151 173 0
146 166 0
147 168 0
143 164 0
135 157 0
139 161 0
142 163 0
143 164 0
138 159 0
130 149 0
141 161 0
144 165 0
136 158 0
141 161 0
136 157 0
130 151 0
140 161 0
129 151 0
130 150 0
129 150 0
135 155 0
128 148 0
134 154 0
125 144 0
134 155 0
131 150 0
127 147 0
126 146 0
129 148 0
121 142 0
122 142 0
129 148 0
128 148 0
127 148 0
129 149 0
126 147 0
133 154 0
137 157 0
132 151 0
117 137 0
133 152 0
119 138 0
130 150 0
126 145 0
121 140 0
118 136 0
119 140 0
128 147 0
141 161 0
132 152 0
126 146 0
119 140 0
131 151 0
135 156 0
122 143 0
128 148 0
131 151 0
125 145 0
132 152 0
129 148 0
133 153 0
139 160 0
130 151 0
122 141 0
130 149 0
125 145 0
127 147 0
131 151 0
129 150 0
136 157 0
131 151 0
134 154 0
126 146 0
131 152 0
142 161 0
126 147 0
135 155 0
132 151 0
130 150 0
132 153 0
146 166 0
140 161 0
135 156 0
137 157 0
141 162 0
142 162 0
137 157 0
131 152 0
138 160 0
141 162 0
139 160 0
140 161 0
134 154 0
144 165 0
140 161 0
139 160 0
141 162 0
139 159 0
140 161 0
148 169 0
141 161 0
136 157 0
132 153 0
142 164 0
141 162 0
137 159 0
135 155 0
143 165 0
141 160 0
144 165 0
136 157 0
142 163 0
142 163 0
145 167 0
138 160 0
146 168 0
148 168 0
151 171 0
145 166 0
145 166 0
145 166 0
153 174 0
146 166 0
141 162 0
146 168 0
146 167 0
149 169 0
151 172 0
146 166 0
153 173 0
148 170 0
146 168 0
154 175 0
142 163 0
154 176 0
153 174 0
147 167 0
146 167 0
146 167 0
159 181 0
148 169 0
152 174 0
154 178 0
150 173 0
150 171 0
152 172 0
156 177 0
149 170 0
157 179 0
155 177 0
154 176 0
147 167 0
154 176 0
149 170 0
158 180 0
154 174 0
152 173 0
158 180 0
158 180 0
151 174 0
150 171 0
158 179 0
151 173 0
159 181 0
167 188 0
160 181 0
158 180 0
156 178 0
158 180 0
158 180 0
154 176 0
157 178 0
155 176 0
156 178 0
161 182 0
158 178 0
160 181 0
152 174 0
163 184 0
162 183 0
164 185 0
161 183 0
156 177 0
158 179 0
162 185 0
161 183 0
158 180 0
154 176 0
160 182 0
154 175 0
164 185 0
157 179 0
164 184 0
163 184 0
163 184 0
161 183 0
162 185 0
160 181 0
160 180 0
161 181 0
162 183 0
162 185 0
163 185 0
162 184 0
158 179 0
161 182 0
161 183 0
166 189 0
161 182 0
165 187 0
160 181 0
164 186 0
163 185 0
164 186 0
163 183 0
169 192 0
164 185 0
159 180 0
164 186 0
161 183 0
166 188 0
163 186 0
162 184 0
165 187 0
161 182 0
158 177 0
166 188 0
166 188 0
162 183 0
164 185 0
164 186 0
165 186 0
163 184 0
165 185 0
167 189 0
166 187 0
158 180 0
163 184 0
163 184 0
163 184 0
166 189 0
166 188 0
164 185 0
164 187 0
162 182 0
165 187 0
166 189 0
165 185 0
165 187 0
164 186 0
163 185 0
170 192 0
171 191 0
163 185 0
166 187 0
167 189 0
165 186 0
166 187 0
171 193 0
168 191 0
167 188 0
168 191 0
167 190 0
163 186 0
168 192 0
164 188 0
165 188 0
167 190 0
163 187 0
164 188 0
166 190 0
169 192 0
165 188 0
164 187 0
165 188 0
166 189 0
164 187 0
168 191 0
163 186 0
164 188 0
166 189 0
167 190 0
165 189 0
160 183 0
170 193 0
166 189 0
165 188 0
160 183 0
164 186 0
164 187 0
157 181 0
159 182 0
162 185 0
162 186 0
167 190 0
163 186 0
162 185 0
153 176 0
161 184 0
163 186 0
166 188 0
166 189 0
164 186 0
161 184 0
154 176 0
158 181 0
158 181 0
159 181 0
161 184 0
160 182 0
162 185 0
164 187 0
162 185 0
155 178 0
160 183 0
159 182 0
163 185 0
156 180 0
158 181 0
149 170 0
157 181 0
155 177 0
155 178 0
155 177 0
161 184 0
161 183 0
159 182 0
158 181 0
153 176 0
152 173 0
156 179 0
157 179 0
152 174 0
152 174 0
155 176 0
151 172 0
152 173 0
160 183 0
151 172 0
154 177 0
148 169 0
150 171 0
153 174 0
151 173 0
154 175 0
151 172 0
150 173 0
144 166 0
152 174 0
142 164 0
155 177 0
154 175 0
148 168 0
149 171 0
147 169 0
152 174 0
152 174 0
146 167 0
153 175 0
147 169 0
146 167 0
152 174 0
134 155 0
142 163 0
145 166 0
143 165 0
148 169 0
135 156 0
145 165 0
140 161 0
146 167 0
148 170 0
130 151 0
144 165 0
131 152 0
142 163 0
138 158 0
135 156 0
141 161 0
136 158 0
126 148 0
148 169 0
140 161 0
134 154 0
137 157 0
149 171 0
133 152 0
139 159 0
142 163 0
142 163 0
141 161 0
141 161 0
143 164 0
145 165 0
146 167 0
146 167 0
151 172 0
143 164 0
135 156 0
141 162 0
150 171 0
148 170 0
151 172 0
148 169 0
143 164 0
138 160 0
138 159 0
139 160 0
127 148 0
128 149 0
133 154 0
136 157 0
139 160 0
134 154 0
131 151 0
136 155 0
144 165 0
132 152 0
128 148 0
138 158 0
137 156 0
137 157 0
138 159 0
140 161 0
128 148 0
126 147 0
128 148 0
130 149 0
129 149 0
122 141 0
127 147 0
128 148 0
114 135 0
134 154 0
124 145 0
138 159 0
118 137 0
138 158 0
137 157 0
120 139 0
113 133 0
130 151 0
124 144 0
138 159 0
140 160 0
124 144 0
133 153 0
131 151 0
132 153 0
116 136 0
129 149 0
128 149 0
134 155 0
123 143 0
126 145 0
129 149 0
134 154 0
138 159 0
131 152 0
129 149 0
127 147 0
128 147 0
133 153 0
137 158 0
141 160 0
140 162 0
124 144 0
128 147 0
142 163 0
128 147 0
141 161 0
133 155 0
134 154 0
138 158 0
142 163 0
130 151 0
135 156 0
136 156 0
145 165 0
122 142 0
146 167 0
140 160 0
149 170 0
138 159 0
124 144 0
131 151 0
145 167 0
128 149 0
143 165 0
130 152 0
135 155 0
135 155 0
138 158 0
139 159 0
138 159 0
137 157 0
137 157 0
142 162 0
140 161 0
146 167 0
137 158 0
137 158 0
140 161 0
147 168 0
144 165 0
143 165 0
147 166 0
140 161 0
144 165 0
149 171 0
136 157 0
144 165 0
138 159 0
147 168 0
143 163 0
147 168 0
147 168 0
146 167 0
151 172 0
147 169 0
146 167 0
146 166 0
151 172 0
145 165 0
147 167 0
159 179 0
146 167 0
150 171 0
150 172 0
157 177 0
145 165 0
152 173 0
151 172 0
155 176 0
160 182 0
152 173 0
156 177 0
150 170 0
149 170 0
153 175 0
160 181 0
150 171 0
155 177 0
154 175 0
153 174 0
155 176 0
144 165 0
149 170 0
154 176 0
155 175 0
155 176 0
152 172 0
155 176 0
142 163 0
149 172 0
157 179 0
154 176 0
153 174 0
156 178 0
156 177 0
155 177 0
153 173 0
151 172 0
155 175 0
159 182 0
164 186 0
155 176 0
161 182 0
158 180 0
155 175 0
158 177 0
157 179 0
163 183 0
155 177 0
159 179 0
153 175 0
159 179 0
158 180 0
160 180 0
159 180 0
157 178 0
155 176 0
164 185 0
158 179 0
161 184 0
160 182 0
162 185 0
164 185 0
160 183 0
153 175 0
160 182 0
159 181 0
159 180 0
159 179 0
165 188 0
160 183 0
161 182 0
156 178 0
159 181 0
158 179 0
160 182 0
157 179 0
158 180 0
162 183 0
162 183 0
160 181 0
163 186 0
160 183 0
163 185 0
163 186 0
163 186 0
157 179 0
158 180 0
162 185 0
164 185 0
159 181 0
165 186 0
156 179 0
159 181 0
165 189 0
164 186 0
163 185 0
159 180 0
164 186 0
163 184 0
158 180 0
159 181 0
166 187 0
171 192 0
163 185 0
164 186 0
168 189 0
162 184 0
167 189 0
162 183 0
158 179 0
158 178 0
169 189 0
163 185 0
165 187 0
165 186 0
160 181 0
167 189 0
163 185 0
165 187 0
157 179 0
166 189 0
163 185 0
168 188 0
170 191 0
159 180 0
169 189 0
165 187 0
162 182 0
167 187 0
164 187 0
163 185 0
165 187 0
167 190 0
170 192 0
168 191 0
169 192 0
167 190 0
169 193 0
164 187 0
163 186 0
170 192 0
167 190 0
168 191 0
162 186 0
164 188 0
165 189 0
162 186 0
165 188 0
162 185 0
163 187 0
162 184 0
167 190 0
165 189 0
167 190 0
166 189 0
161 184 0
166 189 0
163 185 0
170 192 0
161 184 0
166 189 0
167 190 0
165 188 0
165 188 0
164 187 0
161 184 0
167 190 0
159 182 0
164 187 0
166 188 0
160 182 0
163 185 0
159 182 0
162 184 0
152 175 0
163 187 0
159 182 0
155 179 0
171 193 0
166 189 0
161 183 0
162 186 0
156 180 0
154 177 0
161 183 0
157 179 0
151 174 0
160 182 0
162 184 0
159 183 0
152 175 0
152 174 0
153 175 0
155 177 0
157 179 0
163 186 0
161 184 0
158 181 0
152 174 0
159 182 0
159 181 0
159 180 0
159 181 0
159 181 0
152 174 0
151 174 0
155 177 0
157 178 0
160 182 0
157 180 0
158 179 0
153 175 0
151 173 0
156 177 0
157 178 0
151 172 0
145 166 0
146 168 0
157 178 0
151 172 0
148 170 0
150 171 0
161 183 0
150 172 0
150 172 0
146 168 0
145 167 0
148 171 0
147 168 0
156 178 0
145 168 0
143 164 0
149 170 0
144 164 0
138 159 0
136 157 0
149 170 0
144 166 0
150 171 0
138 159 0
141 162 0
136 158 0
137 158 0
147 168 0
149 170 0
140 161 0
149 171 0
133 154 0
139 159 0
141 160 0
138 158 0
135 156 0
135 155 0
138 159 0
128 148 0
143 165 0
127 148 0
143 164 0
137 158 0
139 158 0
139 159 0
141 162 0
139 160 0
145 167 0
145 166 0
139 160 0
138 159 0
143 164 0
149 170 0
141 163 0
141 163 0
148 169 0
146 167 0
144 166 0
143 165 0
151 172 0
136 158 0
138 158 0
145 166 0
138 160 0
144 166 0
131 151 0
141 162 0
135 157 0
145 166 0
124 145 0
142 163 0
136 156 0
125 145 0
134 153 0
137 157 0
140 161 0
121 141 0
133 154 0
137 159 0
137 158 0
137 158 0
135 156 0
135 154 0
129 149 0
140 161 0
131 151 0
126 146 0
124 144 0
132 152 0
128 147 0
129 150 0
132 153 0
134 155 0
136 155 0
143 165 0
125 146 0
123 142 0
133 153 0
123 143 0
128 149 0
125 145 0
130 151 0
129 149 0
140 161 0
129 149 0
130 151 0
131 151 0
128 148 0
139 159 0
124 142 0
123 142 0
123 143 0
129 150 0
130 150 0
131 151 0
136 155 0
137 158 0
131 152 0
126 146 0
140 161 0
144 163 0
135 156 0
130 150 0
126 145 0
130 149 0
134 154 0
119 138 0
135 155 0
138 158 0
133 154 0
130 151 0
135 155 0
129 148 0
137 158 0
130 150 0
135 155 0
138 159 0
137 158 0
140 159 0
137 158 0
141 160 0
147 167 0
138 159 0
135 156 0
138 158 0
137 159 0
142 162 0
133 155 0
138 158 0
138 159 0
143 164 0
144 165 0
141 162 0
144 165 0
150 171 0
141 162 0
141 162 0
139 161 0
138 159 0
149 170 0
141 161 0
134 155 0
142 163 0
142 163 0
141 161 0
137 158 0
147 168 0
136 156 0
138 160 0
138 159 0
145 166 0
140 160 0
140 161 0
150 172 0
153 174 0
154 176 0
148 168 0
154 175 0
143 164 0
149 171 0
150 173 0
149 170 0
147 168 0
152 174 0
137 157 0
152 173 0
144 167 0
153 174 0
144 166 0
146 167 0
153 173 0
149 170 0
163 183 0
150 170 0
149 170 0
154 175 0
157 177 0
150 171 0
154 176 0
156 178 0
154 175 0
151 172 0
152 172 0
151 174 0
153 175 0
150 171 0
157 178 0
158 179 0
153 174 0
154 175 0
160 182 0
152 173 0
152 173 0
153 175 0
156 178 0
150 170 0
157 179 0
149 172 0
157 179 0
154 176 0
158 180 0
160 182 0
159 180 0
156 178 0
157 180 0
156 178 0
154 175 0
156 177 0
156 177 0
156 177 0
160 183 0
162 183 0
157 178 0
160 182 0
163 185 0
160 183 0
158 179 0
163 184 0
156 177 0
159 180 0
161 181 0
157 178 0
159 180 0
159 181 0
161 182 0
164 186 0
160 183 0
160 181 0
159 181 0
160 182 0
162 186 0
157 178 0
158 181 0
156 179 0
159 180 0
161 182 0
167 189 0
160 182 0
160 183 0
163 184 0
160 180 0
155 178 0
162 183 0
160 183 0
155 177 0
168 190 0
156 177 0
164 185 0
161 181 0
164 185 0
164 184 0
160 182 0
163 185 0
163 185 0
167 190 0
161 183 0
162 182 0
167 189 0
166 188 0
160 181 0
166 190 0
168 190 0
166 189 0
169 190 0
165 188 0
163 186 0
162 184 0
167 190 0
165 186 0
167 189 0
165 186 0
160 182 0
166 187 0
164 186 0
164 186 0
169 191 0
164 185 0
167 188 0
168 191 0
167 190 0
165 187 0
166 188 0
164 186 0
167 188 0
163 185 0
172 193 0
168 191 0
166 188 0
164 184 0
166 188 0
170 192 0
165 188 0
168 190 0
163 185 0
170 193 0
168 189 0
170 192 0
171 194 0
165 187 0
166 190 0
166 189 0
168 192 0
162 185 0
169 192 0
164 187 0
168 191 0
165 189 0
165 188 0
165 188 0
167 191 0
162 185 0
164 187 0
164 187 0
161 184 0
167 190 0
166 190 0
162 185 0
162 185 0
161 184 0
165 188 0
164 187 0
166 189 0
166 189 0
167 190 0
167 190 0
167 190 0
166 189 0
163 186 0
162 185 0
162 185 0
164 187 0
169 193 0
168 190 0
164 187 0
164 187 0
148 171 0
164 187 0
165 188 0
166 189 0
163 185 0
159 182 0
162 184 0
164 187 0
161 183 0
164 186 0
159 182 0
165 187 0
165 187 0
160 182 0
158 180 0
159 182 0
163 186 0
160 182 0
154 176 0
165 188 0
160 182 0
159 180 0
155 177 0
160 182 0
160 181 0
164 185 0
158 180 0
151 173 0
160 183 0
157 179 0
154 176 0
156 178 0
151 173 0
155 178 0
156 178 0
152 174 0
158 180 0
153 175 0
153 176 0
150 172 0
158 179 0
157 178 0
151 173 0
152 173 0
151 173 0
157 179 0
149 172 0
144 165 0
154 176 0
149 171 0
148 170 0
153 174 0
157 179 0
153 176 0
137 159 0
151 173 0
140 162 0
146 167 0
143 164 0
153 175 0
147 168 0
149 170 0
142 163 0
152 173 0
148 171 0
140 161 0
142 164 0
143 164 0
142 164 0
137 158 0
150 173 0
143 165 0
152 174 0
141 162 0
144 165 0
136 157 0
140 161 0
145 167 0
143 164 0
140 161 0
140 161 0
146 166 0
141 162 0
136 156 0
138 160 0
144 165 0
144 165 0
134 154 0
138 159 0
146 168 0
141 163 0
148 169 0
145 166 0
145 166 0
139 161 0
140 163 0
144 164 0
149 171 0
145 165 0
141 162 0
147 169 0
148 170 0
147 169 0
143 165 0
138 160 0
145 166 0
147 167 0
146 167 0
146 168 0
149 170 0
147 169 0
137 159 0
140 161 0
136 157 0
142 163 0
137 158 0
133 153 0
134 156 0
138 159 0
133 153 0
128 149 0
144 164 0
126 146 0
140 160 0
136 156 0
129 150 0
121 141 0
137 157 0
138 158 0
131 152 0
128 148 0
133 154 0
133 153 0
133 153 0
133 153 0
127 147 0
138 158 0
135 154 0
129 149 0
136 156 0
147 167 0
142 161 0
134 155 0
131 152 0
132 152 0
128 148 0
135 155 0
130 150 0
129 150 0
141 161 0
132 152 0
137 158 0
126 146 0
117 137 0
136 157 0
136 157 0
133 154 0
139 159 0
131 153 0
120 141 0
128 149 0
141 161 0
130 150 0
130 150 0
135 156 0
140 161 0
143 163 0
142 163 0
129 152 0
127 146 0
134 155 0
130 151 0
129 150 0
136 157 0
141 161 0
130 149 0
142 161 0
123 143 0
135 156 0
139 160 0
138 160 0
137 159 0
137 158 0
141 163 0
133 153 0
142 162 0
138 157 0
131 151 0
146 167 0
140 162 0
131 152 0
138 158 0
151 172 0
135 154 0
139 158 0
140 160 0
144 166 0
132 153 0
137 157 0
139 160 0
142 163 0
149 168 0
141 162 0
146 168 0
135 157 0
143 163 0
145 166 0
146 168 0
147 167 0
143 164 0
140 160 0
141 161 0
150 172 0
140 160 0
147 169 0
147 168 0
149 170 0
149 167 0
152 174 0
146 168 0
146 167 0
141 162 0
150 171 0
144 165 0
142 163 0
155 175 0
155 178 0
148 169 0
154 174 0
152 173 0
147 168 0
144 165 0
143 164 0
148 170 0
157 179 0
155 176 0
149 171 0
151 172 0
149 171 0
148 170 0
150 170 0
156 178 0
154 176 0
155 176 0
157 178 0
154 172 0
153 174 0
155 177 0
155 177 0
155 176 0
152 172 0
146 166 0
156 177 0
156 176 0
155 177 0
153 173 0
154 174 0
158 180 0
151 173 0
156 179 0
149 171 0
158 179 0
156 177 0
159 180 0
158 181 0
154 174 0
161 183 0
155 178 0
161 183 0
158 180 0
156 177 0
158 178 0
151 174 0
151 173 0
157 176 0
160 182 0
158 179 0
157 178 0
160 183 0
157 179 0
156 177 0
165 188 0
155 177 0
155 177 0
161 183 0
162 185 0
160 181 0
163 183 0
157 178 0
156 178 0
156 177 0
163 184 0
162 183 0
163 184 0
165 188 0
163 184 0
165 186 0
161 183 0
166 188 0
159 181 0
159 181 0
163 185 0
163 184 0
160 180 0
162 182 0
163 186 0
165 186 0
163 185 0
162 183 0
162 184 0
162 182 0
168 189 0
169 190 0
162 184 0
161 182 0
166 188 0
162 183 0
167 190 0
165 186 0
164 186 0
162 183 0
165 186 0
163 186 0
163 185 0
166 187 0
161 182 0
169 191 0
168 189 0
163 185 0
166 189 0
162 185 0
162 184 0
162 182 0
162 183 0
163 185 0
163 185 0
165 188 0
166 189 0
163 183 0
167 189 0
164 186 0
159 181 0
166 188 0
163 183 0
163 185 0
166 188 0
163 184 0
164 186 0
166 187 0
170 194 0
168 191 0
164 185 0
172 194 0
169 192 0
166 188 0
167 188 0
170 192 0
164 186 0
165 188 0
169 190 0
166 187 0
166 185 0
168 191 0
165 186 0
166 190 0
169 192 0
167 191 0
168 192 0
170 194 0
166 189 0
165 188 0
166 189 0
164 188 0
168 192 0
167 189 0
166 189 0
169 193 0
166 190 0
167 190 0
170 193 0
161 184 0
161 185 0
160 183 0
168 191 0
163 187 0
170 194 0
170 192 0
164 188 0
166 189 0
158 181 0
165 188 0
170 193 0
158 181 0
159 183 0
164 188 0
165 188 0
158 181 0
161 185 0
163 186 0
164 187 0
163 186 0
158 180 0
168 191 0
161 185 0
164 186 0
163 185 0
156 179 0
163 185 0
158 182 0
155 177 0
161 184 0
163 186 0
161 183 0
160 182 0
160 183 0
162 185 0
159 182 0
159 182 0
152 174 0
158 180 0
147 169 0
159 181 0
161 184 0
159 181 0
157 179 0
154 176 0
158 180 0
159 182 0
154 176 0
154 176 0
162 184 0
159 181 0
152 174 0
162 184 0
150 172 0
154 176 0
159 181 0
151 173 0
162 184 0
153 175 0
153 175 0
149 171 0
161 182 0
151 173 0
156 177 0
149 171 0
151 173 0
158 180 0
149 171 0
152 175 0
147 168 0
144 165 0
149 170 0
141 163 0
152 174 0
144 165 0
154 175 0
159 181 0
142 163 0
152 173 0
144 166 0
153 175 0
149 171 0
148 170 0
145 166 0
153 174 0
149 170 0
149 170 0
133 155 0
145 167 0
147 167 0
148 169 0
138 160 0
147 170 0
144 167 0
138 160 0
140 161 0
141 162 0
140 161 0
140 160 0
144 166 0
130 151 0
153 173 0
135 155 0
136 156 0
145 167 0
134 154 0
138 160 0
148 170 0
145 167 0
123 144 0
141 163 0
144 167 0
151 171 0
151 173 0
144 165 0
149 171 0
150 172 0
150 172 0
142 164 0
151 172 0
152 175 0
140 161 0
142 163 0
148 170 0
145 166 0
148 168 0
146 167 0
149 172 0
149 170 0
140 162 0
142 163 0
137 158 0
142 164 0
148 169 0
130 150 0
137 157 0
140 159 0
125 146 0
135 157 0
134 155 0
126 147 0
136 157 0
135 155 0
137 158 0
127 149 0
139 159 0
143 164 0
133 153 0
138 159 0
136 156 0
134 155 0
131 151 0
126 147 0
132 152 0
137 157 0
132 154 0
127 147 0
127 147 0
133 154 0
131 152 0
138 158 0
127 147 0
127 147 0
141 162 0
131 152 0
140 161 0
141 161 0
143 163 0
131 151 0
137 158 0
134 155 0
138 158 0
130 150 0
141 162 0
132 151 0
127 147 0
146 167 0
133 153 0
129 150 0
142 163 0
141 163 0
135 156 0
130 150 0
141 162 0
135 156 0
131 151 0
136 155 0
143 164 0
134 153 0
129 149 0
131 151 0
140 162 0
145 166 0
130 153 0
135 155 0
142 162 0
144 166 0
146 168 0
139 159 0
143 163 0
139 160 0
145 166 0
138 158 0
143 162 0
135 156 0
133 154 0
132 153 0
147 168 0
145 167 0
140 161 0
151 172 0
127 149 0
141 162 0
144 165 0
140 160 0
142 164 0
132 153 0
141 162 0
140 161 0
140 161 0
152 173 0
149 171 0
138 159 0
146 167 0
143 163 0
144 165 0
140 162 0
146 167 0
147 168 0
151 173 0
154 175 0
148 169 0
142 163 0
143 166 0
151 172 0
148 169 0
141 162 0
141 163 0
144 165 0
151 174 0
152 173 0
145 167 0
147 170 0
152 173 0
151 172 0
145 167 0
137 158 0
150 172 0
155 175 0
156 177 0
151 173 0
146 167 0
150 172 0
151 173 0
155 178 0
155 177 0
150 172 0
150 170 0
154 176 0
151 173 0
151 173 0
145 166 0
155 176 0
157 180 0
154 176 0
154 175 0
158 180 0
153 177 0
150 172 0
153 174 0
154 176 0
151 171 0
154 177 0
147 170 0
156 178 0
157 178 0
147 169 0
152 174 0
155 177 0
158 179 0
159 180 0
149 170 0
151 172 0
155 176 0
158 181 0
153 174 0
157 177 0
152 174 0
159 181 0
159 181 0
154 175 0
161 183 0
153 176 0
155 176 0
155 177 0
156 178 0
159 180 0
161 182 0
154 176 0
162 184 0
158 181 0
157 180 0
162 184 0
156 176 0
157 179 0
164 186 0
162 184 0
159 181 0
162 184 0
161 183 0
162 185 0
160 181 0
163 185 0
165 188 0
157 178 0
155 175 0
168 190 0
162 182 0
161 183 0
156 176 0
158 179 0
162 183 0
163 183 0
161 183 0
159 180 0
164 185 0
159 180 0
161 182 0
162 185 0
163 186 0
161 184 0
165 187 0
165 186 0
164 186 0
160 180 0
164 185 0
159 181 0
162 183 0
163 183 0
166 189 0
166 188 0
164 186 0
166 188 0
165 188 0
159 181 0
164 187 0
157 178 0
162 183 0
166 188 0
164 186 0
166 189 0
165 188 0
164 187 0
168 190 0
164 186 0
164 186 0
166 188 0
166 188 0
162 183 0
168 190 0
167 188 0
164 186 0
165 187 0
165 185 0
163 184 0
164 187 0
168 189 0
166 187 0
168 190 0
169 192 0
167 188 0
163 184 0
163 184 0
164 187 0
168 189 0
167 189 0
167 189 0
169 191 0
163 185 0
156 177 0
168 191 0
163 187 0
165 188 0
170 193 0
165 189 0
170 194 0
165 189 0
168 191 0
166 190 0
166 190 0
169 192 0
160 183 0
164 188 0
162 185 0
167 190 0
163 187 0
166 189 0
163 187 0
164 188 0
168 191 0
165 189 0
167 191 0
166 190 0
164 187 0
166 188 0
167 189 0
161 184 0
171 194 0
161 185 0
166 189 0
160 184 0
165 189 0
163 185 0
169 191 0
166 188 0
164 188 0
165 188 0
163 186 0
166 190 0
162 185 0
165 187 0
167 189 0
162 185 0
158 182 0
162 185 0
160 181 0
165 187 0
157 180 0
162 185 0
160 183 0
158 181 0
156 178 0
161 184 0
156 178 0
165 188 0
154 176 0
159 181 0
157 179 0
158 181 0
164 186 0
157 179 0
158 179 0
157 180 0
158 180 0
153 176 0
156 179 0
161 184 0
151 173 0
156 177 0
158 180 0
159 182 0
150 172 0
162 184 0
150 173 0
155 177 0
159 181 0
155 177 0
158 180 0
154 176 0
151 172 0
152 173 0
151 172 0
149 171 0
152 175 0
151 173 0
145 167 0
147 168 0
154 176 0
156 177 0
153 175 0
142 164 0
150 173 0
152 174 0
148 169 0
158 180 0
156 177 0
144 166 0
147 169 0
147 168 0
152 174 0
149 170 0
150 172 0
145 167 0
149 171 0
143 165 0
152 173 0
144 165 0
150 171 0
139 161 0
139 160 0
144 165 0
143 165 0
135 156 0
146 167 0
148 169 0
142 164 0
151 172 0
144 165 0
140 161 0
138 158 0
142 162 0
143 164 0
146 167 0
142 163 0
146 167 0
140 161 0
149 171 0
146 168 0
143 164 0
143 165 0
146 168 0
147 169 0
144 167 0
140 161 0
145 167 0
145 168 0
141 162 0
140 161 0
154 175 0
144 165 0
140 160 0
142 164 0
151 173 0
144 167 0
151 172 0
158 180 0
149 171 0
133 154 0
145 165 0
141 162 0
145 167 0
141 162 0
146 168 0
140 161 0
138 159 0
129 150 0
141 162 0
134 154 0
142 163 0
140 160 0
140 161 0
142 163 0
147 168 0
135 156 0
132 153 0
136 156 0
127 147 0
140 160 0
136 158 0
138 159 0
132 153 0
134 153 0
128 148 0
126 146 0
141 161 0
137 158 0
143 164 0
123 144 0
122 143 0
136 155 0
127 148 0
132 152 0
123 142 0
139 159 0
131 151 0
140 160 0
135 155 0
129 150 0
138 159 0
137 157 0
134 155 0
126 147 0
138 158 0
138 158 0
131 153 0
136 157 0
129 150 0
126 147 0
127 147 0
140 160 0
146 167 0
132 152 0
123 142 0
141 161 0
135 157 0
132 152 0
140 160 0
132 152 0
145 167 0
133 155 0
136 156 0
142 163 0
132 152 0
135 155 0
142 162 0
135 157 0
133 153 0
133 154 0
139 161 0
135 156 0
134 155 0
134 155 0
140 161 0
132 152 0
136 157 0
149 170 0
145 168 0
139 159 0
140 161 0
138 160 0
142 162 0
139 161 0
145 166 0
144 164 0
142 162 0
142 165 0
136 157 0
144 165 0
149 171 0
134 155 0
151 173 0
145 165 0
137 157 0
140 161 0
136 157 0
142 162 0
145 166 0
147 169 0
146 167 0
145 165 0
148 168 0
143 166 0
139 161 0
146 168 0
151 172 0
146 167 0
153 174 0
149 171 0
157 179 0
145 165 0
159 181 0
147 168 0
142 164 0
155 176 0
151 172 0
143 164 0
157 180 0
150 171 0
149 169 0
152 173 0
152 173 0
151 174 0
151 173 0
151 172 0
155 176 0
156 177 0
144 165 0
145 167 0
156 179 0
144 166 0
143 164 0
153 175 0
152 173 0
155 176 0
153 176 0
157 179 0
152 174 0
155 178 0
147 168 0
154 175 0
151 172 0
155 175 0
156 177 0
164 186 0
160 181 0
151 174 0
159 181 0
160 181 0
154 175 0
155 176 0
160 181 0
160 183 0
160 181 0
159 181 0
159 180 0
154 174 0
157 178 0
153 174 0
158 181 0
159 180 0
167 190 0
157 179 0
160 182 0
155 176 0
155 176 0
161 183 0
161 183 0
155 177 0
162 184 0
159 181 0
158 180 0
159 181 0
158 181 0
164 184 0
165 185 0
159 182 0
158 181 0
159 180 0
162 184 0
159 181 0
156 177 0
155 177 0
158 179 0
164 187 0
163 184 0
158 179 0
166 185 0
162 184 0
164 186 0
161 183 0
163 185 0
157 178 0
162 183 0
165 187 0
158 180 0
162 183 0
161 181 0
164 186 0
161 182 0
166 186 0
167 189 0
163 185 0
163 185 0
167 190 0
164 186 0
163 183 0
165 187 0
163 185 0
159 181 0
162 183 0
171 193 0
162 184 0
167 188 0
165 187 0
161 182 0
160 181 0
164 186 0
166 188 0
165 187 0
164 186 0
165 187 0
166 188 0
168 191 0
163 183 0
163 183 0
167 190 0
168 190 0
165 186 0
167 189 0
167 189 0
165 186 0
167 189 0
167 190 0
163 185 0
168 190 0
167 189 0
165 187 0
162 183 0
167 190 0
169 190 0
166 188 0
165 188 0
167 188 0
167 190 0
168 190 0
167 189 0
166 189 0
169 190 0
166 188 0
165 186 0
169 192 0
162 185 0
168 191 0
164 187 0
169 192 0
167 190 0
166 190 0
170 193 0
166 190 0
167 191 0
168 191 0
165 189 0
160 183 0
167 190 0
168 191 0
161 183 0
164 186 0
168 192 0
165 188 0
164 186 0
165 188 0
166 189 0
161 185 0
164 187 0
166 189 0
169 193 0
166 189 0
163 186 0
168 190 0
168 191 0
169 192 0
167 190 0
165 188 0
168 190 0
165 188 0
157 179 0
162 185 0
167 189 0
164 187 0
166 188 0
166 189 0
168 191 0
163 185 0
156 178 0
159 182 0
165 187 0
162 184 0
164 187 0
153 176 0
169 192 0
161 182 0
158 181 0
156 178 0
158 181 0
159 181 0
165 188 0
157 180 0
163 186 0
158 181 0
154 177 0
163 185 0
151 173 0
160 182 0
161 183 0
157 179 0
165 188 0
163 186 0
153 176 0
158 180 0
160 182 0
156 178 0
155 176 0
158 181 0
157 180 0
159 181 0
155 177 0
152 175 0
155 177 0
152 174 0
152 174 0
154 176 0
157 178 0
161 183 0
158 180 0
152 174 0
158 180 0
155 177 0
158 180 0
156 177 0
162 184 0
153 174 0
152 175 0
145 167 0
152 173 0
151 172 0
156 177 0
148 169 0
149 171 0
156 178 0
142 163 0
157 178 0
151 173 0
151 172 0
145 166 0
143 164 0
138 159 0
150 170 0
150 172 0
145 167 0
147 169 0
144 165 0
145 166 0
147 168 0
134 155 0
153 174 0
143 163 0
141 162 0
147 169 0
144 165 0
141 162 0
151 173 0
151 173 0
135 156 0
144 164 0
144 165 0
136 158 0
142 164 0
143 165 0
140 162 0
158 179 0
147 169 0
151 172 0
144 166 0
148 170 0
152 174 0
147 168 0
145 168 0
143 164 0
148 170 0
139 162 0
155 178 0
140 161 0
153 175 0
150 171 0
149 171 0
143 165 0
149 171 0
143 163 0
147 170 0
145 166 0
140 160 0
143 164 0
133 153 0
140 162 0
127 148 0
136 156 0
134 155 0
132 152 0
143 164 0
134 155 0
136 157 0
142 163 0
133 153 0
137 158 0
144 164 0
127 147 0
141 161 0
145 165 0
142 161 0
138 158 0
128 148 0
132 152 0
144 164 0
130 152 0
135 156 0
134 155 0
147 169 0
145 166 0
119 139 0
131 151 0
132 152 0
129 150 0
138 160 0
132 154 0
127 148 0
133 153 0
136 157 0
141 161 0
138 158 0
134 155 0
134 154 0
131 149 0
138 160 0
132 152 0
129 150 0
130 150 0
135 155 0
139 160 0
138 158 0
127 146 0
141 162 0
132 152 0
141 161 0
138 160 0
140 160 0
136 157 0
132 151 0
141 161 0
139 161 0
147 168 0
142 164 0
133 155 0
132 151 0
149 171 0
144 165 0
137 157 0
142 163 0
133 155 0
141 163 0
131 152 0
139 159 0
145 166 0
145 167 0
136 157 0
140 161 0
145 165 0
144 164 0
142 162 0
150 171 0
147 168 0
147 167 0
147 167 0
140 160 0
146 169 0
148 169 0
139 160 0
140 160 0
137 157 0
143 165 0
135 155 0
146 167 0
149 171 0
148 171 0
131 153 0
139 161 0
141 162 0
149 171 0
147 169 0
147 167 0
150 172 0
152 173 0
149 170 0
151 172 0
147 167 0
141 162 0
148 169 0
149 170 0
149 171 0
145 166 0
151 173 0
152 173 0
152 172 0
152 174 0
157 178 0
152 174 0
148 169 0
153 175 0
150 171 0
149 169 0
155 176 0
153 174 0
151 172 0
154 176 0
149 170 0
150 172 0
154 175 0
157 178 0
150 171 0
145 167 0
159 181 0
152 172 0
148 170 0
158 179 0
160 180 0
154 175 0
152 175 0
155 176 0
151 173 0
157 177 0
158 179 0
158 180 0
155 177 0
158 179 0
160 182 0
160 181 0
148 170 0
156 175 0
152 172 0
144 166 0
153 175 0
159 181 0
155 177 0
154 174 0
157 178 0
155 177 0
159 181 0
156 178 0
157 178 0
154 174 0
158 181 0
157 178 0
160 183 0
152 174 0
157 178 0
159 180 0
158 180 0
155 176 0
162 184 0
155 177 0
163 185 0
157 178 0
162 184 0
162 183 0
159 181 0
154 175 0
156 178 0
158 181 0
164 186 0
160 182 0
163 184 0
161 183 0
160 182 0
162 183 0
163 185 0
159 181 0
159 181 0
163 185 0
166 187 0
161 184 0
158 179 0
164 186 0
163 185 0
165 186 0
166 188 0
161 182 0
161 182 0
157 179 0
167 190 0
165 187 0
164 186 0
165 187 0
165 187 0
164 185 0
164 187 0
162 183 0
162 185 0
164 186 0
165 189 0
159 181 0
166 188 0
164 186 0
164 186 0
164 185 0
169 190 0
165 187 0
161 182 0
164 185 0
163 185 0
161 183 0
166 189 0
163 185 0
167 189 0
163 186 0
165 186 0
168 188 0
166 187 0
166 188 0
166 187 0
166 189 0
169 191 0
166 190 0
163 185 0
164 187 0
168 190 0
167 188 0
169 190 0
168 190 0
168 191 0
165 186 0
167 190 0
167 189 0
168 191 0
166 187 0
165 187 0
165 186 0
170 191 0
171 193 0
166 189 0
167 189 0
165 187 0
165 188 0
166 189 0
168 191 0
170 194 0
168 191 0
164 187 0
167 191 0
160 184 0
168 192 0
162 186 0
164 188 0
171 194 0
167 190 0
167 191 0
168 192 0
169 192 0
171 194 0
168 191 0
163 185 0
167 190 0
165 188 0
164 187 0
165 188 0
166 189 0
164 187 0
163 186 0
165 188 0
167 189 0
164 186 0
166 189 0
163 186 0
160 183 0
159 183 0
171 193 0
164 187 0
161 184 0
162 186 0
162 185 0
161 183 0
163 185 0
164 186 0
162 184 0
165 187 0
161 184 0
167 190 0
164 187 0
157 180 0
161 183 0
162 185 0
156 178 0
158 182 0
161 184 0
157 179 0
160 183 0
156 179 0
153 175 0
156 179 0
157 179 0
157 180 0
156 179 0
160 183 0
156 178 0
164 187 0
155 177 0
159 181 0
156 179 0
161 183 0
157 179 0
156 178 0
150 173 0
160 182 0
157 179 0
154 176 0
154 176 0
164 186 0
155 177 0
153 176 0
159 181 0
156 177 0
153 175 0
152 173 0
146 169 0
153 175 0
148 169 0
152 173 0
143 164 0
152 173 0
147 169 0
153 175 0
154 176 0
156 177 0
156 177 0
154 175 0
151 172 0
152 174 0
148 170 0
153 174 0
151 173 0
151 173 0
149 170 0
152 174 0
146 168 0
149 171 0
156 178 0
144 165 0
147 169 0
144 166 0
141 163 0
146 167 0
149 169 0
146 168 0
144 164 0
140 162 0
142 163 0
147 168 0
146 167 0
145 166 0
148 171 0
152 172 0
149 170 0
149 170 0
148 169 0
151 173 0
146 168 0
147 168 0
143 164 0
145 166 0
143 164 0
152 174 0
148 170 0
140 163 0
147 169 0
147 168 0
150 172 0
149 171 0
156 178 0
154 176 0
147 169 0
148 170 0
152 174 0
151 173 0
150 171 0
149 171 0
152 174 0
150 170 0
148 169 0
150 171 0
143 164 0
146 168 0
151 173 0
149 170 0
141 162 0
144 167 0
145 167 0
142 162 0
140 160 0
136 158 0
134 154 0
133 153 0
145 166 0
131 151 0
136 156 0
147 168 0
127 148 0
133 153 0
141 163 0
141 161 0
136 157 0
131 151 0
141 162 0
145 165 0
136 157 0
130 151 0
134 155 0
136 156 0
132 153 0
141 162 0
141 163 0
135 155 0
136 157 0
132 154 0
138 158 0
128 147 0
142 164 0
130 149 0
138 159 0
135 155 0
132 153 0
132 153 0
129 150 0
136 156 0
136 156 0
135 156 0
132 153 0
136 157 0
136 157 0
137 159 0
140 161 0
134 156 0
139 160 0
147 167 0
145 166 0
139 160 0
146 168 0
132 151 0
133 152 0
129 151 0
139 160 0
137 158 0
140 160 0
150 170 0
137 156 0
138 159 0
143 163 0
145 166 0
139 159 0
142 163 0
140 160 0
139 159 0
143 163 0
153 175 0
141 163 0
138 158 0
148 167 0
138 159 0
139 160 0
138 158 0
141 163 0
140 161 0
149 170 0
142 162 0
147 168 0
143 164 0
147 168 0
145 167 0
149 170 0
146 168 0
144 165 0
140 162 0
144 165 0
147 168 0
151 172 0
157 178 0
145 167 0
148 169 0
144 166 0
158 179 0
149 169 0
150 170 0
144 165 0
146 166 0
149 170 0
142 163 0
148 170 0
144 166 0
152 174 0
154 176 0
145 166 0
157 179 0
147 169 0
144 166 0
151 171 0
145 166 0
148 171 0
147 169 0
150 172 0
148 169 0
149 170 0
148 168 0
152 172 0
153 174 0
153 176 0
152 174 0
154 176 0
148 170 0
152 173 0
152 174 0
152 174 0
154 174 0
154 177 0
154 176 0
150 172 0
153 175 0
153 174 0
152 174 0
154 175 0
150 173 0
149 170 0
150 172 0
156 178 0
152 174 0
154 175 0
154 175 0
155 176 0
156 178 0
153 174 0
158 180 0
155 176 0
153 174 0
156 177 0
159 182 0
161 184 0
158 180 0
159 180 0
154 176 0
150 172 0
159 179 0
158 180 0
156 177 0
149 170 0
156 178 0
156 177 0
159 182 0
163 184 0
154 176 0
156 178 0
163 185 0
162 184 0
156 177 0
156 178 0
160 182 0
159 181 0
162 184 0
160 183 0
157 179 0
162 183 0
165 186 0
160 182 0
157 179 0
165 186 0
155 177 0
166 187 0
159 182 0
165 188 0
161 182 0
162 183 0
165 187 0
158 181 0
163 185 0
161 182 0
163 184 0
161 183 0
159 180 0
161 183 0
161 182 0
165 187 0
164 186 0
158 179 0
163 186 0
162 185 0
163 185 0
165 188 0
159 182 0
162 185 0
163 185 0
162 184 0
164 184 0
165 186 0
166 187 0
170 192 0
163 186 0
165 187 0
166 188 0
165 188 0
163 186 0
167 189 0
163 183 0
167 188 0
168 190 0
167 188 0
165 187 0
166 189 0
166 187 0
168 191 0
169 190 0
170 193 0
167 189 0
166 188 0
166 188 0
159 181 0
168 190 0
165 187 0
166 189 0
168 190 0
167 189 0
166 189 0
167 190 0
167 190 0
165 187 0
165 188 0
168 189 0
164 186 0
167 191 0
165 188 0
162 184 0
167 190 0
166 188 0
166 188 0
167 189 0
164 186 0
168 190 0
167 190 0
171 192 0
167 191 0
166 189 0
168 192 0
172 194 0
166 190 0
164 189 0
168 192 0
171 194 0
160 183 0
171 194 0
161 184 0
169 192 0
166 189 0
165 188 0
164 188 0
167 190 0
164 188 0
169 193 0
171 193 0
164 188 0
162 185 0
161 185 0
163 185 0
164 187 0
166 188 0
166 189 0
166 189 0
161 184 0
162 185 0
165 187 0
163 186 0
160 183 0
161 183 0
166 189 0
163 185 0
166 189 0
162 185 0
157 180 0
167 189 0
169 191 0
163 185 0
160 183 0
156 179 0
161 184 0
162 185 0
157 180 0
160 182 0
155 179 0
158 182 0
159 183 0
160 182 0
162 183 0
159 181 0
157 180 0
156 178 0
155 177 0
166 187 0
155 177 0
162 185 0
156 178 0
166 187 0
158 180 0
157 179 0
155 176 0
152 174 0
163 186 0
157 179 0
159 182 0
157 179 0
156 178 0
150 173 0
155 176 0
157 179 0
154 176 0
154 176 0
151 173 0
153 175 0
154 177 0
158 180 0
150 172 0
155 178 0
153 174 0
145 166 0
154 175 0
155 177 0
157 180 0
143 165 0
148 170 0
152 173 0
152 174 0
147 168 0
157 179 0
152 174 0
157 179 0
146 168 0
155 177 0
157 179 0
150 171 0
147 168 0
148 169 0
150 173 0
146 168 0
147 168 0
142 163 0
145 168 0
142 164 0
148 169 0
133 154 0
146 167 0
141 163 0
143 164 0
147 169 0
140 162 0
143 165 0
145 167 0
136 158 0
143 164 0
144 165 0
140 161 0
146 167 0
143 164 0
141 163 0
149 171 0
141 162 0
139 160 0
147 167 0
143 165 0
151 173 0
146 168 0
150 171 0
147 170 0
155 177 0
150 172 0
148 170 0
153 175 0
156 177 0
140 161 0
147 168 0
153 177 0
147 170 0
143 164 0
142 165 0
146 168 0
145 167 0
144 165 0
146 167 0
148 170 0
140 163 0
139 159 0
136 157 0
140 161 0
137 158 0
136 157 0
133 152 0
137 159 0
143 163 0
143 163 0
135 157 0
147 167 0
134 155 0
135 156 0
140 161 0
131 151 0
125 146 0
134 155 0
139 160 0
143 163 0
133 154 0
134 154 0
129 148 0
134 155 0
140 162 0
137 158 0
134 156 0
125 146 0
134 154 0
141 164 0
133 153 0
137 158 0
142 162 0
141 162 0
136 157 0
133 152 0
142 163 0
143 163 0
128 149 0
136 158 0
127 148 0
134 154 0
144 165 0
138 159 0
137 158 0
134 154 0
132 152 0
137 157 0
146 166 0
143 163 0
140 162 0
137 158 0
136 156 0
139 160 0
138 159 0
148 171 0
141 162 0
135 156 0
137 158 0
134 156 0
145 166 0
135 155 0
135 156 0
134 155 0
144 165 0
132 154 0
144 163 0
141 163 0
136 158 0
138 158 0
146 168 0
132 153 0
134 154 0
152 173 0
142 163 0
140 160 0
143 164 0
142 164 0
141 162 0
146 166 0
144 164 0
141 161 0
147 168 0
143 164 0
143 164 0
150 171 0
149 171 0
143 166 0
141 162 0
140 162 0
151 173 0
140 160 0
145 165 0
142 164 0
153 174 0
142 163 0
140 163 0
149 170 0
145 167 0
149 171 0
151 172 0
145 167 0
148 169 0
142 163 0
147 168 0
160 180 0
142 165 0
154 176 0
139 162 0
145 167 0
145 165 0
145 167 0
142 162 0
145 165 0
154 175 0
144 165 0
150 172 0
144 165 0
152 173 0
155 177 0
155 178 0
150 171 0
151 171 0
144 166 0
151 172 0
154 174 0
151 173 0
155 178 0
155 177 0
154 177 0
154 175 0
150 172 0
151 172 0
147 167 0
155 178 0
153 173 0
152 173 0
157 176 0
151 172 0
157 180 0
160 180 0
157 179 0
153 174 0
154 175 0
158 179 0
163 186 0
156 176 0
153 177 0
156 177 0
158 180 0
154 175 0
157 178 0
161 182 0
159 179 0
156 177 0
154 176 0
159 181 0
160 182 0
164 186 0
154 176 0
160 182 0
159 181 0
157 179 0
159 182 0
162 184 0
159 181 0
157 178 0
162 184 0
159 181 0
152 174 0
160 182 0
162 184 0
153 175 0
159 180 0
161 183 0
160 182 0
162 183 0
165 187 0
157 179 0
160 183 0
165 188 0
162 185 0
157 180 0
168 190 0
163 184 0
161 182 0
168 191 0
163 185 0
159 181 0
162 185 0
166 186 0
159 181 0
163 184 0
163 185 0
161 184 0
159 181 0
157 179 0
166 188 0
161 183 0
162 184 0
162 182 0
159 182 0
162 184 0
166 186 0
165 186 0
164 185 0
164 187 0
164 186 0
163 186 0
163 185 0
170 192 0
164 186 0
163 186 0
165 187 0
164 185 0
167 189 0
166 188 0
162 184 0
163 186 0
169 191 0
162 185 0
166 188 0
165 188 0
165 186 0
160 182 0
158 180 0
164 185 0
161 183 0
168 191 0
162 185 0
167 190 0
165 187 0
165 187 0
169 192 0
162 183 0
163 185 0
166 188 0
166 187 0
168 191 0
163 184 0
166 188 0
165 187 0
165 186 0
164 185 0
170 194 0
167 189 0
169 192 0
164 186 0
162 184 0
167 189 0
170 193 0
162 184 0
167 189 0
170 193 0
167 191 0
164 187 0
168 192 0
171 194 0
169 192 0
168 192 0
167 189 0
166 189 0
171 194 0
167 190 0
167 191 0
161 185 0
166 190 0
167 190 0
165 188 0
166 189 0
163 186 0
165 188 0
165 187 0
162 185 0
166 189 0
166 189 0
158 182 0
166 188 0
165 188 0
163 186 0
167 190 0
159 182 0
162 185 0
163 186 0
164 187 0
161 184 0
163 186 0
162 184 0
159 183 0
161 184 0
165 188 0
163 184 0
166 189 0
161 183 0
160 183 0
165 187 0
162 185 0
161 183 0
163 185 0
159 181 0
156 178 0
161 183 0
155 178 0
163 184 0
160 183 0
162 184 0
154 177 0
150 173 0
154 176 0
158 182 0
162 184 0
152 175 0
161 183 0
149 171 0
164 185 0
160 183 0
162 184 0
150 172 0
153 176 0
154 176 0
159 182 0
152 174 0
151 172 0
152 175 0
156 178 0
155 176 0
149 171 0
164 184 0
155 177 0
153 175 0
156 177 0
156 178 0
158 179 0
155 176 0
151 173 0
155 177 0
157 180 0
152 173 0
153 175 0
154 176 0
147 169 0
154 175 0
149 171 0
160 181 0
158 181 0
159 180 0
150 171 0
152 174 0
147 168 0
154 175 0
146 167 0
154 175 0
146 167 0
157 179 0
160 182 0
152 173 0
153 175 0
150 172 0
161 182 0
143 165 0
151 172 0
150 172 0
143 165 0
156 177 0
141 163 0
144 166 0
154 176 0
147 168 0
152 173 0
144 164 0
142 164 0
143 165 0
148 170 0
146 166 0
140 162 0
143 165 0
149 170 0
147 169 0
148 169 0
143 163 0
157 178 0
153 176 0
142 164 0
148 170 0
148 169 0
150 172 0
151 174 0
156 178 0
148 169 0
145 167 0
144 164 0
152 174 0
149 172 0
151 172 0
150 173 0
151 173 0
149 171 0
147 168 0
146 167 0
147 169 0
147 169 0
134 155 0
140 160 0
138 159 0
135 155 0
143 164 0
141 162 0
134 154 0
139 161 0
134 156 0
143 165 0
142 162 0
139 160 0
143 163 0
138 159 0
139 160 0
130 151 0
140 161 0
142 162 0
141 162 0
145 165 0
135 155 0
149 170 0
134 155 0
139 161 0
138 158 0
153 174 0
142 163 0
137 158 0
132 152 0
138 159 0
128 148 0
133 153 0
131 153 0
136 158 0
140 161 0
132 153 0
141 162 0
137 158 0
136 158 0
127 147 0
144 165 0
143 163 0
143 164 0
140 160 0
141 162 0
136 157 0
131 151 0
146 167 0
138 159 0
144 164 0
145 167 0
140 161 0
147 168 0
127 148 0
136 157 0
145 167 0
143 165 0
138 159 0
146 168 0
146 167 0
140 160 0
150 171 0
145 166 0
143 164 0
139 159 0
141 163 0
138 158 0
143 164 0
144 164 0
139 160 0
147 169 0
134 153 0
138 160 0
144 165 0
149 169 0
142 164 0
138 160 0
148 170 0
151 173 0
147 168 0
141 161 0
138 160 0
143 164 0
149 171 0
142 163 0
145 166 0
140 161 0
141 161 0
148 169 0
153 175 0
147 169 0
150 171 0
144 165 0
149 171 0
149 170 0
155 176 0
144 164 0
146 167 0
149 171 0
147 168 0
148 170 0
143 164 0
143 164 0
151 172 0
145 166 0
145 166 0
154 176 0
157 178 0
150 173 0
151 173 0
144 166 0
153 174 0
152 174 0
152 173 0
149 171 0
149 172 0
157 179 0
143 166 0
152 173 0
151 172 0
152 173 0
157 178 0
155 178 0
157 178 0
149 169 0
156 178 0
146 168 0
156 179 0
157 178 0
151 172 0
147 169 0
157 178 0
157 179 0
152 174 0
159 180 0
153 175 0
160 181 0
159 180 0
153 175 0
157 180 0
152 174 0
152 172 0
156 177 0
156 178 0
152 172 0
156 178 0
158 180 0
156 178 0
156 176 0
160 182 0
158 180 0
153 175 0
157 178 0
164 185 0
159 181 0
160 182 0
155 176 0
160 182 0
167 188 0
159 182 0
160 183 0
163 185 0
155 177 0
157 179 0
160 182 0
159 182 0
160 182 0
154 177 0
164 187 0
160 181 0
160 183 0
159 181 0
156 179 0
155 176 0
156 177 0
156 178 0
161 183 0
165 186 0
167 188 0
162 185 0
162 183 0
160 181 0
162 185 0
162 184 0
158 180 0
166 189 0
155 177 0
160 183 0
162 184 0
160 181 0
160 181 0
160 182 0
160 182 0
166 188 0
161 182 0
158 179 0
164 186 0
160 182 0
162 185 0
163 184 0
162 184 0
165 187 0
169 192 0
159 182 0
170 191 0
162 185 0
167 189 0
162 183 0
163 186 0
163 185 0
159 179 0
162 183 0
167 190 0
166 188 0
167 190 0
165 185 0
165 188 0
166 188 0
170 193 0
164 186 0
165 189 0
164 187 0
167 189 0
161 183 0
160 182 0
167 189 0
164 186 0
167 189 0
166 189 0
169 192 0
163 185 0
164 186 0
167 189 0
169 191 0
165 187 0
162 183 0
167 190 0
167 190 0
164 186 0
165 188 0
167 188 0
164 187 0
168 189 0
169 191 0
170 193 0
165 188 0
165 187 0
169 191 0
168 191 0
165 187 0
169 191 0
164 187 0
166 190 0
163 186 0
164 188 0
166 190 0
164 188 0
162 185 0
164 186 0
164 187 0
168 191 0
162 185 0
166 190 0
166 190 0
163 186 0
166 189 0
163 186 0
166 189 0
163 186 0
167 189 0
161 184 0
165 188 0
165 189 0
168 191 0
165 187 0
167 190 0
166 189 0
164 187 0
169 192 0
162 185 0
167 189 0
161 184 0
162 185 0
162 185 0
163 187 0
164 187 0
168 190 0
163 185 0
165 188 0
162 184 0
164 186 0
160 183 0
167 189 0
168 190 0
161 183 0
160 182 0
166 188 0
162 185 0
163 186 0
161 184 0
158 180 0
162 185 0
161 184 0
162 185 0
160 182 0
156 177 0
160 183 0
159 181 0
158 181 0
161 182 0
155 177 0
159 181 0
160 181 0
153 176 0
162 184 0
159 181 0
160 183 0
152 175 0
154 176 0
159 181 0
147 169 0
157 178 0
154 177 0
158 180 0
164 186 0
150 172 0
156 177 0
153 175 0
162 184 0
154 176 0
156 177 0
156 178 0
156 179 0
166 188 0
155 176 0
155 177 0
157 179 0
146 168 0
152 174 0
159 181 0
157 178 0
157 179 0
156 178 0
148 170 0
150 171 0
156 177 0
150 173 0
157 179 0
152 174 0
150 172 0
156 178 0
150 172 0
149 171 0
150 172 0
145 167 0
142 165 0
153 176 0
146 168 0
147 169 0
156 179 0
145 166 0
146 168 0
152 173 0
145 167 0
145 166 0
145 168 0
144 166 0
151 173 0
144 165 0
152 173 0
150 172 0
149 171 0
148 170 0
150 171 0
154 177 0
147 168 0
158 180 0
150 172 0
148 170 0
149 171 0
153 174 0
152 174 0
147 170 0
149 171 0
143 166 0
153 174 0
149 171 0
148 171 0
150 172 0
142 163 0
151 173 0
154 176 0
150 172 0
151 174 0
155 177 0
149 170 0
148 171 0
152 174 0
140 162 0
145 166 0
143 164 0
148 169 0
138 160 0
143 165 0
146 167 0
143 164 0
129 151 0
149 170 0
141 162 0
142 164 0
144 165 0
138 159 0
140 161 0
155 176 0
142 163 0
138 160 0
144 165 0
144 165 0
134 155 0
134 156 0
136 157 0
135 156 0
137 159 0
146 167 0
138 160 0
139 160 0
137 159 0
144 166 0
127 147 0
140 161 0
146 167 0
136 157 0
139 161 0
126 146 0
146 168 0
141 162 0
143 164 0
142 163 0
134 155 0
135 155 0
140 161 0
137 159 0
142 163 0
126 147 0
141 163 0
140 162 0
142 163 0
141 162 0
140 161 0
139 160 0
141 162 0
141 162 0
145 166 0
136 156 0
144 164 0
135 156 0
139 160 0
144 164 0
140 162 0
146 166 0
138 159 0
143 164 0
138 160 0
134 154 0
147 167 0
148 168 0
143 164 0
145 166 0
141 162 0
135 156 0
134 155 0
139 161 0
146 166 0
153 175 0
137 158 0
144 165 0
140 161 0
143 165 0
139 161 0
146 168 0
155 176 0
139 161 0
142 162 0
148 169 0
145 167 0
153 175 0
146 167 0
145 166 0
149 172 0
142 161 0
145 166 0
145 165 0
149 170 0
150 171 0
153 175 0
137 158 0
146 169 0
141 161 0
149 171 0
152 174 0
140 163 0
151 173 0
146 167 0
147 169 0
154 176 0
156 178 0
152 174 0
151 173 0
140 162 0
151 173 0
148 169 0
152 174 0
150 170 0
147 168 0
151 174 0
155 177 0
152 173 0
145 166 0
151 172 0
147 169 0
160 181 0
156 179 0
151 173 0
151 173 0
156 178 0
144 164 0
156 179 0
155 177 0
158 180 0
155 175 0
157 178 0
150 170 0
155 178 0
156 177 0
160 181 0
158 179 0
154 178 0
157 178 0
150 172 0
161 184 0
157 178 0
160 183 0
159 181 0
160 181 0
155 177 0
155 178 0
156 178 0
164 185 0
159 181 0
155 177 0
157 179 0
161 183 0
155 175 0
158 180 0
159 182 0
163 184 0
153 174 0
156 177 0
162 186 0
157 180 0
158 180 0
154 175 0
159 182 0
162 184 0
162 183 0
159 181 0
163 184 0
162 185 0
159 181 0
163 184 0
159 180 0
160 183 0
162 183 0
156 179 0
161 182 0
157 179 0
157 179 0
159 180 0
164 185 0
158 179 0
165 188 0
159 183 0
164 187 0
163 185 0
157 178 0
153 176 0
159 179 0
163 185 0
167 189 0
163 186 0
161 183 0
161 185 0
163 185 0
159 181 0
165 186 0
164 185 0
161 183 0
162 184 0
162 184 0
161 183 0
166 189 0
161 183 0
163 184 0
156 176 0
161 182 0
161 182 0
166 187 0
167 189 0
164 186 0
162 184 0
165 185 0
165 187 0
166 188 0
164 186 0
165 188 0
168 189 0
165 187 0
169 192 0
167 189 0
164 186 0
165 188 0
166 187 0
167 188 0
171 194 0
162 184 0
167 190 0
164 186 0
163 185 0
165 188 0
164 187 0
167 189 0
166 186 0
167 189 0
163 184 0
168 191 0
167 189 0
169 192 0
170 192 0
167 190 0
168 191 0
169 191 0
166 188 0
166 187 0
168 190 0
170 193 0
170 192 0
165 186 0
164 186 0
166 189 0
168 190 0
167 190 0
170 192 0
166 190 0
168 192 0
165 189 0
167 191 0
163 187 0
167 191 0
171 194 0
164 187 0
165 188 0
164 188 0
167 191 0
165 189 0
163 187 0
168 190 0
164 187 0
163 186 0
163 186 0
164 187 0
166 189 0
160 183 0
168 190 0
164 188 0
158 182 0
166 189 0
170 192 0
164 188 0
161 185 0
168 191 0
166 188 0
166 189 0
162 185 0
165 188 0
164 187 0
157 179 0
166 188 0
165 187 0
159 182 0
157 179 0
164 187 0
163 186 0
162 184 0
168 192 0
162 184 0
163 186 0
162 184 0
159 182 0
158 181 0
163 186 0
163 186 0
160 183 0
160 183 0
162 183 0
160 182 0
153 176 0
160 181 0
159 181 0
158 181 0
168 190 0
162 184 0
157 179 0
171 192 0
160 181 0
162 184 0
156 178 0
166 188 0
158 180 0
160 182 0
159 180 0
154 176 0
148 170 0
159 180 0
160 181 0
154 176 0
157 178 0
161 183 0
161 183 0
153 175 0
156 178 0
155 177 0
157 178 0
150 171 0
153 174 0
155 177 0
158 179 0
153 174 0
154 176 0
158 179 0
158 180 0
161 184 0
154 176 0
149 172 0
145 167 0
156 177 0
163 184 0
154 176 0
153 174 0
151 172 0
149 171 0
146 168 0
153 174 0
146 168 0
153 175 0
154 175 0
136 158 0
154 175 0
144 166 0
148 169 0
155 177 0
145 167 0
150 171 0
143 165 0
143 165 0
159 180 0
152 174 0
153 175 0
151 172 0
148 169 0
144 167 0
150 172 0
152 173 0
152 173 0
154 176 0
146 169 0
145 167 0
149 171 0
143 164 0
152 174 0
158 181 0
152 174 0
152 175 0
157 179 0
150 172 0
147 169 0
154 176 0
149 173 0
156 178 0
153 174 0
156 178 0
152 175 0
146 168 0
147 168 0
150 172 0
155 176 0
148 171 0
142 163 0
146 168 0
134 156 0
145 167 0
148 169 0
143 164 0
142 163 0
144 166 0
132 152 0
137 158 0
146 167 0
140 162 0
139 160 0
140 162 0
146 167 0
129 150 0
135 156 0
142 163 0
139 160 0
138 160 0
137 158 0
142 164 0
139 160 0
132 154 0
135 155 0
136 157 0
143 163 0
143 163 0
142 163 0
148 170 0
138 160 0
132 152 0
141 162 0
140 161 0
138 159 0
138 159 0
145 166 0
142 163 0
142 164 0
130 151 0
142 163 0
143 164 0
142 164 0
143 165 0
141 162 0
145 167 0
139 160 0
133 153 0
137 157 0
138 160 0
136 158 0
133 153 0
139 161 0
142 163 0
143 164 0
148 169 0
152 173 0
144 165 0
149 170 0
139 160 0
146 167 0
138 159 0
142 163 0
141 164 0
152 173 0
137 157 0
134 155 0
135 156 0
144 165 0
140 162 0
140 161 0
134 155 0
138 159 0
146 167 0
144 165 0
140 161 0
147 169 0
133 155 0
136 157 0
144 164 0
147 169 0
150 170 0
141 163 0
151 172 0
147 169 0
141 163 0
144 166 0
143 163 0
149 168 0
145 167 0
152 174 0
143 164 0
149 170 0
148 170 0
140 162 0
156 178 0
146 168 0
151 173 0
146 167 0
150 172 0
150 172 0
153 174 0
147 168 0
161 182 0
154 176 0
154 176 0
142 164 0
144 166 0
147 168 0
152 173 0
151 172 0
153 173 0
157 178 0
141 164 0
151 172 0
149 171 0
150 172 0
144 167 0
153 175 0
149 171 0
155 176 0
149 171 0
153 174 0
143 165 0
150 173 0
152 172 0
153 175 0
161 183 0
155 178 0
151 172 0
150 172 0
150 173 0
152 174 0
149 170 0
156 178 0
153 175 0
158 180 0
156 177 0
157 178 0
160 182 0
158 179 0
154 176 0
157 180 0
164 185 0
156 178 0
155 178 0
146 169 0
161 183 0
163 184 0
157 179 0
160 182 0
155 177 0
155 177 0
160 182 0
155 177 0
157 179 0
157 178 0
156 178 0
152 175 0
155 178 0
157 179 0
158 181 0
162 184 0
160 181 0
157 177 0
155 178 0
157 178 0
159 181 0
164 186 0
155 176 0
157 179 0
157 179 0
161 184 0
156 177 0
164 186 0
151 174 0
159 182 0
164 186 0
162 185 0
167 189 0
160 183 0
166 188 0
162 184 0
159 182 0
158 180 0
166 189 0
166 188 0
162 182 0
163 185 0
159 180 0
164 186 0
160 182 0
161 184 0
159 181 0
159 180 0
161 183 0
162 184 0
164 186 0
165 188 0
162 183 0
163 185 0
167 190 0
165 187 0
163 183 0
163 187 0
166 188 0
161 182 0
166 189 0
165 187 0
164 185 0
172 194 0
166 189 0
164 186 0
164 186 0
167 190 0
164 187 0
164 185 0
165 186 0
162 184 0
164 187 0
168 191 0
164 187 0
167 190 0
165 187 0
161 184 0
161 182 0
166 189 0
170 193 0
163 185 0
164 186 0
165 186 0
163 187 0
167 190 0
165 187 0
165 188 0
161 182 0
166 187 0
163 186 0
167 189 0
167 190 0
167 190 0
166 189 0
160 182 0
161 182 0
166 190 0
168 190 0
164 187 0
168 190 0
169 191 0
167 189 0
163 186 0
166 189 0
167 190 0
171 194 0
169 192 0
166 190 0
170 194 0
168 191 0
166 189 0
165 188 0
169 192 0
169 192 0
168 191 0
164 188 0
166 189 0
170 194 0
166 189 0
170 193 0
168 191 0
169 192 0
166 189 0
170 193 0
168 191 0
168 190 0
163 186 0
159 183 0
169 191 0
164 187 0
166 189 0
167 189 0
162 185 0
166 188 0
165 187 0
169 191 0
167 190 0
164 188 0
166 188 0
164 187 0
165 188 0
161 183 0
165 188 0
163 185 0
163 185 0
162 185 0
167 189 0
159 181 0
164 187 0
164 186 0
167 190 0
170 192 0
166 187 0
160 183 0
165 187 0
169 192 0
160 183 0
165 187 0
167 190 0
154 176 0
163 186 0
166 188 0
160 183 0
162 184 0
159 181 0
154 175 0
158 180 0
162 183 0
159 181 0
158 180 0
157 179 0
159 181 0
162 184 0
162 182 0
154 174 0
153 175 0
156 177 0
152 175 0
161 183 0
157 179 0
157 180 0
157 179 0
168 190 0
153 174 0
157 179 0
155 176 0
160 182 0
161 182 0
157 179 0
163 185 0
148 169 0
156 178 0
151 174 0
156 178 0
149 170 0
147 168 0
157 179 0
146 167 0
156 178 0
154 176 0
150 171 0
149 170 0
146 168 0
156 177 0
159 181 0
148 170 0
150 172 0
150 171 0
151 174 0
153 175 0
148 170 0
150 171 0
149 170 0
155 177 0
151 171 0
143 165 0
145 166 0
152 173 0
139 161 0
155 176 0
145 166 0
144 166 0
148 170 0
141 162 0
153 174 0
152 174 0
145 168 0
142 163 0
153 175 0
147 168 0
151 174 0
150 172 0
152 173 0
149 171 0
149 171 0
148 169 0
159 182 0
147 168 0
147 169 0
157 179 0
152 175 0
157 179 0
147 169 0
155 177 0
152 175 0
149 171 0
154 176 0
146 169 0
153 175 0
151 173 0
153 175 0
151 173 0
145 168 0
151 172 0
154 175 0
146 167 0
141 164 0
155 176 0
138 159 0
133 153 0
142 163 0
151 172 0
153 175 0
139 160 0
151 172 0
142 162 0
140 161 0
143 164 0
138 160 0
144 164 0
142 163 0
145 167 0
133 153 0
140 160 0
140 162 0
140 162 0
147 168 0
141 162 0
139 161 0
146 167 0
144 166 0
142 164 0
140 162 0
140 161 0
146 167 0
136 156 0
135 156 0
142 164 0
142 164 0
141 162 0
143 165 0
150 171 0
145 165 0
139 160 0
144 165 0
148 168 0
145 165 0
139 160 0
137 157 0
147 169 0
137 158 0
147 169 0
139 160 0
138 158 0
140 161 0
135 156 0
142 164 0
139 161 0
140 159 0
137 158 0
138 158 0
137 158 0
131 153 0
149 170 0
143 164 0
143 164 0
146 168 0
139 160 0
148 169 0
146 167 0
139 160 0
137 158 0
141 162 0
142 164 0
142 163 0
142 165 0
147 168 0
142 163 0
144 166 0
143 163 0
151 173 0
147 168 0
138 160 0
144 164 0
145 166 0
145 166 0
146 167 0
151 173 0
149 170 0
135 156 0
143 164 0
148 170 0
148 168 0
149 171 0
144 166 0
152 174 0
151 172 0
144 166 0
150 171 0
151 173 0
152 176 0
146 169 0
146 168 0
148 170 0
142 164 0
156 176 0
149 171 0
152 174 0
143 167 0
143 164 0
150 173 0
147 169 0
150 172 0
151 172 0
147 170 0
157 179 0
146 167 0
158 179 0
153 175 0
139 160 0
151 173 0
158 180 0
154 175 0
151 172 0
155 178 0
157 179 0
159 181 0
155 177 0
158 180 0
159 182 0
158 180 0
145 167 0
159 181 0
149 170 0
158 180 0
148 170 0
158 180 0
158 181 0
161 184 0
152 175 0
151 174 0
161 182 0
153 176 0
158 180 0
150 172 0
153 176 0
157 179 0
155 177 0
158 181 0
153 174 0
160 181 0
155 176 0
157 179 0
159 181 0
161 182 0
160 181 0
157 179 0
154 175 0
157 180 0
156 178 0
154 176 0
156 177 0
160 180 0
161 182 0
155 176 0
162 183 0
158 181 0
160 181 0
161 182 0
162 184 0
161 184 0
159 181 0
157 179 0
156 178 0
161 183 0
162 184 0
154 177 0
160 182 0
158 181 0
165 187 0
161 184 0
158 180 0
153 175 0
161 184 0
165 186 0
163 184 0
160 182 0
160 181 0
163 184 0
161 182 0
159 180 0
159 180 0
156 179 0
160 183 0
158 180 0
161 184 0
164 186 0
162 184 0
165 186 0
159 179 0
165 187 0
163 184 0
165 187 0
161 184 0
164 187 0
158 180 0
168 190 0
160 182 0
166 189 0
162 185 0
168 191 0
163 186 0
166 188 0
167 189 0
163 184 0
166 187 0
164 186 0
164 187 0
169 191 0
164 185 0
165 187 0
168 192 0
166 188 0
165 187 0
164 185 0
166 188 0
162 184 0
165 187 0
164 187 0
167 190 0
163 186 0
165 187 0
170 193 0
165 188 0
165 188 0
166 187 0
166 188 0
166 188 0
167 189 0
165 186 0
169 191 0
164 186 0
171 195 0
167 190 0
166 189 0
164 187 0
169 191 0
168 189 0
162 186 0
163 185 0
168 190 0
170 192 0
168 191 0
165 187 0
165 187 0
168 191 0
167 190 0
170 193 0
163 187 0
167 190 0
166 189 0
172 194 0
169 192 0
168 191 0
166 189 0
166 190 0
169 192 0
169 193 0
165 189 0
161 183 0
167 189 0
166 190 0
165 187 0
164 187 0
170 193 0
167 190 0
163 187 0
163 186 0
168 191 0
164 187 0
166 189 0
165 187 0
158 182 0
164 187 0
165 188 0
165 188 0
164 187 0
164 187 0
162 185 0
162 185 0
160 183 0
159 182 0
164 187 0
165 188 0
160 183 0
167 190 0
165 187 0
167 190 0
158 181 0
165 188 0
163 186 0
160 182 0
163 185 0
163 186 0
160 183 0
163 185 0
157 179 0
159 181 0
162 184 0
164 187 0
160 182 0
159 182 0
171 193 0
160 183 0
159 181 0
163 185 0
166 187 0
159 181 0
163 185 0
158 179 0
162 184 0
157 179 0
150 172 0
161 184 0
158 180 0
159 181 0
159 180 0
155 177 0
157 179 0
150 172 0
162 184 0
161 183 0
155 176 0
152 174 0
156 177 0
151 173 0
151 172 0
147 168 0
158 180 0
153 175 0
158 179 0
154 176 0
154 175 0
144 166 0
151 172 0
166 187 0
151 172 0
154 175 0
146 167 0
153 175 0
144 166 0
144 166 0
154 174 0
155 177 0
150 171 0
154 177 0
149 170 0
154 176 0
150 171 0
147 167 0
154 176 0
151 174 0
153 174 0
146 168 0
143 165 0
157 178 0
143 164 0
141 163 0
144 165 0
146 167 0
149 170 0
148 170 0
147 169 0
147 168 0
140 162 0
153 174 0
151 173 0
144 165 0
149 171 0
153 176 0
154 176 0
152 175 0
146 168 0
158 181 0
151 174 0
151 173 0
155 177 0
151 173 0
154 176 0
152 174 0
149 171 0
155 178 0
151 174 0
151 174 0
149 171 0
145 168 0
147 169 0
161 183 0
153 176 0
157 180 0
148 170 0
160 183 0
158 180 0
144 166 0
145 167 0
158 179 0
151 173 0
143 164 0
142 165 0
142 163 0
144 166 0
140 162 0
140 161 0
144 166 0
143 164 0
150 171 0
149 170 0
144 164 0
145 168 0
143 165 0
142 162 0
143 165 0
139 161 0
138 160 0
151 172 0
137 157 0
145 166 0
134 155 0
141 162 0
145 166 0
141 162 0
145 166 0
138 160 0
141 163 0
149 170 0
144 165 0
146 167 0
140 161 0
143 162 0
136 157 0
141 161 0
153 175 0
144 165 0
145 167 0
142 164 0
129 150 0
139 160 0
136 157 0
142 163 0
146 168 0
142 163 0
137 157 0
139 161 0
139 160 0
141 161 0
139 161 0
145 167 0
143 165 0
140 160 0
143 165 0
145 166 0
146 167 0
140 162 0
156 177 0
136 158 0
141 163 0
148 169 0
146 168 0
141 161 0
142 163 0
151 171 0
145 166 0
146 169 0
134 154 0
145 166 0
148 171 0
154 175 0
144 166 0
150 173 0
147 169 0
149 170 0
153 174 0
147 168 0
148 169 0
146 166 0
144 166 0
139 161 0
154 175 0
147 169 0
141 162 0
148 169 0
144 166 0
144 166 0
148 169 0
145 167 0
153 174 0
147 169 0
145 166 0
154 176 0
147 169 0
145 167 0
151 173 0
154 176 0
146 167 0
152 174 0
157 178 0
154 175 0
153 175 0
152 173 0
144 165 0
149 171 0
142 164 0
148 171 0
154 176 0
143 163 0
152 174 0
159 181 0
155 176 0
155 177 0
157 180 0
148 169 0
152 175 0
160 183 0
154 175 0
149 171 0
152 174 0
158 181 0
157 179 0
150 172 0
155 178 0
155 177 0
152 173 0
154 177 0
152 173 0
157 180 0
151 172 0
155 176 0
153 176 0
162 185 0
160 181 0
155 178 0
158 180 0
162 181 0
154 176 0
159 181 0
155 178 0
163 184 0
161 183 0
156 178 0
156 179 0
158 180 0
158 178 0
155 177 0
155 178 0
158 179 0
151 172 0
160 183 0
154 175 0
156 177 0
161 183 0
160 181 0
154 176 0
161 183 0
155 177 0
156 177 0
162 186 0
158 181 0
155 177 0
160 182 0
159 180 0
160 181 0
158 179 0
160 182 0
164 186 0
158 180 0
165 187 0
163 185 0
163 185 0
160 182 0
163 185 0
159 180 0
162 183 0
162 185 0
159 181 0
160 183 0
164 186 0
161 183 0
161 182 0
164 185 0
157 179 0
158 179 0
166 189 0
165 188 0
160 181 0
160 183 0
164 187 0
160 182 0
162 183 0
167 188 0
165 188 0
161 183 0
162 184 0
163 186 0
160 183 0
167 188 0
161 182 0
164 186 0
166 188 0
161 182 0
163 186 0
168 190 0
165 187 0
161 184 0
163 185 0
162 185 0
164 186 0
161 184 0
164 184 0
164 187 0
168 190 0
168 189 0
164 186 0
166 188 0
161 183 0
161 184 0
166 188 0
165 187 0
163 184 0
165 187 0
163 185 0
165 188 0
162 182 0
161 182 0
165 186 0
167 190 0
168 190 0
164 186 0
167 187 0
165 187 0
164 186 0
170 193 0
167 188 0
168 190 0
167 190 0
161 184 0
165 186 0
165 188 0
164 186 0
166 189 0
166 189 0
165 187 0
170 192 0
164 186 0
164 185 0
162 183 0
166 189 0
171 193 0
168 192 0
169 192 0
166 190 0
166 189 0
170 193 0
172 195 0
169 192 0
167 191 0
172 195 0
167 190 0
167 190 0
160 183 0
168 190 0
167 190 0
166 189 0
167 189 0
167 189 0
164 186 0
170 193 0
168 191 0
167 190 0
165 188 0
167 191 0
164 187 0
168 192 0
161 184 0
166 188 0
163 185 0
162 185 0
170 192 0
164 187 0
162 185 0
164 187 0
164 187 0
166 188 0
160 183 0
161 184 0
158 180 0
156 179 0
166 188 0
157 179 0
170 193 0
166 188 0
165 187 0
164 186 0
167 190 0
166 188 0
160 181 0
165 188 0
164 187 0
165 187 0
159 182 0
163 184 0
155 177 0
161 183 0
160 183 0
158 180 0
157 178 0
161 183 0
157 179 0
165 188 0
155 177 0
160 182 0
154 176 0
158 180 0
159 180 0
161 183 0
155 176 0
162 184 0
153 174 0
155 177 0
163 184 0
157 179 0
152 173 0
157 179 0
160 182 0
154 176 0
156 178 0
153 174 0
154 176 0
159 180 0
157 179 0
160 182 0
159 181 0
157 179 0
152 174 0
157 179 0
158 179 0
148 170 0
155 176 0
153 174 0
164 186 0
150 171 0
156 177 0
153 173 0
156 177 0
155 177 0
151 172 0
156 177 0
150 172 0
153 175 0
155 177 0
149 170 0
156 178 0
153 174 0
151 172 0
148 170 0
152 173 0
156 177 0
152 173 0
153 175 0
147 169 0
148 170 0
147 168 0
146 169 0
151 172 0
150 172 0
160 181 0
151 173 0
153 175 0
142 164 0
153 174 0
160 182 0
146 169 0
150 173 0
146 169 0
151 173 0
161 183 0
151 172 0
150 171 0
150 172 0
153 175 0
157 179 0
147 169 0
151 174 0
154 176 0
149 171 0
160 182 0
157 180 0
149 171 0
150 173 0
155 177 0
146 168 0
145 166 0
149 170 0
137 159 0
143 163 0
151 172 0
144 167 0
139 161 0
138 160 0
143 165 0
139 160 0
144 165 0
146 168 0
143 164 0
137 158 0
145 166 0
146 167 0
145 166 0
152 173 0
146 167 0
143 165 0
144 166 0
138 159 0
141 163 0
141 163 0
144 165 0
145 166 0
133 154 0
142 164 0
145 166 0
136 158 0
143 163 0
142 164 0
135 158 0
139 161 0
147 168 0
138 159 0
147 168 0
152 175 0
143 163 0
137 159 0
145 167 0
144 165 0
140 161 0
141 162 0
145 168 0
135 156 0
140 160 0
138 160 0
143 165 0
152 173 0
133 154 0
145 166 0
136 158 0
140 162 0
142 163 0
155 177 0
136 156 0
139 160 0
144 166 0
141 162 0
139 161 0
143 164 0
139 159 0
139 160 0
141 162 0
135 156 0
148 169 0
141 164 0
143 164 0
145 167 0
141 163 0
151 173 0
149 171 0
148 168 0
139 161 0
143 165 0
149 170 0
146 168 0
144 164 0
139 159 0
155 176 0
140 161 0
147 167 0
149 171 0
149 170 0
149 172 0
148 170 0
143 165 0
146 167 0
143 166 0
147 168 0
146 167 0
149 171 0
140 163 0
151 172 0
154 176 0
150 172 0
156 177 0
156 178 0
150 173 0
143 164 0
151 172 0
146 168 0
150 171 0
149 170 0
146 168 0
156 178 0
147 168 0
153 174 0
156 178 0
157 180 0
143 165 0
156 177 0
158 179 0
149 170 0
151 172 0
149 172 0
151 172 0
161 183 0
152 175 0
156 178 0
155 177 0
159 181 0
149 171 0
157 179 0
149 169 0
153 175 0
151 173 0
154 176 0
157 181 0
156 178 0
154 177 0
157 179 0
162 184 0
154 176 0
155 176 0
152 174 0
148 171 0
157 181 0
151 174 0
159 181 0
150 171 0
156 177 0
152 173 0
157 179 0
156 177 0
156 180 0
156 178 0
159 181 0
158 179 0
156 178 0
159 180 0
157 180 0
155 178 0
154 176 0
161 184 0
159 180 0
161 182 0
156 178 0
163 185 0
160 182 0
163 185 0
159 180 0
161 182 0
160 182 0
158 179 0
160 182 0
158 181 0
156 179 0
161 184 0
163 185 0
162 183 0
164 186 0
161 183 0
166 188 0
159 180 0
163 186 0
160 182 0
158 181 0
165 186 0
153 175 0
160 183 0
159 181 0
159 181 0
165 186 0
165 188 0
161 183 0
163 185 0
157 179 0
166 188 0
163 185 0
163 187 0
165 187 0
162 183 0
164 186 0
162 184 0
159 182 0
157 178 0
161 183 0
163 186 0
164 187 0
166 188 0
159 181 0
162 185 0
163 186 0
163 186 0
166 189 0
158 180 0
167 188 0
167 189 0
165 186 0
163 186 0
166 189 0
162 184 0
164 186 0
167 189 0
165 187 0
157 178 0
163 186 0
165 188 0
166 189 0
162 184 0
165 187 0
169 191 0
171 193 0
166 188 0
166 188 0
164 185 0
165 187 0
167 190 0
162 185 0
168 191 0
163 186 0
169 191 0
170 193 0
166 189 0
164 186 0
165 188 0
163 184 0
157 179 0
168 190 0
167 189 0
171 193 0
168 190 0
166 188 0
166 189 0
163 185 0
168 190 0
167 190 0
166 188 0
165 188 0
168 191 0
166 188 0
169 192 0
168 190 0
166 189 0
168 189 0
170 193 0
