P3
400 225
255
163 200 255
163 200 255
163 200 255
163 200 255
163 200 255
163 200 255
163 200 255
163 200 255
163 200 255
163 200 255
163 200 255
162 200 255
162 200 255
162 200 255
162 199 255
162 199 255
162 199 255
162 199 255
162 199 255
162 199 255
162 199 255
161 199 255
161 199 255
161 199 255
161 199 255
161 199 255
161 199 255
161 199 255
161 199 255
161 199 255
161 199 255
161 199 255
160 198 255
160 198 255
160 198 255
160 198 255
160 198 255
160 198 255
160 198 255
160 198 255
160 198 255
160 198 255
159 198 255
159 198 255
159 198 255
159 198 255
159 198 255
159 198 255
159 197 255
159 197 255
159 197 255
159 197 255
158 197 255
158 197 255
158 197 255
158 197 255
158 197 255
158 197 255
158 197 255
158 197 255
158 197 255
157 197 255
157 197 255
157 197 255
157 196 255
157 196 255
157 196 255
157 196 255
157 196 255
157 196 255
157 196 255
156 196 255
156 196 255
156 196 255
156 196 255
156 196 255
156 196 255
156 196 255
156 196 255
156 196 255
155 195 255
155 195 255
155 195 255
155 195 255
155 195 255
155 195 255
155 195 255
155 195 255
155 195 255
154 195 255
154 195 255
154 195 255
154 195 255
154 195 255
154 195 255
154 194 255
154 194 255
154 194 255
153 194 255
153 194 255
153 194 255
153 194 255
153 194 255
153 194 255
153 194 255
153 194 255
153 194 255
152 194 255
152 194 255
152 194 255
152 193 255
152 193 255
152 193 255
152 193 255
152 193 255
152 193 255
152 193 255
151 193 255
151 193 255
151 193 255
151 193 255
151 193 255
151 193 255
151 193 255
151 193 255
151 193 255
151 193 255
150 192 255
150 192 255
150 192 255
150 192 255
150 192 255
150 192 255
150 192 255
150 192 255
150 192 255
150 192 255
149 192 255
149 192 255
149 192 255
149 192 255
149 192 255
149 192 255
149 192 255
149 192 255
149 191 255
149 191 255
149 191 255
149 191 255
148 191 255
148 191 255
148 191 255
148 191 255
148 191 255
148 191 255
148 191 255
148 191 255
148 191 255
148 191 255
148 191 255
148 191 255
148 191 255
148 191 255
148 191 255
147 191 255
147 191 255
147 191 255
147 191 255
147 191 255
147 190 255
147 190 255
147 190 255
147 190 255
147 190 255
147 190 255
147 190 255
147 190 255
147 190 255
147 190 255
147 190 255
147 190 255
147 190 255
147 190 255
147 190 255
147 190 255
147 190 255
147 190 255
146 190 255
146 190 255
146 190 255
146 190 255
146 190 255
146 190 255
146 190 255
146 190 255
146 190 255
146 190 255
146 190 255
146 190 255
146 190 255
146 190 255
146 190 255
146 190 255
146 190 255
146 190 255
146 190 255
146 190 255
146 190 255
146 190 255
146 190 255
146 190 255
146 190 255
146 190 255
147 190 255
147 190 255
147 190 255
147 190 255
147 190 255
147 190 255
147 190 255
147 190 255
147 190 255
147 190 255
147 190 255
147 190 255
147 190 255
147 190 255
147 190 255
147 190 255
147 190 255
147 190 255
147 191 255
147 191 255
147 191 255
147 191 255
147 191 255
147 191 255
148 191 255
148 191 255
148 191 255
148 191 255
148 191 255
148 191 255
148 191 255
148 191 255
148 191 255
148 191 255
148 191 255
148 191 255
148 191 255
148 191 255
149 191 255
149 191 255
149 191 255
149 191 255
149 192 255
149 192 255
149 192 255
149 192 255
149 192 255
149 192 255
149 192 255
149 192 255
150 192 255
150 192 255
150 192 255
150 192 255
150 192 255
150 192 255
150 192 255
150 192 255
150 192 255
150 192 255
151 193 255
151 193 255
151 193 255
151 193 255
151 193 255
151 193 255
151 193 255
151 193 255
151 193 255
151 193 255
152 193 255
152 193 255
152 193 255
152 193 255
152 193 255
152 193 255
152 194 255
152 194 255
152 194 255
152 194 255
153 194 255
153 194 255
153 194 255
153 194 255
153 194 255
153 194 255
153 194 255
153 194 255
153 194 255
154 194 255
154 194 255
154 194 255
154 195 255
154 195 255
154 195 255
154 195 255
154 195 255
154 195 255
155 195 255
155 195 255
155 195 255
155 195 255
155 195 255
155 195 255
155 195 255
155 195 255
155 195 255
156 196 255
156 196 255
156 196 255
156 196 255
156 196 255
156 196 255
156 196 255
156 196 255
156 196 255
157 196 255
157 196 255
157 196 255
157 196 255
157 196 255
157 196 255
157 196 255
157 197 255
157 197 255
157 197 255
158 197 255
158 197 255
158 197 255
158 197 255
158 197 255
158 197 255
158 197 255
158 197 255
158 197 255
159 197 255
159 197 255
159 197 255
159 198 255
159 198 255
159 198 255
159 198 255
159 198 255
159 198 255
159 198 255
160 198 255
160 198 255
160 198 255
160 198 255
160 198 255
160 198 255
160 198 255
160 198 255
160 198 255
160 198 255
161 199 255
161 199 255
161 199 255
161 199 255
161 199 255
161 199 255
161 199 255
161 199 255
161 199 255
161 199 255
162 199 255
162 199 255
162 199 255
162 199 255
162 199 255
162 199 255
162 199 255
162 199 255
162 200 255
162 200 255
162 200 255
163 200 255
163 200 255
163 200 255
163 200 255
163 200 255
163 200 255
163 200 255
163 200 255
163 200 255
163 200 255
163 200 255
164 200 255
164 200 255
163 200 255
163 200 255
163 200 255
163 200 255
163 200 255
163 200 255
163 200 255
163 200 255
163 200 255
163 200 255
163 200 255
162 200 255
162 200 255
162 200 255
162 200 255
162 199 255
162 199 255
162 199 255
162 199 255
162 199 255
162 199 255
162 199 255
161 199 255
161 199 255
161 199 255
161 199 255
161 199 255
161 199 255
161 199 255
161 199 255
161 199 255
161 199 255
160 198 255
160 198 255
160 198 255
160 198 255
160 198 255
160 198 255
160 198 255
160 198 255
160 198 255
160 198 255
159 198 255
159 198 255
159 198 255
159 198 255
159 198 255
159 198 255
159 198 255
159 197 255
159 197 255
159 197 255
158 197 255
158 197 255
158 197 255
158 197 255
158 197 255
158 197 255
158 197 255
158 197 255
158 197 255
158 197 255
157 197 255
157 197 255
157 196 255
157 196 255
157 196 255
157 196 255
157 196 255
157 196 255
157 196 255
156 196 255
156 196 255
156 196 255
156 196 255
156 196 255
156 196 255
156 196 255
156 196 255
156 196 255
155 195 255
155 195 255
155 195 255
155 195 255
155 195 255
155 195 255
155 195 255
155 195 255
155 195 255
154 195 255
154 195 255
154 195 255
154 195 255
154 195 255
154 195 255
154 194 255
154 194 255
154 194 255
153 194 255
153 194 255
153 194 255
153 194 255
153 194 255
153 194 255
153 194 255
153 194 255
153 194 255
153 194 255
152 194 255
152 194 255
152 194 255
152 193 255
152 193 255
152 193 255
152 193 255
152 193 255
152 193 255
151 193 255
151 193 255
151 193 255
151 193 255
151 193 255
151 193 255
151 193 255
151 193 255
151 193 255
151 193 255
150 192 255
150 192 255
150 192 255
150 192 255
150 192 255
150 192 255
150 192 255
150 192 255
150 192 255
150 192 255
150 192 255
149 192 255
149 192 255
149 192 255
149 192 255
149 192 255
149 192 255
149 192 255
149 192 255
149 191 255
149 191 255
149 191 255
149 191 255
148 191 255
148 191 255
148 191 255
148 191 255
148 191 255
148 191 255
148 191 255
148 191 255
148 191 255
148 191 255
148 191 255
148 191 255
148 191 255
148 191 255
148 191 255
147 191 255
147 191 255
147 191 255
147 191 255
147 191 255
147 191 255
147 191 255
147 190 255
147 190 255
147 190 255
147 190 255
147 190 255
147 190 255
147 190 255
147 190 255
147 190 255
147 190 255
147 190 255
147 190 255
147 190 255
147 190 255
147 190 255
147 190 255
147 190 255
147 190 255
147 190 255
147 190 255
147 190 255
147 190 255
147 190 255
147 190 255
147 190 255
147 190 255
147 190 255
147 190 255
147 190 255
147 190 255
147 190 255
147 190 255
147 190 255
147 190 255
147 190 255
147 190 255
147 190 255
147 190 255
147 190 255
147 190 255
147 190 255
147 190 255
147 190 255
147 190 255
147 190 255
147 190 255
147 190 255
147 190 255
147 190 255
147 190 255
147 190 255
147 190 255
147 191 255
147 191 255
147 191 255
147 191 255
147 191 255
147 191 255
147 191 255
148 191 255
148 191 255
148 191 255
148 191 255
148 191 255
148 191 255
148 191 255
148 191 255
148 191 255
148 191 255
148 191 255
148 191 255
148 191 255
148 191 255
148 191 255
149 191 255
149 191 255
149 191 255
149 191 255
149 191 255
149 192 255
149 192 255
149 192 255
149 192 255
149 192 255
149 192 255
149 192 255
150 192 255
150 192 255
150 192 255
150 192 255
150 192 255
150 192 255
150 192 255
150 192 255
150 192 255
150 192 255
150 192 255
151 193 255
151 193 255
151 193 255
151 193 255
151 193 255
151 193 255
151 193 255
151 193 255
151 193 255
151 193 255
152 193 255
152 193 255
152 193 255
152 193 255
152 193 255
152 193 255
152 194 255
152 194 255
152 194 255
152 194 255
153 194 255
153 194 255
153 194 255
153 194 255
153 194 255
153 194 255
153 194 255
153 194 255
153 194 255
154 194 255
154 194 255
154 194 255
154 195 255
154 195 255
154 195 255
154 195 255
154 195 255
154 195 255
155 195 255
155 195 255
155 195 255
155 195 255
155 195 255
155 195 255
155 195 255
155 195 255
155 195 255
156 196 255
156 196 255
156 196 255
156 196 255
156 196 255
156 196 255
156 196 255
156 196 255
156 196 255
157 196 255
157 196 255
157 196 255
157 196 255
157 196 255
157 196 255
157 196 255
157 197 255
157 197 255
157 197 255
158 197 255
158 197 255
158 197 255
158 197 255
158 197 255
158 197 255
158 197 255
158 197 255
158 197 255
159 197 255
159 197 255
159 197 255
159 198 255
159 198 255
159 198 255
159 198 255
159 198 255
159 198 255
159 198 255
160 198 255
160 198 255
160 198 255
160 198 255
160 198 255
160 198 255
160 198 255
160 198 255
160 198 255
160 198 255
161 199 255
161 199 255
161 199 255
161 199 255
161 199 255
161 199 255
161 199 255
161 199 255
161 199 255
161 199 255
162 199 255
162 199 255
162 199 255
162 199 255
162 199 255
162 199 255
162 199 255
162 199 255
162 200 255
162 200 255
162 200 255
163 200 255
163 200 255
163 200 255
163 200 255
163 200 255
163 200 255
163 200 255
163 200 255
163 200 255
163 200 255
163 200 255
164 200 255
164 200 255
164 200 255
164 200 255
164 200 255
164 200 255
163 200 255
163 200 255
163 200 255
163 200 255
163 200 255
163 200 255
163 200 255
163 200 255
163 200 255
163 200 255
163 200 255
162 200 255
162 200 255
162 200 255
162 200 255
162 199 255
162 199 255
162 199 255
162 199 255
162 199 255
162 199 255
162 199 255
161 199 255
161 199 255
161 199 255
161 199 255
161 199 255
161 199 255
161 199 255
161 199 255
161 199 255
161 199 255
160 198 255
160 198 255
160 198 255
160 198 255
160 198 255
160 198 255
160 198 255
160 198 255
160 198 255
160 198 255
159 198 255
159 198 255
159 198 255
159 198 255
159 198 255
159 198 255
159 198 255
159 197 255
159 197 255
159 197 255
158 197 255
158 197 255
158 197 255
158 197 255
158 197 255
158 197 255
158 197 255
158 197 255
158 197 255
158 197 255
157 197 255
157 197 255
157 196 255
157 196 255
157 196 255
157 196 255
157 196 255
157 196 255
157 196 255
156 196 255
156 196 255
156 196 255
156 196 255
156 196 255
156 196 255
156 196 255
156 196 255
156 196 255
155 195 255
155 195 255
155 195 255
155 195 255
155 195 255
155 195 255
155 195 255
155 195 255
155 195 255
154 195 255
154 195 255
154 195 255
154 195 255
154 195 255
154 195 255
154 194 255
154 194 255
154 194 255
153 194 255
153 194 255
153 194 255
153 194 255
153 194 255
153 194 255
153 194 255
153 194 255
153 194 255
153 194 255
152 194 255
152 194 255
152 194 255
152 193 255
152 193 255
152 193 255
152 193 255
152 193 255
152 193 255
151 193 255
151 193 255
151 193 255
151 193 255
151 193 255
151 193 255
151 193 255
151 193 255
151 193 255
151 193 255
150 192 255
150 192 255
150 192 255
150 192 255
150 192 255
150 192 255
150 192 255
150 192 255
150 192 255
150 192 255
150 192 255
149 192 255
149 192 255
149 192 255
149 192 255
149 192 255
149 192 255
149 192 255
149 192 255
149 191 255
149 191 255
149 191 255
149 191 255
149 191 255
148 191 255
148 191 255
148 191 255
148 191 255
148 191 255
148 191 255
148 191 255
148 191 255
148 191 255
148 191 255
148 191 255
148 191 255
148 191 255
148 191 255
148 191 255
148 191 255
147 191 255
147 191 255
147 191 255
147 191 255
147 191 255
147 191 255
147 191 255
147 191 255
147 190 255
147 190 255
147 190 255
147 190 255
147 190 255
147 190 255
147 190 255
147 190 255
147 190 255
147 190 255
147 190 255
147 190 255
147 190 255
147 190 255
147 190 255
147 190 255
147 190 255
147 190 255
147 190 255
147 190 255
147 190 255
147 190 255
147 190 255
147 190 255
147 190 255
147 190 255
147 190 255
147 190 255
147 190 255
147 190 255
147 190 255
147 190 255
147 190 255
147 190 255
147 190 255
147 190 255
147 190 255
147 190 255
147 190 255
147 190 255
147 190 255
147 190 255
147 190 255
147 191 255
147 191 255
147 191 255
147 191 255
147 191 255
147 191 255
147 191 255
148 191 255
148 191 255
148 191 255
148 191 255
148 191 255
148 191 255
148 191 255
148 191 255
148 191 255
148 191 255
148 191 255
148 191 255
148 191 255
148 191 255
148 191 255
148 191 255
149 191 255
149 191 255
149 191 255
149 191 255
149 191 255
149 192 255
149 192 255
149 192 255
149 192 255
149 192 255
149 192 255
149 192 255
149 192 255
150 192 255
150 192 255
150 192 255
150 192 255
150 192 255
150 192 255
150 192 255
150 192 255
150 192 255
150 192 255
150 192 255
151 193 255
151 193 255
151 193 255
151 193 255
151 193 255
151 193 255
151 193 255
151 193 255
151 193 255
151 193 255
152 193 255
152 193 255
152 193 255
152 193 255
152 193 255
152 193 255
152 194 255
152 194 255
152 194 255
153 194 255
153 194 255
153 194 255
153 194 255
153 194 255
153 194 255
153 194 255
153 194 255
153 194 255
153 194 255
154 194 255
154 194 255
154 194 255
154 195 255
154 195 255
154 195 255
154 195 255
154 195 255
154 195 255
155 195 255
155 195 255
155 195 255
155 195 255
155 195 255
155 195 255
155 195 255
155 195 255
155 195 255
156 196 255
156 196 255
156 196 255
156 196 255
156 196 255
156 196 255
156 196 255
156 196 255
156 196 255
157 196 255
157 196 255
157 196 255
157 196 255
157 196 255
157 196 255
157 197 255
157 197 255
157 197 255
157 197 255
158 197 255
158 197 255
158 197 255
158 197 255
158 197 255
158 197 255
158 197 255
158 197 255
158 197 255
159 197 255
159 197 255
159 197 255
159 198 255
159 198 255
159 198 255
159 198 255
159 198 255
159 198 255
159 198 255
160 198 255
160 198 255
160 198 255
160 198 255
160 198 255
160 198 255
160 198 255
160 198 255
160 198 255
160 198 255
161 199 255
161 199 255
161 199 255
161 199 255
161 199 255
161 199 255
161 199 255
161 199 255
161 199 255
161 199 255
162 199 255
162 199 255
162 199 255
162 199 255
162 199 255
162 199 255
162 199 255
162 200 255
162 200 255
162 200 255
162 200 255
163 200 255
163 200 255
163 200 255
163 200 255
163 200 255
163 200 255
163 200 255
163 200 255
163 200 255
163 200 255
163 200 255
164 200 255
164 200 255
164 200 255
164 200 255
164 201 255
164 201 255
164 200 255
164 200 255
164 200 255
164 200 255
163 200 255
163 200 255
163 200 255
163 200 255
163 200 255
163 200 255
163 200 255
163 200 255
163 200 255
163 200 255
163 200 255
162 200 255
162 200 255
162 200 255
162 200 255
162 199 255
162 199 255
162 199 255
162 199 255
162 199 255
162 199 255
162 199 255
161 199 255
161 199 255
161 199 255
161 199 255
161 199 255
161 199 255
161 199 255
161 199 255
161 199 255
161 199 255
160 198 255
160 198 255
160 198 255
160 198 255
160 198 255
160 198 255
160 198 255
160 198 255
160 198 255
160 198 255
159 198 255
159 198 255
159 198 255
159 198 255
159 198 255
159 198 255
159 198 255
159 197 255
159 197 255
159 197 255
158 197 255
158 197 255
158 197 255
158 197 255
158 197 255
158 197 255
158 197 255
158 197 255
158 197 255
158 197 255
157 197 255
157 197 255
157 197 255
157 196 255
157 196 255
157 196 255
157 196 255
157 196 255
157 196 255
156 196 255
156 196 255
156 196 255
156 196 255
156 196 255
156 196 255
156 196 255
156 196 255
156 196 255
155 195 255
155 195 255
155 195 255
155 195 255
155 195 255
155 195 255
155 195 255
155 195 255
155 195 255
154 195 255
154 195 255
154 195 255
154 195 255
154 195 255
154 195 255
154 194 255
154 194 255
154 194 255
153 194 255
153 194 255
153 194 255
153 194 255
153 194 255
153 194 255
153 194 255
153 194 255
153 194 255
153 194 255
152 194 255
152 194 255
152 194 255
152 193 255
152 193 255
152 193 255
152 193 255
152 193 255
152 193 255
151 193 255
151 193 255
151 193 255
151 193 255
151 193 255
151 193 255
151 193 255
151 193 255
151 193 255
151 193 255
150 192 255
150 192 255
150 192 255
150 192 255
150 192 255
150 192 255
150 192 255
150 192 255
150 192 255
150 192 255
150 192 255
150 192 255
149 192 255
149 192 255
149 192 255
149 192 255
149 192 255
149 192 255
149 192 255
149 192 255
149 191 255
149 191 255
149 191 255
149 191 255
149 191 255
148 191 255
148 191 255
148 191 255
148 191 255
148 191 255
148 191 255
148 191 255
148 191 255
148 191 255
148 191 255
148 191 255
148 191 255
148 191 255
148 191 255
148 191 255
148 191 255
148 191 255
147 191 255
147 191 255
147 191 255
147 191 255
147 191 255
147 191 255
147 191 255
147 191 255
147 191 255
147 191 255
147 190 255
147 190 255
147 190 255
147 190 255
147 190 255
147 190 255
147 190 255
147 190 255
147 190 255
147 190 255
147 190 255
147 190 255
147 190 255
147 190 255
147 190 255
147 190 255
147 190 255
147 190 255
147 190 255
147 190 255
147 190 255
147 190 255
147 190 255
147 190 255
147 190 255
147 190 255
147 190 255
147 190 255
147 190 255
147 190 255
147 191 255
147 191 255
147 191 255
147 191 255
147 191 255
147 191 255
147 191 255
147 191 255
147 191 255
148 191 255
148 191 255
148 191 255
148 191 255
148 191 255
148 191 255
148 191 255
148 191 255
148 191 255
148 191 255
148 191 255
148 191 255
148 191 255
148 191 255
148 191 255
148 191 255
148 191 255
148 191 255
149 191 255
149 191 255
149 191 255
149 191 255
149 191 255
149 192 255
149 192 255
149 192 255
149 192 255
149 192 255
149 192 255
149 192 255
149 192 255
150 192 255
150 192 255
150 192 255
150 192 255
150 192 255
150 192 255
150 192 255
150 192 255
150 192 255
150 192 255
150 192 255
151 193 255
151 193 255
151 193 255
151 193 255
151 193 255
151 193 255
151 193 255
151 193 255
151 193 255
151 193 255
151 193 255
152 193 255
152 193 255
152 193 255
152 193 255
152 193 255
152 193 255
152 194 255
152 194 255
152 194 255
153 194 255
153 194 255
153 194 255
153 194 255
153 194 255
153 194 255
153 194 255
153 194 255
153 194 255
153 194 255
154 194 255
154 194 255
154 194 255
154 195 255
154 195 255
154 195 255
154 195 255
154 195 255
154 195 255
155 195 255
155 195 255
155 195 255
155 195 255
155 195 255
155 195 255
155 195 255
155 195 255
155 195 255
156 196 255
156 196 255
156 196 255
156 196 255
156 196 255
156 196 255
156 196 255
156 196 255
156 196 255
157 196 255
157 196 255
157 196 255
157 196 255
157 196 255
157 196 255
157 197 255
157 197 255
157 197 255
158 197 255
158 197 255
158 197 255
158 197 255
158 197 255
158 197 255
158 197 255
158 197 255
158 197 255
158 197 255
159 197 255
159 197 255
159 197 255
159 198 255
159 198 255
159 198 255
159 198 255
159 198 255
159 198 255
159 198 255
160 198 255
160 198 255
160 198 255
160 198 255
160 198 255
160 198 255
160 198 255
160 198 255
160 198 255
160 198 255
161 199 255
161 199 255
161 199 255
161 199 255
161 199 255
161 199 255
161 199 255
161 199 255
161 199 255
161 199 255
162 199 255
162 199 255
162 199 255
162 199 255
162 199 255
162 199 255
162 199 255
162 200 255
162 200 255
162 200 255
163 200 255
163 200 255
163 200 255
163 200 255
163 200 255
163 200 255
163 200 255
163 200 255
163 200 255
163 200 255
163 200 255
163 200 255
164 200 255
164 200 255
164 200 255
164 200 255
164 201 255
164 201 255
164 201 255
164 201 255
164 201 255
164 201 255
164 201 255
164 200 255
164 200 255
164 200 255
164 200 255
163 200 255
163 200 255
163 200 255
163 200 255
163 200 255
163 200 255
163 200 255
163 200 255
163 200 255
163 200 255
163 200 255
162 200 255
162 200 255
162 200 255
162 199 255
162 199 255
162 199 255
162 199 255
162 199 255
162 199 255
162 199 255
161 199 255
161 199 255
161 199 255
161 199 255
161 199 255
161 199 255
161 199 255
161 199 255
161 199 255
161 199 255
161 199 255
160 198 255
160 198 255
160 198 255
160 198 255
160 198 255
160 198 255
160 198 255
160 198 255
160 198 255
160 198 255
159 198 255
159 198 255
159 198 255
159 198 255
159 198 255
159 198 255
159 197 255
159 197 255
159 197 255
158 197 255
158 197 255
158 197 255
158 197 255
158 197 255
158 197 255
158 197 255
158 197 255
158 197 255
158 197 255
157 197 255
157 197 255
157 197 255
157 196 255
157 196 255
157 196 255
157 196 255
157 196 255
157 196 255
156 196 255
156 196 255
156 196 255
156 196 255
156 196 255
156 196 255
156 196 255
156 196 255
156 196 255
155 195 255
155 195 255
155 195 255
155 195 255
155 195 255
155 195 255
155 195 255
155 195 255
155 195 255
154 195 255
154 195 255
154 195 255
154 195 255
154 195 255
154 195 255
154 194 255
154 194 255
154 194 255
153 194 255
153 194 255
153 194 255
153 194 255
153 194 255
153 194 255
153 194 255
153 194 255
153 194 255
153 194 255
152 194 255
152 194 255
152 194 255
152 193 255
152 193 255
152 193 255
152 193 255
152 193 255
152 193 255
152 193 255
151 193 255
151 193 255
151 193 255
151 193 255
151 193 255
151 193 255
151 193 255
151 193 255
151 193 255
151 193 255
150 192 255
150 192 255
150 192 255
150 192 255
150 192 255
150 192 255
150 192 255
150 192 255
150 192 255
150 192 255
150 192 255
149 192 255
149 192 255
149 192 255
149 192 255
149 192 255
149 192 255
149 192 255
149 192 255
149 192 255
149 191 255
149 191 255
149 191 255
149 191 255
149 191 255
148 191 255
148 191 255
148 191 255
148 191 255
148 191 255
148 191 255
148 191 255
148 191 255
148 191 255
148 191 255
148 191 255
148 191 255
148 191 255
148 191 255
148 191 255
148 191 255
148 191 255
148 191 255
148 191 255
148 191 255
147 191 255
147 191 255
147 191 255
147 191 255
147 191 255
147 191 255
147 191 255
147 191 255
147 191 255
147 191 255
147 191 255
147 191 255
147 191 255
147 191 255
147 191 255
147 191 255
147 191 255
147 191 255
147 191 255
147 191 255
147 191 255
147 191 255
147 191 255
147 191 255
147 191 255
147 191 255
147 191 255
147 191 255
147 191 255
147 191 255
147 191 255
147 191 255
147 191 255
147 191 255
147 191 255
147 191 255
147 191 255
147 191 255
148 191 255
148 191 255
148 191 255
148 191 255
148 191 255
148 191 255
148 191 255
148 191 255
148 191 255
148 191 255
148 191 255
148 191 255
148 191 255
148 191 255
148 191 255
148 191 255
148 191 255
148 191 255
148 191 255
148 191 255
149 191 255
149 191 255
149 191 255
149 191 255
149 191 255
149 192 255
149 192 255
149 192 255
149 192 255
149 192 255
149 192 255
149 192 255
149 192 255
149 192 255
150 192 255
150 192 255
150 192 255
150 192 255
150 192 255
150 192 255
150 192 255
150 192 255
150 192 255
150 192 255
150 192 255
151 193 255
151 193 255
151 193 255
151 193 255
151 193 255
151 193 255
151 193 255
151 193 255
151 193 255
151 193 255
152 193 255
152 193 255
152 193 255
152 193 255
152 193 255
152 193 255
152 193 255
152 194 255
152 194 255
152 194 255
153 194 255
153 194 255
153 194 255
153 194 255
153 194 255
153 194 255
153 194 255
153 194 255
153 194 255
153 194 255
154 194 255
154 194 255
154 194 255
154 195 255
154 195 255
154 195 255
154 195 255
154 195 255
154 195 255
155 195 255
155 195 255
155 195 255
155 195 255
155 195 255
155 195 255
155 195 255
155 195 255
155 195 255
156 196 255
156 196 255
156 196 255
156 196 255
156 196 255
156 196 255
156 196 255
156 196 255
156 196 255
157 196 255
157 196 255
157 196 255
157 196 255
157 196 255
157 196 255
157 197 255
157 197 255
157 197 255
158 197 255
158 197 255
158 197 255
158 197 255
158 197 255
158 197 255
158 197 255
158 197 255
158 197 255
158 197 255
159 197 255
159 197 255
159 197 255
159 198 255
159 198 255
159 198 255
159 198 255
159 198 255
159 198 255
160 198 255
160 198 255
160 198 255
160 198 255
160 198 255
160 198 255
160 198 255
160 198 255
160 198 255
160 198 255
161 199 255
161 199 255
161 199 255
161 199 255
161 199 255
161 199 255
161 199 255
161 199 255
161 199 255
161 199 255
161 199 255
162 199 255
162 199 255
162 199 255
162 199 255
162 199 255
162 199 255
162 199 255
162 200 255
162 200 255
162 200 255
163 200 255
163 200 255
163 200 255
163 200 255
163 200 255
163 200 255
163 200 255
163 200 255
163 200 255
163 200 255
163 200 255
164 200 255
164 200 255
164 200 255
164 200 255
164 201 255
164 201 255
164 201 255
164 201 255
164 201 255
164 201 255
164 201 255
164 201 255
164 201 255
164 201 255
164 201 255
164 201 255
164 200 255
164 200 255
164 200 255
164 200 255
163 200 255
163 200 255
163 200 255
163 200 255
163 200 255
163 200 255
163 200 255
163 200 255
163 200 255
163 200 255
163 200 255
162 200 255
162 200 255
162 200 255
162 200 255
162 199 255
162 199 255
162 199 255
162 199 255
162 199 255
162 199 255
162 199 255
161 199 255
161 199 255
161 199 255
161 199 255
161 199 255
161 199 255
161 199 255
161 199 255
161 199 255
161 199 255
160 198 255
160 198 255
160 198 255
160 198 255
160 198 255
160 198 255
160 198 255
160 198 255
160 198 255
160 198 255
159 198 255
159 198 255
159 198 255
159 198 255
159 198 255
159 198 255
159 197 255
159 197 255
159 197 255
158 197 255
158 197 255
158 197 255
158 197 255
158 197 255
158 197 255
158 197 255
158 197 255
158 197 255
158 197 255
157 197 255
157 197 255
157 197 255
157 196 255
157 196 255
157 196 255
157 196 255
157 196 255
157 196 255
156 196 255
156 196 255
156 196 255
156 196 255
156 196 255
156 196 255
156 196 255
156 196 255
156 196 255
155 195 255
155 195 255
155 195 255
155 195 255
155 195 255
155 195 255
155 195 255
155 195 255
155 195 255
154 195 255
154 195 255
154 195 255
154 195 255
154 195 255
154 195 255
154 194 255
154 194 255
154 194 255
154 194 255
153 194 255
153 194 255
153 194 255
153 194 255
153 194 255
153 194 255
153 194 255
153 194 255
153 194 255
152 194 255
152 194 255
152 194 255
152 193 255
152 193 255
152 193 255
152 193 255
152 193 255
152 193 255
152 193 255
151 193 255
151 193 255
151 193 255
151 193 255
151 193 255
151 193 255
151 193 255
151 193 255
151 193 255
151 193 255
151 193 255
150 192 255
150 192 255
150 192 255
150 192 255
150 192 255
150 192 255
150 192 255
150 192 255
150 192 255
150 192 255
150 192 255
149 192 255
149 192 255
149 192 255
149 192 255
149 192 255
149 192 255
149 192 255
149 192 255
149 192 255
149 191 255
149 191 255
149 191 255
149 191 255
149 191 255
149 191 255
148 191 255
148 191 255
148 191 255
148 191 255
148 191 255
148 191 255
148 191 255
148 191 255
148 191 255
148 191 255
148 191 255
148 191 255
148 191 255
148 191 255
148 191 255
148 191 255
148 191 255
148 191 255
148 191 255
148 191 255
148 191 255
148 191 255
148 191 255
148 191 255
147 191 255
147 191 255
147 191 255
147 191 255
147 191 255
147 191 255
147 191 255
147 191 255
147 191 255
147 191 255
147 191 255
147 191 255
147 191 255
147 191 255
147 191 255
147 191 255
147 191 255
147 191 255
147 191 255
147 191 255
147 191 255
147 191 255
148 191 255
148 191 255
148 191 255
148 191 255
148 191 255
148 191 255
148 191 255
148 191 255
148 191 255
148 191 255
148 191 255
148 191 255
148 191 255
148 191 255
148 191 255
148 191 255
148 191 255
148 191 255
148 191 255
148 191 255
148 191 255
148 191 255
148 191 255
148 191 255
148 191 255
149 191 255
149 191 255
149 191 255
149 191 255
149 191 255
149 192 255
149 192 255
149 192 255
149 192 255
149 192 255
149 192 255
149 192 255
149 192 255
149 192 255
150 192 255
150 192 255
150 192 255
150 192 255
150 192 255
150 192 255
150 192 255
150 192 255
150 192 255
150 192 255
150 192 255
150 192 255
151 193 255
151 193 255
151 193 255
151 193 255
151 193 255
151 193 255
151 193 255
151 193 255
151 193 255
151 193 255
152 193 255
152 193 255
152 193 255
152 193 255
152 193 255
152 193 255
152 193 255
152 194 255
152 194 255
152 194 255
153 194 255
153 194 255
153 194 255
153 194 255
153 194 255
153 194 255
153 194 255
153 194 255
153 194 255
153 194 255
154 194 255
154 194 255
154 194 255
154 195 255
154 195 255
154 195 255
154 195 255
154 195 255
154 195 255
155 195 255
155 195 255
155 195 255
155 195 255
155 195 255
155 195 255
155 195 255
155 195 255
155 195 255
156 196 255
156 196 255
156 196 255
156 196 255
156 196 255
156 196 255
156 196 255
156 196 255
156 196 255
157 196 255
157 196 255
157 196 255
157 196 255
157 196 255
157 196 255
157 197 255
157 197 255
157 197 255
158 197 255
158 197 255
158 197 255
158 197 255
158 197 255
158 197 255
158 197 255
158 197 255
158 197 255
158 197 255
159 197 255
159 197 255
159 197 255
159 198 255
159 198 255
159 198 255
159 198 255
159 198 255
159 198 255
160 198 255
160 198 255
160 198 255
160 198 255
160 198 255
160 198 255
160 198 255
160 198 255
160 198 255
160 198 255
161 199 255
161 199 255
161 199 255
161 199 255
161 199 255
161 199 255
161 199 255
161 199 255
161 199 255
161 199 255
162 199 255
162 199 255
162 199 255
162 199 255
162 199 255
162 199 255
162 199 255
162 200 255
162 200 255
162 200 255
162 200 255
163 200 255
163 200 255
163 200 255
163 200 255
163 200 255
163 200 255
163 200 255
163 200 255
163 200 255
163 200 255
163 200 255
164 200 255
164 200 255
164 200 255
164 200 255
164 201 255
164 201 255
164 201 255
164 201 255
164 201 255
164 201 255
164 201 255
165 201 255
165 201 255
164 201 255
164 201 255
164 201 255
164 201 255
164 201 255
164 201 255
164 201 255
164 201 255
164 200 255
164 200 255
164 200 255
163 200 255
163 200 255
163 200 255
163 200 255
163 200 255
163 200 255
163 200 255
163 200 255
163 200 255
163 200 255
163 200 255
162 200 255
162 200 255
162 200 255
162 200 255
162 199 255
162 199 255
162 199 255
162 199 255
162 199 255
162 199 255
162 199 255
161 199 255
161 199 255
161 199 255
161 199 255
161 199 255
161 199 255
161 199 255
161 199 255
161 199 255
161 199 255
160 198 255
160 198 255
160 198 255
160 198 255
160 198 255
160 198 255
160 198 255
160 198 255
160 198 255
160 198 255
159 198 255
159 198 255
159 198 255
159 198 255
159 198 255
159 198 255
159 197 255
159 197 255
159 197 255
159 197 255
158 197 255
158 197 255
158 197 255
158 197 255
158 197 255
158 197 255
158 197 255
158 197 255
158 197 255
157 197 255
157 197 255
157 197 255
157 196 255
157 196 255
157 196 255
157 196 255
157 196 255
157 196 255
156 196 255
156 196 255
156 196 255
156 196 255
156 196 255
156 196 255
156 196 255
156 196 255
156 196 255
155 195 255
155 195 255
155 195 255
155 195 255
155 195 255
155 195 255
155 195 255
155 195 255
155 195 255
154 195 255
154 195 255
154 195 255
154 195 255
154 195 255
154 195 255
154 195 255
154 194 255
154 194 255
154 194 255
153 194 255
153 194 255
153 194 255
153 194 255
153 194 255
153 194 255
153 194 255
153 194 255
153 194 255
152 194 255
152 194 255
152 194 255
152 193 255
152 193 255
152 193 255
152 193 255
152 193 255
152 193 255
152 193 255
151 193 255
151 193 255
151 193 255
151 193 255
151 193 255
151 193 255
151 193 255
151 193 255
151 193 255
151 193 255
151 193 255
150 192 255
150 192 255
150 192 255
150 192 255
150 192 255
150 192 255
150 192 255
150 192 255
150 192 255
150 192 255
150 192 255
150 192 255
149 192 255
149 192 255
149 192 255
149 192 255
149 192 255
149 192 255
149 192 255
149 192 255
149 192 255
149 192 255
149 191 255
149 191 255
149 191 255
149 191 255
149 191 255
148 191 255
148 191 255
148 191 255
148 191 255
148 191 255
148 191 255
148 191 255
148 191 255
148 191 255
148 191 255
148 191 255
148 191 255
148 191 255
148 191 255
148 191 255
148 191 255
148 191 255
148 191 255
148 191 255
148 191 255
148 191 255
148 191 255
148 191 255
148 191 255
148 191 255
148 191 255
148 191 255
148 191 255
148 191 255
148 191 255
148 191 255
148 191 255
148 191 255
148 191 255
148 191 255
148 191 255
148 191 255
148 191 255
148 191 255
148 191 255
148 191 255
148 191 255
148 191 255
148 191 255
148 191 255
148 191 255
148 191 255
148 191 255
148 191 255
148 191 255
148 191 255
148 191 255
148 191 255
148 191 255
148 191 255
148 191 255
148 191 255
148 191 255
148 191 255
148 191 255
148 191 255
148 191 255
148 191 255
148 191 255
149 191 255
149 191 255
149 191 255
149 191 255
149 191 255
149 192 255
149 192 255
149 192 255
149 192 255
149 192 255
149 192 255
149 192 255
149 192 255
149 192 255
149 192 255
150 192 255
150 192 255
150 192 255
150 192 255
150 192 255
150 192 255
150 192 255
150 192 255
150 192 255
150 192 255
150 192 255
150 192 255
151 193 255
151 193 255
151 193 255
151 193 255
151 193 255
151 193 255
151 193 255
151 193 255
151 193 255
151 193 255
151 193 255
152 193 255
152 193 255
152 193 255
152 193 255
152 193 255
152 193 255
152 193 255
152 194 255
152 194 255
152 194 255
153 194 255
153 194 255
153 194 255
153 194 255
153 194 255
153 194 255
153 194 255
153 194 255
153 194 255
154 194 255
154 194 255
154 194 255
154 195 255
154 195 255
154 195 255
154 195 255
154 195 255
154 195 255
154 195 255
155 195 255
155 195 255
155 195 255
155 195 255
155 195 255
155 195 255
155 195 255
155 195 255
155 195 255
156 196 255
156 196 255
156 196 255
156 196 255
156 196 255
156 196 255
156 196 255
156 196 255
156 196 255
157 196 255
157 196 255
157 196 255
157 196 255
157 196 255
157 196 255
157 197 255
157 197 255
157 197 255
158 197 255
158 197 255
158 197 255
158 197 255
158 197 255
158 197 255
158 197 255
158 197 255
158 197 255
158 197 255
159 197 255
159 197 255
159 197 255
159 198 255
159 198 255
159 198 255
159 198 255
159 198 255
159 198 255
160 198 255
160 198 255
160 198 255
160 198 255
160 198 255
160 198 255
160 198 255
160 198 255
160 198 255
160 198 255
161 199 255
161 199 255
161 199 255
161 199 255
161 199 255
161 199 255
161 199 255
161 199 255
161 199 255
161 199 255
162 199 255
162 199 255
162 199 255
162 199 255
162 199 255
162 199 255
162 199 255
162 200 255
162 200 255
162 200 255
162 200 255
163 200 255
163 200 255
163 200 255
163 200 255
163 200 255
163 200 255
163 200 255
163 200 255
163 200 255
163 200 255
163 200 255
164 200 255
164 200 255
164 200 255
164 201 255
164 201 255
164 201 255
164 201 255
164 201 255
164 201 255
164 201 255
164 201 255
165 201 255
165 201 255
165 201 255
165 201 255
165 201 255
165 201 255
164 201 255
164 201 255
164 201 255
164 201 255
164 201 255
164 201 255
164 201 255
164 201 255
164 200 255
164 200 255
164 200 255
164 200 255
163 200 255
163 200 255
163 200 255
163 200 255
163 200 255
163 200 255
163 200 255
163 200 255
163 200 255
163 200 255
163 200 255
162 200 255
162 200 255
162 200 255
162 199 255
162 199 255
162 199 255
162 199 255
162 199 255
162 199 255
162 199 255
161 199 255
161 199 255
161 199 255
161 199 255
161 199 255
161 199 255
161 199 255
161 199 255
161 199 255
161 199 255
160 198 255
160 198 255
160 198 255
160 198 255
160 198 255
160 198 255
160 198 255
160 198 255
160 198 255
160 198 255
159 198 255
159 198 255
159 198 255
159 198 255
159 198 255
159 198 255
159 198 255
159 197 255
159 197 255
159 197 255
158 197 255
158 197 255
158 197 255
158 197 255
158 197 255
158 197 255
158 197 255
158 197 255
158 197 255
157 197 255
157 197 255
157 197 255
157 196 255
157 196 255
157 196 255
157 196 255
157 196 255
157 196 255
156 196 255
156 196 255
156 196 255
156 196 255
156 196 255
156 196 255
156 196 255
156 196 255
156 196 255
155 195 255
155 195 255
155 195 255
155 195 255
155 195 255
155 195 255
155 195 255
155 195 255
155 195 255
155 195 255
154 195 255
154 195 255
154 195 255
154 195 255
154 195 255
154 195 255
154 194 255
154 194 255
154 194 255
153 194 255
153 194 255
153 194 255
153 194 255
153 194 255
153 194 255
153 194 255
153 194 255
153 194 255
152 194 255
152 194 255
152 194 255
152 194 255
152 193 255
152 193 255
152 193 255
152 193 255
152 193 255
152 193 255
152 193 255
151 193 255
151 193 255
151 193 255
151 193 255
151 193 255
151 193 255
151 193 255
151 193 255
151 193 255
151 193 255
151 193 255
150 192 255
150 192 255
150 192 255
150 192 255
150 192 255
150 192 255
150 192 255
150 192 255
150 192 255
150 192 255
150 192 255
150 192 255
149 192 255
149 192 255
149 192 255
149 192 255
149 192 255
149 192 255
149 192 255
149 192 255
149 192 255
149 192 255
149 191 255
149 191 255
149 191 255
149 191 255
149 191 255
149 191 255
149 191 255
148 191 255
148 191 255
148 191 255
148 191 255
148 191 255
148 191 255
148 191 255
148 191 255
148 191 255
148 191 255
148 191 255
148 191 255
148 191 255
148 191 255
148 191 255
148 191 255
148 191 255
148 191 255
148 191 255
148 191 255
148 191 255
148 191 255
148 191 255
148 191 255
148 191 255
148 191 255
148 191 255
148 191 255
148 191 255
148 191 255
148 191 255
148 191 255
148 191 255
148 191 255
148 191 255
148 191 255
148 191 255
148 191 255
148 191 255
148 191 255
148 191 255
148 191 255
148 191 255
148 191 255
148 191 255
148 191 255
148 191 255
148 191 255
148 191 255
148 191 255
148 191 255
148 191 255
148 191 255
148 191 255
149 191 255
149 191 255
149 191 255
149 191 255
149 191 255
149 191 255
149 191 255
149 192 255
149 192 255
149 192 255
149 192 255
149 192 255
149 192 255
149 192 255
149 192 255
149 192 255
149 192 255
150 192 255
150 192 255
150 192 255
150 192 255
150 192 255
150 192 255
150 192 255
150 192 255
150 192 255
150 192 255
150 192 255
150 192 255
151 193 255
151 193 255
151 193 255
151 193 255
151 193 255
151 193 255
151 193 255
151 193 255
151 193 255
151 193 255
151 193 255
151 193 255
152 193 255
152 193 255
152 193 255
152 193 255
152 193 255
152 193 255
152 194 255
152 194 255
152 194 255
152 194 255
153 194 255
153 194 255
153 194 255
153 194 255
153 194 255
153 194 255
153 194 255
153 194 255
153 194 255
154 194 255
154 194 255
154 194 255
154 195 255
154 195 255
154 195 255
154 195 255
154 195 255
154 195 255
155 195 255
155 195 255
155 195 255
155 195 255
155 195 255
155 195 255
155 195 255
155 195 255
155 195 255
155 195 255
156 196 255
156 196 255
156 196 255
156 196 255
156 196 255
156 196 255
156 196 255
156 196 255
156 196 255
157 196 255
157 196 255
157 196 255
157 196 255
157 196 255
157 196 255
157 197 255
157 197 255
157 197 255
158 197 255
158 197 255
158 197 255
158 197 255
158 197 255
158 197 255
158 197 255
158 197 255
158 197 255
159 197 255
159 197 255
159 197 255
159 198 255
159 198 255
159 198 255
159 198 255
159 198 255
159 198 255
159 198 255
160 198 255
160 198 255
160 198 255
160 198 255
160 198 255
160 198 255
160 198 255
160 198 255
160 198 255
160 198 255
161 199 255
161 199 255
161 199 255
161 199 255
161 199 255
161 199 255
161 199 255
161 199 255
161 199 255
161 199 255
162 199 255
162 199 255
162 199 255
162 199 255
162 199 255
162 199 255
162 199 255
162 200 255
162 200 255
162 200 255
163 200 255
163 200 255
163 200 255
163 200 255
163 200 255
163 200 255
163 200 255
163 200 255
163 200 255
163 200 255
163 200 255
164 200 255
164 200 255
164 200 255
164 200 255
164 201 255
164 201 255
164 201 255
164 201 255
164 201 255
164 201 255
164 201 255
164 201 255
165 201 255
165 201 255
165 201 255
165 201 255
165 201 255
165 201 255
165 201 255
165 201 255
165 201 255
165 201 255
165 201 255
164 201 255
164 201 255
164 201 255
164 201 255
164 201 255
164 201 255
164 201 255
164 200 255
164 200 255
164 200 255
164 200 255
163 200 255
163 200 255
163 200 255
163 200 255
163 200 255
163 200 255
163 200 255
163 200 255
163 200 255
163 200 255
163 200 255
162 200 255
162 200 255
162 200 255
162 200 255
162 199 255
162 199 255
162 199 255
162 199 255
162 199 255
162 199 255
162 199 255
161 199 255
161 199 255
161 199 255
161 199 255
161 199 255
161 199 255
161 199 255
161 199 255
161 199 255
161 199 255
160 198 255
160 198 255
160 198 255
160 198 255
160 198 255
160 198 255
160 198 255
160 198 255
160 198 255
159 198 255
159 198 255
159 198 255
159 198 255
159 198 255
159 198 255
159 198 255
159 197 255
159 197 255
159 197 255
158 197 255
158 197 255
158 197 255
158 197 255
158 197 255
158 197 255
158 197 255
158 197 255
158 197 255
157 197 255
157 197 255
157 197 255
157 196 255
157 196 255
157 196 255
157 196 255
157 196 255
157 196 255
156 196 255
156 196 255
156 196 255
156 196 255
156 196 255
156 196 255
156 196 255
156 196 255
156 196 255
156 196 255
155 195 255
155 195 255
155 195 255
155 195 255
155 195 255
155 195 255
155 195 255
155 195 255
155 195 255
154 195 255
154 195 255
154 195 255
154 195 255
154 195 255
154 195 255
154 194 255
154 194 255
154 194 255
153 194 255
153 194 255
153 194 255
153 194 255
153 194 255
153 194 255
153 194 255
153 194 255
153 194 255
153 194 255
152 194 255
152 194 255
152 194 255
152 193 255
152 193 255
152 193 255
152 193 255
152 193 255
152 193 255
152 193 255
151 193 255
151 193 255
151 193 255
151 193 255
151 193 255
151 193 255
151 193 255
151 193 255
151 193 255
151 193 255
151 193 255
150 192 255
150 192 255
150 192 255
150 192 255
150 192 255
150 192 255
150 192 255
150 192 255
150 192 255
150 192 255
150 192 255
150 192 255
150 192 255
149 192 255
149 192 255
149 192 255
149 192 255
149 192 255
149 192 255
149 192 255
149 192 255
149 192 255
149 192 255
149 192 255
149 192 255
149 191 255
149 191 255
149 191 255
149 191 255
149 191 255
149 191 255
149 191 255
148 191 255
148 191 255
148 191 255
148 191 255
148 191 255
148 191 255
148 191 255
148 191 255
148 191 255
148 191 255
148 191 255
148 191 255
148 191 255
148 191 255
148 191 255
148 191 255
148 191 255
148 191 255
148 191 255
148 191 255
148 191 255
148 191 255
148 191 255
148 191 255
148 191 255
148 191 255
148 191 255
148 191 255
148 191 255
148 191 255
148 191 255
148 191 255
148 191 255
148 191 255
148 191 255
148 191 255
148 191 255
148 191 255
148 191 255
148 191 255
148 191 255
148 191 255
148 191 255
148 191 255
149 191 255
149 191 255
149 191 255
149 191 255
149 191 255
149 191 255
149 191 255
149 191 255
149 192 255
149 192 255
149 192 255
149 192 255
149 192 255
149 192 255
149 192 255
149 192 255
149 192 255
149 192 255
149 192 255
150 192 255
150 192 255
150 192 255
150 192 255
150 192 255
150 192 255
150 192 255
150 192 255
150 192 255
150 192 255
150 192 255
150 192 255
150 192 255
151 193 255
151 193 255
151 193 255
151 193 255
151 193 255
151 193 255
151 193 255
151 193 255
151 193 255
151 193 255
151 193 255
152 193 255
152 193 255
152 193 255
152 193 255
152 193 255
152 193 255
152 193 255
152 194 255
152 194 255
152 194 255
153 194 255
153 194 255
153 194 255
153 194 255
153 194 255
153 194 255
153 194 255
153 194 255
153 194 255
153 194 255
154 194 255
154 194 255
154 194 255
154 195 255
154 195 255
154 195 255
154 195 255
154 195 255
154 195 255
155 195 255
155 195 255
155 195 255
155 195 255
155 195 255
155 195 255
155 195 255
155 195 255
155 195 255
156 196 255
156 196 255
156 196 255
156 196 255
156 196 255
156 196 255
156 196 255
156 196 255
156 196 255
156 196 255
157 196 255
157 196 255
157 196 255
157 196 255
157 196 255
157 196 255
157 197 255
157 197 255
157 197 255
158 197 255
158 197 255
158 197 255
158 197 255
158 197 255
158 197 255
158 197 255
158 197 255
158 197 255
159 197 255
159 197 255
159 197 255
159 198 255
159 198 255
159 198 255
159 198 255
159 198 255
159 198 255
159 198 255
160 198 255
160 198 255
160 198 255
160 198 255
160 198 255
160 198 255
160 198 255
160 198 255
160 198 255
161 199 255
161 199 255
161 199 255
161 199 255
161 199 255
161 199 255
161 199 255
161 199 255
161 199 255
161 199 255
162 199 255
162 199 255
162 199 255
162 199 255
162 199 255
162 199 255
162 199 255
162 200 255
162 200 255
162 200 255
162 200 255
163 200 255
163 200 255
163 200 255
163 200 255
163 200 255
163 200 255
163 200 255
163 200 255
163 200 255
163 200 255
163 200 255
164 200 255
164 200 255
164 200 255
164 200 255
164 201 255
164 201 255
164 201 255
164 201 255
164 201 255
164 201 255
164 201 255
165 201 255
165 201 255
165 201 255
165 201 255
165 201 255
165 201 255
165 201 255
165 201 255
165 201 255
165 201 255
165 201 255
165 201 255
165 201 255
165 201 255
165 201 255
165 201 255
164 201 255
164 201 255
164 201 255
164 201 255
164 201 255
164 201 255
164 201 255
164 201 255
164 200 255
164 200 255
164 200 255
164 200 255
163 200 255
163 200 255
163 200 255
163 200 255
163 200 255
163 200 255
163 200 255
163 200 255
163 200 255
163 200 255
162 200 255
162 200 255
162 200 255
162 200 255
162 199 255
162 199 255
162 199 255
162 199 255
162 199 255
162 199 255
162 199 255
161 199 255
161 199 255
161 199 255
161 199 255
161 199 255
161 199 255
161 199 255
161 199 255
161 199 255
161 199 255
160 198 255
160 198 255
160 198 255
160 198 255
160 198 255
160 198 255
160 198 255
160 198 255
160 198 255
159 198 255
159 198 255
159 198 255
159 198 255
159 198 255
159 198 255
159 198 255
159 197 255
159 197 255
159 197 255
158 197 255
158 197 255
158 197 255
158 197 255
158 197 255
158 197 255
158 197 255
158 197 255
158 197 255
157 197 255
157 197 255
157 197 255
157 197 255
157 196 255
157 196 255
157 196 255
157 196 255
157 196 255
157 196 255
156 196 255
156 196 255
156 196 255
156 196 255
156 196 255
156 196 255
156 196 255
156 196 255
156 196 255
155 195 255
155 195 255
155 195 255
155 195 255
155 195 255
155 195 255
155 195 255
155 195 255
155 195 255
154 195 255
154 195 255
154 195 255
154 195 255
154 195 255
154 195 255
154 194 255
154 194 255
154 194 255
153 194 255
153 194 255
153 194 255
153 194 255
153 194 255
153 194 255
153 194 255
153 194 255
153 194 255
153 194 255
152 194 255
152 194 255
152 194 255
152 194 255
152 193 255
152 193 255
152 193 255
152 193 255
152 193 255
152 193 255
152 193 255
151 193 255
151 193 255
151 193 255
151 193 255
151 193 255
151 193 255
151 193 255
151 193 255
151 193 255
151 193 255
151 193 255
150 192 255
150 192 255
150 192 255
150 192 255
150 192 255
150 192 255
150 192 255
150 192 255
150 192 255
150 192 255
150 192 255
150 192 255
150 192 255
150 192 255
149 192 255
149 192 255
149 192 255
149 192 255
149 192 255
149 192 255
149 192 255
149 192 255
149 192 255
149 192 255
149 192 255
149 192 255
149 191 255
149 191 255
149 191 255
149 191 255
149 191 255
149 191 255
149 191 255
149 191 255
149 191 255
149 191 255
148 191 255
148 191 255
148 191 255
148 191 255
148 191 255
148 191 255
148 191 255
148 191 255
148 191 255
148 191 255
148 191 255
148 191 255
148 191 255
148 191 255
148 191 255
148 191 255
148 191 255
148 191 255
148 191 255
148 191 255
148 191 255
148 191 255
148 191 255
148 191 255
148 191 255
148 191 255
148 191 255
148 191 255
148 191 255
148 191 255
148 191 255
149 191 255
149 191 255
149 191 255
149 191 255
149 191 255
149 191 255
149 191 255
149 191 255
149 192 255
149 192 255
149 192 255
149 192 255
149 192 255
149 192 255
149 192 255
149 192 255
149 192 255
149 192 255
149 192 255
149 192 255
149 192 255
150 192 255
150 192 255
150 192 255
150 192 255
150 192 255
150 192 255
150 192 255
150 192 255
150 192 255
150 192 255
150 192 255
150 192 255
150 192 255
150 192 255
151 193 255
151 193 255
151 193 255
151 193 255
151 193 255
151 193 255
151 193 255
151 193 255
151 193 255
151 193 255
151 193 255
152 193 255
152 193 255
152 193 255
152 193 255
152 193 255
152 193 255
152 193 255
152 194 255
152 194 255
152 194 255
152 194 255
153 194 255
153 194 255
153 194 255
153 194 255
153 194 255
153 194 255
153 194 255
153 194 255
153 194 255
153 194 255
154 194 255
154 194 255
154 194 255
154 195 255
154 195 255
154 195 255
154 195 255
154 195 255
154 195 255
155 195 255
155 195 255
155 195 255
155 195 255
155 195 255
155 195 255
155 195 255
155 195 255
155 195 255
156 196 255
156 196 255
156 196 255
156 196 255
156 196 255
156 196 255
156 196 255
156 196 255
156 196 255
156 196 255
157 196 255
157 196 255
157 196 255
157 196 255
157 196 255
157 196 255
157 197 255
157 197 255
157 197 255
158 197 255
158 197 255
158 197 255
158 197 255
158 197 255
158 197 255
158 197 255
158 197 255
158 197 255
159 197 255
159 197 255
159 197 255
159 198 255
159 198 255
159 198 255
159 198 255
159 198 255
159 198 255
160 198 255
160 198 255
160 198 255
160 198 255
160 198 255
160 198 255
160 198 255
160 198 255
160 198 255
160 198 255
161 199 255
161 199 255
161 199 255
161 199 255
161 199 255
161 199 255
161 199 255
161 199 255
161 199 255
161 199 255
162 199 255
162 199 255
162 199 255
162 199 255
162 199 255
162 199 255
162 199 255
162 200 255
162 200 255
162 200 255
163 200 255
163 200 255
163 200 255
163 200 255
163 200 255
163 200 255
163 200 255
163 200 255
163 200 255
163 200 255
163 200 255
164 200 255
164 200 255
164 200 255
164 200 255
164 201 255
164 201 255
164 201 255
164 201 255
164 201 255
164 201 255
164 201 255
164 201 255
165 201 255
165 201 255
165 201 255
165 201 255
165 201 255
165 201 255
165 201 255
165 201 255
165 201 255
165 201 255
165 201 255
165 201 255
165 201 255
165 201 255
165 201 255
165 201 255
165 201 255
165 201 255
165 201 255
165 201 255
165 201 255
164 201 255
164 201 255
164 201 255
164 201 255
164 201 255
164 201 255
164 201 255
164 200 255
164 200 255
164 200 255
164 200 255
163 200 255
163 200 255
163 200 255
163 200 255
163 200 255
163 200 255
163 200 255
163 200 255
163 200 255
163 200 255
163 200 255
162 200 255
162 200 255
162 200 255
162 199 255
162 199 255
162 199 255
162 199 255
162 199 255
162 199 255
162 199 255
161 199 255
161 199 255
161 199 255
161 199 255
161 199 255
161 199 255
161 199 255
161 199 255
161 199 255
161 199 255
160 198 255
160 198 255
160 198 255
160 198 255
160 198 255
160 198 255
160 198 255
160 198 255
160 198 255
160 198 255
159 198 255
159 198 255
159 198 255
159 198 255
159 198 255
159 198 255
159 197 255
159 197 255
159 197 255
158 197 255
158 197 255
158 197 255
158 197 255
158 197 255
158 197 255
158 197 255
158 197 255
158 197 255
158 197 255
157 197 255
157 197 255
157 197 255
157 196 255
157 196 255
157 196 255
157 196 255
157 196 255
157 196 255
156 196 255
156 196 255
156 196 255
156 196 255
156 196 255
156 196 255
156 196 255
156 196 255
156 196 255
155 195 255
155 195 255
155 195 255
155 195 255
155 195 255
155 195 255
155 195 255
155 195 255
155 195 255
154 195 255
154 195 255
154 195 255
154 195 255
154 195 255
154 195 255
154 195 255
154 194 255
154 194 255
154 194 255
153 194 255
153 194 255
153 194 255
153 194 255
153 194 255
153 194 255
153 194 255
153 194 255
153 194 255
153 194 255
152 194 255
152 194 255
152 194 255
152 193 255
152 193 255
152 193 255
152 193 255
152 193 255
152 193 255
152 193 255
151 193 255
151 193 255
151 193 255
151 193 255
151 193 255
151 193 255
151 193 255
151 193 255
151 193 255
151 193 255
151 193 255
151 193 255
150 192 255
150 192 255
150 192 255
150 192 255
150 192 255
150 192 255
150 192 255
150 192 255
150 192 255
150 192 255
150 192 255
150 192 255
150 192 255
150 192 255
150 192 255
149 192 255
149 192 255
149 192 255
149 192 255
149 192 255
149 192 255
149 192 255
149 192 255
149 192 255
149 192 255
149 192 255
149 192 255
149 192 255
149 192 255
149 191 255
149 191 255
149 191 255
149 191 255
149 191 255
149 191 255
149 191 255
149 191 255
149 191 255
149 191 255
149 191 255
149 191 255
149 191 255
149 191 255
149 191 255
149 191 255
149 191 255
149 191 255
149 191 255
149 191 255
149 191 255
149 191 255
149 191 255
149 191 255
149 191 255
149 191 255
149 191 255
149 191 255
149 191 255
149 191 255
149 191 255
149 191 255
149 191 255
149 191 255
149 191 255
149 191 255
149 191 255
149 191 255
149 192 255
149 192 255
149 192 255
149 192 255
149 192 255
149 192 255
149 192 255
149 192 255
149 192 255
149 192 255
149 192 255
149 192 255
149 192 255
149 192 255
150 192 255
150 192 255
150 192 255
150 192 255
150 192 255
150 192 255
150 192 255
150 192 255
150 192 255
150 192 255
150 192 255
150 192 255
150 192 255
150 192 255
150 192 255
151 193 255
151 193 255
151 193 255
151 193 255
151 193 255
151 193 255
151 193 255
151 193 255
151 193 255
151 193 255
151 193 255
151 193 255
152 193 255
152 193 255
152 193 255
152 193 255
152 193 255
152 193 255
152 193 255
152 194 255
152 194 255
152 194 255
153 194 255
153 194 255
153 194 255
153 194 255
153 194 255
153 194 255
153 194 255
153 194 255
153 194 255
153 194 255
154 194 255
154 194 255
154 194 255
154 195 255
154 195 255
154 195 255
154 195 255
154 195 255
154 195 255
154 195 255
155 195 255
155 195 255
155 195 255
155 195 255
155 195 255
155 195 255
155 195 255
155 195 255
155 195 255
156 196 255
156 196 255
156 196 255
156 196 255
156 196 255
156 196 255
156 196 255
156 196 255
156 196 255
157 196 255
157 196 255
157 196 255
157 196 255
157 196 255
157 196 255
157 197 255
157 197 255
157 197 255
158 197 255
158 197 255
158 197 255
158 197 255
158 197 255
158 197 255
158 197 255
158 197 255
158 197 255
158 197 255
159 197 255
159 197 255
159 197 255
159 198 255
159 198 255
159 198 255
159 198 255
159 198 255
159 198 255
160 198 255
160 198 255
160 198 255
160 198 255
160 198 255
160 198 255
160 198 255
160 198 255
160 198 255
160 198 255
161 199 255
161 199 255
161 199 255
161 199 255
161 199 255
161 199 255
161 199 255
161 199 255
161 199 255
161 199 255
162 199 255
162 199 255
162 199 255
162 199 255
162 199 255
162 199 255
162 199 255
162 200 255
162 200 255
162 200 255
163 200 255
163 200 255
163 200 255
163 200 255
163 200 255
163 200 255
163 200 255
163 200 255
163 200 255
163 200 255
163 200 255
164 200 255
164 200 255
164 200 255
164 200 255
164 201 255
164 201 255
164 201 255
164 201 255
164 201 255
164 201 255
164 201 255
165 201 255
165 201 255
165 201 255
165 201 255
165 201 255
165 201 255
165 201 255
165 201 255
165 201 255
165 201 255
165 201 255
165 201 255
166 202 255
166 202 255
166 202 255
165 201 255
165 201 255
165 201 255
165 201 255
165 201 255
165 201 255
165 201 255
165 201 255
165 201 255
165 201 255
165 201 255
164 201 255
164 201 255
164 201 255
164 201 255
164 201 255
164 201 255
164 201 255
164 201 255
164 200 255
164 200 255
164 200 255
164 200 255
163 200 255
163 200 255
163 200 255
163 200 255
163 200 255
163 200 255
163 200 255
163 200 255
163 200 255
163 200 255
162 200 255
162 200 255
162 200 255
162 200 255
162 199 255
162 199 255
162 199 255
162 199 255
162 199 255
162 199 255
161 199 255
161 199 255
161 199 255
161 199 255
161 199 255
161 199 255
161 199 255
161 199 255
161 199 255
161 199 255
160 198 255
160 198 255
160 198 255
160 198 255
160 198 255
160 198 255
160 198 255
160 198 255
160 198 255
160 198 255
159 198 255
159 198 255
159 198 255
159 198 255
159 198 255
159 198 255
159 197 255
159 197 255
159 197 255
159 197 255
158 197 255
158 197 255
158 197 255
158 197 255
158 197 255
158 197 255
158 197 255
158 197 255
158 197 255
157 197 255
157 197 255
157 197 255
157 196 255
157 196 255
157 196 255
157 196 255
157 196 255
157 196 255
156 196 255
156 196 255
156 196 255
156 196 255
156 196 255
156 196 255
156 196 255
156 196 255
156 196 255
155 195 255
155 195 255
155 195 255
155 195 255
155 195 255
155 195 255
155 195 255
155 195 255
155 195 255
154 195 255
154 195 255
154 195 255
154 195 255
154 195 255
154 195 255
154 195 255
154 194 255
154 194 255
154 194 255
153 194 255
153 194 255
153 194 255
153 194 255
153 194 255
153 194 255
153 194 255
153 194 255
153 194 255
153 194 255
152 194 255
152 194 255
152 194 255
152 194 255
152 193 255
152 193 255
152 193 255
152 193 255
152 193 255
152 193 255
152 193 255
151 193 255
151 193 255
151 193 255
151 193 255
151 193 255
151 193 255
151 193 255
151 193 255
151 193 255
151 193 255
151 193 255
151 193 255
150 192 255
150 192 255
150 192 255
150 192 255
150 192 255
150 192 255
150 192 255
150 192 255
150 192 255
150 192 255
150 192 255
150 192 255
150 192 255
150 192 255
150 192 255
150 192 255
149 192 255
149 192 255
149 192 255
149 192 255
149 192 255
149 192 255
149 192 255
149 192 255
149 192 255
149 192 255
149 192 255
149 192 255
149 192 255
149 192 255
149 192 255
149 192 255
149 192 255
149 192 255
149 192 255
149 192 255
149 191 255
149 191 255
149 191 255
149 191 255
149 191 255
149 191 255
149 191 255
149 191 255
149 191 255
149 191 255
149 191 255
149 191 255
149 191 255
149 191 255
149 191 255
149 191 255
149 191 255
149 191 255
149 191 255
149 192 255
149 192 255
149 192 255
149 192 255
149 192 255
149 192 255
149 192 255
149 192 255
149 192 255
149 192 255
149 192 255
149 192 255
149 192 255
149 192 255
149 192 255
149 192 255
149 192 255
149 192 255
149 192 255
150 192 255
150 192 255
150 192 255
150 192 255
150 192 255
150 192 255
150 192 255
150 192 255
150 192 255
150 192 255
150 192 255
150 192 255
150 192 255
150 192 255
150 192 255
150 192 255
151 193 255
151 193 255
151 193 255
151 193 255
151 193 255
151 193 255
151 193 255
151 193 255
151 193 255
151 193 255
151 193 255
151 193 255
152 193 255
152 193 255
152 193 255
152 193 255
152 193 255
152 193 255
152 193 255
152 194 255
152 194 255
152 194 255
152 194 255
153 194 255
153 194 255
153 194 255
153 194 255
153 194 255
153 194 255
153 194 255
153 194 255
153 194 255
153 194 255
154 194 255
154 194 255
154 194 255
154 195 255
154 195 255
154 195 255
154 195 255
154 195 255
154 195 255
154 195 255
155 195 255
155 195 255
155 195 255
155 195 255
155 195 255
155 195 255
155 195 255
155 195 255
155 195 255
156 196 255
156 196 255
156 196 255
156 196 255
156 196 255
156 196 255
156 196 255
156 196 255
156 196 255
157 196 255
157 196 255
157 196 255
157 196 255
157 196 255
157 196 255
157 197 255
157 197 255
157 197 255
158 197 255
158 197 255
158 197 255
158 197 255
158 197 255
158 197 255
158 197 255
158 197 255
158 197 255
158 197 255
159 197 255
159 197 255
159 198 255
159 198 255
159 198 255
159 198 255
159 198 255
159 198 255
159 198 255
160 198 255
160 198 255
160 198 255
160 198 255
160 198 255
160 198 255
160 198 255
160 198 255
160 198 255
161 199 255
161 199 255
161 199 255
161 199 255
161 199 255
161 199 255
161 199 255
161 199 255
161 199 255
161 199 255
161 199 255
162 199 255
162 199 255
162 199 255
162 199 255
162 199 255
162 199 255
162 200 255
162 200 255
162 200 255
162 200 255
163 200 255
163 200 255
163 200 255
163 200 255
163 200 255
163 200 255
163 200 255
163 200 255
163 200 255
163 200 255
164 200 255
164 200 255
164 200 255
164 200 255
164 201 255
164 201 255
164 201 255
164 201 255
164 201 255
164 201 255
164 201 255
164 201 255
165 201 255
165 201 255
165 201 255
165 201 255
165 201 255
165 201 255
165 201 255
165 201 255
165 201 255
165 201 255
165 201 255
166 202 255
166 202 255
166 202 255
166 202 255
166 202 255
166 202 255
166 202 255
166 202 255
165 201 255
165 201 255
165 201 255
165 201 255
165 201 255
165 201 255
165 201 255
165 201 255
165 201 255
165 201 255
165 201 255
165 201 255
164 201 255
164 201 255
164 201 255
164 201 255
164 201 255
164 201 255
164 201 255
164 200 255
164 200 255
164 200 255
164 200 255
163 200 255
163 200 255
163 200 255
163 200 255
163 200 255
163 200 255
163 200 255
163 200 255
163 200 255
163 200 255
163 200 255
162 200 255
162 200 255
162 200 255
162 199 255
162 199 255
162 199 255
162 199 255
162 199 255
162 199 255
162 199 255
161 199 255
161 199 255
161 199 255
161 199 255
161 199 255
161 199 255
161 199 255
161 199 255
161 199 255
161 199 255
160 198 255
160 198 255
160 198 255
160 198 255
160 198 255
160 198 255
160 198 255
160 198 255
160 198 255
159 198 255
159 198 255
159 198 255
159 198 255
159 198 255
159 198 255
159 197 255
159 197 255
159 197 255
159 197 255
158 197 255
158 197 255
158 197 255
158 197 255
158 197 255
158 197 255
158 197 255
158 197 255
158 197 255
157 197 255
157 197 255
157 197 255
157 196 255
157 196 255
157 196 255
157 196 255
157 196 255
157 196 255
156 196 255
156 196 255
156 196 255
156 196 255
156 196 255
156 196 255
156 196 255
156 196 255
156 196 255
155 195 255
155 195 255
155 195 255
155 195 255
155 195 255
155 195 255
155 195 255
155 195 255
155 195 255
155 195 255
154 195 255
154 195 255
154 195 255
154 195 255
154 195 255
154 195 255
154 194 255
154 194 255
154 194 255
153 194 255
153 194 255
153 194 255
153 194 255
153 194 255
153 194 255
153 194 255
153 194 255
153 194 255
153 194 255
153 194 255
152 194 255
152 194 255
152 194 255
152 193 255
152 193 255
152 193 255
152 193 255
152 193 255
152 193 255
152 193 255
152 193 255
151 193 255
151 193 255
151 193 255
151 193 255
151 193 255
151 193 255
151 193 255
151 193 255
151 193 255
151 193 255
151 193 255
151 193 255
151 193 255
150 192 255
150 192 255
150 192 255
150 192 255
150 192 255
150 192 255
150 192 255
150 192 255
150 192 255
150 192 255
150 192 255
150 192 255
150 192 255
150 192 255
150 192 255
150 192 255
150 192 255
149 192 255
149 192 255
149 192 255
149 192 255
149 192 255
149 192 255
149 192 255
149 192 255
149 192 255
149 192 255
149 192 255
149 192 255
149 192 255
149 192 255
149 192 255
149 192 255
149 192 255
149 192 255
149 192 255
149 192 255
149 192 255
149 192 255
149 192 255
149 192 255
149 192 255
149 192 255
149 192 255
149 192 255
149 192 255
149 192 255
149 192 255
149 192 255
149 192 255
149 192 255
149 192 255
149 192 255
149 192 255
149 192 255
149 192 255
149 192 255
149 192 255
149 192 255
149 192 255
149 192 255
149 192 255
149 192 255
149 192 255
149 192 255
150 192 255
150 192 255
150 192 255
150 192 255
150 192 255
150 192 255
150 192 255
150 192 255
150 192 255
150 192 255
150 192 255
150 192 255
150 192 255
150 192 255
150 192 255
150 192 255
150 192 255
151 193 255
151 193 255
151 193 255
151 193 255
151 193 255
151 193 255
151 193 255
151 193 255
151 193 255
151 193 255
151 193 255
151 193 255
151 193 255
152 193 255
152 193 255
152 193 255
152 193 255
152 193 255
152 193 255
152 193 255
152 193 255
152 194 255
152 194 255
152 194 255
153 194 255
153 194 255
153 194 255
153 194 255
153 194 255
153 194 255
153 194 255
153 194 255
153 194 255
153 194 255
153 194 255
154 194 255
154 194 255
154 194 255
154 195 255
154 195 255
154 195 255
154 195 255
154 195 255
154 195 255
155 195 255
155 195 255
155 195 255
155 195 255
155 195 255
155 195 255
155 195 255
155 195 255
155 195 255
155 195 255
156 196 255
156 196 255
156 196 255
156 196 255
156 196 255
156 196 255
156 196 255
156 196 255
156 196 255
157 196 255
157 196 255
157 196 255
157 196 255
157 196 255
157 196 255
157 197 255
157 197 255
157 197 255
158 197 255
158 197 255
158 197 255
158 197 255
158 197 255
158 197 255
158 197 255
158 197 255
158 197 255
159 197 255
159 197 255
159 197 255
159 198 255
159 198 255
159 198 255
159 198 255
159 198 255
159 198 255
159 198 255
160 198 255
160 198 255
160 198 255
160 198 255
160 198 255
160 198 255
160 198 255
160 198 255
160 198 255
160 198 255
161 199 255
161 199 255
161 199 255
161 199 255
161 199 255
161 199 255
161 199 255
161 199 255
161 199 255
162 199 255
162 199 255
162 199 255
162 199 255
162 199 255
162 199 255
162 199 255
162 200 255
162 200 255
162 200 255
163 200 255
163 200 255
163 200 255
163 200 255
163 200 255
163 200 255
163 200 255
163 200 255
163 200 255
163 200 255
163 200 255
164 200 255
164 200 255
164 200 255
164 200 255
164 201 255
164 201 255
164 201 255
164 201 255
164 201 255
164 201 255
164 201 255
165 201 255
165 201 255
165 201 255
165 201 255
165 201 255
165 201 255
165 201 255
165 201 255
165 201 255
165 201 255
165 201 255
165 201 255
166 202 255
166 202 255
166 202 255
166 202 255
166 202 255
166 202 255
166 202 255
166 202 255
166 202 255
166 202 255
166 202 255
166 202 255
166 202 255
165 201 255
165 201 255
165 201 255
165 201 255
165 201 255
165 201 255
165 201 255
165 201 255
165 201 255
165 201 255
165 201 255
164 201 255
164 201 255
164 201 255
164 201 255
164 201 255
164 201 255
164 201 255
164 201 255
164 200 255
164 200 255
164 200 255
163 200 255
163 200 255
163 200 255
163 200 255
163 200 255
163 200 255
163 200 255
163 200 255
163 200 255
163 200 255
163 200 255
162 200 255
162 200 255
162 200 255
162 199 255
162 199 255
162 199 255
162 199 255
162 199 255
162 199 255
162 199 255
161 199 255
161 199 255
161 199 255
161 199 255
161 199 255
161 199 255
161 199 255
161 199 255
161 199 255
161 199 255
160 198 255
160 198 255
160 198 255
160 198 255
160 198 255
160 198 255
160 198 255
160 198 255
160 198 255
160 198 255
159 198 255
159 198 255
159 198 255
159 198 255
159 198 255
159 198 255
159 197 255
159 197 255
159 197 255
158 197 255
158 197 255
158 197 255
158 197 255
158 197 255
158 197 255
158 197 255
158 197 255
158 197 255
157 197 255
157 197 255
157 197 255
157 196 255
157 196 255
157 196 255
157 196 255
157 196 255
157 196 255
157 196 255
156 196 255
156 196 255
156 196 255
156 196 255
156 196 255
156 196 255
156 196 255
156 196 255
156 196 255
155 195 255
155 195 255
155 195 255
155 195 255
155 195 255
155 195 255
155 195 255
155 195 255
155 195 255
154 195 255
154 195 255
154 195 255
154 195 255
154 195 255
154 195 255
154 195 255
154 194 255
154 194 255
154 194 255
153 194 255
153 194 255
153 194 255
153 194 255
153 194 255
153 194 255
153 194 255
153 194 255
153 194 255
153 194 255
152 194 255
152 194 255
152 194 255
152 194 255
152 193 255
152 193 255
152 193 255
152 193 255
152 193 255
152 193 255
152 193 255
152 193 255
151 193 255
151 193 255
151 193 255
151 193 255
151 193 255
151 193 255
151 193 255
151 193 255
151 193 255
151 193 255
151 193 255
151 193 255
151 193 255
150 192 255
150 192 255
150 192 255
150 192 255
150 192 255
150 192 255
150 192 255
150 192 255
150 192 255
150 192 255
150 192 255
150 192 255
150 192 255
150 192 255
150 192 255
150 192 255
150 192 255
150 192 255
150 192 255
150 192 255
150 192 255
149 192 255
149 192 255
149 192 255
149 192 255
149 192 255
149 192 255
149 192 255
149 192 255
149 192 255
149 192 255
149 192 255
149 192 255
149 192 255
149 192 255
149 192 255
149 192 255
149 192 255
149 192 255
149 192 255
149 192 255
149 192 255
149 192 255
149 192 255
149 192 255
149 192 255
149 192 255
149 192 255
149 192 255
149 192 255
149 192 255
149 192 255
149 192 255
149 192 255
149 192 255
150 192 255
150 192 255
150 192 255
150 192 255
150 192 255
150 192 255
150 192 255
150 192 255
150 192 255
150 192 255
150 192 255
150 192 255
150 192 255
150 192 255
150 192 255
150 192 255
150 192 255
150 192 255
150 192 255
150 192 255
150 192 255
151 193 255
151 193 255
151 193 255
151 193 255
151 193 255
151 193 255
151 193 255
151 193 255
151 193 255
151 193 255
151 193 255
151 193 255
151 193 255
152 193 255
152 193 255
152 193 255
152 193 255
152 193 255
152 193 255
152 193 255
152 193 255
152 194 255
152 194 255
152 194 255
152 194 255
153 194 255
153 194 255
153 194 255
153 194 255
153 194 255
153 194 255
153 194 255
153 194 255
153 194 255
153 194 255
154 194 255
154 194 255
154 194 255
154 195 255
154 195 255
154 195 255
154 195 255
154 195 255
154 195 255
154 195 255
155 195 255
155 195 255
155 195 255
155 195 255
155 195 255
155 195 255
155 195 255
155 195 255
155 195 255
156 196 255
156 196 255
156 196 255
156 196 255
156 196 255
156 196 255
156 196 255
156 196 255
156 196 255
156 196 255
157 196 255
157 196 255
157 196 255
157 196 255
157 196 255
157 196 255
157 197 255
157 197 255
157 197 255
158 197 255
158 197 255
158 197 255
158 197 255
158 197 255
158 197 255
158 197 255
158 197 255
158 197 255
159 197 255
159 197 255
159 197 255
159 198 255
159 198 255
159 198 255
159 198 255
159 198 255
159 198 255
160 198 255
160 198 255
160 198 255
160 198 255
160 198 255
160 198 255
160 198 255
160 198 255
160 198 255
160 198 255
161 199 255
161 199 255
161 199 255
161 199 255
161 199 255
161 199 255
161 199 255
161 199 255
161 199 255
161 199 255
162 199 255
162 199 255
162 199 255
162 199 255
162 199 255
162 199 255
162 199 255
162 200 255
162 200 255
162 200 255
163 200 255
163 200 255
163 200 255
163 200 255
163 200 255
163 200 255
163 200 255
163 200 255
163 200 255
163 200 255
163 200 255
164 200 255
164 200 255
164 200 255
164 201 255
164 201 255
164 201 255
164 201 255
164 201 255
164 201 255
164 201 255
165 201 255
165 201 255
165 201 255
165 201 255
165 201 255
165 201 255
165 201 255
165 201 255
165 201 255
165 201 255
165 201 255
165 201 255
166 202 255
166 202 255
166 202 255
166 202 255
166 202 255
166 202 255
166 202 255
166 202 255
166 202 255
166 202 255
166 202 255
166 202 255
166 202 255
166 202 255
166 202 255
166 202 255
166 202 255
166 202 255
165 201 255
165 201 255
165 201 255
165 201 255
165 201 255
165 201 255
165 201 255
165 201 255
165 201 255
165 201 255
165 201 255
165 201 255
164 201 255
164 201 255
164 201 255
164 201 255
164 201 255
164 201 255
164 201 255
164 200 255
164 200 255
164 200 255
164 200 255
163 200 255
163 200 255
163 200 255
163 200 255
163 200 255
163 200 255
163 200 255
163 200 255
163 200 255
163 200 255
162 200 255
162 200 255
162 200 255
162 200 255
162 199 255
162 199 255
162 199 255
162 199 255
162 199 255
162 199 255
162 199 255
161 199 255
161 199 255
161 199 255
161 199 255
161 199 255
161 199 255
161 199 255
161 199 255
161 199 255
160 198 255
160 198 255
160 198 255
160 198 255
160 198 255
160 198 255
160 198 255
160 198 255
160 198 255
160 198 255
159 198 255
159 198 255
159 198 255
159 198 255
159 198 255
159 198 255
159 197 255
159 197 255
159 197 255
158 197 255
158 197 255
158 197 255
158 197 255
158 197 255
158 197 255
158 197 255
158 197 255
158 197 255
157 197 255
157 197 255
157 197 255
157 197 255
157 196 255
157 196 255
157 196 255
157 196 255
157 196 255
157 196 255
156 196 255
156 196 255
156 196 255
156 196 255
156 196 255
156 196 255
156 196 255
156 196 255
156 196 255
155 195 255
155 195 255
155 195 255
155 195 255
155 195 255
155 195 255
155 195 255
155 195 255
155 195 255
155 195 255
154 195 255
154 195 255
154 195 255
154 195 255
154 195 255
154 195 255
154 194 255
154 194 255
154 194 255
153 194 255
153 194 255
153 194 255
153 194 255
153 194 255
153 194 255
153 194 255
153 194 255
153 194 255
153 194 255
153 194 255
152 194 255
152 194 255
152 194 255
152 194 255
152 193 255
152 193 255
152 193 255
152 193 255
152 193 255
152 193 255
152 193 255
152 193 255
151 193 255
151 193 255
151 193 255
151 193 255
151 193 255
151 193 255
151 193 255
151 193 255
151 193 255
151 193 255
151 193 255
151 193 255
151 193 255
151 193 255
150 192 255
150 192 255
150 192 255
150 192 255
150 192 255
150 192 255
150 192 255
150 192 255
150 192 255
150 192 255
150 192 255
150 192 255
150 192 255
150 192 255
150 192 255
150 192 255
150 192 255
150 192 255
150 192 255
150 192 255
150 192 255
150 192 255
150 192 255
150 192 255
150 192 255
150 192 255
150 192 255
150 192 255
149 192 255
149 192 255
149 192 255
149 192 255
149 192 255
149 192 255
149 192 255
149 192 255
149 192 255
149 192 255
149 192 255
149 192 255
150 192 255
150 192 255
150 192 255
150 192 255
150 192 255
150 192 255
150 192 255
150 192 255
150 192 255
150 192 255
150 192 255
150 192 255
150 192 255
150 192 255
150 192 255
150 192 255
150 192 255
150 192 255
150 192 255
150 192 255
150 192 255
150 192 255
150 192 255
150 192 255
150 192 255
150 192 255
150 192 255
150 192 255
151 193 255
151 193 255
151 193 255
151 193 255
151 193 255
151 193 255
151 193 255
151 193 255
151 193 255
151 193 255
151 193 255
151 193 255
151 193 255
151 193 255
152 193 255
152 193 255
152 193 255
152 193 255
152 193 255
152 193 255
152 193 255
152 193 255
152 194 255
152 194 255
152 194 255
152 194 255
153 194 255
153 194 255
153 194 255
153 194 255
153 194 255
153 194 255
153 194 255
153 194 255
153 194 255
153 194 255
153 194 255
154 194 255
154 194 255
154 194 255
154 195 255
154 195 255
154 195 255
154 195 255
154 195 255
154 195 255
155 195 255
155 195 255
155 195 255
155 195 255
155 195 255
155 195 255
155 195 255
155 195 255
155 195 255
155 195 255
156 196 255
156 196 255
156 196 255
156 196 255
156 196 255
156 196 255
156 196 255
156 196 255
156 196 255
157 196 255
157 196 255
157 196 255
157 196 255
157 196 255
157 196 255
157 197 255
157 197 255
157 197 255
158 197 255
158 197 255
158 197 255
158 197 255
158 197 255
158 197 255
158 197 255
158 197 255
158 197 255
158 197 255
159 197 255
159 197 255
159 197 255
159 198 255
159 198 255
159 198 255
159 198 255
159 198 255
159 198 255
160 198 255
160 198 255
160 198 255
160 198 255
160 198 255
160 198 255
160 198 255
160 198 255
160 198 255
160 198 255
161 199 255
161 199 255
161 199 255
161 199 255
161 199 255
161 199 255
161 199 255
161 199 255
161 199 255
161 199 255
162 199 255
162 199 255
162 199 255
162 199 255
162 199 255
162 199 255
162 200 255
162 200 255
162 200 255
162 200 255
163 200 255
163 200 255
163 200 255
163 200 255
163 200 255
163 200 255
163 200 255
163 200 255
163 200 255
163 200 255
164 200 255
164 200 255
164 200 255
164 200 255
164 201 255
164 201 255
164 201 255
164 201 255
164 201 255
164 201 255
164 201 255
165 201 255
165 201 255
165 201 255
165 201 255
165 201 255
165 201 255
165 201 255
165 201 255
165 201 255
165 201 255
165 201 255
165 201 255
166 202 255
166 202 255
166 202 255
166 202 255
166 202 255
166 202 255
166 202 255
166 202 255
166 202 255
166 202 255
167 202 255
166 202 255
166 202 255
166 202 255
166 202 255
166 202 255
166 202 255
166 202 255
166 202 255
166 202 255
166 202 255
166 202 255
166 202 255
165 201 255
165 201 255
165 201 255
165 201 255
165 201 255
165 201 255
165 201 255
165 201 255
165 201 255
165 201 255
165 201 255
165 201 255
164 201 255
164 201 255
164 201 255
164 201 255
164 201 255
164 201 255
164 201 255
164 200 255
164 200 255
164 200 255
163 200 255
163 200 255
163 200 255
163 200 255
163 200 255
163 200 255
163 200 255
163 200 255
163 200 255
163 200 255
163 200 255
162 200 255
162 200 255
162 200 255
162 199 255
162 199 255
162 199 255
162 199 255
162 199 255
162 199 255
162 199 255
161 199 255
161 199 255
161 199 255
161 199 255
161 199 255
161 199 255
161 199 255
161 199 255
161 199 255
161 199 255
160 198 255
160 198 255
160 198 255
160 198 255
160 198 255
160 198 255
160 198 255
160 198 255
160 198 255
159 198 255
159 198 255
159 198 255
159 198 255
159 198 255
159 198 255
159 198 255
159 197 255
159 197 255
159 197 255
158 197 255
158 197 255
158 197 255
158 197 255
158 197 255
158 197 255
158 197 255
158 197 255
158 197 255
157 197 255
157 197 255
157 197 255
157 196 255
157 196 255
157 196 255
157 196 255
157 196 255
157 196 255
156 196 255
156 196 255
156 196 255
156 196 255
156 196 255
156 196 255
156 196 255
156 196 255
156 196 255
155 195 255
155 195 255
155 195 255
155 195 255
155 195 255
155 195 255
155 195 255
155 195 255
155 195 255
155 195 255
154 195 255
154 195 255
154 195 255
154 195 255
154 195 255
154 195 255
154 195 255
154 194 255
154 194 255
154 194 255
153 194 255
153 194 255
153 194 255
153 194 255
153 194 255
153 194 255
153 194 255
153 194 255
153 194 255
153 194 255
153 194 255
152 194 255
152 194 255
152 194 255
152 194 255
152 193 255
152 193 255
152 193 255
152 193 255
152 193 255
152 193 255
152 193 255
152 193 255
151 193 255
151 193 255
151 193 255
151 193 255
151 193 255
151 193 255
151 193 255
151 193 255
151 193 255
151 193 255
151 193 255
151 193 255
151 193 255
151 193 255
151 193 255
151 193 255
150 192 255
150 192 255
150 192 255
150 192 255
150 192 255
150 192 255
150 192 255
150 192 255
150 192 255
150 192 255
150 192 255
150 192 255
150 192 255
150 192 255
150 192 255
150 192 255
150 192 255
150 192 255
150 192 255
150 192 255
150 192 255
150 192 255
150 192 255
150 192 255
150 192 255
150 192 255
150 192 255
150 192 255
150 192 255
150 192 255
150 192 255
150 192 255
150 192 255
150 192 255
150 192 255
150 192 255
150 192 255
150 192 255
150 192 255
150 192 255
150 192 255
150 192 255
150 192 255
150 192 255
150 192 255
150 192 255
150 192 255
150 192 255
150 192 255
150 192 255
150 192 255
150 192 255
150 192 255
150 192 255
150 192 255
150 192 255
150 192 255
150 192 255
151 193 255
151 193 255
151 193 255
151 193 255
151 193 255
151 193 255
151 193 255
151 193 255
151 193 255
151 193 255
151 193 255
151 193 255
151 193 255
151 193 255
151 193 255
151 193 255
152 193 255
152 193 255
152 193 255
152 193 255
152 193 255
152 193 255
152 193 255
152 193 255
152 194 255
152 194 255
152 194 255
152 194 255
153 194 255
153 194 255
153 194 255
153 194 255
153 194 255
153 194 255
153 194 255
153 194 255
153 194 255
153 194 255
153 194 255
154 194 255
154 194 255
154 194 255
154 195 255
154 195 255
154 195 255
154 195 255
154 195 255
154 195 255
154 195 255
155 195 255
155 195 255
155 195 255
155 195 255
155 195 255
155 195 255
155 195 255
155 195 255
155 195 255
156 196 255
156 196 255
156 196 255
156 196 255
156 196 255
156 196 255
156 196 255
156 196 255
156 196 255
156 196 255
157 196 255
157 196 255
157 196 255
157 196 255
157 196 255
157 196 255
157 197 255
157 197 255
157 197 255
158 197 255
158 197 255
158 197 255
158 197 255
158 197 255
158 197 255
158 197 255
158 197 255
158 197 255
159 197 255
159 197 255
159 197 255
159 197 255
159 198 255
159 198 255
159 198 255
159 198 255
159 198 255
159 198 255
160 198 255
160 198 255
160 198 255
160 198 255
160 198 255
160 198 255
160 198 255
160 198 255
160 198 255
161 199 255
161 199 255
161 199 255
161 199 255
161 199 255
161 199 255
161 199 255
161 199 255
161 199 255
161 199 255
162 199 255
162 199 255
162 199 255
162 199 255
162 199 255
162 199 255
162 199 255
162 200 255
162 200 255
162 200 255
163 200 255
163 200 255
163 200 255
163 200 255
163 200 255
163 200 255
163 200 255
163 200 255
163 200 255
163 200 255
163 200 255
164 200 255
164 200 255
164 200 255
164 201 255
164 201 255
164 201 255
164 201 255
164 201 255
164 201 255
164 201 255
164 201 255
165 201 255
165 201 255
165 201 255
165 201 255
165 201 255
165 201 255
165 201 255
165 201 255
165 201 255
165 201 255
165 201 255
166 202 255
166 202 255
166 202 255
166 202 255
166 202 255
166 202 255
166 202 255
166 202 255
166 202 255
166 202 255
166 202 255
166 202 255
167 202 255
167 202 255
167 202 255
167 202 255
167 202 255
166 202 255
166 202 255
166 202 255
166 202 255
166 202 255
166 202 255
166 202 255
166 202 255
166 202 255
166 202 255
166 202 255
166 202 255
165 201 255
165 201 255
165 201 255
165 201 255
165 201 255
165 201 255
165 201 255
165 201 255
165 201 255
165 201 255
165 201 255
164 201 255
164 201 255
164 201 255
164 201 255
164 201 255
164 201 255
164 201 255
164 200 255
164 200 255
164 200 255
164 200 255
163 200 255
163 200 255
163 200 255
163 200 255
163 200 255
163 200 255
163 200 255
163 200 255
163 200 255
163 200 255
162 200 255
162 200 255
162 200 255
162 200 255
162 199 255
162 199 255
162 199 255
162 199 255
162 199 255
162 199 255
162 199 255
161 199 255
161 199 255
161 199 255
161 199 255
161 199 255
161 199 255
161 199 255
161 199 255
161 199 255
160 198 255
160 198 255
160 198 255
160 198 255
160 198 255
160 198 255
160 198 255
160 198 255
160 198 255
159 198 255
159 198 255
159 198 255
159 198 255
159 198 255
159 198 255
159 198 255
159 197 255
159 197 255
159 197 255
158 197 255
158 197 255
158 197 255
158 197 255
158 197 255
158 197 255
158 197 255
158 197 255
158 197 255
157 197 255
157 197 255
157 197 255
157 196 255
157 196 255
157 196 255
157 196 255
157 196 255
157 196 255
156 196 255
156 196 255
156 196 255
156 196 255
156 196 255
156 196 255
156 196 255
156 196 255
156 196 255
156 196 255
155 195 255
155 195 255
155 195 255
155 195 255
155 195 255
155 195 255
155 195 255
155 195 255
155 195 255
155 195 255
154 195 255
154 195 255
154 195 255
154 195 255
154 195 255
154 195 255
154 194 255
154 194 255
154 194 255
154 194 255
153 194 255
153 194 255
153 194 255
153 194 255
153 194 255
153 194 255
153 194 255
153 194 255
153 194 255
153 194 255
153 194 255
152 194 255
152 194 255
152 194 255
152 194 255
152 193 255
152 193 255
152 193 255
152 193 255
152 193 255
152 193 255
152 193 255
152 193 255
152 193 255
151 193 255
151 193 255
151 193 255
151 193 255
151 193 255
151 193 255
151 193 255
151 193 255
151 193 255
151 193 255
151 193 255
151 193 255
151 193 255
151 193 255
151 193 255
151 193 255
151 193 255
150 192 255
150 192 255
150 192 255
150 192 255
150 192 255
150 192 255
150 192 255
150 192 255
150 192 255
150 192 255
150 192 255
150 192 255
150 192 255
150 192 255
150 192 255
150 192 255
150 192 255
150 192 255
150 192 255
150 192 255
150 192 255
150 192 255
150 192 255
150 192 255
150 192 255
150 192 255
150 192 255
150 192 255
150 192 255
150 192 255
150 192 255
150 192 255
150 192 255
150 192 255
150 192 255
150 192 255
150 192 255
150 192 255
150 192 255
150 192 255
150 192 255
150 192 255
150 192 255
150 192 255
150 192 255
150 192 255
150 192 255
150 192 255
151 193 255
151 193 255
151 193 255
151 193 255
151 193 255
151 193 255
151 193 255
151 193 255
151 193 255
151 193 255
151 193 255
151 193 255
151 193 255
151 193 255
151 193 255
151 193 255
151 193 255
152 193 255
152 193 255
152 193 255
152 193 255
152 193 255
152 193 255
152 193 255
152 193 255
152 193 255
152 194 255
152 194 255
152 194 255
152 194 255
153 194 255
153 194 255
153 194 255
153 194 255
153 194 255
153 194 255
153 194 255
153 194 255
153 194 255
153 194 255
153 194 255
154 194 255
154 194 255
154 194 255
154 194 255
154 195 255
154 195 255
154 195 255
154 195 255
154 195 255
154 195 255
154 195 255
155 195 255
155 195 255
155 195 255
155 195 255
155 195 255
155 195 255
155 195 255
155 195 255
155 195 255
156 196 255
156 196 255
156 196 255
156 196 255
156 196 255
156 196 255
156 196 255
156 196 255
156 196 255
156 196 255
157 196 255
157 196 255
157 196 255
157 196 255
157 196 255
157 196 255
157 197 255
157 197 255
157 197 255
158 197 255
158 197 255
158 197 255
158 197 255
158 197 255
158 197 255
158 197 255
158 197 255
158 197 255
159 197 255
159 197 255
159 197 255
159 198 255
159 198 255
159 198 255
159 198 255
159 198 255
159 198 255
160 198 255
160 198 255
160 198 255
160 198 255
160 198 255
160 198 255
160 198 255
160 198 255
160 198 255
160 198 255
161 199 255
161 199 255
161 199 255
161 199 255
161 199 255
161 199 255
161 199 255
161 199 255
161 199 255
161 199 255
162 199 255
162 199 255
162 199 255
162 199 255
162 199 255
162 199 255
162 200 255
162 200 255
162 200 255
162 200 255
163 200 255
163 200 255
163 200 255
163 200 255
163 200 255
163 200 255
163 200 255
163 200 255
163 200 255
163 200 255
164 200 255
164 200 255
164 200 255
164 200 255
164 201 255
164 201 255
164 201 255
164 201 255
164 201 255
164 201 255
164 201 255
165 201 255
165 201 255
165 201 255
165 201 255
165 201 255
165 201 255
165 201 255
165 201 255
165 201 255
165 201 255
165 201 255
166 202 255
166 202 255
166 202 255
166 202 255
166 202 255
166 202 255
166 202 255
166 202 255
166 202 255
166 202 255
166 202 255
166 202 255
167 202 255
167 202 255
167 202 255
167 202 255
167 202 255
167 202 255
167 202 255
167 202 255
167 202 255
167 202 255
167 202 255
166 202 255
166 202 255
166 202 255
166 202 255
166 202 255
166 202 255
166 202 255
166 202 255
166 202 255
166 202 255
166 202 255
165 201 255
165 201 255
165 201 255
165 201 255
165 201 255
165 201 255
165 201 255
165 201 255
165 201 255
165 201 255
165 201 255
165 201 255
164 201 255
164 201 255
164 201 255
164 201 255
164 201 255
164 201 255
164 201 255
164 200 255
164 200 255
164 200 255
163 200 255
163 200 255
163 200 255
163 200 255
163 200 255
163 200 255
163 200 255
163 200 255
163 200 255
163 200 255
163 200 255
162 200 255
162 200 255
162 200 255
162 199 255
162 199 255
162 199 255
162 199 255
162 199 255
162 199 255
162 199 255
161 199 255
161 199 255
161 199 255
161 199 255
161 199 255
161 199 255
161 199 255
161 199 255
161 199 255
160 198 255
160 198 255
160 198 255
160 198 255
160 198 255
160 198 255
160 198 255
160 198 255
160 198 255
160 198 255
159 198 255
159 198 255
159 198 255
159 198 255
159 198 255
159 198 255
159 197 255
159 197 255
159 197 255
158 197 255
158 197 255
158 197 255
158 197 255
158 197 255
158 197 255
158 197 255
158 197 255
158 197 255
157 197 255
157 197 255
157 197 255
157 197 255
157 196 255
157 196 255
157 196 255
157 196 255
157 196 255
157 196 255
156 196 255
156 196 255
156 196 255
156 196 255
156 196 255
156 196 255
156 196 255
156 196 255
156 196 255
155 195 255
155 195 255
155 195 255
155 195 255
155 195 255
155 195 255
155 195 255
155 195 255
155 195 255
155 195 255
154 195 255
154 195 255
154 195 255
154 195 255
154 195 255
154 195 255
154 195 255
154 194 255
154 194 255
154 194 255
153 194 255
153 194 255
153 194 255
153 194 255
153 194 255
153 194 255
153 194 255
153 194 255
153 194 255
153 194 255
153 194 255
153 194 255
152 194 255
152 194 255
152 194 255
152 194 255
152 193 255
152 193 255
152 193 255
152 193 255
152 193 255
152 193 255
152 193 255
152 193 255
152 193 255
152 193 255
151 193 255
151 193 255
151 193 255
151 193 255
151 193 255
151 193 255
151 193 255
151 193 255
151 193 255
151 193 255
151 193 255
151 193 255
151 193 255
151 193 255
151 193 255
151 193 255
151 193 255
151 193 255
151 193 255
150 192 255
150 192 255
150 192 255
150 192 255
150 192 255
150 192 255
150 192 255
150 192 255
150 192 255
150 192 255
150 192 255
150 192 255
150 192 255
150 192 255
150 192 255
150 192 255
150 192 255
150 192 255
150 192 255
150 192 255
150 192 255
150 192 255
150 192 255
150 192 255
150 192 255
150 192 255
150 192 255
150 192 255
150 192 255
150 192 255
150 192 255
150 192 255
150 192 255
150 192 255
150 192 255
150 192 255
151 193 255
151 193 255
151 193 255
151 193 255
151 193 255
151 193 255
151 193 255
151 193 255
151 193 255
151 193 255
151 193 255
151 193 255
151 193 255
151 193 255
151 193 255
151 193 255
151 193 255
151 193 255
151 193 255
152 193 255
152 193 255
152 193 255
152 193 255
152 193 255
152 193 255
152 193 255
152 193 255
152 193 255
152 193 255
152 194 255
152 194 255
152 194 255
152 194 255
153 194 255
153 194 255
153 194 255
153 194 255
153 194 255
153 194 255
153 194 255
153 194 255
153 194 255
153 194 255
153 194 255
153 194 255
154 194 255
154 194 255
154 194 255
154 195 255
154 195 255
154 195 255
154 195 255
154 195 255
154 195 255
154 195 255
155 195 255
155 195 255
155 195 255
155 195 255
155 195 255
155 195 255
155 195 255
155 195 255
155 195 255
155 195 255
156 196 255
156 196 255
156 196 255
156 196 255
156 196 255
156 196 255
156 196 255
156 196 255
156 196 255
157 196 255
157 196 255
157 196 255
157 196 255
157 196 255
157 196 255
157 197 255
157 197 255
157 197 255
157 197 255
158 197 255
158 197 255
158 197 255
158 197 255
158 197 255
158 197 255
158 197 255
158 197 255
158 197 255
159 197 255
159 197 255
159 197 255
159 198 255
159 198 255
159 198 255
159 198 255
159 198 255
159 198 255
160 198 255
160 198 255
160 198 255
160 198 255
160 198 255
160 198 255
160 198 255
160 198 255
160 198 255
160 198 255
161 199 255
161 199 255
161 199 255
161 199 255
161 199 255
161 199 255
161 199 255
161 199 255
161 199 255
162 199 255
162 199 255
162 199 255
162 199 255
162 199 255
162 199 255
162 199 255
162 200 255
162 200 255
162 200 255
163 200 255
163 200 255
163 200 255
163 200 255
163 200 255
163 200 255
163 200 255
163 200 255
163 200 255
163 200 255
163 200 255
164 200 255
164 200 255
164 200 255
164 201 255
164 201 255
164 201 255
164 201 255
164 201 255
164 201 255
164 201 255
165 201 255
165 201 255
165 201 255
165 201 255
165 201 255
165 201 255
165 201 255
165 201 255
165 201 255
165 201 255
165 201 255
165 201 255
166 202 255
166 202 255
166 202 255
166 202 255
166 202 255
166 202 255
166 202 255
166 202 255
166 202 255
166 202 255
166 202 255
166 202 255
167 202 255
167 202 255
167 202 255
167 202 255
167 202 255
167 202 255
167 203 255
167 202 255
167 202 255
167 202 255
167 202 255
167 202 255
167 202 255
167 202 255
167 202 255
166 202 255
166 202 255
166 202 255
166 202 255
166 202 255
166 202 255
166 202 255
166 202 255
166 202 255
166 202 255
166 202 255
166 202 255
165 201 255
165 201 255
165 201 255
165 201 255
165 201 255
165 201 255
165 201 255
165 201 255
165 201 255
165 201 255
165 201 255
164 201 255
164 201 255
164 201 255
164 201 255
164 201 255
164 201 255
164 201 255
164 200 255
164 200 255
164 200 255
164 200 255
163 200 255
163 200 255
163 200 255
163 200 255
163 200 255
163 200 255
163 200 255
163 200 255
163 200 255
163 200 255
162 200 255
162 200 255
162 200 255
162 200 255
162 199 255
162 199 255
162 199 255
162 199 255
162 199 255
162 199 255
161 199 255
161 199 255
161 199 255
161 199 255
161 199 255
161 199 255
161 199 255
161 199 255
161 199 255
161 199 255
160 198 255
160 198 255
160 198 255
160 198 255
160 198 255
160 198 255
160 198 255
160 198 255
160 198 255
159 198 255
159 198 255
159 198 255
159 198 255
159 198 255
159 198 255
159 197 255
159 197 255
159 197 255
159 197 255
158 197 255
158 197 255
158 197 255
158 197 255
158 197 255
158 197 255
158 197 255
158 197 255
158 197 255
157 197 255
157 197 255
157 197 255
157 196 255
157 196 255
157 196 255
157 196 255
157 196 255
157 196 255
156 196 255
156 196 255
156 196 255
156 196 255
156 196 255
156 196 255
156 196 255
156 196 255
156 196 255
156 196 255
155 195 255
155 195 255
155 195 255
155 195 255
155 195 255
155 195 255
155 195 255
155 195 255
155 195 255
155 195 255
154 195 255
154 195 255
154 195 255
154 195 255
154 195 255
154 195 255
154 195 255
154 194 255
154 194 255
154 194 255
153 194 255
153 194 255
153 194 255
153 194 255
153 194 255
153 194 255
153 194 255
153 194 255
153 194 255
153 194 255
153 194 255
153 194 255
152 194 255
152 194 255
152 194 255
152 194 255
152 193 255
152 193 255
152 193 255
152 193 255
152 193 255
152 193 255
152 193 255
152 193 255
152 193 255
152 193 255
152 193 255
151 193 255
151 193 255
151 193 255
151 193 255
151 193 255
151 193 255
151 193 255
151 193 255
151 193 255
151 193 255
151 193 255
151 193 255
151 193 255
151 193 255
151 193 255
151 193 255
151 193 255
151 193 255
151 193 255
151 193 255
151 193 255
151 193 255
151 193 255
151 193 255
151 193 255
151 193 255
150 192 255
151 193 255
150 192 255
150 192 255
150 192 255
150 192 255
150 192 255
150 192 255
150 192 255
150 192 255
150 192 255
150 192 255
150 192 255
151 193 255
151 193 255
151 193 255
151 193 255
151 193 255
151 193 255
151 193 255
151 193 255
151 193 255
151 193 255
151 193 255
151 193 255
151 193 255
151 193 255
151 193 255
151 193 255
151 193 255
151 193 255
151 193 255
151 193 255
151 193 255
151 193 255
151 193 255
151 193 255
151 193 255
151 193 255
151 193 255
152 193 255
152 193 255
152 193 255
152 193 255
152 193 255
152 193 255
152 193 255
152 193 255
152 193 255
152 193 255
152 193 255
152 194 255
152 194 255
152 194 255
152 194 255
153 194 255
153 194 255
153 194 255
153 194 255
153 194 255
153 194 255
153 194 255
153 194 255
153 194 255
153 194 255
153 194 255
153 194 255
154 194 255
154 194 255
154 194 255
154 195 255
154 195 255
154 195 255
154 195 255
154 195 255
154 195 255
154 195 255
155 195 255
155 195 255
155 195 255
155 195 255
155 195 255
155 195 255
155 195 255
155 195 255
155 195 255
155 195 255
156 196 255
156 196 255
156 196 255
156 196 255
156 196 255
156 196 255
156 196 255
156 196 255
156 196 255
156 196 255
157 196 255
157 196 255
157 196 255
157 196 255
157 196 255
157 196 255
157 197 255
157 197 255
157 197 255
158 197 255
158 197 255
158 197 255
158 197 255
158 197 255
158 197 255
158 197 255
158 197 255
158 197 255
159 197 255
159 197 255
159 197 255
159 197 255
159 198 255
159 198 255
159 198 255
159 198 255
159 198 255
159 198 255
160 198 255
160 198 255
160 198 255
160 198 255
160 198 255
160 198 255
160 198 255
160 198 255
160 198 255
161 199 255
161 199 255
161 199 255
161 199 255
161 199 255
161 199 255
161 199 255
161 199 255
161 199 255
161 199 255
162 199 255
162 199 255
162 199 255
162 199 255
162 199 255
162 199 255
162 199 255
162 200 255
162 200 255
162 200 255
163 200 255
163 200 255
163 200 255
163 200 255
163 200 255
163 200 255
163 200 255
163 200 255
163 200 255
163 200 255
164 200 255
164 200 255
164 200 255
164 201 255
164 201 255
164 201 255
164 201 255
164 201 255
164 201 255
164 201 255
164 201 255
165 201 255
165 201 255
165 201 255
165 201 255
165 201 255
165 201 255
165 201 255
165 201 255
165 201 255
165 201 255
165 201 255
166 202 255
166 202 255
166 202 255
166 202 255
166 202 255
166 202 255
166 202 255
166 202 255
166 202 255
166 202 255
166 202 255
166 202 255
167 202 255
167 202 255
167 202 255
167 202 255
167 202 255
167 202 255
167 202 255
167 202 255
167 203 255
167 203 255
167 203 255
167 203 255
167 203 255
167 202 255
167 202 255
167 202 255
167 202 255
167 202 255
167 202 255
167 202 255
167 202 255
166 202 255
166 202 255
166 202 255
166 202 255
166 202 255
166 202 255
166 202 255
166 202 255
166 202 255
166 202 255
166 202 255
166 202 255
165 201 255
165 201 255
165 201 255
165 201 255
165 201 255
165 201 255
165 201 255
165 201 255
165 201 255
165 201 255
165 201 255
164 201 255
164 201 255
164 201 255
164 201 255
164 201 255
164 201 255
164 201 255
164 200 255
164 200 255
164 200 255
163 200 255
163 200 255
163 200 255
163 200 255
163 200 255
163 200 255
163 200 255
163 200 255
163 200 255
163 200 255
163 200 255
162 200 255
162 200 255
162 200 255
162 199 255
162 199 255
162 199 255
162 199 255
162 199 255
162 199 255
162 199 255
161 199 255
161 199 255
161 199 255
161 199 255
161 199 255
161 199 255
161 199 255
161 199 255
161 199 255
160 198 255
160 198 255
160 198 255
160 198 255
160 198 255
160 198 255
160 198 255
160 198 255
160 198 255
160 198 255
159 198 255
159 198 255
159 198 255
159 198 255
159 198 255
159 198 255
159 197 255
159 197 255
159 197 255
158 197 255
158 197 255
158 197 255
158 197 255
158 197 255
158 197 255
158 197 255
158 197 255
158 197 255
157 197 255
157 197 255
157 197 255
157 196 255
157 196 255
157 196 255
157 196 255
157 196 255
157 196 255
157 196 255
156 196 255
156 196 255
156 196 255
156 196 255
156 196 255
156 196 255
156 196 255
156 196 255
156 196 255
155 195 255
155 195 255
155 195 255
155 195 255
155 195 255
155 195 255
155 195 255
155 195 255
155 195 255
155 195 255
154 195 255
154 195 255
154 195 255
154 195 255
154 195 255
154 195 255
154 195 255
154 195 255
154 194 255
154 194 255
154 194 255
153 194 255
153 194 255
153 194 255
153 194 255
153 194 255
153 194 255
153 194 255
153 194 255
153 194 255
153 194 255
153 194 255
153 194 255
152 194 255
152 194 255
152 194 255
152 194 255
152 194 255
152 193 255
152 193 255
152 193 255
152 193 255
152 193 255
152 193 255
152 193 255
152 193 255
152 193 255
152 193 255
152 193 255
151 193 255
151 193 255
151 193 255
151 193 255
151 193 255
151 193 255
151 193 255
151 193 255
151 193 255
151 193 255
151 193 255
151 193 255
151 193 255
151 193 255
151 193 255
151 193 255
151 193 255
151 193 255
151 193 255
151 193 255
151 193 255
151 193 255
151 193 255
151 193 255
151 193 255
151 193 255
151 193 255
151 193 255
151 193 255
151 193 255
151 193 255
151 193 255
151 193 255
151 193 255
151 193 255
151 193 255
151 193 255
151 193 255
151 193 255
151 193 255
151 193 255
151 193 255
151 193 255
151 193 255
151 193 255
151 193 255
151 193 255
151 193 255
151 193 255
151 193 255
151 193 255
151 193 255
151 193 255
151 193 255
151 193 255
151 193 255
151 193 255
151 193 255
152 193 255
152 193 255
152 193 255
152 193 255
152 193 255
152 193 255
152 193 255
152 193 255
152 193 255
152 193 255
152 193 255
152 194 255
152 194 255
152 194 255
152 194 255
153 194 255
153 194 255
153 194 255
153 194 255
153 194 255
153 194 255
153 194 255
153 194 255
153 194 255
153 194 255
153 194 255
153 194 255
153 194 255
154 194 255
154 194 255
154 194 255
154 195 255
154 195 255
154 195 255
154 195 255
154 195 255
154 195 255
154 195 255
154 195 255
155 195 255
155 195 255
155 195 255
155 195 255
155 195 255
155 195 255
155 195 255
155 195 255
155 195 255
155 195 255
156 196 255
156 196 255
156 196 255
156 196 255
156 196 255
156 196 255
156 196 255
156 196 255
156 196 255
157 196 255
157 196 255
157 196 255
157 196 255
157 196 255
157 196 255
157 196 255
157 197 255
157 197 255
157 197 255
158 197 255
158 197 255
158 197 255
158 197 255
158 197 255
158 197 255
158 197 255
158 197 255
158 197 255
159 197 255
159 197 255
159 197 255
159 198 255
159 198 255
159 198 255
159 198 255
159 198 255
159 198 255
160 198 255
160 198 255
160 198 255
160 198 255
160 198 255
160 198 255
160 198 255
160 198 255
160 198 255
160 198 255
161 199 255
161 199 255
161 199 255
161 199 255
161 199 255
161 199 255
161 199 255
161 199 255
161 199 255
162 199 255
162 199 255
162 199 255
162 199 255
162 199 255
162 199 255
162 199 255
162 200 255
162 200 255
162 200 255
163 200 255
163 200 255
163 200 255
163 200 255
163 200 255
163 200 255
163 200 255
163 200 255
163 200 255
163 200 255
163 200 255
164 200 255
164 200 255
164 200 255
164 201 255
164 201 255
164 201 255
164 201 255
164 201 255
164 201 255
164 201 255
165 201 255
165 201 255
165 201 255
165 201 255
165 201 255
165 201 255
165 201 255
165 201 255
165 201 255
165 201 255
165 201 255
166 202 255
166 202 255
166 202 255
166 202 255
166 202 255
166 202 255
166 202 255
166 202 255
166 202 255
166 202 255
166 202 255
166 202 255
167 202 255
167 202 255
167 202 255
167 202 255
167 202 255
167 202 255
167 202 255
167 202 255
167 203 255
167 203 255
167 203 255
167 203 255
168 203 255
168 203 255
167 203 255
167 203 255
167 203 255
167 203 255
167 202 255
167 202 255
167 202 255
167 202 255
167 202 255
167 202 255
167 202 255
167 202 255
167 202 255
166 202 255
166 202 255
166 202 255
166 202 255
166 202 255
166 202 255
166 202 255
166 202 255
166 202 255
166 202 255
166 202 255
165 201 255
165 201 255
165 201 255
165 201 255
165 201 255
165 201 255
165 201 255
165 201 255
165 201 255
165 201 255
165 201 255
164 201 255
164 201 255
164 201 255
164 201 255
164 201 255
164 201 255
164 201 255
164 200 255
164 200 255
164 200 255
164 200 255
163 200 255
163 200 255
163 200 255
163 200 255
163 200 255
163 200 255
163 200 255
163 200 255
163 200 255
163 200 255
162 200 255
162 200 255
162 200 255
162 199 255
162 199 255
162 199 255
162 199 255
162 199 255
162 199 255
162 199 255
161 199 255
161 199 255
161 199 255
161 199 255
161 199 255
161 199 255
161 199 255
161 199 255
161 199 255
161 199 255
160 198 255
160 198 255
160 198 255
160 198 255
160 198 255
160 198 255
160 198 255
160 198 255
160 198 255
159 198 255
159 198 255
159 198 255
159 198 255
159 198 255
159 198 255
159 197 255
159 197 255
159 197 255
159 197 255
158 197 255
158 197 255
158 197 255
158 197 255
158 197 255
158 197 255
158 197 255
158 197 255
158 197 255
157 197 255
157 197 255
157 197 255
157 196 255
157 196 255
157 196 255
157 196 255
157 196 255
157 196 255
156 196 255
156 196 255
156 196 255
156 196 255
156 196 255
156 196 255
156 196 255
156 196 255
156 196 255
156 196 255
155 195 255
155 195 255
155 195 255
155 195 255
155 195 255
155 195 255
155 195 255
155 195 255
155 195 255
155 195 255
154 195 255
154 195 255
154 195 255
154 195 255
154 195 255
154 195 255
154 195 255
154 194 255
154 194 255
154 194 255
154 194 255
153 194 255
153 194 255
153 194 255
153 194 255
153 194 255
153 194 255
153 194 255
153 194 255
153 194 255
153 194 255
153 194 255
153 194 255
153 194 255
152 194 255
152 194 255
152 194 255
152 194 255
152 194 255
152 193 255
152 193 255
152 193 255
152 193 255
152 193 255
152 193 255
152 193 255
152 193 255
152 193 255
152 193 255
152 193 255
152 193 255
152 193 255
151 193 255
151 193 255
151 193 255
151 193 255
151 193 255
151 193 255
151 193 255
151 193 255
151 193 255
151 193 255
151 193 255
151 193 255
151 193 255
151 193 255
151 193 255
151 193 255
151 193 255
151 193 255
151 193 255
151 193 255
151 193 255
151 193 255
151 193 255
151 193 255
151 193 255
151 193 255
151 193 255
151 193 255
151 193 255
151 193 255
151 193 255
151 193 255
151 193 255
151 193 255
151 193 255
151 193 255
151 193 255
151 193 255
151 193 255
151 193 255
151 193 255
151 193 255
151 193 255
151 193 255
151 193 255
151 193 255
151 193 255
152 193 255
152 193 255
152 193 255
152 193 255
152 193 255
152 193 255
152 193 255
152 193 255
152 193 255
152 193 255
152 193 255
152 193 255
152 194 255
152 194 255
152 194 255
152 194 255
152 194 255
153 194 255
153 194 255
153 194 255
153 194 255
153 194 255
153 194 255
153 194 255
153 194 255
153 194 255
153 194 255
153 194 255
153 194 255
153 194 255
154 194 255
154 194 255
154 194 255
154 194 255
154 195 255
154 195 255
154 195 255
154 195 255
154 195 255
154 195 255
154 195 255
155 195 255
155 195 255
155 195 255
155 195 255
155 195 255
155 195 255
155 195 255
155 195 255
155 195 255
155 195 255
156 196 255
156 196 255
156 196 255
156 196 255
156 196 255
156 196 255
156 196 255
156 196 255
156 196 255
156 196 255
157 196 255
157 196 255
157 196 255
157 196 255
157 196 255
157 196 255
157 197 255
157 197 255
157 197 255
158 197 255
158 197 255
158 197 255
158 197 255
158 197 255
158 197 255
158 197 255
158 197 255
158 197 255
158 197 255
159 197 255
159 197 255
159 197 255
159 198 255
159 198 255
159 198 255
159 198 255
159 198 255
159 198 255
160 198 255
160 198 255
160 198 255
160 198 255
160 198 255
160 198 255
160 198 255
160 198 255
160 198 255
161 199 255
161 199 255
161 199 255
161 199 255
161 199 255
161 199 255
161 199 255
161 199 255
161 199 255
161 199 255
162 199 255
162 199 255
162 199 255
162 199 255
162 199 255
162 199 255
162 200 255
162 200 255
162 200 255
162 200 255
163 200 255
163 200 255
163 200 255
163 200 255
163 200 255
163 200 255
163 200 255
163 200 255
163 200 255
163 200 255
164 200 255
164 200 255
164 200 255
164 201 255
164 201 255
164 201 255
164 201 255
164 201 255
164 201 255
164 201 255
164 201 255
165 201 255
165 201 255
165 201 255
165 201 255
165 201 255
165 201 255
165 201 255
165 201 255
165 201 255
165 201 255
165 201 255
166 202 255
166 202 255
166 202 255
166 202 255
166 202 255
166 202 255
166 202 255
166 202 255
166 202 255
166 202 255
166 202 255
167 202 255
167 202 255
167 202 255
167 202 255
167 202 255
167 202 255
167 202 255
167 202 255
167 202 255
167 203 255
167 203 255
167 203 255
167 203 255
168 203 255
168 203 255
168 203 255
168 203 255
168 203 255
168 203 255
168 203 255
167 203 255
167 203 255
167 203 255
167 203 255
167 202 255
167 202 255
167 202 255
167 202 255
167 202 255
167 202 255
167 202 255
167 202 255
166 202 255
166 202 255
166 202 255
166 202 255
166 202 255
166 202 255
166 202 255
166 202 255
166 202 255
166 202 255
166 202 255
166 202 255
165 201 255
165 201 255
165 201 255
165 201 255
165 201 255
165 201 255
165 201 255
165 201 255
165 201 255
165 201 255
165 201 255
164 201 255
164 201 255
164 201 255
164 201 255
164 201 255
164 201 255
164 201 255
164 200 255
164 200 255
164 200 255
164 200 255
163 200 255
163 200 255
163 200 255
163 200 255
163 200 255
163 200 255
163 200 255
163 200 255
163 200 255
163 200 255
162 200 255
162 200 255
162 200 255
162 199 255
162 199 255
162 199 255
162 199 255
162 199 255
162 199 255
162 199 255
161 199 255
161 199 255
161 199 255
161 199 255
161 199 255
161 199 255
161 199 255
161 199 255
161 199 255
160 198 255
160 198 255
160 198 255
160 198 255
160 198 255
160 198 255
160 198 255
160 198 255
160 198 255
160 198 255
159 198 255
159 198 255
159 198 255
159 198 255
159 198 255
159 198 255
159 197 255
159 197 255
159 197 255
158 197 255
158 197 255
158 197 255
158 197 255
158 197 255
158 197 255
158 197 255
158 197 255
158 197 255
157 197 255
157 197 255
157 197 255
157 197 255
157 196 255
157 196 255
157 196 255
157 196 255
157 196 255
157 196 255
156 196 255
156 196 255
156 196 255
156 196 255
156 196 255
156 196 255
156 196 255
156 196 255
156 196 255
156 196 255
155 195 255
155 195 255
155 195 255
155 195 255
155 195 255
155 195 255
155 195 255
155 195 255
155 195 255
155 195 255
154 195 255
154 195 255
154 195 255
154 195 255
154 195 255
154 195 255
154 195 255
154 194 255
154 194 255
154 194 255
154 194 255
153 194 255
153 194 255
153 194 255
153 194 255
153 194 255
153 194 255
153 194 255
153 194 255
153 194 255
153 194 255
153 194 255
153 194 255
153 194 255
153 194 255
152 194 255
152 194 255
152 194 255
152 194 255
152 194 255
152 194 255
152 193 255
152 193 255
152 193 255
152 193 255
152 193 255
152 193 255
152 193 255
152 193 255
152 193 255
152 193 255
152 193 255
152 193 255
152 193 255
152 193 255
151 193 255
151 193 255
151 193 255
151 193 255
151 193 255
151 193 255
151 193 255
151 193 255
151 193 255
151 193 255
151 193 255
151 193 255
151 193 255
151 193 255
151 193 255
151 193 255
151 193 255
151 193 255
151 193 255
151 193 255
151 193 255
151 193 255
151 193 255
151 193 255
151 193 255
151 193 255
151 193 255
151 193 255
151 193 255
151 193 255
151 193 255
151 193 255
151 193 255
152 193 255
152 193 255
152 193 255
152 193 255
152 193 255
152 193 255
152 193 255
152 193 255
152 193 255
152 193 255
152 193 255
152 193 255
152 193 255
152 193 255
152 193 255
152 193 255
152 194 255
152 194 255
152 194 255
152 194 255
152 194 255
153 194 255
153 194 255
153 194 255
153 194 255
153 194 255
153 194 255
153 194 255
153 194 255
153 194 255
153 194 255
153 194 255
153 194 255
153 194 255
153 194 255
154 194 255
154 194 255
154 194 255
154 195 255
154 195 255
154 195 255
154 195 255
154 195 255
154 195 255
154 195 255
154 195 255
155 195 255
155 195 255
155 195 255
155 195 255
155 195 255
155 195 255
155 195 255
155 195 255
155 195 255
155 195 255
156 196 255
156 196 255
156 196 255
156 196 255
156 196 255
156 196 255
156 196 255
156 196 255
156 196 255
156 196 255
157 196 255
157 196 255
157 196 255
157 196 255
157 196 255
157 196 255
157 197 255
157 197 255
157 197 255
157 197 255
158 197 255
158 197 255
158 197 255
158 197 255
158 197 255
158 197 255
158 197 255
158 197 255
158 197 255
159 197 255
159 197 255
159 197 255
159 198 255
159 198 255
159 198 255
159 198 255
159 198 255
159 198 255
160 198 255
160 198 255
160 198 255
160 198 255
160 198 255
160 198 255
160 198 255
160 198 255
160 198 255
160 198 255
161 199 255
161 199 255
161 199 255
161 199 255
161 199 255
161 199 255
161 199 255
161 199 255
161 199 255
162 199 255
162 199 255
162 199 255
162 199 255
162 199 255
162 199 255
162 199 255
162 200 255
162 200 255
162 200 255
163 200 255
163 200 255
163 200 255
163 200 255
163 200 255
163 200 255
163 200 255
163 200 255
163 200 255
163 200 255
164 200 255
164 200 255
164 200 255
164 200 255
164 201 255
164 201 255
164 201 255
164 201 255
164 201 255
164 201 255
164 201 255
165 201 255
165 201 255
165 201 255
165 201 255
165 201 255
165 201 255
165 201 255
165 201 255
165 201 255
165 201 255
165 201 255
166 202 255
166 202 255
166 202 255
166 202 255
166 202 255
166 202 255
166 202 255
166 202 255
166 202 255
166 202 255
166 202 255
167 202 255
167 202 255
167 202 255
167 202 255
167 202 255
167 202 255
167 202 255
167 202 255
167 202 255
167 203 255
167 203 255
167 203 255
167 203 255
168 203 255
168 203 255
168 203 255
168 203 255
168 203 255
168 203 255
168 203 255
168 203 255
168 203 255
168 203 255
168 203 255
168 203 255
168 203 255
167 203 255
167 203 255
167 203 255
167 203 255
167 202 255
167 202 255
167 202 255
167 202 255
167 202 255
167 202 255
167 202 255
167 202 255
166 202 255
166 202 255
166 202 255
166 202 255
166 202 255
166 202 255
166 202 255
166 202 255
166 202 255
166 202 255
166 202 255
166 202 255
165 201 255
165 201 255
165 201 255
165 201 255
165 201 255
165 201 255
165 201 255
165 201 255
165 201 255
165 201 255
165 201 255
164 201 255
164 201 255
164 201 255
164 201 255
164 201 255
164 201 255
164 201 255
164 200 255
164 200 255
164 200 255
163 200 255
163 200 255
163 200 255
163 200 255
163 200 255
163 200 255
163 200 255
163 200 255
163 200 255
163 200 255
162 200 255
162 200 255
162 200 255
162 199 255
162 199 255
162 199 255
162 199 255
162 199 255
162 199 255
162 199 255
161 199 255
161 199 255
161 199 255
161 199 255
161 199 255
161 199 255
161 199 255
161 199 255
161 199 255
161 199 255
160 198 255
160 198 255
160 198 255
160 198 255
160 198 255
160 198 255
160 198 255
160 198 255
160 198 255
159 198 255
159 198 255
159 198 255
159 198 255
159 198 255
159 198 255
159 197 255
159 197 255
159 197 255
158 197 255
158 197 255
158 197 255
158 197 255
158 197 255
158 197 255
158 197 255
158 197 255
158 197 255
158 197 255
157 197 255
157 197 255
157 197 255
157 196 255
157 196 255
157 196 255
157 196 255
157 196 255
157 196 255
156 196 255
156 196 255
156 196 255
156 196 255
156 196 255
156 196 255
156 196 255
156 196 255
156 196 255
156 196 255
155 195 255
155 195 255
155 195 255
155 195 255
155 195 255
155 195 255
155 195 255
155 195 255
155 195 255
155 195 255
155 195 255
154 195 255
154 195 255
154 195 255
154 195 255
154 195 255
154 195 255
154 195 255
154 195 255
154 194 255
154 194 255
154 194 255
154 194 255
153 194 255
153 194 255
153 194 255
153 194 255
153 194 255
153 194 255
153 194 255
153 194 255
153 194 255
153 194 255
153 194 255
153 194 255
153 194 255
153 194 255
153 194 255
152 194 255
152 194 255
152 194 255
152 194 255
152 194 255
152 194 255
152 193 255
152 193 255
152 193 255
152 193 255
152 193 255
152 193 255
152 193 255
152 193 255
152 193 255
152 193 255
152 193 255
152 193 255
152 193 255
152 193 255
152 193 255
152 193 255
152 193 255
152 193 255
152 193 255
152 193 255
152 193 255
152 193 255
152 193 255
152 193 255
152 193 255
152 193 255
152 193 255
152 193 255
152 193 255
152 193 255
152 193 255
152 193 255
152 193 255
152 193 255
152 193 255
152 193 255
152 193 255
152 193 255
152 193 255
152 193 255
152 193 255
152 193 255
152 193 255
152 193 255
152 193 255
152 193 255
152 193 255
152 193 255
152 193 255
152 193 255
152 193 255
152 193 255
152 194 255
152 194 255
152 194 255
152 194 255
152 194 255
152 194 255
152 194 255
153 194 255
153 194 255
153 194 255
153 194 255
153 194 255
153 194 255
153 194 255
153 194 255
153 194 255
153 194 255
153 194 255
153 194 255
153 194 255
153 194 255
154 194 255
154 194 255
154 194 255
154 194 255
154 195 255
154 195 255
154 195 255
154 195 255
154 195 255
154 195 255
154 195 255
154 195 255
155 195 255
155 195 255
155 195 255
155 195 255
155 195 255
155 195 255
155 195 255
155 195 255
155 195 255
155 195 255
155 195 255
156 196 255
156 196 255
156 196 255
156 196 255
156 196 255
156 196 255
156 196 255
156 196 255
156 196 255
156 196 255
157 196 255
157 196 255
157 196 255
157 196 255
157 196 255
157 196 255
157 197 255
157 197 255
157 197 255
158 197 255
158 197 255
158 197 255
158 197 255
158 197 255
158 197 255
158 197 255
158 197 255
158 197 255
158 197 255
159 197 255
159 197 255
159 197 255
159 198 255
159 198 255
159 198 255
159 198 255
159 198 255
159 198 255
160 198 255
160 198 255
160 198 255
160 198 255
160 198 255
160 198 255
160 198 255
160 198 255
160 198 255
161 199 255
161 199 255
161 199 255
161 199 255
161 199 255
161 199 255
161 199 255
161 199 255
161 199 255
161 199 255
162 199 255
162 199 255
162 199 255
162 199 255
162 199 255
162 199 255
162 199 255
162 200 255
162 200 255
162 200 255
163 200 255
163 200 255
163 200 255
163 200 255
163 200 255
163 200 255
163 200 255
163 200 255
163 200 255
163 200 255
164 200 255
164 200 255
164 200 255
164 201 255
164 201 255
164 201 255
164 201 255
164 201 255
164 201 255
164 201 255
165 201 255
165 201 255
165 201 255
165 201 255
165 201 255
165 201 255
165 201 255
165 201 255
165 201 255
165 201 255
165 201 255
166 202 255
166 202 255
166 202 255
166 202 255
166 202 255
166 202 255
166 202 255
166 202 255
166 202 255
166 202 255
166 202 255
166 202 255
167 202 255
167 202 255
167 202 255
167 202 255
167 202 255
167 202 255
167 202 255
167 202 255
167 203 255
167 203 255
167 203 255
167 203 255
168 203 255
168 203 255
168 203 255
168 203 255
168 203 255
168 203 255
168 203 255
168 203 255
168 203 255
168 203 255
168 203 255
168 203 255
168 203 255
168 203 255
168 203 255
168 203 255
168 203 255
168 203 255
168 203 255
167 203 255
167 203 255
167 203 255
167 203 255
167 202 255
167 202 255
167 202 255
167 202 255
167 202 255
167 202 255
167 202 255
167 202 255
166 202 255
166 202 255
166 202 255
166 202 255
166 202 255
166 202 255
166 202 255
166 202 255
166 202 255
166 202 255
166 202 255
166 202 255
165 201 255
165 201 255
165 201 255
165 201 255
165 201 255
165 201 255
165 201 255
165 201 255
165 201 255
165 201 255
164 201 255
164 201 255
164 201 255
164 201 255
164 201 255
164 201 255
164 201 255
164 200 255
164 200 255
164 200 255
164 200 255
163 200 255
163 200 255
163 200 255
163 200 255
163 200 255
163 200 255
163 200 255
163 200 255
163 200 255
163 200 255
162 200 255
162 200 255
162 200 255
162 199 255
162 199 255
162 199 255
162 199 255
162 199 255
162 199 255
162 199 255
161 199 255
161 199 255
161 199 255
161 199 255
161 199 255
161 199 255
161 199 255
161 199 255
161 199 255
160 198 255
160 198 255
160 198 255
160 198 255
160 198 255
160 198 255
160 198 255
160 198 255
160 198 255
160 198 255
159 198 255
159 198 255
159 198 255
159 198 255
159 198 255
159 198 255
159 197 255
159 197 255
159 197 255
158 197 255
158 197 255
158 197 255
158 197 255
158 197 255
158 197 255
158 197 255
158 197 255
158 197 255
158 197 255
157 197 255
157 197 255
157 197 255
157 196 255
157 196 255
157 196 255
157 196 255
157 196 255
157 196 255
156 196 255
156 196 255
156 196 255
156 196 255
156 196 255
156 196 255
156 196 255
156 196 255
156 196 255
156 196 255
155 195 255
155 195 255
155 195 255
155 195 255
155 195 255
155 195 255
155 195 255
155 195 255
155 195 255
155 195 255
155 195 255
154 195 255
154 195 255
154 195 255
154 195 255
154 195 255
154 195 255
154 195 255
154 195 255
154 194 255
154 194 255
154 194 255
154 194 255
153 194 255
153 194 255
153 194 255
153 194 255
153 194 255
153 194 255
153 194 255
153 194 255
153 194 255
153 194 255
153 194 255
153 194 255
153 194 255
153 194 255
153 194 255
153 194 255
153 194 255
152 194 255
152 194 255
152 194 255
152 194 255
152 194 255
152 194 255
152 194 255
152 193 255
152 193 255
152 193 255
152 193 255
152 193 255
152 193 255
152 193 255
152 193 255
152 193 255
152 193 255
152 193 255
152 193 255
152 193 255
152 193 255
152 193 255
152 193 255
152 193 255
152 193 255
152 193 255
152 193 255
152 193 255
152 193 255
152 193 255
152 193 255
152 193 255
152 193 255
152 193 255
152 193 255
152 193 255
152 193 255
152 193 255
152 193 255
152 193 255
152 193 255
152 193 255
152 193 255
152 193 255
152 193 255
152 193 255
152 193 255
152 194 255
152 194 255
152 194 255
152 194 255
152 194 255
152 194 255
152 194 255
153 194 255
153 194 255
153 194 255
153 194 255
153 194 255
153 194 255
153 194 255
153 194 255
153 194 255
153 194 255
153 194 255
153 194 255
153 194 255
153 194 255
153 194 255
153 194 255
154 194 255
154 194 255
154 194 255
154 194 255
154 194 255
154 195 255
154 195 255
154 195 255
154 195 255
154 195 255
154 195 255
154 195 255
154 195 255
155 195 255
155 195 255
155 195 255
155 195 255
155 195 255
155 195 255
155 195 255
155 195 255
155 195 255
155 195 255
155 195 255
156 196 255
156 196 255
156 196 255
156 196 255
156 196 255
156 196 255
156 196 255
156 196 255
156 196 255
156 196 255
157 196 255
157 196 255
157 196 255
157 196 255
157 196 255
157 196 255
157 197 255
157 197 255
157 197 255
157 197 255
158 197 255
158 197 255
158 197 255
158 197 255
158 197 255
158 197 255
158 197 255
158 197 255
158 197 255
159 197 255
159 197 255
159 197 255
159 198 255
159 198 255
159 198 255
159 198 255
159 198 255
159 198 255
160 198 255
160 198 255
160 198 255
160 198 255
160 198 255
160 198 255
160 198 255
160 198 255
160 198 255
160 198 255
161 199 255
161 199 255
161 199 255
161 199 255
161 199 255
161 199 255
161 199 255
161 199 255
161 199 255
162 199 255
162 199 255
162 199 255
162 199 255
162 199 255
162 199 255
162 199 255
162 200 255
162 200 255
162 200 255
163 200 255
163 200 255
163 200 255
163 200 255
163 200 255
163 200 255
163 200 255
163 200 255
163 200 255
163 200 255
164 200 255
164 200 255
164 200 255
164 200 255
164 201 255
164 201 255
164 201 255
164 201 255
164 201 255
164 201 255
164 201 255
165 201 255
165 201 255
165 201 255
165 201 255
165 201 255
165 201 255
165 201 255
165 201 255
165 201 255
165 201 255
165 201 255
166 202 255
166 202 255
166 202 255
166 202 255
166 202 255
166 202 255
166 202 255
166 202 255
166 202 255
166 202 255
166 202 255
167 202 255
167 202 255
167 202 255
167 202 255
167 202 255
167 202 255
167 202 255
167 202 255
167 203 255
167 203 255
167 203 255
167 203 255
168 203 255
168 203 255
168 203 255
168 203 255
168 203 255
168 203 255
168 203 255
168 203 255
168 203 255
168 203 255
168 203 255
169 203 255
168 203 255
168 203 255
168 203 255
168 203 255
168 203 255
168 203 255
168 203 255
168 203 255
168 203 255
168 203 255
168 203 255
168 203 255
168 203 255
167 203 255
167 203 255
167 203 255
167 203 255
167 202 255
167 202 255
167 202 255
167 202 255
167 202 255
167 202 255
167 202 255
167 202 255
166 202 255
166 202 255
166 202 255
166 202 255
166 202 255
166 202 255
166 202 255
166 202 255
166 202 255
166 202 255
166 202 255
165 201 255
165 201 255
165 201 255
165 201 255
165 201 255
165 201 255
165 201 255
165 201 255
165 201 255
165 201 255
165 201 255
164 201 255
164 201 255
164 201 255
164 201 255
164 201 255
164 201 255
164 201 255
164 200 255
164 200 255
164 200 255
163 200 255
163 200 255
163 200 255
163 200 255
163 200 255
163 200 255
163 200 255
163 200 255
163 200 255
163 200 255
162 200 255
162 200 255
162 200 255
162 200 255
162 199 255
162 199 255
162 199 255
162 199 255
162 199 255
162 199 255
161 199 255
161 199 255
161 199 255
161 199 255
161 199 255
161 199 255
161 199 255
161 199 255
161 199 255
161 199 255
160 198 255
160 198 255
160 198 255
160 198 255
160 198 255
160 198 255
160 198 255
160 198 255
160 198 255
159 198 255
159 198 255
159 198 255
159 198 255
159 198 255
159 198 255
159 197 255
159 197 255
159 197 255
159 197 255
158 197 255
158 197 255
158 197 255
158 197 255
158 197 255
158 197 255
158 197 255
158 197 255
158 197 255
157 197 255
157 197 255
157 197 255
157 196 255
157 196 255
157 196 255
157 196 255
157 196 255
157 196 255
157 196 255
156 196 255
156 196 255
156 196 255
156 196 255
156 196 255
156 196 255
156 196 255
156 196 255
156 196 255
156 196 255
155 195 255
155 195 255
155 195 255
155 195 255
155 195 255
155 195 255
155 195 255
155 195 255
155 195 255
155 195 255
155 195 255
154 195 255
154 195 255
154 195 255
154 195 255
154 195 255
154 195 255
154 195 255
154 195 255
154 195 255
154 194 255
154 194 255
154 194 255
154 194 255
153 194 255
153 194 255
153 194 255
153 194 255
153 194 255
153 194 255
153 194 255
153 194 255
153 194 255
153 194 255
153 194 255
153 194 255
153 194 255
153 194 255
153 194 255
153 194 255
153 194 255
153 194 255
153 194 255
152 194 255
152 194 255
152 194 255
152 194 255
152 194 255
152 194 255
152 194 255
152 194 255
152 194 255
152 194 255
152 194 255
152 193 255
152 193 255
152 193 255
152 193 255
152 193 255
152 193 255
152 193 255
152 193 255
152 193 255
152 193 255
152 193 255
152 193 255
152 193 255
152 193 255
152 193 255
152 193 255
152 193 255
152 193 255
152 193 255
152 193 255
152 194 255
152 194 255
152 194 255
152 194 255
152 194 255
152 194 255
152 194 255
152 194 255
152 194 255
152 194 255
152 194 255
153 194 255
153 194 255
153 194 255
153 194 255
153 194 255
153 194 255
153 194 255
153 194 255
153 194 255
153 194 255
153 194 255
153 194 255
153 194 255
153 194 255
153 194 255
153 194 255
153 194 255
153 194 255
153 194 255
154 194 255
154 194 255
154 194 255
154 194 255
154 195 255
154 195 255
154 195 255
154 195 255
154 195 255
154 195 255
154 195 255
154 195 255
154 195 255
155 195 255
155 195 255
155 195 255
155 195 255
155 195 255
155 195 255
155 195 255
155 195 255
155 195 255
155 195 255
155 195 255
156 196 255
156 196 255
156 196 255
156 196 255
156 196 255
156 196 255
156 196 255
156 196 255
156 196 255
156 196 255
157 196 255
157 196 255
157 196 255
157 196 255
157 196 255
157 196 255
157 196 255
157 197 255
157 197 255
157 197 255
158 197 255
158 197 255
158 197 255
158 197 255
158 197 255
158 197 255
158 197 255
158 197 255
158 197 255
158 197 255
159 197 255
159 197 255
159 197 255
159 198 255
159 198 255
159 198 255
159 198 255
159 198 255
159 198 255
160 198 255
160 198 255
160 198 255
160 198 255
160 198 255
160 198 255
160 198 255
160 198 255
160 198 255
161 199 255
161 199 255
161 199 255
161 199 255
161 199 255
161 199 255
161 199 255
161 199 255
161 199 255
161 199 255
162 199 255
162 199 255
162 199 255
162 199 255
162 199 255
162 199 255
162 200 255
162 200 255
162 200 255
162 200 255
163 200 255
163 200 255
163 200 255
163 200 255
163 200 255
163 200 255
163 200 255
163 200 255
163 200 255
163 200 255
164 200 255
164 200 255
164 200 255
164 201 255
164 201 255
164 201 255
164 201 255
164 201 255
164 201 255
164 201 255
165 201 255
165 201 255
165 201 255
165 201 255
165 201 255
165 201 255
165 201 255
165 201 255
165 201 255
165 201 255
165 201 255
166 202 255
166 202 255
166 202 255
166 202 255
166 202 255
166 202 255
166 202 255
166 202 255
166 202 255
166 202 255
166 202 255
167 202 255
167 202 255
167 202 255
167 202 255
167 202 255
167 202 255
167 202 255
167 202 255
167 203 255
167 203 255
167 203 255
167 203 255
168 203 255
168 203 255
168 203 255
168 203 255
168 203 255
168 203 255
168 203 255
168 203 255
168 203 255
168 203 255
168 203 255
168 203 255
168 203 255
169 203 255
169 203 255
169 203 255
169 203 255
169 203 255
168 203 255
168 203 255
168 203 255
168 203 255
168 203 255
168 203 255
168 203 255
168 203 255
168 203 255
168 203 255
168 203 255
168 203 255
168 203 255
167 203 255
167 203 255
167 203 255
167 203 255
167 202 255
167 202 255
167 202 255
167 202 255
167 202 255
167 202 255
167 202 255
167 202 255
166 202 255
166 202 255
166 202 255
166 202 255
166 202 255
166 202 255
166 202 255
166 202 255
166 202 255
166 202 255
166 202 255
165 201 255
165 201 255
165 201 255
165 201 255
165 201 255
165 201 255
165 201 255
165 201 255
165 201 255
165 201 255
165 201 255
164 201 255
164 201 255
164 201 255
164 201 255
164 201 255
164 201 255
164 201 255
164 200 255
164 200 255
164 200 255
163 200 255
163 200 255
163 200 255
163 200 255
163 200 255
163 200 255
163 200 255
163 200 255
163 200 255
163 200 255
162 200 255
162 200 255
162 200 255
162 199 255
162 199 255
162 199 255
162 199 255
162 199 255
162 199 255
162 199 255
161 199 255
161 199 255
161 199 255
161 199 255
161 199 255
161 199 255
161 199 255
161 199 255
161 199 255
160 198 255
160 198 255
160 198 255
160 198 255
160 198 255
160 198 255
160 198 255
160 198 255
160 198 255
160 198 255
159 198 255
159 198 255
159 198 255
159 198 255
159 198 255
159 198 255
159 197 255
159 197 255
159 197 255
158 197 255
158 197 255
158 197 255
158 197 255
158 197 255
158 197 255
158 197 255
158 197 255
158 197 255
158 197 255
157 197 255
157 197 255
157 197 255
157 196 255
157 196 255
157 196 255
157 196 255
157 196 255
157 196 255
157 196 255
156 196 255
156 196 255
156 196 255
156 196 255
156 196 255
156 196 255
156 196 255
156 196 255
156 196 255
156 196 255
155 195 255
155 195 255
155 195 255
155 195 255
155 195 255
155 195 255
155 195 255
155 195 255
155 195 255
155 195 255
155 195 255
155 195 255
154 195 255
154 195 255
154 195 255
154 195 255
154 195 255
154 195 255
154 195 255
154 195 255
154 195 255
154 194 255
154 194 255
154 194 255
154 194 255
154 194 255
153 194 255
153 194 255
153 194 255
153 194 255
153 194 255
153 194 255
153 194 255
153 194 255
153 194 255
153 194 255
153 194 255
153 194 255
153 194 255
153 194 255
153 194 255
153 194 255
153 194 255
153 194 255
153 194 255
153 194 255
153 194 255
153 194 255
152 194 255
152 194 255
152 194 255
152 194 255
152 194 255
152 194 255
152 194 255
152 194 255
152 194 255
152 194 255
152 194 255
152 194 255
152 194 255
152 194 255
152 194 255
152 194 255
152 194 255
152 194 255
152 194 255
152 194 255
152 194 255
152 194 255
152 194 255
152 194 255
152 194 255
152 194 255
153 194 255
153 194 255
153 194 255
153 194 255
153 194 255
153 194 255
153 194 255
153 194 255
153 194 255
153 194 255
153 194 255
153 194 255
153 194 255
153 194 255
153 194 255
153 194 255
153 194 255
153 194 255
153 194 255
153 194 255
153 194 255
153 194 255
154 194 255
154 194 255
154 194 255
154 194 255
154 194 255
154 195 255
154 195 255
154 195 255
154 195 255
154 195 255
154 195 255
154 195 255
154 195 255
154 195 255
155 195 255
155 195 255
155 195 255
155 195 255
155 195 255
155 195 255
155 195 255
155 195 255
155 195 255
155 195 255
155 195 255
155 195 255
156 196 255
156 196 255
156 196 255
156 196 255
156 196 255
156 196 255
156 196 255
156 196 255
156 196 255
156 196 255
157 196 255
157 196 255
157 196 255
157 196 255
157 196 255
157 196 255
157 196 255
157 197 255
157 197 255
157 197 255
158 197 255
158 197 255
158 197 255
158 197 255
158 197 255
158 197 255
158 197 255
158 197 255
158 197 255
158 197 255
159 197 255
159 197 255
159 197 255
159 198 255
159 198 255
159 198 255
159 198 255
159 198 255
159 198 255
160 198 255
160 198 255
160 198 255
160 198 255
160 198 255
160 198 255
160 198 255
160 198 255
160 198 255
160 198 255
161 199 255
161 199 255
161 199 255
161 199 255
161 199 255
161 199 255
161 199 255
161 199 255
161 199 255
162 199 255
162 199 255
162 199 255
162 199 255
162 199 255
162 199 255
162 199 255
162 200 255
162 200 255
162 200 255
163 200 255
163 200 255
163 200 255
163 200 255
163 200 255
163 200 255
163 200 255
163 200 255
163 200 255
163 200 255
164 200 255
164 200 255
164 200 255
164 201 255
164 201 255
164 201 255
164 201 255
164 201 255
164 201 255
164 201 255
165 201 255
165 201 255
165 201 255
165 201 255
165 201 255
165 201 255
165 201 255
165 201 255
165 201 255
165 201 255
165 201 255
166 202 255
166 202 255
166 202 255
166 202 255
166 202 255
166 202 255
166 202 255
166 202 255
166 202 255
166 202 255
166 202 255
167 202 255
167 202 255
167 202 255
167 202 255
167 202 255
167 202 255
167 202 255
167 202 255
167 203 255
167 203 255
167 203 255
167 203 255
168 203 255
168 203 255
168 203 255
168 203 255
168 203 255
168 203 255
168 203 255
168 203 255
168 203 255
168 203 255
168 203 255
168 203 255
168 203 255
169 203 255
169 203 255
169 203 255
169 203 255
169 204 255
169 204 255
169 204 255
169 203 255
169 203 255
169 203 255
169 203 255
168 203 255
168 203 255
168 203 255
168 203 255
168 203 255
168 203 255
168 203 255
168 203 255
168 203 255
168 203 255
168 203 255
168 203 255
168 203 255
167 203 255
167 203 255
167 203 255
167 203 255
167 202 255
167 202 255
167 202 255
167 202 255
167 202 255
167 202 255
167 202 255
166 202 255
166 202 255
166 202 255
166 202 255
166 202 255
166 202 255
166 202 255
166 202 255
166 202 255
166 202 255
166 202 255
166 202 255
165 201 255
165 201 255
165 201 255
165 201 255
165 201 255
165 201 255
165 201 255
165 201 255
165 201 255
165 201 255
164 201 255
164 201 255
164 201 255
164 201 255
164 201 255
164 201 255
164 201 255
164 200 255
164 200 255
164 200 255
164 200 255
163 200 255
163 200 255
163 200 255
163 200 255
163 200 255
163 200 255
163 200 255
163 200 255
163 200 255
163 200 255
162 200 255
162 200 255
162 200 255
162 199 255
162 199 255
162 199 255
162 199 255
162 199 255
162 199 255
161 199 255
161 199 255
161 199 255
161 199 255
161 199 255
161 199 255
161 199 255
161 199 255
161 199 255
161 199 255
160 198 255
160 198 255
160 198 255
160 198 255
160 198 255
160 198 255
160 198 255
160 198 255
160 198 255
159 198 255
159 198 255
159 198 255
159 198 255
159 198 255
159 198 255
159 198 255
159 197 255
159 197 255
159 197 255
158 197 255
158 197 255
158 197 255
158 197 255
158 197 255
158 197 255
158 197 255
158 197 255
158 197 255
158 197 255
157 197 255
157 197 255
157 197 255
157 196 255
157 196 255
157 196 255
157 196 255
157 196 255
157 196 255
157 196 255
156 196 255
156 196 255
156 196 255
156 196 255
156 196 255
156 196 255
156 196 255
156 196 255
156 196 255
156 196 255
155 195 255
155 195 255
155 195 255
155 195 255
155 195 255
155 195 255
155 195 255
155 195 255
155 195 255
155 195 255
155 195 255
155 195 255
154 195 255
154 195 255
154 195 255
154 195 255
154 195 255
154 195 255
154 195 255
154 195 255
154 195 255
154 195 255
154 194 255
154 194 255
154 194 255
154 194 255
154 194 255
154 194 255
153 194 255
153 194 255
153 194 255
153 194 255
153 194 255
153 194 255
153 194 255
153 194 255
153 194 255
153 194 255
153 194 255
153 194 255
153 194 255
153 194 255
153 194 255
153 194 255
153 194 255
153 194 255
153 194 255
153 194 255
153 194 255
153 194 255
153 194 255
153 194 255
153 194 255
153 194 255
153 194 255
153 194 255
153 194 255
153 194 255
153 194 255
153 194 255
153 194 255
153 194 255
153 194 255
153 194 255
153 194 255
153 194 255
153 194 255
153 194 255
153 194 255
153 194 255
153 194 255
153 194 255
153 194 255
153 194 255
153 194 255
153 194 255
153 194 255
153 194 255
153 194 255
153 194 255
153 194 255
153 194 255
153 194 255
153 194 255
153 194 255
153 194 255
153 194 255
153 194 255
154 194 255
154 194 255
154 194 255
154 194 255
154 194 255
154 194 255
154 195 255
154 195 255
154 195 255
154 195 255
154 195 255
154 195 255
154 195 255
154 195 255
154 195 255
154 195 255
155 195 255
155 195 255
155 195 255
155 195 255
155 195 255
155 195 255
155 195 255
155 195 255
155 195 255
155 195 255
155 195 255
155 195 255
156 196 255
156 196 255
156 196 255
156 196 255
156 196 255
156 196 255
156 196 255
156 196 255
156 196 255
156 196 255
157 196 255
157 196 255
157 196 255
157 196 255
157 196 255
157 196 255
157 196 255
157 197 255
157 197 255
157 197 255
158 197 255
158 197 255
158 197 255
158 197 255
158 197 255
158 197 255
158 197 255
158 197 255
158 197 255
158 197 255
159 197 255
159 197 255
159 197 255
159 198 255
159 198 255
159 198 255
159 198 255
159 198 255
159 198 255
159 198 255
160 198 255
160 198 255
160 198 255
160 198 255
160 198 255
160 198 255
160 198 255
160 198 255
160 198 255
161 199 255
161 199 255
161 199 255
161 199 255
161 199 255
161 199 255
161 199 255
161 199 255
161 199 255
161 199 255
162 199 255
162 199 255
162 199 255
162 199 255
162 199 255
162 199 255
162 200 255
162 200 255
162 200 255
163 200 255
163 200 255
163 200 255
163 200 255
163 200 255
163 200 255
163 200 255
163 200 255
163 200 255
163 200 255
164 200 255
164 200 255
164 200 255
164 200 255
164 201 255
164 201 255
164 201 255
164 201 255
164 201 255
164 201 255
164 201 255
165 201 255
165 201 255
165 201 255
165 201 255
165 201 255
165 201 255
165 201 255
165 201 255
165 201 255
165 201 255
166 202 255
166 202 255
166 202 255
166 202 255
166 202 255
166 202 255
166 202 255
166 202 255
166 202 255
166 202 255
166 202 255
166 202 255
167 202 255
167 202 255
167 202 255
167 202 255
167 202 255
167 202 255
167 202 255
167 203 255
167 203 255
167 203 255
167 203 255
168 203 255
168 203 255
168 203 255
168 203 255
168 203 255
168 203 255
168 203 255
168 203 255
168 203 255
168 203 255
168 203 255
168 203 255
168 203 255
169 203 255
169 203 255
169 203 255
169 203 255
169 204 255
169 204 255
169 204 255
169 204 255
169 204 255
169 204 255
169 204 255
169 204 255
169 204 255
169 203 255
169 203 255
169 203 255
169 203 255
168 203 255
168 203 255
168 203 255
168 203 255
168 203 255
168 203 255
168 203 255
168 203 255
168 203 255
168 203 255
168 203 255
168 203 255
167 203 255
167 203 255
167 203 255
167 203 255
167 203 255
167 202 255
167 202 255
167 202 255
167 202 255
167 202 255
167 202 255
167 202 255
166 202 255
166 202 255
166 202 255
166 202 255
166 202 255
166 202 255
166 202 255
166 202 255
166 202 255
166 202 255
166 202 255
165 201 255
165 201 255
165 201 255
165 201 255
165 201 255
165 201 255
165 201 255
165 201 255
165 201 255
165 201 255
165 201 255
164 201 255
164 201 255
164 201 255
164 201 255
164 201 255
164 201 255
164 201 255
164 200 255
164 200 255
164 200 255
163 200 255
163 200 255
163 200 255
163 200 255
163 200 255
163 200 255
163 200 255
163 200 255
163 200 255
163 200 255
162 200 255
162 200 255
162 200 255
162 200 255
162 199 255
162 199 255
162 199 255
162 199 255
162 199 255
162 199 255
161 199 255
161 199 255
161 199 255
161 199 255
161 199 255
161 199 255
161 199 255
161 199 255
161 199 255
160 198 255
160 198 255
160 198 255
160 198 255
160 198 255
160 198 255
160 198 255
160 198 255
160 198 255
160 198 255
159 198 255
159 198 255
159 198 255
159 198 255
159 198 255
159 198 255
159 198 255
159 197 255
159 197 255
159 197 255
158 197 255
158 197 255
158 197 255
158 197 255
158 197 255
158 197 255
158 197 255
158 197 255
158 197 255
157 197 255
157 197 255
157 197 255
157 197 255
157 196 255
157 196 255
157 196 255
157 196 255
157 196 255
157 196 255
157 196 255
156 196 255
156 196 255
156 196 255
156 196 255
156 196 255
156 196 255
156 196 255
156 196 255
156 196 255
156 196 255
156 196 255
155 195 255
155 195 255
155 195 255
155 195 255
155 195 255
155 195 255
155 195 255
155 195 255
155 195 255
155 195 255
155 195 255
155 195 255
154 195 255
154 195 255
154 195 255
154 195 255
154 195 255
154 195 255
154 195 255
154 195 255
154 195 255
154 195 255
154 195 255
154 194 255
154 194 255
154 194 255
154 194 255
154 194 255
154 194 255
153 194 255
153 194 255
153 194 255
153 194 255
153 194 255
153 194 255
153 194 255
153 194 255
153 194 255
153 194 255
153 194 255
153 194 255
153 194 255
153 194 255
153 194 255
153 194 255
153 194 255
153 194 255
153 194 255
153 194 255
153 194 255
153 194 255
153 194 255
153 194 255
153 194 255
153 194 255
153 194 255
153 194 255
153 194 255
153 194 255
153 194 255
153 194 255
153 194 255
153 194 255
153 194 255
153 194 255
153 194 255
153 194 255
153 194 255
153 194 255
153 194 255
153 194 255
153 194 255
153 194 255
153 194 255
153 194 255
153 194 255
153 194 255
153 194 255
153 194 255
154 194 255
154 194 255
154 194 255
154 194 255
154 194 255
154 194 255
154 195 255
154 195 255
154 195 255
154 195 255
154 195 255
154 195 255
154 195 255
154 195 255
154 195 255
154 195 255
154 195 255
155 195 255
155 195 255
155 195 255
155 195 255
155 195 255
155 195 255
155 195 255
155 195 255
155 195 255
155 195 255
155 195 255
155 195 255
156 196 255
156 196 255
156 196 255
156 196 255
156 196 255
156 196 255
156 196 255
156 196 255
156 196 255
156 196 255
156 196 255
156 196 255
157 196 255
157 196 255
157 196 255
157 196 255
157 196 255
157 196 255
157 197 255
157 197 255
157 197 255
157 197 255
158 197 255
158 197 255
158 197 255
158 197 255
158 197 255
158 197 255
158 197 255
158 197 255
158 197 255
159 197 255
159 197 255
159 197 255
159 198 255
159 198 255
159 198 255
159 198 255
159 198 255
159 198 255
159 198 255
160 198 255
160 198 255
160 198 255
160 198 255
160 198 255
160 198 255
160 198 255
160 198 255
160 198 255
160 198 255
161 199 255
161 199 255
161 199 255
161 199 255
161 199 255
161 199 255
161 199 255
161 199 255
161 199 255
162 199 255
162 199 255
162 199 255
162 199 255
162 199 255
162 199 255
162 200 255
162 200 255
162 200 255
162 200 255
163 200 255
163 200 255
163 200 255
163 200 255
163 200 255
163 200 255
163 200 255
163 200 255
163 200 255
163 200 255
164 200 255
164 200 255
164 200 255
164 201 255
164 201 255
164 201 255
164 201 255
164 201 255
164 201 255
164 201 255
165 201 255
165 201 255
165 201 255
165 201 255
165 201 255
165 201 255
165 201 255
165 201 255
165 201 255
165 201 255
165 201 255
166 202 255
166 202 255
166 202 255
166 202 255
166 202 255
166 202 255
166 202 255
166 202 255
166 202 255
166 202 255
166 202 255
167 202 255
167 202 255
167 202 255
167 202 255
167 202 255
167 202 255
167 202 255
167 202 255
167 203 255
167 203 255
167 203 255
168 203 255
168 203 255
168 203 255
168 203 255
168 203 255
168 203 255
168 203 255
168 203 255
168 203 255
168 203 255
168 203 255
168 203 255
168 203 255
169 203 255
169 203 255
169 203 255
169 203 255
169 204 255
169 204 255
169 204 255
169 204 255
169 204 255
169 204 255
169 204 255
169 204 255
169 204 255
169 204 255
169 204 255
169 204 255
169 204 255
169 204 255
169 204 255
169 203 255
169 203 255
169 203 255
169 203 255
168 203 255
168 203 255
168 203 255
168 203 255
168 203 255
168 203 255
168 203 255
168 203 255
168 203 255
168 203 255
168 203 255
168 203 255
167 203 255
167 203 255
167 203 255
167 203 255
167 202 255
167 202 255
167 202 255
167 202 255
167 202 255
167 202 255
167 202 255
167 202 255
166 202 255
166 202 255
166 202 255
166 202 255
166 202 255
166 202 255
166 202 255
166 202 255
166 202 255
166 202 255
166 202 255
165 201 255
165 201 255
165 201 255
165 201 255
165 201 255
165 201 255
165 201 255
165 201 255
165 201 255
165 201 255
165 201 255
164 201 255
164 201 255
164 201 255
164 201 255
164 201 255
164 201 255
164 201 255
164 200 255
164 200 255
164 200 255
163 200 255
163 200 255
163 200 255
163 200 255
163 200 255
163 200 255
163 200 255
163 200 255
163 200 255
163 200 255
162 200 255
162 200 255
162 200 255
162 199 255
162 199 255
162 199 255
162 199 255
162 199 255
162 199 255
161 199 255
161 199 255
161 199 255
161 199 255
161 199 255
161 199 255
161 199 255
161 199 255
161 199 255
161 199 255
160 198 255
160 198 255
160 198 255
160 198 255
160 198 255
160 198 255
160 198 255
160 198 255
160 198 255
160 198 255
159 198 255
159 198 255
159 198 255
159 198 255
159 198 255
159 198 255
159 197 255
159 197 255
159 197 255
158 197 255
158 197 255
158 197 255
158 197 255
158 197 255
158 197 255
158 197 255
158 197 255
158 197 255
158 197 255
157 197 255
157 197 255
157 197 255
157 197 255
157 196 255
157 196 255
157 196 255
157 196 255
157 196 255
157 196 255
157 196 255
156 196 255
156 196 255
156 196 255
156 196 255
156 196 255
156 196 255
156 196 255
156 196 255
156 196 255
156 196 255
156 196 255
155 195 255
155 195 255
155 195 255
155 195 255
155 195 255
155 195 255
155 195 255
155 195 255
155 195 255
155 195 255
155 195 255
155 195 255
155 195 255
155 195 255
154 195 255
154 195 255
154 195 255
154 195 255
154 195 255
154 195 255
154 195 255
154 195 255
154 195 255
154 195 255
154 195 255
154 195 255
154 194 255
154 194 255
154 194 255
154 194 255
154 194 255
154 194 255
154 194 255
154 194 255
153 194 255
153 194 255
153 194 255
153 194 255
153 194 255
153 194 255
153 194 255
153 194 255
153 194 255
153 194 255
153 194 255
153 194 255
153 194 255
153 194 255
153 194 255
153 194 255
153 194 255
153 194 255
153 194 255
153 194 255
153 194 255
153 194 255
153 194 255
153 194 255
153 194 255
153 194 255
153 194 255
153 194 255
153 194 255
153 194 255
153 194 255
153 194 255
153 194 255
153 194 255
154 194 255
154 194 255
154 194 255
154 194 255
154 194 255
154 194 255
154 194 255
154 194 255
154 195 255
154 195 255
154 195 255
154 195 255
154 195 255
154 195 255
154 195 255
154 195 255
154 195 255
154 195 255
154 195 255
154 195 255
155 195 255
155 195 255
155 195 255
155 195 255
155 195 255
155 195 255
155 195 255
155 195 255
155 195 255
155 195 255
155 195 255
155 195 255
155 195 255
155 195 255
156 196 255
156 196 255
156 196 255
156 196 255
156 196 255
156 196 255
156 196 255
156 196 255
156 196 255
156 196 255
156 196 255
157 196 255
157 196 255
157 196 255
157 196 255
157 196 255
157 196 255
157 196 255
157 197 255
157 197 255
157 197 255
157 197 255
158 197 255
158 197 255
158 197 255
158 197 255
158 197 255
158 197 255
158 197 255
158 197 255
158 197 255
158 197 255
159 197 255
159 197 255
159 197 255
159 198 255
159 198 255
159 198 255
159 198 255
159 198 255
159 198 255
160 198 255
160 198 255
160 198 255
160 198 255
160 198 255
160 198 255
160 198 255
160 198 255
160 198 255
160 198 255
161 199 255
161 199 255
161 199 255
161 199 255
161 199 255
161 199 255
161 199 255
161 199 255
161 199 255
162 199 255
162 199 255
162 199 255
162 199 255
162 199 255
162 199 255
162 199 255
162 200 255
162 200 255
162 200 255
163 200 255
163 200 255
163 200 255
163 200 255
163 200 255
163 200 255
163 200 255
163 200 255
163 200 255
163 200 255
164 200 255
164 200 255
164 200 255
164 201 255
164 201 255
164 201 255
164 201 255
164 201 255
164 201 255
164 201 255
165 201 255
165 201 255
165 201 255
165 201 255
165 201 255
165 201 255
165 201 255
165 201 255
165 201 255
165 201 255
165 201 255
166 202 255
166 202 255
166 202 255
166 202 255
166 202 255
166 202 255
166 202 255
166 202 255
166 202 255
166 202 255
166 202 255
167 202 255
167 202 255
167 202 255
167 202 255
167 202 255
167 202 255
167 202 255
167 202 255
167 203 255
167 203 255
167 203 255
168 203 255
168 203 255
168 203 255
168 203 255
168 203 255
168 203 255
168 203 255
168 203 255
168 203 255
168 203 255
168 203 255
168 203 255
168 203 255
169 203 255
169 203 255
169 203 255
169 203 255
169 204 255
169 204 255
169 204 255
169 204 255
169 204 255
169 204 255
169 204 255
169 204 255
169 204 255
170 204 255
170 204 255
170 204 255
169 204 255
169 204 255
169 204 255
169 204 255
169 204 255
169 204 255
169 204 255
169 204 255
169 204 255
169 203 255
169 203 255
169 203 255
169 203 255
168 203 255
168 203 255
168 203 255
168 203 255
168 203 255
168 203 255
168 203 255
168 203 255
168 203 255
168 203 255
168 203 255
168 203 255
167 203 255
167 203 255
167 203 255
167 203 255
167 202 255
167 202 255
167 202 255
167 202 255
167 202 255
167 202 255
167 202 255
167 202 255
166 202 255
166 202 255
166 202 255
166 202 255
166 202 255
166 202 255
166 202 255
166 202 255
166 202 255
166 202 255
166 202 255
165 201 255
165 201 255
165 201 255
165 201 255
165 201 255
165 201 255
165 201 255
165 201 255
165 201 255
165 201 255
165 201 255
164 201 255
164 201 255
164 201 255
164 201 255
164 201 255
164 201 255
164 200 255
164 200 255
164 200 255
164 200 255
163 200 255
163 200 255
163 200 255
163 200 255
163 200 255
163 200 255
163 200 255
163 200 255
163 200 255
163 200 255
162 200 255
162 200 255
162 200 255
162 199 255
162 199 255
162 199 255
162 199 255
162 199 255
162 199 255
161 199 255
161 199 255
161 199 255
161 199 255
161 199 255
161 199 255
161 199 255
161 199 255
161 199 255
161 199 255
160 198 255
160 198 255
160 198 255
160 198 255
160 198 255
160 198 255
160 198 255
160 198 255
160 198 255
160 198 255
159 198 255
159 198 255
159 198 255
159 198 255
159 198 255
159 198 255
159 197 255
159 197 255
159 197 255
158 197 255
158 197 255
158 197 255
158 197 255
158 197 255
158 197 255
158 197 255
158 197 255
158 197 255
158 197 255
157 197 255
157 197 255
157 197 255
157 197 255
157 196 255
157 196 255
157 196 255
157 196 255
157 196 255
157 196 255
157 196 255
156 196 255
156 196 255
156 196 255
156 196 255
156 196 255
156 196 255
156 196 255
156 196 255
156 196 255
156 196 255
156 196 255
156 196 255
155 195 255
155 195 255
155 195 255
155 195 255
155 195 255
155 195 255
155 195 255
155 195 255
155 195 255
155 195 255
155 195 255
155 195 255
155 195 255
155 195 255
154 195 255
154 195 255
154 195 255
154 195 255
154 195 255
154 195 255
154 195 255
154 195 255
154 195 255
154 195 255
154 195 255
154 195 255
154 195 255
154 195 255
154 195 255
154 194 255
154 194 255
154 194 255
154 194 255
154 194 255
154 194 255
154 194 255
154 194 255
154 194 255
154 194 255
154 194 255
154 194 255
154 194 255
154 194 255
154 194 255
154 194 255
153 194 255
154 194 255
154 194 255
154 194 255
153 194 255
154 194 255
154 194 255
154 194 255
154 194 255
154 194 255
154 194 255
154 194 255
154 194 255
154 194 255
154 194 255
154 194 255
154 194 255
154 194 255
154 194 255
154 194 255
154 194 255
154 195 255
154 195 255
154 195 255
154 195 255
154 195 255
154 195 255
154 195 255
154 195 255
154 195 255
154 195 255
154 195 255
154 195 255
154 195 255
154 195 255
155 195 255
155 195 255
155 195 255
155 195 255
155 195 255
155 195 255
155 195 255
155 195 255
155 195 255
155 195 255
155 195 255
155 195 255
155 195 255
155 195 255
156 196 255
156 196 255
156 196 255
156 196 255
156 196 255
156 196 255
156 196 255
156 196 255
156 196 255
156 196 255
156 196 255
156 196 255
157 196 255
157 196 255
157 196 255
157 196 255
157 196 255
157 196 255
157 196 255
157 197 255
157 197 255
157 197 255
157 197 255
158 197 255
158 197 255
158 197 255
158 197 255
158 197 255
158 197 255
158 197 255
158 197 255
158 197 255
158 197 255
159 197 255
159 197 255
159 197 255
159 198 255
159 198 255
159 198 255
159 198 255
159 198 255
159 198 255
160 198 255
160 198 255
160 198 255
160 198 255
160 198 255
160 198 255
160 198 255
160 198 255
160 198 255
160 198 255
161 199 255
161 199 255
161 199 255
161 199 255
161 199 255
161 199 255
161 199 255
161 199 255
161 199 255
161 199 255
162 199 255
162 199 255
162 199 255
162 199 255
162 199 255
162 199 255
162 200 255
162 200 255
162 200 255
163 200 255
163 200 255
163 200 255
163 200 255
163 200 255
163 200 255
163 200 255
163 200 255
163 200 255
163 200 255
164 200 255
164 200 255
164 200 255
164 200 255
164 201 255
164 201 255
164 201 255
164 201 255
164 201 255
164 201 255
165 201 255
165 201 255
165 201 255
165 201 255
165 201 255
165 201 255
165 201 255
165 201 255
165 201 255
165 201 255
165 201 255
166 202 255
166 202 255
166 202 255
166 202 255
166 202 255
166 202 255
166 202 255
166 202 255
166 202 255
166 202 255
166 202 255
167 202 255
167 202 255
167 202 255
167 202 255
167 202 255
167 202 255
167 202 255
167 202 255
167 203 255
167 203 255
167 203 255
167 203 255
168 203 255
168 203 255
168 203 255
168 203 255
168 203 255
168 203 255
168 203 255
168 203 255
168 203 255
168 203 255
168 203 255
168 203 255
169 203 255
169 203 255
169 203 255
169 203 255
169 204 255
169 204 255
169 204 255
169 204 255
169 204 255
169 204 255
169 204 255
169 204 255
169 204 255
170 204 255
170 204 255
170 204 255
170 204 255
170 204 255
170 204 255
170 204 255
170 204 255
170 204 255
169 204 255
169 204 255
169 204 255
169 204 255
169 204 255
169 204 255
169 204 255
169 204 255
169 204 255
169 203 255
169 203 255
169 203 255
169 203 255
168 203 255
168 203 255
168 203 255
168 203 255
168 203 255
168 203 255
168 203 255
168 203 255
168 203 255
168 203 255
168 203 255
168 203 255
167 203 255
167 203 255
167 203 255
167 203 255
167 202 255
167 202 255
167 202 255
167 202 255
167 202 255
167 202 255
167 202 255
167 202 255
166 202 255
166 202 255
166 202 255
166 202 255
166 202 255
166 202 255
166 202 255
166 202 255
166 202 255
166 202 255
166 202 255
165 201 255
165 201 255
165 201 255
165 201 255
165 201 255
165 201 255
165 201 255
165 201 255
165 201 255
165 201 255
164 201 255
164 201 255
164 201 255
164 201 255
164 201 255
164 201 255
164 201 255
164 200 255
164 200 255
164 200 255
163 200 255
163 200 255
163 200 255
163 200 255
163 200 255
163 200 255
163 200 255
163 200 255
163 200 255
163 200 255
162 200 255
162 200 255
162 200 255
162 200 255
162 199 255
162 199 255
162 199 255
162 199 255
162 199 255
162 199 255
161 199 255
161 199 255
161 199 255
161 199 255
161 199 255
161 199 255
161 199 255
161 199 255
161 199 255
161 199 255
160 198 255
160 198 255
160 198 255
160 198 255
160 198 255
160 198 255
160 198 255
160 198 255
160 198 255
159 198 255
159 198 255
159 198 255
159 198 255
159 198 255
159 198 255
159 198 255
159 197 255
159 197 255
159 197 255
158 197 255
158 197 255
158 197 255
158 197 255
158 197 255
158 197 255
158 197 255
158 197 255
158 197 255
158 197 255
157 197 255
157 197 255
157 197 255
157 197 255
157 196 255
157 196 255
157 196 255
157 196 255
157 196 255
157 196 255
157 196 255
156 196 255
156 196 255
156 196 255
156 196 255
156 196 255
156 196 255
156 196 255
156 196 255
156 196 255
156 196 255
156 196 255
156 196 255
156 196 255
155 195 255
155 195 255
155 195 255
155 195 255
155 195 255
155 195 255
155 195 255
155 195 255
155 195 255
155 195 255
155 195 255
155 195 255
155 195 255
155 195 255
155 195 255
155 195 255
154 195 255
154 195 255
154 195 255
154 195 255
154 195 255
154 195 255
154 195 255
154 195 255
154 195 255
154 195 255
154 195 255
154 195 255
154 195 255
154 195 255
154 195 255
154 195 255
154 195 255
154 195 255
154 195 255
154 195 255
154 194 255
154 195 255
154 195 255
154 194 255
154 194 255
154 194 255
154 194 255
154 194 255
154 194 255
154 194 255
154 194 255
154 194 255
154 195 255
154 195 255
154 195 255
154 195 255
154 195 255
154 195 255
154 195 255
154 195 255
154 195 255
154 195 255
154 195 255
154 195 255
154 195 255
154 195 255
154 195 255
154 195 255
154 195 255
154 195 255
154 195 255
154 195 255
154 195 255
154 195 255
155 195 255
155 195 255
155 195 255
155 195 255
155 195 255
155 195 255
155 195 255
155 195 255
155 195 255
155 195 255
155 195 255
155 195 255
155 195 255
155 195 255
155 195 255
155 195 255
156 196 255
156 196 255
156 196 255
156 196 255
156 196 255
156 196 255
156 196 255
156 196 255
156 196 255
156 196 255
156 196 255
156 196 255
156 196 255
157 196 255
157 196 255
157 196 255
157 196 255
157 196 255
157 196 255
157 196 255
157 197 255
157 197 255
157 197 255
157 197 255
158 197 255
158 197 255
158 197 255
158 197 255
158 197 255
158 197 255
158 197 255
158 197 255
158 197 255
158 197 255
159 197 255
159 197 255
159 197 255
159 198 255
159 198 255
159 198 255
159 198 255
159 198 255
159 198 255
159 198 255
160 198 255
160 198 255
160 198 255
160 198 255
160 198 255
160 198 255
160 198 255
160 198 255
160 198 255
161 199 255
161 199 255
161 199 255
161 199 255
161 199 255
161 199 255
161 199 255
161 199 255
161 199 255
161 199 255
162 199 255
162 199 255
162 199 255
162 199 255
162 199 255
162 199 255
162 199 255
162 200 255
162 200 255
163 200 255
163 200 255
163 200 255
163 200 255
163 200 255
163 200 255
163 200 255
163 200 255
163 200 255
163 200 255
164 200 255
164 200 255
164 200 255
164 200 255
164 201 255
164 201 255
164 201 255
164 201 255
164 201 255
164 201 255
164 201 255
165 201 255
165 201 255
165 201 255
165 201 255
165 201 255
165 201 255
165 201 255
165 201 255
165 201 255
165 201 255
166 202 255
166 202 255
166 202 255
166 202 255
166 202 255
166 202 255
166 202 255
166 202 255
166 202 255
166 202 255
166 202 255
167 202 255
167 202 255
167 202 255
167 202 255
167 202 255
167 202 255
167 202 255
167 202 255
167 203 255
167 203 255
167 203 255
167 203 255
168 203 255
168 203 255
168 203 255
168 203 255
168 203 255
168 203 255
168 203 255
168 203 255
168 203 255
168 203 255
168 203 255
168 203 255
169 203 255
169 203 255
169 203 255
169 203 255
169 204 255
169 204 255
169 204 255
169 204 255
169 204 255
169 204 255
169 204 255
169 204 255
169 204 255
170 204 255
170 204 255
170 204 255
170 204 255
170 204 255
170 204 255
170 204 255
170 204 255
170 204 255
170 204 255
170 204 255
170 204 255
170 204 255
170 204 255
170 204 255
169 204 255
169 204 255
169 204 255
169 204 255
169 204 255
169 204 255
169 204 255
169 204 255
169 204 255
169 203 255
169 203 255
169 203 255
169 203 255
168 203 255
168 203 255
168 203 255
168 203 255
168 203 255
168 203 255
168 203 255
168 203 255
168 203 255
168 203 255
168 203 255
168 203 255
167 203 255
167 203 255
167 203 255
167 203 255
167 202 255
167 202 255
167 202 255
167 202 255
167 202 255
167 202 255
167 202 255
167 202 255
166 202 255
166 202 255
166 202 255
166 202 255
166 202 255
166 202 255
166 202 255
166 202 255
166 202 255
166 202 255
166 202 255
165 201 255
165 201 255
165 201 255
165 201 255
165 201 255
165 201 255
165 201 255
165 201 255
165 201 255
165 201 255
164 201 255
164 201 255
164 201 255
164 201 255
164 201 255
164 201 255
164 201 255
164 200 255
164 200 255
164 200 255
163 200 255
163 200 255
163 200 255
163 200 255
163 200 255
163 200 255
163 200 255
163 200 255
163 200 255
163 200 255
162 200 255
162 200 255
162 200 255
162 199 255
162 199 255
162 199 255
162 199 255
162 199 255
162 199 255
162 199 255
161 199 255
161 199 255
161 199 255
161 199 255
161 199 255
161 199 255
161 199 255
161 199 255
161 199 255
160 198 255
160 198 255
160 198 255
160 198 255
160 198 255
160 198 255
160 198 255
160 198 255
160 198 255
160 198 255
159 198 255
159 198 255
159 198 255
159 198 255
159 198 255
159 198 255
159 198 255
159 197 255
159 197 255
159 197 255
158 197 255
158 197 255
158 197 255
158 197 255
158 197 255
158 197 255
158 197 255
158 197 255
158 197 255
158 197 255
157 197 255
157 197 255
157 197 255
157 197 255
157 196 255
157 196 255
157 196 255
157 196 255
157 196 255
157 196 255
157 196 255
157 196 255
156 196 255
156 196 255
156 196 255
156 196 255
156 196 255
156 196 255
156 196 255
156 196 255
156 196 255
156 196 255
156 196 255
156 196 255
156 196 255
155 195 255
155 195 255
155 195 255
155 195 255
155 195 255
155 195 255
155 195 255
155 195 255
155 195 255
155 195 255
155 195 255
155 195 255
155 195 255
155 195 255
155 195 255
155 195 255
155 195 255
155 195 255
155 195 255
154 195 255
154 195 255
154 195 255
154 195 255
154 195 255
154 195 255
154 195 255
154 195 255
154 195 255
154 195 255
154 195 255
154 195 255
154 195 255
154 195 255
154 195 255
154 195 255
154 195 255
154 195 255
154 195 255
154 195 255
154 195 255
154 195 255
154 195 255
154 195 255
154 195 255
154 195 255
154 195 255
154 195 255
154 195 255
154 195 255
154 195 255
154 195 255
154 195 255
154 195 255
154 195 255
154 195 255
154 195 255
154 195 255
154 195 255
154 195 255
155 195 255
155 195 255
155 195 255
155 195 255
155 195 255
155 195 255
155 195 255
155 195 255
155 195 255
155 195 255
155 195 255
155 195 255
155 195 255
155 195 255
155 195 255
155 195 255
155 195 255
155 195 255
155 195 255
156 196 255
156 196 255
156 196 255
156 196 255
156 196 255
156 196 255
156 196 255
156 196 255
156 196 255
156 196 255
156 196 255
156 196 255
156 196 255
157 196 255
157 196 255
157 196 255
157 196 255
157 196 255
157 196 255
157 196 255
157 196 255
157 197 255
157 197 255
157 197 255
157 197 255
158 197 255
158 197 255
158 197 255
158 197 255
158 197 255
158 197 255
158 197 255
158 197 255
158 197 255
158 197 255
159 197 255
159 197 255
159 197 255
159 198 255
159 198 255
159 198 255
159 198 255
159 198 255
159 198 255
159 198 255
160 198 255
160 198 255
160 198 255
160 198 255
160 198 255
160 198 255
160 198 255
160 198 255
160 198 255
161 199 255
161 199 255
161 199 255
161 199 255
161 199 255
161 199 255
161 199 255
161 199 255
161 199 255
161 199 255
162 199 255
162 199 255
162 199 255
162 199 255
162 199 255
162 199 255
162 199 255
162 200 255
162 200 255
162 200 255
163 200 255
163 200 255
163 200 255
163 200 255
163 200 255
163 200 255
163 200 255
163 200 255
163 200 255
163 200 255
164 200 255
164 200 255
164 200 255
164 201 255
164 201 255
164 201 255
164 201 255
164 201 255
164 201 255
164 201 255
165 201 255
165 201 255
165 201 255
165 201 255
165 201 255
165 201 255
165 201 255
165 201 255
165 201 255
165 201 255
166 202 255
166 202 255
166 202 255
166 202 255
166 202 255
166 202 255
166 202 255
166 202 255
166 202 255
166 202 255
166 202 255
167 202 255
167 202 255
167 202 255
167 202 255
167 202 255
167 202 255
167 202 255
167 202 255
167 203 255
167 203 255
167 203 255
167 203 255
168 203 255
168 203 255
168 203 255
168 203 255
168 203 255
168 203 255
168 203 255
168 203 255
168 203 255
168 203 255
168 203 255
168 203 255
169 203 255
169 203 255
169 203 255
169 203 255
169 204 255
169 204 255
169 204 255
169 204 255
169 204 255
169 204 255
169 204 255
169 204 255
170 204 255
170 204 255
170 204 255
170 204 255
170 204 255
170 204 255
170 204 255
170 204 255
170 204 255
170 204 255
170 204 255
170 204 255
170 204 255
170 204 255
170 204 255
170 204 255
170 204 255
170 204 255
170 204 255
170 204 255
170 204 255
170 204 255
170 204 255
169 204 255
169 204 255
169 204 255
169 204 255
169 204 255
169 204 255
169 204 255
169 204 255
169 203 255
169 203 255
169 203 255
169 203 255
168 203 255
168 203 255
168 203 255
168 203 255
168 203 255
168 203 255
168 203 255
168 203 255
168 203 255
168 203 255
168 203 255
168 203 255
167 203 255
167 203 255
167 203 255
167 203 255
167 202 255
167 202 255
167 202 255
167 202 255
167 202 255
167 202 255
167 202 255
167 202 255
166 202 255
166 202 255
166 202 255
166 202 255
166 202 255
166 202 255
166 202 255
166 202 255
166 202 255
166 202 255
166 202 255
165 201 255
165 201 255
165 201 255
165 201 255
165 201 255
165 201 255
165 201 255
165 201 255
165 201 255
165 201 255
164 201 255
164 201 255
164 201 255
164 201 255
164 201 255
164 201 255
164 201 255
164 200 255
164 200 255
164 200 255
163 200 255
163 200 255
163 200 255
163 200 255
163 200 255
163 200 255
163 200 255
163 200 255
163 200 255
163 200 255
162 200 255
162 200 255
162 200 255
162 199 255
162 199 255
162 199 255
162 199 255
162 199 255
162 199 255
162 199 255
161 199 255
161 199 255
161 199 255
161 199 255
161 199 255
161 199 255
161 199 255
161 199 255
161 199 255
160 198 255
160 198 255
160 198 255
160 198 255
160 198 255
160 198 255
160 198 255
160 198 255
160 198 255
160 198 255
159 198 255
159 198 255
159 198 255
159 198 255
159 198 255
159 198 255
159 198 255
159 197 255
159 197 255
159 197 255
158 197 255
158 197 255
158 197 255
158 197 255
158 197 255
158 197 255
158 197 255
158 197 255
158 197 255
158 197 255
158 197 255
157 197 255
157 197 255
157 197 255
157 197 255
157 196 255
157 196 255
157 196 255
157 196 255
157 196 255
157 196 255
157 196 255
157 196 255
156 196 255
156 196 255
156 196 255
156 196 255
156 196 255
156 196 255
156 196 255
156 196 255
156 196 255
156 196 255
156 196 255
156 196 255
156 196 255
156 196 255
155 195 255
155 195 255
155 195 255
155 195 255
155 195 255
155 195 255
155 195 255
155 195 255
155 195 255
155 195 255
155 195 255
155 195 255
155 195 255
155 195 255
155 195 255
155 195 255
155 195 255
155 195 255
155 195 255
155 195 255
155 195 255
155 195 255
155 195 255
155 195 255
154 195 255
154 195 255
154 195 255
154 195 255
154 195 255
154 195 255
154 195 255
154 195 255
154 195 255
154 195 255
154 195 255
154 195 255
154 195 255
154 195 255
154 195 255
154 195 255
154 195 255
154 195 255
154 195 255
154 195 255
155 195 255
155 195 255
155 195 255
155 195 255
155 195 255
155 195 255
155 195 255
155 195 255
155 195 255
155 195 255
155 195 255
155 195 255
155 195 255
155 195 255
155 195 255
155 195 255
155 195 255
155 195 255
155 195 255
155 195 255
155 195 255
155 195 255
155 195 255
155 195 255
156 196 255
156 196 255
156 196 255
156 196 255
156 196 255
156 196 255
156 196 255
156 196 255
156 196 255
156 196 255
156 196 255
156 196 255
156 196 255
156 196 255
157 196 255
157 196 255
157 196 255
157 196 255
157 196 255
157 196 255
157 196 255
157 196 255
157 197 255
157 197 255
157 197 255
157 197 255
158 197 255
158 197 255
158 197 255
158 197 255
158 197 255
158 197 255
158 197 255
158 197 255
158 197 255
158 197 255
158 197 255
159 197 255
159 197 255
159 197 255
159 198 255
159 198 255
159 198 255
159 198 255
159 198 255
159 198 255
159 198 255
160 198 255
160 198 255
160 198 255
160 198 255
160 198 255
160 198 255
160 198 255
160 198 255
160 198 255
160 198 255
161 199 255
161 199 255
161 199 255
161 199 255
161 199 255
161 199 255
161 199 255
161 199 255
161 199 255
162 199 255
162 199 255
162 199 255
162 199 255
162 199 255
162 199 255
162 199 255
162 200 255
162 200 255
162 200 255
163 200 255
163 200 255
163 200 255
163 200 255
163 200 255
163 200 255
163 200 255
163 200 255
163 200 255
163 200 255
164 200 255
164 200 255
164 200 255
164 201 255
164 201 255
164 201 255
164 201 255
164 201 255
164 201 255
164 201 255
165 201 255
165 201 255
165 201 255
165 201 255
165 201 255
165 201 255
165 201 255
165 201 255
165 201 255
165 201 255
166 202 255
166 202 255
166 202 255
166 202 255
166 202 255
166 202 255
166 202 255
166 202 255
166 202 255
166 202 255
166 202 255
167 202 255
167 202 255
167 202 255
167 202 255
167 202 255
167 202 255
167 202 255
167 202 255
167 203 255
167 203 255
167 203 255
167 203 255
168 203 255
168 203 255
168 203 255
168 203 255
168 203 255
168 203 255
168 203 255
168 203 255
168 203 255
168 203 255
168 203 255
168 203 255
169 203 255
169 203 255
169 203 255
169 203 255
169 204 255
169 204 255
169 204 255
169 204 255
169 204 255
169 204 255
169 204 255
169 204 255
170 204 255
170 204 255
170 204 255
170 204 255
170 204 255
170 204 255
170 204 255
170 204 255
170 204 255
170 204 255
170 204 255
170 204 255
170 204 255
171 205 255
171 205 255
170 204 255
170 204 255
170 204 255
170 204 255
170 204 255
170 204 255
170 204 255
170 204 255
170 204 255
170 204 255
170 204 255
170 204 255
170 204 255
170 204 255
169 204 255
169 204 255
169 204 255
169 204 255
169 204 255
169 204 255
169 204 255
169 204 255
169 203 255
169 203 255
169 203 255
169 203 255
168 203 255
168 203 255
168 203 255
168 203 255
168 203 255
168 203 255
168 203 255
168 203 255
168 203 255
168 203 255
168 203 255
168 203 255
167 203 255
167 203 255
167 203 255
167 203 255
167 202 255
167 202 255
167 202 255
167 202 255
167 202 255
167 202 255
167 202 255
167 202 255
166 202 255
166 202 255
166 202 255
166 202 255
166 202 255
166 202 255
166 202 255
166 202 255
166 202 255
166 202 255
165 201 255
165 201 255
165 201 255
165 201 255
165 201 255
165 201 255
165 201 255
165 201 255
165 201 255
165 201 255
165 201 255
164 201 255
164 201 255
164 201 255
164 201 255
164 201 255
164 201 255
164 201 255
164 200 255
164 200 255
164 200 255
163 200 255
163 200 255
163 200 255
163 200 255
163 200 255
163 200 255
163 200 255
163 200 255
163 200 255
163 200 255
162 200 255
162 200 255
162 200 255
162 199 255
162 199 255
162 199 255
162 199 255
162 199 255
162 199 255
162 199 255
161 199 255
161 199 255
161 199 255
161 199 255
161 199 255
161 199 255
161 199 255
161 199 255
161 199 255
160 198 255
160 198 255
160 198 255
160 198 255
160 198 255
160 198 255
160 198 255
160 198 255
160 198 255
160 198 255
159 198 255
159 198 255
159 198 255
159 198 255
159 198 255
159 198 255
159 198 255
159 197 255
159 197 255
159 197 255
158 197 255
158 197 255
158 197 255
158 197 255
158 197 255
158 197 255
158 197 255
158 197 255
158 197 255
158 197 255
158 197 255
157 197 255
157 197 255
157 197 255
157 197 255
157 196 255
157 196 255
157 196 255
157 196 255
157 196 255
157 196 255
157 196 255
157 196 255
157 196 255
156 196 255
156 196 255
156 196 255
156 196 255
156 196 255
156 196 255
156 196 255
156 196 255
156 196 255
156 196 255
156 196 255
156 196 255
156 196 255
156 196 255
156 196 255
155 195 255
155 195 255
155 195 255
155 195 255
155 195 255
155 195 255
155 195 255
155 195 255
155 195 255
155 195 255
155 195 255
155 195 255
155 195 255
155 195 255
155 195 255
155 195 255
155 195 255
155 195 255
155 195 255
155 195 255
155 195 255
155 195 255
155 195 255
155 195 255
155 195 255
155 195 255
155 195 255
155 195 255
155 195 255
155 195 255
155 195 255
155 195 255
155 195 255
155 195 255
155 195 255
155 195 255
155 195 255
155 195 255
155 195 255
155 195 255
155 195 255
155 195 255
155 195 255
155 195 255
155 195 255
155 195 255
155 195 255
155 195 255
155 195 255
155 195 255
155 195 255
155 195 255
155 195 255
155 195 255
155 195 255
155 195 255
155 195 255
155 195 255
156 196 255
156 196 255
156 196 255
156 196 255
156 196 255
156 196 255
156 196 255
156 196 255
156 196 255
156 196 255
156 196 255
156 196 255
156 196 255
156 196 255
156 196 255
157 196 255
157 196 255
157 196 255
157 196 255
157 196 255
157 196 255
157 196 255
157 196 255
157 196 255
157 197 255
157 197 255
157 197 255
157 197 255
158 197 255
158 197 255
158 197 255
158 197 255
158 197 255
158 197 255
158 197 255
158 197 255
158 197 255
158 197 255
158 197 255
159 197 255
159 197 255
159 197 255
159 198 255
159 198 255
159 198 255
159 198 255
159 198 255
159 198 255
159 198 255
160 198 255
160 198 255
160 198 255
160 198 255
160 198 255
160 198 255
160 198 255
160 198 255
160 198 255
160 198 255
161 199 255
161 199 255
161 199 255
161 199 255
161 199 255
161 199 255
161 199 255
161 199 255
161 199 255
161 199 255
162 199 255
162 199 255
162 199 255
162 199 255
162 199 255
162 199 255
162 200 255
162 200 255
162 200 255
163 200 255
163 200 255
163 200 255
163 200 255
163 200 255
163 200 255
163 200 255
163 200 255
163 200 255
163 200 255
164 200 255
164 200 255
164 200 255
164 201 255
164 201 255
164 201 255
164 201 255
164 201 255
164 201 255
164 201 255
165 201 255
165 201 255
165 201 255
165 201 255
165 201 255
165 201 255
165 201 255
165 201 255
165 201 255
165 201 255
166 202 255
166 202 255
166 202 255
166 202 255
166 202 255
166 202 255
166 202 255
166 202 255
166 202 255
166 202 255
166 202 255
167 202 255
167 202 255
167 202 255
167 202 255
167 202 255
167 202 255
167 202 255
167 202 255
167 203 255
167 203 255
167 203 255
167 203 255
168 203 255
168 203 255
168 203 255
168 203 255
168 203 255
168 203 255
168 203 255
168 203 255
168 203 255
168 203 255
168 203 255
168 203 255
169 203 255
169 203 255
169 203 255
169 203 255
169 204 255
169 204 255
169 204 255
169 204 255
169 204 255
169 204 255
169 204 255
169 204 255
170 204 255
170 204 255
170 204 255
170 204 255
170 204 255
170 204 255
170 204 255
170 204 255
170 204 255
170 204 255
170 204 255
170 204 255
170 204 255
170 204 255
171 205 255
171 205 255
171 205 255
171 205 255
171 205 255
171 205 255
171 205 255
171 205 255
170 204 255
170 204 255
170 204 255
170 204 255
170 204 255
170 204 255
170 204 255
170 204 255
170 204 255
170 204 255
170 204 255
170 204 255
170 204 255
169 204 255
169 204 255
169 204 255
169 204 255
169 204 255
169 204 255
169 204 255
169 204 255
169 204 255
169 203 255
169 203 255
169 203 255
169 203 255
168 203 255
168 203 255
168 203 255
168 203 255
168 203 255
168 203 255
168 203 255
168 203 255
168 203 255
168 203 255
168 203 255
168 203 255
167 203 255
167 203 255
167 203 255
167 202 255
167 202 255
167 202 255
167 202 255
167 202 255
167 202 255
167 202 255
167 202 255
166 202 255
166 202 255
166 202 255
166 202 255
166 202 255
166 202 255
166 202 255
166 202 255
166 202 255
166 202 255
165 201 255
165 201 255
165 201 255
165 201 255
165 201 255
165 201 255
165 201 255
165 201 255
165 201 255
165 201 255
165 201 255
164 201 255
164 201 255
164 201 255
164 201 255
164 201 255
164 201 255
164 200 255
164 200 255
164 200 255
164 200 255
163 200 255
163 200 255
163 200 255
163 200 255
163 200 255
163 200 255
163 200 255
163 200 255
163 200 255
163 200 255
162 200 255
162 200 255
162 200 255
162 199 255
162 199 255
162 199 255
162 199 255
162 199 255
162 199 255
161 199 255
161 199 255
161 199 255
161 199 255
161 199 255
161 199 255
161 199 255
161 199 255
161 199 255
161 199 255
160 198 255
160 198 255
160 198 255
160 198 255
160 198 255
160 198 255
160 198 255
160 198 255
160 198 255
160 198 255
159 198 255
159 198 255
159 198 255
159 198 255
159 198 255
159 198 255
159 198 255
159 197 255
159 197 255
159 197 255
159 197 255
158 197 255
158 197 255
158 197 255
158 197 255
158 197 255
158 197 255
158 197 255
158 197 255
158 197 255
158 197 255
158 197 255
157 197 255
157 197 255
157 197 255
157 197 255
157 196 255
157 196 255
157 196 255
157 196 255
157 196 255
157 196 255
157 196 255
157 196 255
157 196 255
156 196 255
156 196 255
156 196 255
156 196 255
156 196 255
156 196 255
156 196 255
156 196 255
156 196 255
156 196 255
156 196 255
156 196 255
156 196 255
156 196 255
156 196 255
156 196 255
156 196 255
156 196 255
155 195 255
155 195 255
155 195 255
155 195 255
155 195 255
155 195 255
155 195 255
155 195 255
155 195 255
155 195 255
155 195 255
155 195 255
155 195 255
155 195 255
155 195 255
155 195 255
155 195 255
155 195 255
155 195 255
155 195 255
155 195 255
155 195 255
155 195 255
155 195 255
155 195 255
155 195 255
155 195 255
155 195 255
155 195 255
155 195 255
155 195 255
155 195 255
155 195 255
155 195 255
155 195 255
155 195 255
155 195 255
155 195 255
155 195 255
155 195 255
155 195 255
155 195 255
155 195 255
155 195 255
156 196 255
156 196 255
156 196 255
156 196 255
156 196 255
156 196 255
156 196 255
156 196 255
156 196 255
156 196 255
156 196 255
156 196 255
156 196 255
156 196 255
156 196 255
156 196 255
156 196 255
156 196 255
157 196 255
157 196 255
157 196 255
157 196 255
157 196 255
157 196 255
157 196 255
157 196 255
157 196 255
157 197 255
157 197 255
157 197 255
157 197 255
158 197 255
158 197 255
158 197 255
158 197 255
158 197 255
158 197 255
158 197 255
158 197 255
158 197 255
158 197 255
158 197 255
159 197 255
159 197 255
159 197 255
159 197 255
159 198 255
159 198 255
159 198 255
159 198 255
159 198 255
159 198 255
159 198 255
160 198 255
160 198 255
160 198 255
160 198 255
160 198 255
160 198 255
160 198 255
160 198 255
160 198 255
160 198 255
161 199 255
161 199 255
161 199 255
161 199 255
161 199 255
161 199 255
161 199 255
161 199 255
161 199 255
161 199 255
162 199 255
162 199 255
162 199 255
162 199 255
162 199 255
162 199 255
162 200 255
162 200 255
162 200 255
163 200 255
163 200 255
163 200 255
163 200 255
163 200 255
163 200 255
163 200 255
163 200 255
163 200 255
163 200 255
164 200 255
164 200 255
164 200 255
164 201 255
164 201 255
164 201 255
164 201 255
164 201 255
164 201 255
164 201 255
165 201 255
165 201 255
165 201 255
165 201 255
165 201 255
165 201 255
165 201 255
165 201 255
165 201 255
165 201 255
165 201 255
166 202 255
166 202 255
166 202 255
166 202 255
166 202 255
166 202 255
166 202 255
166 202 255
166 202 255
166 202 255
167 202 255
167 202 255
167 202 255
167 202 255
167 202 255
167 202 255
167 202 255
167 202 255
167 203 255
167 203 255
167 203 255
167 203 255
168 203 255
168 203 255
168 203 255
168 203 255
168 203 255
168 203 255
168 203 255
168 203 255
168 203 255
168 203 255
168 203 255
169 203 255
169 203 255
169 203 255
169 203 255
169 203 255
169 204 255
169 204 255
169 204 255
169 204 255
169 204 255
169 204 255
169 204 255
169 204 255
170 204 255
170 204 255
170 204 255
170 204 255
170 204 255
170 204 255
170 204 255
170 204 255
170 204 255
170 204 255
170 204 255
170 204 255
170 204 255
171 205 255
171 205 255
171 205 255
171 205 255
171 205 255
171 205 255
171 205 255
171 205 255
171 205 255
171 205 255
171 205 255
171 205 255
171 205 255
171 205 255
171 205 255
170 204 255
170 204 255
170 204 255
170 204 255
170 204 255
170 204 255
170 204 255
170 204 255
170 204 255
170 204 255
170 204 255
170 204 255
170 204 255
169 204 255
169 204 255
169 204 255
169 204 255
169 204 255
169 204 255
169 204 255
169 204 255
169 203 255
169 203 255
169 203 255
169 203 255
169 203 255
168 203 255
168 203 255
168 203 255
168 203 255
168 203 255
168 203 255
168 203 255
168 203 255
168 203 255
168 203 255
168 203 255
167 203 255
167 203 255
167 203 255
167 203 255
167 202 255
167 202 255
167 202 255
167 202 255
167 202 255
167 202 255
167 202 255
167 202 255
166 202 255
166 202 255
166 202 255
166 202 255
166 202 255
166 202 255
166 202 255
166 202 255
166 202 255
166 202 255
165 201 255
165 201 255
165 201 255
165 201 255
165 201 255
165 201 255
165 201 255
165 201 255
165 201 255
165 201 255
165 201 255
164 201 255
164 201 255
164 201 255
164 201 255
164 201 255
164 201 255
164 201 255
164 200 255
164 200 255
164 200 255
163 200 255
163 200 255
163 200 255
163 200 255
163 200 255
163 200 255
163 200 255
163 200 255
163 200 255
163 200 255
162 200 255
162 200 255
162 200 255
162 199 255
162 199 255
162 199 255
162 199 255
162 199 255
162 199 255
161 199 255
161 199 255
161 199 255
161 199 255
161 199 255
161 199 255
161 199 255
161 199 255
161 199 255
161 199 255
160 198 255
160 198 255
160 198 255
160 198 255
160 198 255
160 198 255
160 198 255
160 198 255
160 198 255
160 198 255
159 198 255
159 198 255
159 198 255
159 198 255
159 198 255
159 198 255
159 198 255
159 197 255
159 197 255
159 197 255
159 197 255
158 197 255
158 197 255
158 197 255
158 197 255
158 197 255
158 197 255
158 197 255
158 197 255
158 197 255
158 197 255
158 197 255
158 197 255
157 197 255
157 197 255
157 197 255
157 197 255
157 196 255
157 196 255
157 196 255
157 196 255
157 196 255
157 196 255
157 196 255
157 196 255
157 196 255
157 196 255
156 196 255
156 196 255
156 196 255
156 196 255
156 196 255
156 196 255
156 196 255
156 196 255
156 196 255
156 196 255
156 196 255
156 196 255
156 196 255
156 196 255
156 196 255
156 196 255
156 196 255
156 196 255
156 196 255
156 196 255
156 196 255
156 196 255
156 196 255
155 195 255
155 195 255
155 195 255
155 195 255
155 195 255
155 195 255
155 195 255
155 195 255
155 195 255
155 195 255
155 195 255
155 195 255
155 195 255
155 195 255
155 195 255
155 195 255
155 195 255
155 195 255
155 195 255
155 195 255
155 195 255
155 195 255
155 195 255
155 195 255
156 196 255
156 196 255
156 196 255
156 196 255
156 196 255
156 196 255
156 196 255
156 196 255
156 196 255
156 196 255
156 196 255
156 196 255
156 196 255
156 196 255
156 196 255
156 196 255
156 196 255
156 196 255
156 196 255
156 196 255
156 196 255
156 196 255
156 196 255
157 196 255
157 196 255
157 196 255
157 196 255
157 196 255
157 196 255
157 196 255
157 196 255
157 196 255
157 196 255
157 197 255
157 197 255
157 197 255
157 197 255
158 197 255
158 197 255
158 197 255
158 197 255
158 197 255
158 197 255
158 197 255
158 197 255
158 197 255
158 197 255
158 197 255
158 197 255
159 197 255
159 197 255
159 197 255
159 197 255
159 198 255
159 198 255
159 198 255
159 198 255
159 198 255
159 198 255
159 198 255
160 198 255
160 198 255
160 198 255
160 198 255
160 198 255
160 198 255
160 198 255
160 198 255
160 198 255
160 198 255
161 199 255
161 199 255
161 199 255
161 199 255
161 199 255
161 199 255
161 199 255
161 199 255
161 199 255
161 199 255
162 199 255
162 199 255
162 199 255
162 199 255
162 199 255
162 199 255
162 200 255
162 200 255
162 200 255
163 200 255
163 200 255
163 200 255
163 200 255
163 200 255
163 200 255
163 200 255
163 200 255
163 200 255
163 200 255
164 200 255
164 200 255
164 200 255
164 200 255
164 201 255
164 201 255
164 201 255
164 201 255
164 201 255
164 201 255
165 201 255
165 201 255
165 201 255
165 201 255
165 201 255
165 201 255
165 201 255
165 201 255
165 201 255
165 201 255
165 201 255
166 202 255
166 202 255
166 202 255
166 202 255
166 202 255
166 202 255
166 202 255
166 202 255
166 202 255
166 202 255
167 202 255
167 202 255
167 202 255
167 202 255
167 202 255
167 202 255
167 202 255
167 202 255
167 203 255
167 203 255
167 203 255
167 203 255
168 203 255
168 203 255
168 203 255
168 203 255
168 203 255
168 203 255
168 203 255
168 203 255
168 203 255
168 203 255
168 203 255
169 203 255
169 203 255
169 203 255
169 203 255
169 204 255
169 204 255
169 204 255
169 204 255
169 204 255
169 204 255
169 204 255
169 204 255
169 204 255
170 204 255
170 204 255
170 204 255
170 204 255
170 204 255
170 204 255
170 204 255
170 204 255
170 204 255
170 204 255
170 204 255
170 204 255
170 204 255
171 205 255
171 205 255
171 205 255
171 205 255
171 205 255
171 205 255
171 205 255
171 205 255
171 205 255
171 205 255
171 205 255
171 205 255
171 205 255
171 205 255
171 205 255
171 205 255
171 205 255
171 205 255
171 205 255
171 205 255
171 205 255
170 204 255
170 204 255
170 204 255
170 204 255
170 204 255
170 204 255
170 204 255
170 204 255
170 204 255
170 204 255
170 204 255
170 204 255
170 204 255
169 204 255
169 204 255
169 204 255
169 204 255
169 204 255
169 204 255
169 204 255
169 204 255
169 204 255
169 203 255
169 203 255
169 203 255
169 203 255
168 203 255
168 203 255
168 203 255
168 203 255
168 203 255
168 203 255
168 203 255
168 203 255
168 203 255
168 203 255
168 203 255
168 203 255
167 203 255
167 203 255
167 203 255
167 202 255
167 202 255
167 202 255
167 202 255
167 202 255
167 202 255
167 202 255
167 202 255
166 202 255
166 202 255
166 202 255
166 202 255
166 202 255
166 202 255
166 202 255
166 202 255
166 202 255
166 202 255
165 201 255
165 201 255
165 201 255
165 201 255
165 201 255
165 201 255
165 201 255
165 201 255
165 201 255
165 201 255
165 201 255
164 201 255
164 201 255
164 201 255
164 201 255
164 201 255
164 201 255
164 200 255
164 200 255
164 200 255
163 200 255
163 200 255
163 200 255
163 200 255
163 200 255
163 200 255
163 200 255
163 200 255
163 200 255
163 200 255
163 200 255
162 200 255
162 200 255
162 200 255
162 199 255
162 199 255
162 199 255
162 199 255
162 199 255
162 199 255
161 199 255
161 199 255
161 199 255
161 199 255
161 199 255
161 199 255
161 199 255
161 199 255
161 199 255
161 199 255
160 198 255
160 198 255
160 198 255
160 198 255
160 198 255
160 198 255
160 198 255
160 198 255
160 198 255
160 198 255
160 198 255
159 198 255
159 198 255
159 198 255
159 198 255
159 198 255
159 198 255
159 198 255
159 197 255
159 197 255
159 197 255
158 197 255
158 197 255
158 197 255
158 197 255
158 197 255
158 197 255
158 197 255
158 197 255
158 197 255
158 197 255
158 197 255
158 197 255
158 197 255
157 197 255
157 197 255
157 197 255
157 197 255
157 197 255
157 196 255
157 196 255
157 196 255
157 196 255
157 196 255
157 196 255
157 196 255
157 196 255
157 196 255
157 196 255
156 196 255
156 196 255
156 196 255
156 196 255
156 196 255
156 196 255
156 196 255
156 196 255
156 196 255
156 196 255
156 196 255
156 196 255
156 196 255
156 196 255
156 196 255
156 196 255
156 196 255
156 196 255
156 196 255
156 196 255
156 196 255
156 196 255
156 196 255
156 196 255
156 196 255
156 196 255
156 196 255
156 196 255
156 196 255
156 196 255
156 196 255
156 196 255
156 196 255
156 196 255
156 196 255
156 196 255
156 196 255
156 196 255
156 196 255
156 196 255
156 196 255
156 196 255
156 196 255
156 196 255
156 196 255
156 196 255
156 196 255
156 196 255
156 196 255
156 196 255
156 196 255
156 196 255
156 196 255
156 196 255
156 196 255
156 196 255
156 196 255
156 196 255
156 196 255
156 196 255
157 196 255
157 196 255
157 196 255
157 196 255
157 196 255
157 196 255
157 196 255
157 196 255
157 196 255
157 196 255
157 196 255
157 197 255
157 197 255
157 197 255
157 197 255
158 197 255
158 197 255
158 197 255
158 197 255
158 197 255
158 197 255
158 197 255
158 197 255
158 197 255
158 197 255
158 197 255
158 197 255
159 197 255
159 197 255
159 197 255
159 197 255
159 198 255
159 198 255
159 198 255
159 198 255
159 198 255
159 198 255
159 198 255
160 198 255
160 198 255
160 198 255
160 198 255
160 198 255
160 198 255
160 198 255
160 198 255
160 198 255
160 198 255
160 198 255
161 199 255
161 199 255
161 199 255
161 199 255
161 199 255
161 199 255
161 199 255
161 199 255
161 199 255
161 199 255
162 199 255
162 199 255
162 199 255
162 199 255
162 199 255
162 199 255
162 200 255
162 200 255
162 200 255
162 200 255
163 200 255
163 200 255
163 200 255
163 200 255
163 200 255
163 200 255
163 200 255
163 200 255
163 200 255
163 200 255
164 200 255
164 200 255
164 200 255
164 201 255
164 201 255
164 201 255
164 201 255
164 201 255
164 201 255
165 201 255
165 201 255
165 201 255
165 201 255
165 201 255
165 201 255
165 201 255
165 201 255
165 201 255
165 201 255
165 201 255
166 202 255
166 202 255
166 202 255
166 202 255
166 202 255
166 202 255
166 202 255
166 202 255
166 202 255
166 202 255
166 202 255
167 202 255
167 202 255
167 202 255
167 202 255
167 202 255
167 202 255
167 202 255
167 203 255
167 203 255
167 203 255
168 203 255
168 203 255
168 203 255
168 203 255
168 203 255
168 203 255
168 203 255
168 203 255
168 203 255
168 203 255
168 203 255
168 203 255
169 203 255
169 203 255
169 203 255
169 203 255
169 204 255
169 204 255
169 204 255
169 204 255
169 204 255
169 204 255
169 204 255
169 204 255
170 204 255
170 204 255
170 204 255
170 204 255
170 204 255
170 204 255
170 204 255
170 204 255
170 204 255
170 204 255
170 204 255
170 204 255
170 204 255
170 204 255
171 205 255
171 205 255
171 205 255
171 205 255
171 205 255
171 205 255
171 205 255
171 205 255
171 205 255
171 205 255
171 205 255
171 205 255
172 205 255
172 205 255
171 205 255
171 205 255
171 205 255
171 205 255
171 205 255
171 205 255
171 205 255
171 205 255
171 205 255
171 205 255
171 205 255
171 205 255
171 205 255
171 205 255
170 204 255
170 204 255
170 204 255
170 204 255
170 204 255
170 204 255
170 204 255
170 204 255
170 204 255
170 204 255
170 204 255
170 204 255
170 204 255
169 204 255
169 204 255
169 204 255
169 204 255
169 204 255
169 204 255
169 204 255
169 204 255
169 203 255
169 203 255
169 203 255
169 203 255
168 203 255
168 203 255
168 203 255
168 203 255
168 203 255
168 203 255
168 203 255
168 203 255
168 203 255
168 203 255
168 203 255
167 203 255
167 203 255
167 203 255
167 203 255
167 202 255
167 202 255
167 202 255
167 202 255
167 202 255
167 202 255
167 202 255
167 202 255
166 202 255
166 202 255
166 202 255
166 202 255
166 202 255
166 202 255
166 202 255
166 202 255
166 202 255
166 202 255
165 201 255
165 201 255
165 201 255
165 201 255
165 201 255
165 201 255
165 201 255
165 201 255
165 201 255
165 201 255
165 201 255
164 201 255
164 201 255
164 201 255
164 201 255
164 201 255
164 201 255
164 200 255
164 200 255
164 200 255
164 200 255
163 200 255
163 200 255
163 200 255
163 200 255
163 200 255
163 200 255
163 200 255
163 200 255
163 200 255
163 200 255
162 200 255
162 200 255
162 200 255
162 199 255
162 199 255
162 199 255
162 199 255
162 199 255
162 199 255
161 199 255
161 199 255
161 199 255
161 199 255
161 199 255
161 199 255
161 199 255
161 199 255
161 199 255
161 199 255
161 199 255
160 198 255
160 198 255
160 198 255
160 198 255
160 198 255
160 198 255
160 198 255
160 198 255
160 198 255
160 198 255
159 198 255
159 198 255
159 198 255
159 198 255
159 198 255
159 198 255
159 198 255
159 197 255
159 197 255
159 197 255
159 197 255
158 197 255
158 197 255
158 197 255
158 197 255
158 197 255
158 197 255
158 197 255
158 197 255
158 197 255
158 197 255
158 197 255
158 197 255
158 197 255
157 197 255
157 197 255
157 197 255
157 197 255
157 197 255
157 196 255
157 196 255
157 196 255
157 196 255
157 196 255
157 196 255
157 196 255
157 196 255
157 196 255
157 196 255
157 196 255
157 196 255
157 196 255
156 196 255
156 196 255
156 196 255
156 196 255
156 196 255
156 196 255
156 196 255
156 196 255
156 196 255
156 196 255
156 196 255
156 196 255
156 196 255
156 196 255
156 196 255
156 196 255
156 196 255
156 196 255
156 196 255
156 196 255
156 196 255
156 196 255
156 196 255
156 196 255
156 196 255
156 196 255
156 196 255
156 196 255
156 196 255
156 196 255
156 196 255
156 196 255
156 196 255
156 196 255
156 196 255
156 196 255
156 196 255
156 196 255
156 196 255
156 196 255
156 196 255
156 196 255
156 196 255
156 196 255
156 196 255
156 196 255
157 196 255
157 196 255
157 196 255
157 196 255
157 196 255
157 196 255
157 196 255
157 196 255
157 196 255
157 196 255
157 196 255
157 196 255
157 197 255
157 197 255
157 197 255
157 197 255
157 197 255
157 197 255
158 197 255
158 197 255
158 197 255
158 197 255
158 197 255
158 197 255
158 197 255
158 197 255
158 197 255
158 197 255
158 197 255
158 197 255
158 197 255
159 197 255
159 197 255
159 197 255
159 197 255
159 198 255
159 198 255
159 198 255
159 198 255
159 198 255
159 198 255
159 198 255
160 198 255
160 198 255
160 198 255
160 198 255
160 198 255
160 198 255
160 198 255
160 198 255
160 198 255
160 198 255
161 199 255
161 199 255
161 199 255
161 199 255
161 199 255
161 199 255
161 199 255
161 199 255
161 199 255
161 199 255
161 199 255
162 199 255
162 199 255
162 199 255
162 199 255
162 199 255
162 199 255
162 200 255
162 200 255
162 200 255
163 200 255
163 200 255
163 200 255
163 200 255
163 200 255
163 200 255
163 200 255
163 200 255
163 200 255
163 200 255
164 200 255
164 200 255
164 200 255
164 200 255
164 201 255
164 201 255
164 201 255
164 201 255
164 201 255
164 201 255
165 201 255
165 201 255
165 201 255
165 201 255
165 201 255
165 201 255
165 201 255
165 201 255
165 201 255
165 201 255
165 201 255
166 202 255
166 202 255
166 202 255
166 202 255
166 202 255
166 202 255
166 202 255
166 202 255
166 202 255
166 202 255
167 202 255
167 202 255
167 202 255
167 202 255
167 202 255
167 202 255
167 202 255
167 202 255
167 203 255
167 203 255
167 203 255
168 203 255
168 203 255
168 203 255
168 203 255
168 203 255
168 203 255
168 203 255
168 203 255
168 203 255
168 203 255
168 203 255
168 203 255
169 203 255
169 203 255
169 203 255
169 203 255
169 204 255
169 204 255
169 204 255
169 204 255
169 204 255
169 204 255
169 204 255
169 204 255
170 204 255
170 204 255
170 204 255
170 204 255
170 204 255
170 204 255
170 204 255
170 204 255
170 204 255
170 204 255
170 204 255
170 204 255
170 204 255
171 205 255
171 205 255
171 205 255
171 205 255
171 205 255
171 205 255
171 205 255
171 205 255
171 205 255
171 205 255
171 205 255
171 205 255
171 205 255
171 205 255
172 205 255
172 205 255
172 205 255
172 205 255
172 205 255
172 205 255
172 205 255
171 205 255
171 205 255
171 205 255
171 205 255
171 205 255
171 205 255
171 205 255
171 205 255
171 205 255
171 205 255
171 205 255
171 205 255
171 205 255
171 205 255
170 204 255
170 204 255
170 204 255
170 204 255
170 204 255
170 204 255
170 204 255
170 204 255
170 204 255
170 204 255
170 204 255
170 204 255
170 204 255
169 204 255
169 204 255
169 204 255
169 204 255
169 204 255
169 204 255
169 204 255
169 204 255
169 203 255
169 203 255
169 203 255
169 203 255
168 203 255
168 203 255
168 203 255
168 203 255
168 203 255
168 203 255
168 203 255
168 203 255
168 203 255
168 203 255
168 203 255
168 203 255
167 203 255
167 203 255
167 203 255
167 202 255
167 202 255
167 202 255
167 202 255
167 202 255
167 202 255
167 202 255
167 202 255
166 202 255
166 202 255
166 202 255
166 202 255
166 202 255
166 202 255
166 202 255
166 202 255
166 202 255
166 202 255
165 201 255
165 201 255
165 201 255
165 201 255
165 201 255
165 201 255
165 201 255
165 201 255
165 201 255
165 201 255
164 201 255
164 201 255
164 201 255
164 201 255
164 201 255
164 201 255
164 201 255
164 200 255
164 200 255
164 200 255
163 200 255
163 200 255
163 200 255
163 200 255
163 200 255
163 200 255
163 200 255
163 200 255
163 200 255
163 200 255
162 200 255
162 200 255
162 200 255
162 200 255
162 199 255
162 199 255
162 199 255
162 199 255
162 199 255
162 199 255
162 199 255
161 199 255
161 199 255
161 199 255
161 199 255
161 199 255
161 199 255
161 199 255
161 199 255
161 199 255
161 199 255
160 198 255
160 198 255
160 198 255
160 198 255
160 198 255
160 198 255
160 198 255
160 198 255
160 198 255
160 198 255
160 198 255
159 198 255
159 198 255
159 198 255
159 198 255
159 198 255
159 198 255
159 198 255
159 197 255
159 197 255
159 197 255
159 197 255
159 197 255
158 197 255
158 197 255
158 197 255
158 197 255
158 197 255
158 197 255
158 197 255
158 197 255
158 197 255
158 197 255
158 197 255
158 197 255
158 197 255
157 197 255
157 197 255
157 197 255
157 197 255
157 197 255
157 197 255
157 196 255
157 196 255
157 196 255
157 196 255
157 196 255
157 196 255
157 196 255
157 196 255
157 196 255
157 196 255
157 196 255
157 196 255
157 196 255
157 196 255
157 196 255
157 196 255
157 196 255
156 196 255
156 196 255
156 196 255
156 196 255
156 196 255
156 196 255
156 196 255
156 196 255
156 196 255
156 196 255
156 196 255
156 196 255
156 196 255
156 196 255
156 196 255
156 196 255
156 196 255
156 196 255
156 196 255
156 196 255
156 196 255
156 196 255
156 196 255
156 196 255
156 196 255
156 196 255
157 196 255
157 196 255
157 196 255
157 196 255
157 196 255
157 196 255
157 196 255
157 196 255
157 196 255
157 196 255
157 196 255
157 196 255
157 196 255
157 196 255
157 196 255
157 196 255
157 196 255
157 197 255
157 197 255
157 197 255
157 197 255
157 197 255
158 197 255
158 197 255
158 197 255
158 197 255
158 197 255
158 197 255
158 197 255
158 197 255
158 197 255
158 197 255
158 197 255
158 197 255
158 197 255
158 197 255
158 197 255
159 197 255
159 197 255
159 197 255
159 197 255
159 198 255
159 198 255
159 198 255
159 198 255
159 198 255
159 198 255
159 198 255
160 198 255
160 198 255
160 198 255
160 198 255
160 198 255
160 198 255
160 198 255
160 198 255
160 198 255
160 198 255
160 198 255
161 199 255
161 199 255
161 199 255
161 199 255
161 199 255
161 199 255
161 199 255
161 199 255
161 199 255
161 199 255
162 199 255
162 199 255
162 199 255
162 199 255
162 199 255
162 199 255
162 199 255
162 200 255
162 200 255
162 200 255
163 200 255
163 200 255
163 200 255
163 200 255
163 200 255
163 200 255
163 200 255
163 200 255
163 200 255
163 200 255
164 200 255
164 200 255
164 200 255
164 200 255
164 201 255
164 201 255
164 201 255
164 201 255
164 201 255
164 201 255
165 201 255
165 201 255
165 201 255
165 201 255
165 201 255
165 201 255
165 201 255
165 201 255
165 201 255
165 201 255
165 201 255
166 202 255
166 202 255
166 202 255
166 202 255
166 202 255
166 202 255
166 202 255
166 202 255
166 202 255
166 202 255
167 202 255
167 202 255
167 202 255
167 202 255
167 202 255
167 202 255
167 202 255
167 203 255
167 203 255
167 203 255
167 203 255
168 203 255
168 203 255
168 203 255
168 203 255
168 203 255
168 203 255
168 203 255
168 203 255
168 203 255
168 203 255
168 203 255
168 203 255
169 203 255
169 203 255
169 203 255
169 203 255
169 204 255
169 204 255
169 204 255
169 204 255
169 204 255
169 204 255
169 204 255
169 204 255
170 204 255
170 204 255
170 204 255
170 204 255
170 204 255
170 204 255
170 204 255
170 204 255
170 204 255
170 204 255
170 204 255
170 204 255
170 204 255
171 205 255
171 205 255
171 205 255
171 205 255
171 205 255
171 205 255
171 205 255
171 205 255
171 205 255
171 205 255
171 205 255
171 205 255
171 205 255
171 205 255
172 205 255
172 205 255
172 205 255
172 205 255
172 205 255
172 205 255
172 205 255
172 205 255
172 205 255
172 205 255
172 205 255
172 205 255
172 205 255
172 205 255
171 205 255
171 205 255
171 205 255
171 205 255
171 205 255
171 205 255
171 205 255
171 205 255
171 205 255
171 205 255
171 205 255
171 205 255
171 205 255
171 205 255
170 204 255
170 204 255
170 204 255
170 204 255
170 204 255
170 204 255
170 204 255
170 204 255
170 204 255
170 204 255
170 204 255
170 204 255
169 204 255
169 204 255
169 204 255
169 204 255
169 204 255
169 204 255
169 204 255
169 204 255
169 203 255
169 203 255
169 203 255
169 203 255
168 203 255
168 203 255
168 203 255
168 203 255
168 203 255
168 203 255
168 203 255
168 203 255
168 203 255
168 203 255
168 203 255
168 203 255
167 203 255
167 203 255
167 203 255
167 203 255
167 202 255
167 202 255
167 202 255
167 202 255
167 202 255
167 202 255
167 202 255
166 202 255
166 202 255
166 202 255
166 202 255
166 202 255
166 202 255
166 202 255
166 202 255
166 202 255
166 202 255
165 201 255
165 201 255
165 201 255
165 201 255
165 201 255
165 201 255
165 201 255
165 201 255
165 201 255
165 201 255
165 201 255
164 201 255
164 201 255
164 201 255
164 201 255
164 201 255
164 201 255
164 200 255
164 200 255
164 200 255
164 200 255
163 200 255
163 200 255
163 200 255
163 200 255
163 200 255
163 200 255
163 200 255
163 200 255
163 200 255
163 200 255
162 200 255
162 200 255
162 200 255
162 199 255
162 199 255
162 199 255
162 199 255
162 199 255
162 199 255
162 199 255
161 199 255
161 199 255
161 199 255
161 199 255
161 199 255
161 199 255
161 199 255
161 199 255
161 199 255
161 199 255
160 198 255
160 198 255
160 198 255
160 198 255
160 198 255
160 198 255
160 198 255
160 198 255
160 198 255
160 198 255
160 198 255
159 198 255
159 198 255
159 198 255
159 198 255
159 198 255
159 198 255
159 198 255
159 198 255
159 197 255
159 197 255
159 197 255
159 197 255
159 197 255
158 197 255
158 197 255
158 197 255
158 197 255
158 197 255
158 197 255
158 197 255
158 197 255
158 197 255
158 197 255
158 197 255
158 197 255
158 197 255
158 197 255
158 197 255
157 197 255
157 197 255
157 197 255
157 197 255
157 197 255
157 197 255
157 197 255
157 196 255
157 196 255
157 196 255
157 196 255
157 196 255
157 196 255
157 196 255
157 196 255
157 196 255
157 196 255
157 196 255
157 196 255
157 196 255
157 196 255
157 196 255
157 196 255
157 196 255
157 196 255
157 196 255
157 196 255
157 196 255
157 196 255
157 196 255
157 196 255
157 196 255
157 196 255
157 196 255
157 196 255
157 196 255
157 196 255
157 196 255
157 196 255
157 196 255
157 196 255
157 196 255
157 196 255
157 196 255
157 196 255
157 196 255
157 196 255
157 196 255
157 196 255
157 196 255
157 196 255
157 196 255
157 196 255
157 197 255
157 197 255
157 197 255
157 197 255
157 197 255
157 197 255
157 197 255
158 197 255
158 197 255
158 197 255
158 197 255
158 197 255
158 197 255
158 197 255
158 197 255
158 197 255
158 197 255
158 197 255
158 197 255
158 197 255
158 197 255
158 197 255
159 197 255
159 197 255
159 197 255
159 197 255
159 197 255
159 198 255
159 198 255
159 198 255
159 198 255
159 198 255
159 198 255
159 198 255
159 198 255
160 198 255
160 198 255
160 198 255
160 198 255
160 198 255
160 198 255
160 198 255
160 198 255
160 198 255
160 198 255
160 198 255
161 199 255
161 199 255
161 199 255
161 199 255
161 199 255
161 199 255
161 199 255
161 199 255
161 199 255
161 199 255
162 199 255
162 199 255
162 199 255
162 199 255
162 199 255
162 199 255
162 199 255
162 200 255
162 200 255
162 200 255
163 200 255
163 200 255
163 200 255
163 200 255
163 200 255
163 200 255
163 200 255
163 200 255
163 200 255
163 200 255
164 200 255
164 200 255
164 200 255
164 200 255
164 201 255
164 201 255
164 201 255
164 201 255
164 201 255
164 201 255
165 201 255
165 201 255
165 201 255
165 201 255
165 201 255
165 201 255
165 201 255
165 201 255
165 201 255
165 201 255
165 201 255
166 202 255
166 202 255
166 202 255
166 202 255
166 202 255
166 202 255
166 202 255
166 202 255
166 202 255
166 202 255
167 202 255
167 202 255
167 202 255
167 202 255
167 202 255
167 202 255
167 202 255
167 202 255
167 203 255
167 203 255
167 203 255
168 203 255
168 203 255
168 203 255
168 203 255
168 203 255
168 203 255
168 203 255
168 203 255
168 203 255
168 203 255
168 203 255
168 203 255
169 203 255
169 203 255
169 203 255
169 203 255
169 204 255
169 204 255
169 204 255
169 204 255
169 204 255
169 204 255
169 204 255
169 204 255
170 204 255
170 204 255
170 204 255
170 204 255
170 204 255
170 204 255
170 204 255
170 204 255
170 204 255
170 204 255
170 204 255
170 204 255
171 205 255
171 205 255
171 205 255
171 205 255
171 205 255
171 205 255
171 205 255
171 205 255
171 205 255
171 205 255
171 205 255
171 205 255
171 205 255
171 205 255
172 205 255
172 205 255
172 205 255
172 205 255
172 205 255
172 205 255
172 205 255
172 205 255
172 205 255
172 206 255
172 206 255
172 206 255
172 205 255
172 205 255
172 205 255
172 205 255
172 205 255
172 205 255
172 205 255
172 205 255
172 205 255
171 205 255
171 205 255
171 205 255
171 205 255
171 205 255
171 205 255
171 205 255
171 205 255
171 205 255
171 205 255
171 205 255
171 205 255
171 205 255
171 205 255
170 204 255
170 204 255
170 204 255
170 204 255
170 204 255
170 204 255
170 204 255
170 204 255
170 204 255
170 204 255
170 204 255
170 204 255
170 204 255
169 204 255
169 204 255
169 204 255
169 204 255
169 204 255
169 204 255
169 204 255
169 204 255
169 203 255
169 203 255
169 203 255
169 203 255
168 203 255
168 203 255
168 203 255
168 203 255
168 203 255
168 203 255
168 203 255
168 203 255
168 203 255
168 203 255
168 203 255
167 203 255
167 203 255
167 203 255
167 203 255
167 202 255
167 202 255
167 202 255
167 202 255
167 202 255
167 202 255
167 202 255
166 202 255
166 202 255
166 202 255
166 202 255
166 202 255
166 202 255
166 202 255
166 202 255
166 202 255
166 202 255
165 201 255
165 201 255
165 201 255
165 201 255
165 201 255
165 201 255
165 201 255
165 201 255
165 201 255
165 201 255
165 201 255
164 201 255
164 201 255
164 201 255
164 201 255
164 201 255
164 201 255
164 200 255
164 200 255
164 200 255
164 200 255
163 200 255
163 200 255
163 200 255
163 200 255
163 200 255
163 200 255
163 200 255
163 200 255
163 200 255
163 200 255
162 200 255
162 200 255
162 200 255
162 199 255
162 199 255
162 199 255
162 199 255
162 199 255
162 199 255
162 199 255
161 199 255
161 199 255
161 199 255
161 199 255
161 199 255
161 199 255
161 199 255
161 199 255
161 199 255
161 199 255
161 199 255
160 198 255
160 198 255
160 198 255
160 198 255
160 198 255
160 198 255
160 198 255
160 198 255
160 198 255
160 198 255
160 198 255
159 198 255
159 198 255
159 198 255
159 198 255
159 198 255
159 198 255
159 198 255
159 198 255
159 198 255
159 197 255
159 197 255
159 197 255
159 197 255
158 197 255
158 197 255
158 197 255
158 197 255
158 197 255
158 197 255
158 197 255
158 197 255
158 197 255
158 197 255
158 197 255
158 197 255
158 197 255
158 197 255
158 197 255
158 197 255
158 197 255
158 197 255
157 197 255
157 197 255
157 197 255
157 197 255
157 197 255
157 197 255
157 197 255
157 197 255
157 197 255
157 197 255
157 196 255
157 196 255
157 196 255
157 196 255
157 196 255
157 196 255
157 196 255
157 196 255
157 196 255
157 196 255
157 196 255
157 196 255
157 196 255
157 196 255
157 196 255
157 196 255
157 196 255
157 196 255
157 196 255
157 196 255
157 196 255
157 196 255
157 196 255
157 196 255
157 196 255
157 196 255
157 197 255
157 197 255
157 197 255
157 197 255
157 197 255
157 197 255
157 197 255
157 197 255
157 197 255
157 197 255
158 197 255
158 197 255
158 197 255
158 197 255
158 197 255
158 197 255
158 197 255
158 197 255
158 197 255
158 197 255
158 197 255
158 197 255
158 197 255
158 197 255
158 197 255
158 197 255
158 197 255
158 197 255
159 197 255
159 197 255
159 197 255
159 197 255
159 198 255
159 198 255
159 198 255
159 198 255
159 198 255
159 198 255
159 198 255
159 198 255
159 198 255
160 198 255
160 198 255
160 198 255
160 198 255
160 198 255
160 198 255
160 198 255
160 198 255
160 198 255
160 198 255
160 198 255
161 199 255
161 199 255
161 199 255
161 199 255
161 199 255
161 199 255
161 199 255
161 199 255
161 199 255
161 199 255
161 199 255
162 199 255
162 199 255
162 199 255
162 199 255
162 199 255
162 199 255
162 199 255
162 200 255
162 200 255
162 200 255
163 200 255
163 200 255
163 200 255
163 200 255
163 200 255
163 200 255
163 200 255
163 200 255
163 200 255
163 200 255
164 200 255
164 200 255
164 200 255
164 200 255
164 201 255
164 201 255
164 201 255
164 201 255
164 201 255
164 201 255
165 201 255
165 201 255
165 201 255
165 201 255
165 201 255
165 201 255
165 201 255
165 201 255
165 201 255
165 201 255
166 202 255
166 202 255
166 202 255
166 202 255
166 202 255
166 202 255
166 202 255
166 202 255
166 202 255
166 202 255
166 202 255
167 202 255
167 202 255
167 202 255
167 202 255
167 202 255
167 202 255
167 202 255
167 203 255
167 203 255
167 203 255
167 203 255
168 203 255
168 203 255
168 203 255
168 203 255
168 203 255
168 203 255
168 203 255
168 203 255
168 203 255
168 203 255
168 203 255
169 203 255
169 203 255
169 203 255
169 203 255
169 204 255
169 204 255
169 204 255
169 204 255
169 204 255
169 204 255
169 204 255
169 204 255
170 204 255
170 204 255
170 204 255
170 204 255
170 204 255
170 204 255
170 204 255
170 204 255
170 204 255
170 204 255
170 204 255
170 204 255
170 204 255
171 205 255
171 205 255
171 205 255
171 205 255
171 205 255
171 205 255
171 205 255
171 205 255
171 205 255
171 205 255
171 205 255
171 205 255
171 205 255
171 205 255
172 205 255
172 205 255
172 205 255
172 205 255
172 205 255
172 205 255
172 205 255
172 205 255
172 205 255
172 206 255
172 206 255
172 206 255
173 206 255
172 206 255
172 206 255
172 206 255
172 206 255
172 206 255
172 205 255
172 205 255
172 205 255
172 205 255
172 205 255
172 205 255
172 205 255
172 205 255
172 205 255
172 205 255
171 205 255
171 205 255
171 205 255
171 205 255
171 205 255
171 205 255
171 205 255
171 205 255
171 205 255
171 205 255
171 205 255
171 205 255
171 205 255
170 204 255
170 204 255
170 204 255
170 204 255
170 204 255
170 204 255
170 204 255
170 204 255
170 204 255
170 204 255
170 204 255
170 204 255
170 204 255
169 204 255
169 204 255
169 204 255
169 204 255
169 204 255
169 204 255
169 204 255
169 204 255
169 203 255
169 203 255
169 203 255
169 203 255
168 203 255
168 203 255
168 203 255
168 203 255
168 203 255
168 203 255
168 203 255
168 203 255
168 203 255
168 203 255
168 203 255
167 203 255
167 203 255
167 203 255
167 203 255
167 202 255
167 202 255
167 202 255
167 202 255
167 202 255
167 202 255
167 202 255
166 202 255
166 202 255
166 202 255
166 202 255
166 202 255
166 202 255
166 202 255
166 202 255
166 202 255
166 202 255
166 202 255
165 201 255
165 201 255
165 201 255
165 201 255
165 201 255
165 201 255
165 201 255
165 201 255
165 201 255
165 201 255
164 201 255
164 201 255
164 201 255
164 201 255
164 201 255
164 201 255
164 201 255
164 200 255
164 200 255
164 200 255
163 200 255
163 200 255
163 200 255
163 200 255
163 200 255
163 200 255
163 200 255
163 200 255
163 200 255
163 200 255
162 200 255
162 200 255
162 200 255
162 200 255
162 199 255
162 199 255
162 199 255
162 199 255
162 199 255
162 199 255
162 199 255
161 199 255
161 199 255
161 199 255
161 199 255
161 199 255
161 199 255
161 199 255
161 199 255
161 199 255
161 199 255
160 198 255
160 198 255
160 198 255
160 198 255
160 198 255
160 198 255
160 198 255
160 198 255
160 198 255
160 198 255
160 198 255
160 198 255
159 198 255
159 198 255
159 198 255
159 198 255
159 198 255
159 198 255
159 198 255
159 198 255
159 198 255
159 197 255
159 197 255
159 197 255
159 197 255
159 197 255
159 197 255
158 197 255
158 197 255
158 197 255
158 197 255
158 197 255
158 197 255
158 197 255
158 197 255
158 197 255
158 197 255
158 197 255
158 197 255
158 197 255
158 197 255
158 197 255
158 197 255
158 197 255
158 197 255
158 197 255
158 197 255
158 197 255
158 197 255
157 197 255
157 197 255
157 197 255
157 197 255
157 197 255
157 197 255
157 197 255
157 197 255
157 197 255
157 197 255
157 197 255
157 197 255
157 197 255
157 197 255
157 197 255
157 197 255
157 197 255
157 197 255
157 197 255
157 197 255
157 197 255
157 197 255
157 197 255
157 197 255
157 197 255
157 197 255
158 197 255
158 197 255
158 197 255
158 197 255
158 197 255
158 197 255
158 197 255
158 197 255
158 197 255
158 197 255
158 197 255
158 197 255
158 197 255
158 197 255
158 197 255
158 197 255
158 197 255
158 197 255
158 197 255
158 197 255
158 197 255
158 197 255
158 197 255
159 197 255
159 197 255
159 197 255
159 197 255
159 197 255
159 198 255
159 198 255
159 198 255
159 198 255
159 198 255
159 198 255
159 198 255
159 198 255
160 198 255
160 198 255
160 198 255
160 198 255
160 198 255
160 198 255
160 198 255
160 198 255
160 198 255
160 198 255
160 198 255
160 198 255
160 198 255
161 199 255
161 199 255
161 199 255
161 199 255
161 199 255
161 199 255
161 199 255
161 199 255
161 199 255
161 199 255
162 199 255
162 199 255
162 199 255
162 199 255
162 199 255
162 199 255
162 199 255
162 200 255
162 200 255
162 200 255
162 200 255
163 200 255
163 200 255
163 200 255
163 200 255
163 200 255
163 200 255
163 200 255
163 200 255
163 200 255
163 200 255
164 200 255
164 200 255
164 200 255
164 201 255
164 201 255
164 201 255
164 201 255
164 201 255
164 201 255
164 201 255
165 201 255
165 201 255
165 201 255
165 201 255
165 201 255
165 201 255
165 201 255
165 201 255
165 201 255
165 201 255
166 202 255
166 202 255
166 202 255
166 202 255
166 202 255
166 202 255
166 202 255
166 202 255
166 202 255
166 202 255
166 202 255
167 202 255
167 202 255
167 202 255
167 202 255
167 202 255
167 202 255
167 202 255
167 203 255
167 203 255
167 203 255
167 203 255
168 203 255
168 203 255
168 203 255
168 203 255
168 203 255
168 203 255
168 203 255
168 203 255
168 203 255
168 203 255
168 203 255
169 203 255
169 203 255
169 203 255
169 203 255
169 204 255
169 204 255
169 204 255
169 204 255
169 204 255
169 204 255
169 204 255
169 204 255
170 204 255
170 204 255
170 204 255
170 204 255
170 204 255
170 204 255
170 204 255
170 204 255
170 204 255
170 204 255
170 204 255
170 204 255
170 204 255
171 205 255
171 205 255
171 205 255
171 205 255
171 205 255
171 205 255
171 205 255
171 205 255
171 205 255
171 205 255
171 205 255
171 205 255
171 205 255
172 205 255
172 205 255
172 205 255
172 205 255
172 205 255
172 205 255
172 205 255
172 205 255
172 205 255
172 205 255
172 206 255
172 206 255
172 206 255
172 206 255
172 206 255
173 206 255
173 206 255
173 206 255
173 206 255
173 206 255
173 206 255
172 206 255
172 206 255
172 206 255
172 206 255
172 206 255
172 205 255
172 205 255
172 205 255
172 205 255
172 205 255
172 205 255
172 205 255
172 205 255
172 205 255
171 205 255
171 205 255
171 205 255
171 205 255
171 205 255
171 205 255
171 205 255
171 205 255
171 205 255
171 205 255
171 205 255
171 205 255
171 205 255
171 205 255
170 204 255
170 204 255
170 204 255
170 204 255
170 204 255
170 204 255
170 204 255
170 204 255
170 204 255
170 204 255
170 204 255
170 204 255
169 204 255
169 204 255
169 204 255
169 204 255
169 204 255
169 204 255
169 204 255
169 204 255
169 204 255
169 203 255
169 203 255
169 203 255
168 203 255
168 203 255
168 203 255
168 203 255
168 203 255
168 203 255
168 203 255
168 203 255
168 203 255
168 203 255
168 203 255
167 203 255
167 203 255
167 203 255
167 203 255
167 202 255
167 202 255
167 202 255
167 202 255
167 202 255
167 202 255
167 202 255
166 202 255
166 202 255
166 202 255
166 202 255
166 202 255
166 202 255
166 202 255
166 202 255
166 202 255
166 202 255
166 202 255
165 201 255
165 201 255
165 201 255
165 201 255
165 201 255
165 201 255
165 201 255
165 201 255
165 201 255
165 201 255
164 201 255
164 201 255
164 201 255
164 201 255
164 201 255
164 201 255
164 201 255
164 200 255
164 200 255
164 200 255
163 200 255
163 200 255
163 200 255
163 200 255
163 200 255
163 200 255
163 200 255
163 200 255
163 200 255
163 200 255
163 200 255
162 200 255
162 200 255
162 200 255
162 199 255
162 199 255
162 199 255
162 199 255
162 199 255
162 199 255
162 199 255
161 199 255
161 199 255
161 199 255
161 199 255
161 199 255
161 199 255
161 199 255
161 199 255
161 199 255
161 199 255
161 199 255
160 198 255
160 198 255
160 198 255
160 198 255
160 198 255
160 198 255
160 198 255
160 198 255
160 198 255
160 198 255
160 198 255
160 198 255
160 198 255
159 198 255
159 198 255
159 198 255
159 198 255
159 198 255
159 198 255
159 198 255
159 198 255
159 198 255
159 198 255
159 197 255
159 197 255
159 197 255
159 197 255
159 197 255
159 197 255
158 197 255
158 197 255
158 197 255
158 197 255
158 197 255
158 197 255
158 197 255
158 197 255
158 197 255
158 197 255
158 197 255
158 197 255
158 197 255
158 197 255
158 197 255
158 197 255
158 197 255
158 197 255
158 197 255
158 197 255
158 197 255
158 197 255
158 197 255
158 197 255
158 197 255
158 197 255
158 197 255
158 197 255
158 197 255
158 197 255
158 197 255
158 197 255
158 197 255
158 197 255
158 197 255
158 197 255
158 197 255
158 197 255
158 197 255
158 197 255
158 197 255
158 197 255
158 197 255
158 197 255
158 197 255
158 197 255
158 197 255
158 197 255
158 197 255
158 197 255
158 197 255
158 197 255
158 197 255
158 197 255
158 197 255
158 197 255
158 197 255
158 197 255
158 197 255
159 197 255
159 197 255
159 197 255
159 197 255
159 197 255
159 198 255
159 198 255
159 198 255
159 198 255
159 198 255
159 198 255
159 198 255
159 198 255
159 198 255
159 198 255
160 198 255
160 198 255
160 198 255
160 198 255
160 198 255
160 198 255
160 198 255
160 198 255
160 198 255
160 198 255
160 198 255
160 198 255
160 198 255
161 199 255
161 199 255
161 199 255
161 199 255
161 199 255
161 199 255
161 199 255
161 199 255
161 199 255
161 199 255
161 199 255
162 199 255
162 199 255
162 199 255
162 199 255
162 199 255
162 199 255
162 199 255
162 200 255
162 200 255
162 200 255
163 200 255
163 200 255
163 200 255
163 200 255
163 200 255
163 200 255
163 200 255
163 200 255
163 200 255
163 200 255
163 200 255
164 200 255
164 200 255
164 200 255
164 201 255
164 201 255
164 201 255
164 201 255
164 201 255
164 201 255
164 201 255
165 201 255
165 201 255
165 201 255
165 201 255
165 201 255
165 201 255
165 201 255
165 201 255
165 201 255
165 201 255
166 202 255
166 202 255
166 202 255
166 202 255
166 202 255
166 202 255
166 202 255
166 202 255
166 202 255
166 202 255
166 202 255
167 202 255
167 202 255
167 202 255
167 202 255
167 202 255
167 202 255
167 202 255
167 203 255
167 203 255
167 203 255
167 203 255
168 203 255
168 203 255
168 203 255
168 203 255
168 203 255
168 203 255
168 203 255
168 203 255
168 203 255
168 203 255
168 203 255
169 203 255
169 203 255
169 203 255
169 203 255
169 204 255
169 204 255
169 204 255
169 204 255
169 204 255
169 204 255
169 204 255
169 204 255
170 204 255
170 204 255
170 204 255
170 204 255
170 204 255
170 204 255
170 204 255
170 204 255
170 204 255
170 204 255
170 204 255
170 204 255
171 205 255
171 205 255
171 205 255
171 205 255
171 205 255
171 205 255
171 205 255
171 205 255
171 205 255
171 205 255
171 205 255
171 205 255
171 205 255
171 205 255
172 205 255
172 205 255
172 205 255
172 205 255
172 205 255
172 205 255
172 205 255
172 205 255
172 205 255
172 206 255
172 206 255
172 206 255
172 206 255
172 206 255
173 206 255
173 206 255
173 206 255
173 206 255
173 206 255
173 206 255
173 206 255
173 206 255
173 206 255
173 206 255
173 206 255
173 206 255
173 206 255
173 206 255
172 206 255
172 206 255
172 206 255
172 206 255
172 205 255
172 205 255
172 205 255
172 205 255
172 205 255
172 205 255
172 205 255
172 205 255
172 205 255
172 205 255
171 205 255
171 205 255
171 205 255
171 205 255
171 205 255
171 205 255
171 205 255
171 205 255
171 205 255
171 205 255
171 205 255
171 205 255
171 205 255
170 204 255
170 204 255
170 204 255
170 204 255
170 204 255
170 204 255
170 204 255
170 204 255
170 204 255
170 204 255
170 204 255
170 204 255
170 204 255
169 204 255
169 204 255
169 204 255
169 204 255
169 204 255
169 204 255
169 204 255
169 204 255
169 203 255
169 203 255
169 203 255
169 203 255
168 203 255
168 203 255
168 203 255
168 203 255
168 203 255
168 203 255
168 203 255
168 203 255
168 203 255
168 203 255
168 203 255
167 203 255
167 203 255
167 203 255
167 202 255
167 202 255
167 202 255
167 202 255
167 202 255
167 202 255
167 202 255
167 202 255
166 202 255
166 202 255
166 202 255
166 202 255
166 202 255
166 202 255
166 202 255
166 202 255
166 202 255
166 202 255
165 201 255
165 201 255
165 201 255
165 201 255
165 201 255
165 201 255
165 201 255
165 201 255
165 201 255
165 201 255
164 201 255
164 201 255
164 201 255
164 201 255
164 201 255
164 201 255
164 201 255
164 200 255
164 200 255
164 200 255
164 200 255
163 200 255
163 200 255
163 200 255
163 200 255
163 200 255
163 200 255
163 200 255
163 200 255
163 200 255
163 200 255
162 200 255
162 200 255
162 200 255
162 200 255
162 199 255
162 199 255
162 199 255
162 199 255
162 199 255
162 199 255
162 199 255
161 199 255
161 199 255
161 199 255
161 199 255
161 199 255
161 199 255
161 199 255
161 199 255
161 199 255
161 199 255
161 199 255
160 198 255
160 198 255
160 198 255
160 198 255
160 198 255
160 198 255
160 198 255
160 198 255
160 198 255
160 198 255
160 198 255
160 198 255
160 198 255
160 198 255
159 198 255
159 198 255
159 198 255
159 198 255
159 198 255
159 198 255
159 198 255
159 198 255
159 198 255
159 198 255
159 198 255
159 197 255
159 197 255
159 197 255
159 197 255
159 197 255
159 197 255
159 197 255
158 197 255
158 197 255
158 197 255
158 197 255
158 197 255
158 197 255
158 197 255
158 197 255
158 197 255
158 197 255
158 197 255
158 197 255
158 197 255
158 197 255
158 197 255
158 197 255
158 197 255
158 197 255
158 197 255
158 197 255
158 197 255
158 197 255
158 197 255
158 197 255
158 197 255
158 197 255
158 197 255
158 197 255
158 197 255
158 197 255
158 197 255
158 197 255
158 197 255
158 197 255
158 197 255
158 197 255
158 197 255
158 197 255
158 197 255
158 197 255
158 197 255
158 197 255
158 197 255
158 197 255
159 197 255
159 197 255
159 197 255
159 197 255
159 197 255
159 197 255
159 197 255
159 198 255
159 198 255
159 198 255
159 198 255
159 198 255
159 198 255
159 198 255
159 198 255
159 198 255
159 198 255
159 198 255
160 198 255
160 198 255
160 198 255
160 198 255
160 198 255
160 198 255
160 198 255
160 198 255
160 198 255
160 198 255
160 198 255
160 198 255
160 198 255
160 198 255
161 199 255
161 199 255
161 199 255
161 199 255
161 199 255
161 199 255
161 199 255
161 199 255
161 199 255
161 199 255
161 199 255
162 199 255
162 199 255
162 199 255
162 199 255
162 199 255
162 199 255
162 199 255
162 200 255
162 200 255
162 200 255
162 200 255
163 200 255
163 200 255
163 200 255
163 200 255
163 200 255
163 200 255
163 200 255
163 200 255
163 200 255
163 200 255
164 200 255
164 200 255
164 200 255
164 200 255
164 201 255
164 201 255
164 201 255
164 201 255
164 201 255
164 201 255
164 201 255
165 201 255
165 201 255
165 201 255
165 201 255
165 201 255
165 201 255
165 201 255
165 201 255
165 201 255
165 201 255
166 202 255
166 202 255
166 202 255
166 202 255
166 202 255
166 202 255
166 202 255
166 202 255
166 202 255
166 202 255
166 202 255
167 202 255
167 202 255
167 202 255
167 202 255
167 202 255
167 202 255
167 202 255
167 203 255
167 203 255
167 203 255
168 203 255
168 203 255
168 203 255
168 203 255
168 203 255
168 203 255
168 203 255
168 203 255
168 203 255
168 203 255
168 203 255
169 203 255
169 203 255
169 203 255
169 203 255
169 204 255
169 204 255
169 204 255
169 204 255
169 204 255
169 204 255
169 204 255
169 204 255
170 204 255
170 204 255
170 204 255
170 204 255
170 204 255
170 204 255
170 204 255
170 204 255
170 204 255
170 204 255
170 204 255
170 204 255
170 204 255
171 205 255
171 205 255
171 205 255
171 205 255
171 205 255
171 205 255
171 205 255
171 205 255
171 205 255
171 205 255
171 205 255
171 205 255
171 205 255
172 205 255
172 205 255
172 205 255
172 205 255
172 205 255
172 205 255
172 205 255
172 205 255
172 205 255
172 206 255
172 206 255
172 206 255
172 206 255
172 206 255
173 206 255
173 206 255
173 206 255
173 206 255
173 206 255
173 206 255
173 206 255
173 206 255
173 206 255
173 206 255
173 206 255
173 206 255
173 206 255
173 206 255
173 206 255
173 206 255
173 206 255
173 206 255
173 206 255
173 206 255
173 206 255
172 206 255
172 206 255
172 206 255
172 206 255
172 206 255
172 205 255
172 205 255
172 205 255
172 205 255
172 205 255
172 205 255
172 205 255
172 205 255
172 205 255
172 205 255
171 205 255
171 205 255
171 205 255
171 205 255
171 205 255
171 205 255
171 205 255
171 205 255
171 205 255
171 205 255
171 205 255
171 205 255
171 205 255
170 204 255
170 204 255
170 204 255
170 204 255
170 204 255
170 204 255
170 204 255
170 204 255
170 204 255
170 204 255
170 204 255
170 204 255
169 204 255
169 204 255
169 204 255
169 204 255
169 204 255
169 204 255
169 204 255
169 204 255
169 203 255
169 203 255
169 203 255
169 203 255
168 203 255
168 203 255
168 203 255
168 203 255
168 203 255
168 203 255
168 203 255
168 203 255
168 203 255
168 203 255
168 203 255
167 203 255
167 203 255
167 203 255
167 203 255
167 202 255
167 202 255
167 202 255
167 202 255
167 202 255
167 202 255
167 202 255
166 202 255
166 202 255
166 202 255
166 202 255
166 202 255
166 202 255
166 202 255
166 202 255
166 202 255
166 202 255
165 201 255
165 201 255
165 201 255
165 201 255
165 201 255
165 201 255
165 201 255
165 201 255
165 201 255
165 201 255
165 201 255
164 201 255
164 201 255
164 201 255
164 201 255
164 201 255
164 201 255
164 201 255
164 200 255
164 200 255
164 200 255
163 200 255
163 200 255
163 200 255
163 200 255
163 200 255
163 200 255
163 200 255
163 200 255
163 200 255
163 200 255
162 200 255
162 200 255
162 200 255
162 200 255
162 199 255
162 199 255
162 199 255
162 199 255
162 199 255
162 199 255
162 199 255
162 199 255
161 199 255
161 199 255
161 199 255
161 199 255
161 199 255
161 199 255
161 199 255
161 199 255
161 199 255
161 199 255
161 199 255
161 199 255
160 198 255
160 198 255
160 198 255
160 198 255
160 198 255
160 198 255
160 198 255
160 198 255
160 198 255
160 198 255
160 198 255
160 198 255
160 198 255
160 198 255
159 198 255
159 198 255
159 198 255
159 198 255
159 198 255
159 198 255
159 198 255
159 198 255
159 198 255
159 198 255
159 198 255
159 198 255
159 198 255
159 198 255
159 197 255
159 197 255
159 197 255
159 197 255
159 197 255
159 197 255
159 197 255
159 197 255
159 197 255
159 197 255
159 197 255
158 197 255
158 197 255
158 197 255
158 197 255
158 197 255
158 197 255
158 197 255
158 197 255
158 197 255
158 197 255
158 197 255
158 197 255
158 197 255
158 197 255
158 197 255
158 197 255
158 197 255
158 197 255
158 197 255
158 197 255
158 197 255
159 197 255
159 197 255
159 197 255
159 197 255
159 197 255
159 197 255
159 197 255
159 197 255
159 197 255
159 197 255
159 197 255
159 198 255
159 198 255
159 198 255
159 198 255
159 198 255
159 198 255
159 198 255
159 198 255
159 198 255
159 198 255
159 198 255
159 198 255
159 198 255
160 198 255
160 198 255
160 198 255
160 198 255
160 198 255
160 198 255
160 198 255
160 198 255
160 198 255
160 198 255
160 198 255
160 198 255
160 198 255
160 198 255
161 199 255
161 199 255
161 199 255
161 199 255
161 199 255
161 199 255
161 199 255
161 199 255
161 199 255
161 199 255
161 199 255
161 199 255
162 199 255
162 199 255
162 199 255
162 199 255
162 199 255
162 199 255
162 199 255
162 199 255
162 200 255
162 200 255
162 200 255
162 200 255
163 200 255
163 200 255
163 200 255
163 200 255
163 200 255
163 200 255
163 200 255
163 200 255
163 200 255
163 200 255
164 200 255
164 200 255
164 200 255
164 201 255
164 201 255
164 201 255
164 201 255
164 201 255
164 201 255
164 201 255
165 201 255
165 201 255
165 201 255
165 201 255
165 201 255
165 201 255
165 201 255
165 201 255
165 201 255
165 201 255
165 201 255
166 202 255
166 202 255
166 202 255
166 202 255
166 202 255
166 202 255
166 202 255
166 202 255
166 202 255
166 202 255
167 202 255
167 202 255
167 202 255
167 202 255
167 202 255
167 202 255
167 202 255
167 203 255
167 203 255
167 203 255
167 203 255
168 203 255
168 203 255
168 203 255
168 203 255
168 203 255
168 203 255
168 203 255
168 203 255
168 203 255
168 203 255
168 203 255
169 203 255
169 203 255
169 203 255
169 203 255
169 204 255
169 204 255
169 204 255
169 204 255
169 204 255
169 204 255
169 204 255
169 204 255
170 204 255
170 204 255
170 204 255
170 204 255
170 204 255
170 204 255
170 204 255
170 204 255
170 204 255
170 204 255
170 204 255
170 204 255
171 205 255
171 205 255
171 205 255
171 205 255
171 205 255
171 205 255
171 205 255
171 205 255
171 205 255
171 205 255
171 205 255
171 205 255
171 205 255
172 205 255
172 205 255
172 205 255
172 205 255
172 205 255
172 205 255
172 205 255
172 205 255
172 205 255
172 205 255
172 206 255
172 206 255
172 206 255
172 206 255
172 206 255
173 206 255
173 206 255
173 206 255
173 206 255
173 206 255
173 206 255
173 206 255
173 206 255
173 206 255
173 206 255
173 206 255
173 206 255
174 206 255
173 206 255
173 206 255
173 206 255
173 206 255
173 206 255
173 206 255
173 206 255
173 206 255
173 206 255
173 206 255
173 206 255
173 206 255
173 206 255
173 206 255
173 206 255
172 206 255
172 206 255
172 206 255
172 206 255
172 206 255
172 205 255
172 205 255
172 205 255
172 205 255
172 205 255
172 205 255
172 205 255
172 205 255
172 205 255
171 205 255
171 205 255
171 205 255
171 205 255
171 205 255
171 205 255
171 205 255
171 205 255
171 205 255
171 205 255
171 205 255
171 205 255
171 205 255
170 204 255
170 204 255
170 204 255
170 204 255
170 204 255
170 204 255
170 204 255
170 204 255
170 204 255
170 204 255
170 204 255
170 204 255
170 204 255
169 204 255
169 204 255
169 204 255
169 204 255
169 204 255
169 204 255
169 204 255
169 203 255
169 203 255
169 203 255
169 203 255
168 203 255
168 203 255
168 203 255
168 203 255
168 203 255
168 203 255
168 203 255
168 203 255
168 203 255
168 203 255
168 203 255
168 203 255
167 203 255
167 203 255
167 203 255
167 202 255
167 202 255
167 202 255
167 202 255
167 202 255
167 202 255
167 202 255
166 202 255
166 202 255
166 202 255
166 202 255
166 202 255
166 202 255
166 202 255
166 202 255
166 202 255
166 202 255
166 202 255
165 201 255
165 201 255
165 201 255
165 201 255
165 201 255
165 201 255
165 201 255
165 201 255
165 201 255
165 201 255
164 201 255
164 201 255
164 201 255
164 201 255
164 201 255
164 201 255
164 201 255
164 200 255
164 200 255
164 200 255
164 200 255
163 200 255
163 200 255
163 200 255
163 200 255
163 200 255
163 200 255
163 200 255
163 200 255
163 200 255
163 200 255
162 200 255
162 200 255
162 200 255
162 200 255
162 199 255
162 199 255
162 199 255
162 199 255
162 199 255
162 199 255
162 199 255
162 199 255
161 199 255
161 199 255
161 199 255
161 199 255
161 199 255
161 199 255
161 199 255
161 199 255
161 199 255
161 199 255
161 199 255
161 199 255
160 198 255
160 198 255
160 198 255
160 198 255
160 198 255
160 198 255
160 198 255
160 198 255
160 198 255
160 198 255
160 198 255
160 198 255
160 198 255
160 198 255
160 198 255
160 198 255
159 198 255
159 198 255
159 198 255
159 198 255
159 198 255
159 198 255
159 198 255
159 198 255
159 198 255
159 198 255
159 198 255
159 198 255
159 198 255
159 198 255
159 198 255
159 198 255
159 198 255
159 198 255
159 198 255
159 198 255
159 197 255
159 197 255
159 197 255
159 197 255
159 197 255
159 197 255
159 197 255
159 197 255
159 197 255
159 197 255
159 197 255
159 197 255
159 197 255
159 197 255
159 197 255
159 197 255
159 197 255
159 197 255
159 198 255
159 198 255
159 198 255
159 198 255
159 198 255
159 198 255
159 198 255
159 198 255
159 198 255
159 198 255
159 198 255
159 198 255
159 198 255
159 198 255
159 198 255
159 198 255
159 198 255
159 198 255
159 198 255
160 198 255
160 198 255
160 198 255
160 198 255
160 198 255
160 198 255
160 198 255
160 198 255
160 198 255
160 198 255
160 198 255
160 198 255
160 198 255
160 198 255
160 198 255
160 198 255
161 199 255
161 199 255
161 199 255
161 199 255
161 199 255
161 199 255
161 199 255
161 199 255
161 199 255
161 199 255
161 199 255
161 199 255
161 199 255
162 199 255
162 199 255
162 199 255
162 199 255
162 199 255
162 199 255
162 199 255
162 199 255
162 200 255
162 200 255
162 200 255
162 200 255
163 200 255
163 200 255
163 200 255
163 200 255
163 200 255
163 200 255
163 200 255
163 200 255
163 200 255
163 200 255
164 200 255
164 200 255
164 200 255
164 200 255
164 201 255
164 201 255
164 201 255
164 201 255
164 201 255
164 201 255
164 201 255
165 201 255
165 201 255
165 201 255
165 201 255
165 201 255
165 201 255
165 201 255
165 201 255
165 201 255
165 201 255
166 202 255
166 202 255
166 202 255
166 202 255
166 202 255
166 202 255
166 202 255
166 202 255
166 202 255
166 202 255
166 202 255
167 202 255
167 202 255
167 202 255
167 202 255
167 202 255
167 202 255
167 202 255
167 203 255
167 203 255
167 203 255
167 203 255
168 203 255
168 203 255
168 203 255
168 203 255
168 203 255
168 203 255
168 203 255
168 203 255
168 203 255
168 203 255
168 203 255
169 203 255
169 203 255
169 203 255
169 203 255
169 204 255
169 204 255
169 204 255
169 204 255
169 204 255
169 204 255
169 204 255
170 204 255
170 204 255
170 204 255
170 204 255
170 204 255
170 204 255
170 204 255
170 204 255
170 204 255
170 204 255
170 204 255
170 204 255
170 204 255
171 205 255
171 205 255
171 205 255
171 205 255
171 205 255
171 205 255
171 205 255
171 205 255
171 205 255
171 205 255
171 205 255
171 205 255
171 205 255
172 205 255
172 205 255
172 205 255
172 205 255
172 205 255
172 205 255
172 205 255
172 205 255
172 205 255
172 206 255
172 206 255
172 206 255
172 206 255
172 206 255
173 206 255
173 206 255
173 206 255
173 206 255
173 206 255
173 206 255
173 206 255
173 206 255
173 206 255
173 206 255
173 206 255
173 206 255
173 206 255
173 206 255
173 206 255
174 206 255
174 206 255
174 206 255
174 206 255
174 206 255
174 206 255
173 206 255
173 206 255
173 206 255
173 206 255
173 206 255
173 206 255
173 206 255
173 206 255
173 206 255
173 206 255
173 206 255
173 206 255
173 206 255
173 206 255
173 206 255
172 206 255
172 206 255
172 206 255
172 206 255
172 206 255
172 205 255
172 205 255
172 205 255
172 205 255
172 205 255
172 205 255
172 205 255
172 205 255
172 205 255
171 205 255
171 205 255
171 205 255
171 205 255
171 205 255
171 205 255
171 205 255
171 205 255
171 205 255
171 205 255
171 205 255
171 205 255
171 205 255
170 204 255
170 204 255
170 204 255
170 204 255
170 204 255
170 204 255
170 204 255
170 204 255
170 204 255
170 204 255
170 204 255
170 204 255
169 204 255
169 204 255
169 204 255
169 204 255
169 204 255
169 204 255
169 204 255
169 204 255
169 203 255
169 203 255
169 203 255
169 203 255
168 203 255
168 203 255
168 203 255
168 203 255
168 203 255
168 203 255
168 203 255
168 203 255
168 203 255
168 203 255
168 203 255
167 203 255
167 203 255
167 203 255
167 202 255
167 202 255
167 202 255
167 202 255
167 202 255
167 202 255
167 202 255
166 202 255
166 202 255
166 202 255
166 202 255
166 202 255
166 202 255
166 202 255
166 202 255
166 202 255
166 202 255
166 202 255
165 201 255
165 201 255
165 201 255
165 201 255
165 201 255
165 201 255
165 201 255
165 201 255
165 201 255
165 201 255
165 201 255
164 201 255
164 201 255
164 201 255
164 201 255
164 201 255
164 201 255
164 201 255
164 200 255
164 200 255
164 200 255
163 200 255
163 200 255
163 200 255
163 200 255
163 200 255
163 200 255
163 200 255
163 200 255
163 200 255
163 200 255
163 200 255
162 200 255
162 200 255
162 200 255
162 200 255
162 199 255
162 199 255
162 199 255
162 199 255
162 199 255
162 199 255
162 199 255
162 199 255
161 199 255
161 199 255
161 199 255
161 199 255
161 199 255
161 199 255
161 199 255
161 199 255
161 199 255
161 199 255
161 199 255
161 199 255
161 199 255
161 199 255
160 198 255
160 198 255
160 198 255
160 198 255
160 198 255
160 198 255
160 198 255
160 198 255
160 198 255
160 198 255
160 198 255
160 198 255
160 198 255
160 198 255
160 198 255
160 198 255
160 198 255
160 198 255
160 198 255
159 198 255
159 198 255
159 198 255
159 198 255
159 198 255
159 198 255
159 198 255
159 198 255
159 198 255
159 198 255
159 198 255
159 198 255
159 198 255
159 198 255
159 198 255
159 198 255
159 198 255
159 198 255
159 198 255
159 198 255
159 198 255
159 198 255
159 198 255
159 198 255
159 198 255
159 198 255
159 198 255
159 198 255
159 198 255
159 198 255
159 198 255
159 198 255
159 198 255
159 198 255
159 198 255
159 198 255
159 198 255
159 198 255
159 198 255
159 198 255
160 198 255
160 198 255
160 198 255
160 198 255
160 198 255
160 198 255
160 198 255
160 198 255
160 198 255
160 198 255
160 198 255
160 198 255
160 198 255
160 198 255
160 198 255
160 198 255
160 198 255
160 198 255
160 198 255
161 199 255
161 199 255
161 199 255
161 199 255
161 199 255
161 199 255
161 199 255
161 199 255
161 199 255
161 199 255
161 199 255
161 199 255
161 199 255
161 199 255
162 199 255
162 199 255
162 199 255
162 199 255
162 199 255
162 199 255
162 199 255
162 199 255
162 200 255
162 200 255
162 200 255
162 200 255
163 200 255
163 200 255
163 200 255
163 200 255
163 200 255
163 200 255
163 200 255
163 200 255
163 200 255
163 200 255
163 200 255
164 200 255
164 200 255
164 200 255
164 201 255
164 201 255
164 201 255
164 201 255
164 201 255
164 201 255
164 201 255
165 201 255
165 201 255
165 201 255
165 201 255
165 201 255
165 201 255
165 201 255
165 201 255
165 201 255
165 201 255
165 201 255
166 202 255
166 202 255
166 202 255
166 202 255
166 202 255
166 202 255
166 202 255
166 202 255
166 202 255
166 202 255
167 202 255
167 202 255
167 202 255
167 202 255
167 202 255
167 202 255
167 202 255
167 202 255
167 203 255
167 203 255
167 203 255
168 203 255
168 203 255
168 203 255
168 203 255
168 203 255
168 203 255
168 203 255
168 203 255
168 203 255
168 203 255
168 203 255
169 203 255
169 203 255
169 203 255
169 203 255
169 204 255
169 204 255
169 204 255
169 204 255
169 204 255
169 204 255
169 204 255
169 204 255
170 204 255
170 204 255
170 204 255
170 204 255
170 204 255
170 204 255
170 204 255
170 204 255
170 204 255
170 204 255
170 204 255
170 204 255
171 205 255
171 205 255
171 205 255
171 205 255
171 205 255
171 205 255
171 205 255
171 205 255
171 205 255
171 205 255
171 205 255
171 205 255
171 205 255
172 205 255
172 205 255
172 205 255
172 205 255
172 205 255
172 205 255
172 205 255
172 205 255
172 205 255
172 206 255
172 206 255
172 206 255
172 206 255
172 206 255
173 206 255
173 206 255
173 206 255
173 206 255
173 206 255
173 206 255
173 206 255
173 206 255
173 206 255
173 206 255
173 206 255
173 206 255
173 206 255
173 206 255
173 206 255
174 206 255
174 206 255
174 206 255
174 206 255
174 206 255
174 207 255
174 207 255
174 207 255
174 207 255
174 206 255
174 206 255
174 206 255
174 206 255
174 206 255
173 206 255
173 206 255
173 206 255
173 206 255
173 206 255
173 206 255
173 206 255
173 206 255
173 206 255
173 206 255
173 206 255
173 206 255
173 206 255
173 206 255
173 206 255
172 206 255
172 206 255
172 206 255
172 206 255
172 206 255
172 205 255
172 205 255
172 205 255
172 205 255
172 205 255
172 205 255
172 205 255
172 205 255
172 205 255
171 205 255
171 205 255
171 205 255
171 205 255
171 205 255
171 205 255
171 205 255
171 205 255
171 205 255
171 205 255
171 205 255
171 205 255
170 204 255
170 204 255
170 204 255
170 204 255
170 204 255
170 204 255
170 204 255
170 204 255
170 204 255
170 204 255
170 204 255
170 204 255
169 204 255
169 204 255
169 204 255
169 204 255
169 204 255
169 204 255
169 204 255
169 204 255
169 203 255
169 203 255
169 203 255
169 203 255
168 203 255
168 203 255
168 203 255
168 203 255
168 203 255
168 203 255
168 203 255
168 203 255
168 203 255
168 203 255
168 203 255
168 203 255
167 203 255
167 203 255
167 203 255
167 202 255
167 202 255
167 202 255
167 202 255
167 202 255
167 202 255
167 202 255
166 202 255
166 202 255
166 202 255
166 202 255
166 202 255
166 202 255
166 202 255
166 202 255
166 202 255
166 202 255
166 202 255
165 201 255
165 201 255
165 201 255
165 201 255
165 201 255
165 201 255
165 201 255
165 201 255
165 201 255
165 201 255
164 201 255
164 201 255
164 201 255
164 201 255
164 201 255
164 201 255
164 201 255
164 200 255
164 200 255
164 200 255
164 200 255
163 200 255
163 200 255
163 200 255
163 200 255
163 200 255
163 200 255
163 200 255
163 200 255
163 200 255
163 200 255
163 200 255
162 200 255
162 200 255
162 200 255
162 200 255
162 199 255
162 199 255
162 199 255
162 199 255
162 199 255
162 199 255
162 199 255
162 199 255
162 199 255
161 199 255
161 199 255
161 199 255
161 199 255
161 199 255
161 199 255
161 199 255
161 199 255
161 199 255
161 199 255
161 199 255
161 199 255
161 199 255
161 199 255
160 198 255
160 198 255
160 198 255
160 198 255
160 198 255
160 198 255
160 198 255
160 198 255
160 198 255
160 198 255
160 198 255
160 198 255
160 198 255
160 198 255
160 198 255
160 198 255
160 198 255
160 198 255
160 198 255
160 198 255
160 198 255
160 198 255
160 198 255
160 198 255
160 198 255
160 198 255
153 190 245
137 170 220
127 158 204
122 151 195
95 118 152
101 125 162
104 129 167
95 118 152
96 119 153
105 130 169
85 106 137
102 127 164
116 144 186
141 175 226
141 175 226
160 198 255
160 198 255
160 198 255
160 198 255
160 198 255
160 198 255
160 198 255
160 198 255
160 198 255
160 198 255
160 198 255
160 198 255
160 198 255
160 198 255
160 198 255
160 198 255
160 198 255
160 198 255
160 198 255
160 198 255
160 198 255
160 198 255
160 198 255
160 198 255
160 198 255
160 198 255
160 198 255
161 199 255
161 199 255
161 199 255
161 199 255
161 199 255
161 199 255
161 199 255
161 199 255
161 199 255
161 199 255
161 199 255
161 199 255
161 199 255
161 199 255
161 199 255
162 199 255
162 199 255
162 199 255
162 199 255
162 199 255
162 199 255
162 199 255
162 199 255
162 200 255
162 200 255
162 200 255
162 200 255
163 200 255
163 200 255
163 200 255
163 200 255
163 200 255
163 200 255
163 200 255
163 200 255
163 200 255
163 200 255
163 200 255
164 200 255
164 200 255
164 200 255
164 200 255
164 201 255
164 201 255
164 201 255
164 201 255
164 201 255
164 201 255
164 201 255
165 201 255
165 201 255
165 201 255
165 201 255
165 201 255
165 201 255
165 201 255
165 201 255
165 201 255
165 201 255
166 202 255
166 202 255
166 202 255
166 202 255
166 202 255
166 202 255
166 202 255
166 202 255
166 202 255
166 202 255
166 202 255
167 202 255
167 202 255
167 202 255
167 202 255
167 202 255
167 202 255
167 202 255
167 203 255
167 203 255
167 203 255
167 203 255
168 203 255
168 203 255
168 203 255
168 203 255
168 203 255
168 203 255
168 203 255
168 203 255
168 203 255
168 203 255
168 203 255
169 203 255
169 203 255
169 203 255
169 203 255
169 204 255
169 204 255
169 204 255
169 204 255
169 204 255
169 204 255
169 204 255
170 204 255
170 204 255
170 204 255
170 204 255
170 204 255
170 204 255
170 204 255
170 204 255
170 204 255
170 204 255
170 204 255
170 204 255
170 204 255
171 205 255
171 205 255
171 205 255
171 205 255
171 205 255
171 205 255
171 205 255
171 205 255
171 205 255
171 205 255
171 205 255
171 205 255
171 205 255
172 205 255
172 205 255
172 205 255
172 205 255
172 205 255
172 205 255
172 205 255
172 205 255
172 205 255
172 206 255
172 206 255
172 206 255
172 206 255
173 206 255
173 206 255
173 206 255
173 206 255
173 206 255
173 206 255
173 206 255
173 206 255
173 206 255
173 206 255
173 206 255
173 206 255
173 206 255
173 206 255
173 206 255
174 206 255
174 206 255
174 206 255
174 206 255
174 206 255
174 207 255
174 207 255
174 207 255
174 207 255
174 207 255
174 207 255
174 207 255
174 207 255
174 207 255
174 207 255
174 207 255
174 207 255
174 206 255
174 206 255
174 206 255
174 206 255
174 206 255
173 206 255
173 206 255
173 206 255
173 206 255
173 206 255
173 206 255
173 206 255
173 206 255
173 206 255
173 206 255
173 206 255
173 206 255
173 206 255
173 206 255
173 206 255
172 206 255
172 206 255
172 206 255
172 206 255
172 205 255
172 205 255
172 205 255
172 205 255
172 205 255
172 205 255
172 205 255
172 205 255
172 205 255
171 205 255
171 205 255
171 205 255
171 205 255
171 205 255
171 205 255
171 205 255
171 205 255
171 205 255
171 205 255
171 205 255
171 205 255
171 205 255
170 204 255
170 204 255
170 204 255
170 204 255
170 204 255
170 204 255
170 204 255
170 204 255
170 204 255
170 204 255
170 204 255
170 204 255
169 204 255
169 204 255
169 204 255
169 204 255
169 204 255
169 204 255
169 204 255
169 204 255
169 203 255
169 203 255
169 203 255
169 203 255
168 203 255
168 203 255
168 203 255
168 203 255
168 203 255
168 203 255
168 203 255
168 203 255
168 203 255
168 203 255
168 203 255
167 203 255
167 203 255
167 203 255
167 202 255
167 202 255
167 202 255
167 202 255
167 202 255
167 202 255
167 202 255
166 202 255
166 202 255
166 202 255
166 202 255
166 202 255
166 202 255
166 202 255
166 202 255
166 202 255
166 202 255
166 202 255
165 201 255
165 201 255
165 201 255
165 201 255
165 201 255
165 201 255
165 201 255
165 201 255
165 201 255
165 201 255
165 201 255
164 201 255
164 201 255
164 201 255
164 201 255
164 201 255
164 201 255
164 201 255
164 200 255
164 200 255
164 200 255
164 200 255
163 200 255
163 200 255
163 200 255
163 200 255
163 200 255
163 200 255
163 200 255
163 200 255
163 200 255
163 200 255
163 200 255
163 200 255
162 200 255
162 200 255
162 200 255
162 199 255
162 199 255
162 199 255
162 199 255
162 199 255
162 199 255
162 199 255
162 199 255
162 199 255
161 199 255
161 199 255
161 199 255
161 199 255
161 199 255
161 199 255
161 199 255
161 199 255
161 199 255
161 199 255
161 199 255
161 199 255
161 199 255
161 199 255
161 199 255
161 199 255
161 199 255
161 199 255
160 198 255
160 198 255
160 198 255
160 198 255
160 198 255
160 198 255
160 198 255
160 198 255
160 198 255
160 198 255
160 198 255
160 198 255
154 191 247
126 156 202
96 119 154
76 94 122
63 77 99
36 45 58
19 23 30
18 22 29
15 19 24
19 24 30
16 19 24
19 24 31
17 21 28
20 24 32
15 19 25
20 25 32
19 23 30
15 18 24
17 21 28
16 20 26
11 13 18
24 30 38
44 55 71
62 77 100
84 104 135
90 112 145
129 160 207
151 187 241
160 198 255
160 198 255
160 198 255
160 198 255
160 198 255
160 198 255
160 198 255
160 198 255
160 198 255
160 198 255
160 198 255
160 198 255
161 199 255
161 199 255
161 199 255
161 199 255
161 199 255
161 199 255
161 199 255
161 199 255
161 199 255
161 199 255
161 199 255
161 199 255
161 199 255
161 199 255
161 199 255
161 199 255
161 199 255
161 199 255
162 199 255
162 199 255
162 199 255
162 199 255
162 199 255
162 199 255
162 199 255
162 199 255
162 200 255
162 200 255
162 200 255
162 200 255
162 200 255
163 200 255
163 200 255
163 200 255
163 200 255
163 200 255
163 200 255
163 200 255
163 200 255
163 200 255
163 200 255
163 200 255
164 200 255
164 200 255
164 200 255
164 200 255
164 201 255
164 201 255
164 201 255
164 201 255
164 201 255
164 201 255
164 201 255
165 201 255
165 201 255
165 201 255
165 201 255
165 201 255
165 201 255
165 201 255
165 201 255
165 201 255
165 201 255
165 201 255
166 202 255
166 202 255
166 202 255
166 202 255
166 202 255
166 202 255
166 202 255
166 202 255
166 202 255
166 202 255
167 202 255
167 202 255
167 202 255
167 202 255
167 202 255
167 202 255
167 202 255
167 202 255
167 203 255
167 203 255
167 203 255
168 203 255
168 203 255
168 203 255
168 203 255
168 203 255
168 203 255
168 203 255
168 203 255
168 203 255
168 203 255
168 203 255
169 203 255
169 203 255
169 203 255
169 203 255
169 204 255
169 204 255
169 204 255
169 204 255
169 204 255
169 204 255
169 204 255
169 204 255
170 204 255
170 204 255
170 204 255
170 204 255
170 204 255
170 204 255
170 204 255
170 204 255
170 204 255
170 204 255
170 204 255
170 204 255
171 205 255
171 205 255
171 205 255
171 205 255
171 205 255
171 205 255
171 205 255
171 205 255
171 205 255
171 205 255
171 205 255
171 205 255
171 205 255
172 205 255
172 205 255
172 205 255
172 205 255
172 205 255
172 205 255
172 205 255
172 205 255
172 205 255
172 206 255
172 206 255
172 206 255
172 206 255
172 206 255
173 206 255
173 206 255
173 206 255
173 206 255
173 206 255
173 206 255
173 206 255
173 206 255
173 206 255
173 206 255
173 206 255
173 206 255
173 206 255
173 206 255
174 206 255
174 206 255
174 206 255
174 206 255
174 206 255
174 207 255
174 207 255
174 207 255
174 207 255
174 207 255
174 207 255
174 207 255
174 207 255
175 207 255
174 207 255
174 207 255
174 207 255
174 207 255
174 207 255
174 207 255
174 207 255
174 207 255
174 207 255
174 207 255
174 207 255
174 206 255
174 206 255
174 206 255
174 206 255
174 206 255
173 206 255
173 206 255
173 206 255
173 206 255
173 206 255
173 206 255
173 206 255
173 206 255
173 206 255
173 206 255
173 206 255
173 206 255
173 206 255
173 206 255
172 206 255
172 206 255
172 206 255
172 206 255
172 206 255
172 205 255
172 205 255
172 205 255
172 205 255
172 205 255
172 205 255
172 205 255
172 205 255
172 205 255
171 205 255
171 205 255
171 205 255
171 205 255
171 205 255
171 205 255
171 205 255
171 205 255
171 205 255
171 205 255
171 205 255
171 205 255
171 205 255
170 204 255
170 204 255
170 204 255
170 204 255
170 204 255
170 204 255
170 204 255
170 204 255
170 204 255
170 204 255
170 204 255
170 204 255
169 204 255
169 204 255
169 204 255
169 204 255
169 204 255
169 204 255
169 204 255
169 203 255
169 203 255
169 203 255
169 203 255
168 203 255
168 203 255
168 203 255
168 203 255
168 203 255
168 203 255
168 203 255
168 203 255
168 203 255
168 203 255
168 203 255
167 203 255
167 203 255
167 203 255
167 203 255
167 202 255
167 202 255
167 202 255
167 202 255
167 202 255
167 202 255
167 202 255
166 202 255
166 202 255
166 202 255
166 202 255
166 202 255
166 202 255
166 202 255
166 202 255
166 202 255
166 202 255
166 202 255
165 201 255
165 201 255
165 201 255
165 201 255
165 201 255
165 201 255
165 201 255
165 201 255
165 201 255
165 201 255
165 201 255
164 201 255
164 201 255
164 201 255
164 201 255
164 201 255
164 201 255
164 201 255
164 200 255
164 200 255
164 200 255
164 200 255
163 200 255
163 200 255
163 200 255
163 200 255
163 200 255
163 200 255
163 200 255
163 200 255
163 200 255
163 200 255
163 200 255
163 200 255
162 200 255
162 200 255
162 200 255
162 200 255
162 199 255
162 199 255
162 199 255
162 199 255
162 199 255
162 199 255
162 199 255
162 199 255
162 199 255
162 199 255
161 199 255
161 199 255
161 199 255
161 199 255
161 199 255
161 199 255
161 199 255
161 199 255
161 199 255
161 199 255
161 199 255
161 199 255
161 199 255
161 199 255
161 199 255
161 199 255
161 199 255
161 199 255
161 199 255
161 199 255
155 192 247
119 147 189
75 93 120
45 57 74
21 27 35
15 19 25
15 19 24
22 28 35
18 22 29
19 24 32
20 26 33
16 21 28
21 25 32
14 18 23
21 26 33
11 13 17
10 13 17
15 19 24
12 16 21
16 20 26
16 21 27
13 16 20
21 27 35
20 25 32
14 17 22
17 21 27
21 27 35
17 21 27
19 24 32
16 20 26
22 27 34
23 28 37
49 61 79
81 101 131
129 160 206
155 191 247
161 199 255
161 199 255
161 199 255
161 199 255
161 199 255
161 199 255
161 199 255
161 199 255
161 199 255
161 199 255
161 199 255
161 199 255
161 199 255
161 199 255
161 199 255
161 199 255
161 199 255
161 199 255
161 199 255
161 199 255
162 199 255
162 199 255
162 199 255
162 199 255
162 199 255
162 199 255
162 199 255
162 199 255
162 199 255
162 199 255
162 200 255
162 200 255
162 200 255
162 200 255
163 200 255
163 200 255
163 200 255
163 200 255
163 200 255
163 200 255
163 200 255
163 200 255
163 200 255
163 200 255
163 200 255
163 200 255
164 200 255
164 200 255
164 200 255
164 200 255
164 201 255
164 201 255
164 201 255
164 201 255
164 201 255
164 201 255
164 201 255
165 201 255
165 201 255
165 201 255
165 201 255
165 201 255
165 201 255
165 201 255
165 201 255
165 201 255
165 201 255
165 201 255
166 202 255
166 202 255
166 202 255
166 202 255
166 202 255
166 202 255
166 202 255
166 202 255
166 202 255
166 202 255
166 202 255
167 202 255
167 202 255
167 202 255
167 202 255
167 202 255
167 202 255
167 202 255
167 203 255
167 203 255
167 203 255
167 203 255
168 203 255
168 203 255
168 203 255
168 203 255
168 203 255
168 203 255
168 203 255
168 203 255
168 203 255
168 203 255
168 203 255
169 203 255
169 203 255
169 203 255
169 203 255
169 204 255
169 204 255
169 204 255
169 204 255
169 204 255
169 204 255
169 204 255
170 204 255
170 204 255
170 204 255
170 204 255
170 204 255
170 204 255
170 204 255
170 204 255
170 204 255
170 204 255
170 204 255
170 204 255
171 205 255
171 205 255
171 205 255
171 205 255
171 205 255
171 205 255
171 205 255
171 205 255
171 205 255
171 205 255
171 205 255
171 205 255
171 205 255
172 205 255
172 205 255
172 205 255
172 205 255
172 205 255
172 205 255
172 205 255
172 205 255
172 205 255
172 206 255
172 206 255
172 206 255
172 206 255
173 206 255
173 206 255
173 206 255
173 206 255
173 206 255
173 206 255
173 206 255
173 206 255
173 206 255
173 206 255
173 206 255
173 206 255
173 206 255
173 206 255
173 206 255
174 206 255
174 206 255
174 206 255
174 206 255
174 206 255
174 206 255
174 207 255
174 207 255
174 207 255
174 207 255
174 207 255
174 207 255
174 207 255
174 207 255
174 207 255
174 207 255
175 207 255
175 207 255
175 207 255
175 207 255
175 207 255
175 207 255
174 207 255
174 207 255
174 207 255
174 207 255
174 207 255
174 207 255
174 207 255
174 207 255
174 207 255
174 207 255
174 207 255
174 206 255
174 206 255
174 206 255
174 206 255
174 206 255
173 206 255
173 206 255
173 206 255
173 206 255
173 206 255
173 206 255
173 206 255
173 206 255
173 206 255
173 206 255
173 206 255
173 206 255
173 206 255
173 206 255
172 206 255
172 206 255
172 206 255
172 206 255
172 206 255
172 205 255
172 205 255
172 205 255
172 205 255
172 205 255
172 205 255
172 205 255
172 205 255
172 205 255
171 205 255
171 205 255
171 205 255
171 205 255
171 205 255
171 205 255
171 205 255
171 205 255
171 205 255
171 205 255
171 205 255
171 205 255
170 204 255
170 204 255
170 204 255
170 204 255
170 204 255
170 204 255
170 204 255
170 204 255
170 204 255
170 204 255
170 204 255
170 204 255
169 204 255
169 204 255
169 204 255
169 204 255
169 204 255
169 204 255
169 204 255
169 204 255
169 203 255
169 203 255
169 203 255
169 203 255
168 203 255
168 203 255
168 203 255
168 203 255
168 203 255
168 203 255
168 203 255
168 203 255
168 203 255
168 203 255
168 203 255
167 203 255
167 203 255
167 203 255
167 203 255
167 202 255
167 202 255
167 202 255
167 202 255
167 202 255
167 202 255
167 202 255
166 202 255
166 202 255
166 202 255
166 202 255
166 202 255
166 202 255
166 202 255
166 202 255
166 202 255
166 202 255
166 202 255
165 201 255
165 201 255
165 201 255
165 201 255
165 201 255
165 201 255
165 201 255
165 201 255
165 201 255
165 201 255
165 201 255
164 201 255
164 201 255
164 201 255
164 201 255
164 201 255
164 201 255
164 201 255
164 200 255
164 200 255
164 200 255
164 200 255
163 200 255
163 200 255
163 200 255
163 200 255
163 200 255
163 200 255
163 200 255
163 200 255
163 200 255
163 200 255
163 200 255
163 200 255
163 200 255
162 200 255
162 200 255
162 200 255
162 200 255
162 199 255
162 199 255
162 199 255
162 199 255
162 199 255
162 199 255
162 199 255
162 199 255
162 199 255
162 199 255
162 199 255
162 199 255
161 199 255
161 199 255
161 199 255
161 199 255
161 199 255
161 199 255
161 199 255
161 199 255
161 199 255
161 199 255
153 189 243
96 119 154
49 60 77
17 22 30
18 22 29
18 22 29
14 18 24
16 20 26
9 11 15
18 22 29
21 26 34
21 25 33
17 21 27
22 28 37
13 17 22
13 16 21
15 19 25
16 20 26
19 23 30
19 24 31
16 20 25
20 25 31
18 23 30
9 12 16
15 18 24
17 22 29
19 23 30
19 24 32
20 25 32
14 18 24
17 22 28
17 21 28
15 20 26
19 24 31
18 23 30
20 25 32
20 25 32
15 19 25
23 28 35
66 82 105
80 99 128
142 175 225
161 199 255
161 199 255
161 199 255
161 199 255
161 199 255
161 199 255
161 199 255
161 199 255
161 199 255
161 199 255
161 199 255
162 199 255
162 199 255
162 199 255
162 199 255
162 199 255
162 199 255
162 199 255
162 199 255
162 199 255
162 199 255
162 200 255
162 200 255
162 200 255
162 200 255
162 200 255
163 200 255
163 200 255
163 200 255
163 200 255
163 200 255
163 200 255
163 200 255
163 200 255
163 200 255
163 200 255
163 200 255
163 200 255
163 200 255
164 200 255
164 200 255
164 200 255
164 200 255
164 201 255
164 201 255
164 201 255
164 201 255
164 201 255
164 201 255
164 201 255
165 201 255
165 201 255
165 201 255
165 201 255
165 201 255
165 201 255
165 201 255
165 201 255
165 201 255
165 201 255
165 201 255
166 202 255
166 202 255
166 202 255
166 202 255
166 202 255
166 202 255
166 202 255
166 202 255
166 202 255
166 202 255
166 202 255
167 202 255
167 202 255
167 202 255
167 202 255
167 202 255
167 202 255
167 202 255
167 203 255
167 203 255
167 203 255
167 203 255
168 203 255
168 203 255
168 203 255
168 203 255
168 203 255
168 203 255
168 203 255
168 203 255
168 203 255
168 203 255
168 203 255
169 203 255
169 203 255
169 203 255
169 203 255
169 204 255
169 204 255
169 204 255
169 204 255
169 204 255
169 204 255
169 204 255
169 204 255
170 204 255
170 204 255
170 204 255
170 204 255
170 204 255
170 204 255
170 204 255
170 204 255
170 204 255
170 204 255
170 204 255
171 205 255
171 205 255
171 205 255
171 205 255
171 205 255
171 205 255
171 205 255
171 205 255
171 205 255
171 205 255
171 205 255
171 205 255
171 205 255
172 205 255
172 205 255
172 205 255
172 205 255
172 205 255
172 205 255
172 205 255
172 205 255
172 205 255
172 206 255
172 206 255
172 206 255
172 206 255
172 206 255
173 206 255
173 206 255
173 206 255
173 206 255
173 206 255
173 206 255
173 206 255
173 206 255
173 206 255
173 206 255
173 206 255
173 206 255
173 206 255
173 206 255
174 206 255
174 206 255
174 206 255
174 206 255
174 206 255
174 207 255
174 207 255
174 207 255
174 207 255
174 207 255
174 207 255
174 207 255
174 207 255
174 207 255
174 207 255
174 207 255
175 207 255
175 207 255
175 207 255
175 207 255
175 207 255
175 207 255
175 207 255
175 207 255
175 207 255
175 207 255
175 207 255
175 207 255
175 207 255
175 207 255
174 207 255
174 207 255
174 207 255
174 207 255
174 207 255
174 207 255
174 207 255
174 207 255
174 207 255
174 207 255
174 207 255
174 206 255
174 206 255
174 206 255
174 206 255
174 206 255
173 206 255
173 206 255
173 206 255
173 206 255
173 206 255
173 206 255
173 206 255
173 206 255
173 206 255
173 206 255
173 206 255
173 206 255
173 206 255
173 206 255
172 206 255
172 206 255
172 206 255
172 206 255
172 206 255
172 205 255
172 205 255
172 205 255
172 205 255
172 205 255
172 205 255
172 205 255
172 205 255
172 205 255
171 205 255
171 205 255
171 205 255
171 205 255
171 205 255
171 205 255
171 205 255
171 205 255
171 205 255
171 205 255
171 205 255
171 205 255
170 204 255
170 204 255
170 204 255
170 204 255
170 204 255
170 204 255
170 204 255
170 204 255
170 204 255
170 204 255
170 204 255
170 204 255
169 204 255
169 204 255
169 204 255
169 204 255
169 204 255
169 204 255
169 204 255
169 204 255
169 203 255
169 203 255
169 203 255
168 203 255
168 203 255
168 203 255
168 203 255
168 203 255
168 203 255
168 203 255
168 203 255
168 203 255
168 203 255
168 203 255
167 203 255
167 203 255
167 203 255
167 203 255
167 202 255
167 202 255
167 202 255
167 202 255
167 202 255
167 202 255
167 202 255
167 202 255
166 202 255
166 202 255
166 202 255
166 202 255
166 202 255
166 202 255
166 202 255
166 202 255
166 202 255
166 202 255
165 201 255
165 201 255
165 201 255
165 201 255
165 201 255
165 201 255
165 201 255
165 201 255
165 201 255
165 201 255
165 201 255
165 201 255
164 201 255
164 201 255
164 201 255
164 201 255
164 201 255
164 201 255
164 201 255
164 200 255
164 200 255
164 200 255
164 200 255
164 200 255
163 200 255
163 200 255
163 200 255
163 200 255
163 200 255
163 200 255
163 200 255
163 200 255
163 200 255
163 200 255
163 200 255
163 200 255
163 200 255
162 200 255
162 200 255
162 200 255
162 200 255
162 200 255
162 199 255
162 199 255
162 199 255
162 199 255
162 199 255
162 199 255
162 199 255
162 199 255
162 199 255
162 199 255
162 199 255
162 199 255
162 199 255
145 179 230
99 123 158
47 59 76
19 23 31
20 25 32
18 24 32
9 11 14
13 16 20
16 21 27
18 22 29
23 30 40
16 20 27
14 18 23
20 25 32
24 31 40
20 25 33
15 19 24
16 20 26
14 18 23
13 16 21
17 21 28
14 17 23
10 12 16
13 17 21
10 13 17
12 15 19
15 19 24
11 14 18
18 22 28
11 14 19
13 16 20
14 18 23
9 11 16
22 28 37
17 21 28
15 19 24
15 19 26
14 17 22
13 16 21
12 16 21
17 21 28
8 10 12
17 21 27
14 17 23
15 19 26
39 49 62
102 126 162
149 184 236
162 199 255
162 199 255
162 199 255
162 199 255
162 199 255
162 199 255
162 199 255
162 199 255
162 199 255
162 199 255
162 199 255
162 199 255
162 200 255
162 200 255
162 200 255
162 200 255
162 200 255
162 200 255
163 200 255
163 200 255
163 200 255
163 200 255
163 200 255
163 200 255
163 200 255
163 200 255
163 200 255
163 200 255
163 200 255
163 200 255
163 200 255
164 200 255
164 200 255
164 200 255
164 200 255
164 200 255
164 201 255
164 201 255
164 201 255
164 201 255
164 201 255
164 201 255
164 201 255
165 201 255
165 201 255
165 201 255
165 201 255
165 201 255
165 201 255
165 201 255
165 201 255
165 201 255
165 201 255
165 201 255
165 201 255
166 202 255
166 202 255
166 202 255
166 202 255
166 202 255
166 202 255
166 202 255
166 202 255
166 202 255
166 202 255
167 202 255
167 202 255
167 202 255
167 202 255
167 202 255
167 202 255
167 202 255
167 202 255
167 203 255
167 203 255
167 203 255
168 203 255
168 203 255
168 203 255
168 203 255
168 203 255
168 203 255
168 203 255
168 203 255
168 203 255
168 203 255
168 203 255
169 203 255
169 203 255
169 203 255
169 203 255
169 204 255
169 204 255
169 204 255
169 204 255
169 204 255
169 204 255
169 204 255
169 204 255
170 204 255
170 204 255
170 204 255
170 204 255
170 204 255
170 204 255
170 204 255
170 204 255
170 204 255
170 204 255
170 204 255
170 204 255
171 205 255
171 205 255
171 205 255
171 205 255
171 205 255
171 205 255
171 205 255
171 205 255
171 205 255
171 205 255
171 205 255
171 205 255
172 205 255
172 205 255
172 205 255
172 205 255
172 205 255
172 205 255
172 205 255
172 205 255
172 205 255
172 206 255
172 206 255
172 206 255
172 206 255
172 206 255
173 206 255
173 206 255
173 206 255
173 206 255
173 206 255
173 206 255
173 206 255
173 206 255
173 206 255
173 206 255
173 206 255
173 206 255
173 206 255
173 206 255
174 206 255
174 206 255
174 206 255
174 206 255
174 206 255
174 207 255
174 207 255
174 207 255
174 207 255
174 207 255
174 207 255
174 207 255
174 207 255
174 207 255
174 207 255
174 207 255
175 207 255
175 207 255
175 207 255
175 207 255
175 207 255
175 207 255
175 207 255
175 207 255
175 207 255
175 207 255
175 207 255
175 207 255
175 207 255
175 207 255
175 207 255
175 207 255
175 207 255
175 207 255
175 207 255
175 207 255
175 207 255
175 207 255
175 207 255
174 207 255
174 207 255
174 207 255
174 207 255
174 207 255
174 207 255
174 207 255
174 207 255
174 207 255
174 207 255
174 206 255
174 206 255
174 206 255
174 206 255
174 206 255
173 206 255
173 206 255
173 206 255
173 206 255
173 206 255
173 206 255
173 206 255
173 206 255
173 206 255
173 206 255
173 206 255
173 206 255
173 206 255
173 206 255
172 206 255
172 206 255
172 206 255
172 206 255
172 206 255
172 205 255
172 205 255
172 205 255
172 205 255
172 205 255
172 205 255
172 205 255
172 205 255
171 205 255
171 205 255
171 205 255
171 205 255
171 205 255
171 205 255
171 205 255
171 205 255
171 205 255
171 205 255
171 205 255
171 205 255
171 205 255
170 204 255
170 204 255
170 204 255
170 204 255
170 204 255
170 204 255
170 204 255
170 204 255
170 204 255
170 204 255
170 204 255
170 204 255
169 204 255
169 204 255
169 204 255
169 204 255
169 204 255
169 204 255
169 204 255
169 204 255
169 203 255
169 203 255
169 203 255
168 203 255
168 203 255
168 203 255
168 203 255
168 203 255
168 203 255
168 203 255
168 203 255
168 203 255
168 203 255
168 203 255
167 203 255
167 203 255
167 203 255
167 203 255
167 202 255
167 202 255
167 202 255
167 202 255
167 202 255
167 202 255
167 202 255
166 202 255
166 202 255
166 202 255
166 202 255
166 202 255
166 202 255
166 202 255
166 202 255
166 202 255
166 202 255
166 202 255
166 202 255
165 201 255
165 201 255
165 201 255
165 201 255
165 201 255
165 201 255
165 201 255
165 201 255
165 201 255
165 201 255
165 201 255
164 201 255
164 201 255
164 201 255
164 201 255
164 201 255
164 201 255
164 201 255
164 201 255
164 200 255
164 200 255
164 200 255
164 200 255
164 200 255
163 200 255
163 200 255
163 200 255
163 200 255
163 200 255
163 200 255
163 200 255
163 200 255
163 200 255
163 200 255
163 200 255
163 200 255
163 200 255
163 200 255
162 200 255
162 200 255
162 200 255
162 200 255
162 200 255
162 200 255
162 199 255
162 199 255
162 199 255
162 199 255
132 162 208
63 77 99
18 22 29
19 23 30
13 17 21
16 19 25
12 16 21
20 25 32
17 22 28
15 19 24
15 18 23
16 21 27
11 14 19
13 16 21
16 21 28
15 19 25
15 19 25
18 22 30
14 18 23
12 15 19
19 23 29
14 17 22
17 21 27
13 16 20
16 19 25
15 19 25
11 14 18
18 23 30
12 15 19
15 19 24
12 15 19
10 13 17
16 19 25
15 19 24
12 15 20
12 15 20
18 22 28
16 21 27
16 19 25
11 14 19
16 21 27
12 15 19
15 19 25
17 21 27
12 15 20
16 21 27
13 16 21
22 28 36
20 25 32
21 26 34
55 69 88
123 152 195
162 199 255
162 199 255
162 199 255
162 199 255
162 200 255
162 200 255
162 200 255
162 200 255
162 200 255
163 200 255
163 200 255
163 200 255
163 200 255
163 200 255
163 200 255
163 200 255
163 200 255
163 200 255
163 200 255
163 200 255
163 200 255
163 200 255
163 200 255
163 200 255
164 200 255
164 200 255
164 200 255
164 200 255
164 200 255
164 201 255
164 201 255
164 201 255
164 201 255
164 201 255
164 201 255
164 201 255
164 201 255
165 201 255
165 201 255
165 201 255
165 201 255
165 201 255
165 201 255
165 201 255
165 201 255
165 201 255
165 201 255
165 201 255
166 202 255
166 202 255
166 202 255
166 202 255
166 202 255
166 202 255
166 202 255
166 202 255
166 202 255
166 202 255
166 202 255
166 202 255
167 202 255
167 202 255
167 202 255
167 202 255
167 202 255
167 202 255
167 202 255
167 203 255
167 203 255
167 203 255
167 203 255
168 203 255
168 203 255
168 203 255
168 203 255
168 203 255
168 203 255
168 203 255
168 203 255
168 203 255
168 203 255
168 203 255
169 203 255
169 203 255
169 203 255
169 203 255
169 204 255
169 204 255
169 204 255
169 204 255
169 204 255
169 204 255
169 204 255
170 204 255
170 204 255
170 204 255
170 204 255
170 204 255
170 204 255
170 204 255
170 204 255
170 204 255
170 204 255
170 204 255
170 204 255
171 205 255
171 205 255
171 205 255
171 205 255
171 205 255
171 205 255
171 205 255
171 205 255
171 205 255
171 205 255
171 205 255
171 205 255
171 205 255
172 205 255
172 205 255
172 205 255
172 205 255
172 205 255
172 205 255
172 205 255
172 205 255
172 206 255
172 206 255
172 206 255
172 206 255
172 206 255
173 206 255
173 206 255
173 206 255
173 206 255
173 206 255
173 206 255
173 206 255
173 206 255
173 206 255
173 206 255
173 206 255
173 206 255
173 206 255
173 206 255
174 206 255
174 206 255
174 206 255
174 206 255
174 206 255
174 207 255
174 207 255
174 207 255
174 207 255
174 207 255
174 207 255
174 207 255
174 207 255
174 207 255
174 207 255
174 207 255
175 207 255
175 207 255
175 207 255
175 207 255
175 207 255
175 207 255
175 207 255
175 207 255
175 207 255
175 207 255
175 207 255
175 207 255
175 207 255
176 208 255
175 207 255
175 207 255
175 207 255
175 207 255
175 207 255
175 207 255
175 207 255
175 207 255
175 207 255
175 207 255
175 207 255
175 207 255
175 207 255
175 207 255
175 207 255
175 207 255
175 207 255
174 207 255
174 207 255
174 207 255
174 207 255
174 207 255
174 207 255
174 207 255
174 207 255
174 207 255
174 207 255
174 206 255
174 206 255
174 206 255
174 206 255
174 206 255
173 206 255
173 206 255
173 206 255
173 206 255
173 206 255
173 206 255
173 206 255
173 206 255
173 206 255
173 206 255
173 206 255
173 206 255
173 206 255
173 206 255
172 206 255
172 206 255
172 206 255
172 206 255
172 206 255
172 205 255
172 205 255
172 205 255
172 205 255
172 205 255
172 205 255
172 205 255
172 205 255
171 205 255
171 205 255
171 205 255
171 205 255
171 205 255
171 205 255
171 205 255
171 205 255
171 205 255
171 205 255
171 205 255
171 205 255
171 205 255
170 204 255
170 204 255
170 204 255
170 204 255
170 204 255
170 204 255
170 204 255
170 204 255
170 204 255
170 204 255
170 204 255
170 204 255
169 204 255
169 204 255
169 204 255
169 204 255
169 204 255
169 204 255
169 204 255
169 204 255
169 203 255
169 203 255
169 203 255
168 203 255
168 203 255
168 203 255
168 203 255
168 203 255
168 203 255
168 203 255
168 203 255
168 203 255
168 203 255
168 203 255
167 203 255
167 203 255
167 203 255
167 203 255
167 202 255
167 202 255
167 202 255
167 202 255
167 202 255
167 202 255
167 202 255
166 202 255
166 202 255
166 202 255
166 202 255
166 202 255
166 202 255
166 202 255
166 202 255
166 202 255
166 202 255
166 202 255
166 202 255
165 201 255
165 201 255
165 201 255
165 201 255
165 201 255
165 201 255
165 201 255
165 201 255
165 201 255
165 201 255
165 201 255
165 201 255
164 201 255
164 201 255
164 201 255
164 201 255
164 201 255
164 201 255
164 201 255
164 201 255
164 200 255
164 200 255
164 200 255
164 200 255
164 200 255
163 200 255
163 200 255
163 200 255
163 200 255
163 200 255
163 200 255
163 200 255
163 200 255
163 200 255
163 200 255
163 200 255
163 200 255
163 200 255
163 200 255
163 200 255
163 200 255
161 198 253
106 131 167
40 49 63
14 18 23
18 22 29
18 22 28
16 20 25
13 17 22
15 19 24
14 17 23
20 26 34
16 20 26
17 21 28
21 26 33
15 18 23
20 25 33
18 22 28
18 22 29
14 17 23
18 23 29
10 12 17
13 17 22
17 21 27
15 18 23
16 20 25
18 23 30
12 15 20
16 20 27
12 16 23
14 18 23
16 20 27
17 21 28
10 12 16
17 22 29
15 19 25
19 24 30
12 15 20
11 14 19
12 15 20
19 24 31
16 21 27
18 23 29
14 17 22
12 15 21
9 11 15
13 17 21
12 15 20
12 15 19
18 22 29
15 19 25
17 21 27
20 25 33
17 21 27
13 16 21
19 24 32
42 52 68
114 140 179
162 199 254
163 200 255
163 200 255
163 200 255
163 200 255
163 200 255
163 200 255
163 200 255
163 200 255
163 200 255
163 200 255
163 200 255
163 200 255
163 200 255
163 200 255
163 200 255
163 200 255
164 200 255
164 200 255
164 200 255
164 200 255
164 200 255
164 201 255
164 201 255
164 201 255
164 201 255
164 201 255
164 201 255
164 201 255
164 201 255
164 201 255
165 201 255
165 201 255
165 201 255
165 201 255
165 201 255
165 201 255
165 201 255
165 201 255
165 201 255
165 201 255
165 201 255
165 201 255
166 202 255
166 202 255
166 202 255
166 202 255
166 202 255
166 202 255
166 202 255
166 202 255
166 202 255
166 202 255
166 202 255
167 202 255
167 202 255
167 202 255
167 202 255
167 202 255
167 202 255
167 202 255
167 203 255
167 203 255
167 203 255
167 203 255
168 203 255
168 203 255
168 203 255
168 203 255
168 203 255
168 203 255
168 203 255
168 203 255
168 203 255
168 203 255
168 203 255
169 203 255
169 203 255
169 203 255
169 203 255
169 204 255
169 204 255
169 204 255
169 204 255
169 204 255
169 204 255
169 204 255
170 204 255
170 204 255
170 204 255
170 204 255
170 204 255
170 204 255
170 204 255
170 204 255
170 204 255
170 204 255
170 204 255
170 204 255
171 205 255
171 205 255
171 205 255
171 205 255
171 205 255
171 205 255
171 205 255
171 205 255
171 205 255
171 205 255
171 205 255
171 205 255
171 205 255
172 205 255
172 205 255
172 205 255
172 205 255
172 205 255
172 205 255
172 205 255
172 205 255
172 206 255
172 206 255
172 206 255
172 206 255
172 206 255
173 206 255
173 206 255
173 206 255
173 206 255
173 206 255
173 206 255
173 206 255
173 206 255
173 206 255
173 206 255
173 206 255
173 206 255
173 206 255
173 206 255
174 206 255
174 206 255
174 206 255
174 206 255
174 206 255
174 207 255
174 207 255
174 207 255
174 207 255
174 207 255
174 207 255
174 207 255
174 207 255
174 207 255
174 207 255
175 207 255
175 207 255
175 207 255
175 207 255
175 207 255
175 207 255
175 207 255
175 207 255
175 207 255
175 207 255
175 207 255
175 207 255
175 207 255
175 207 255
175 207 255
175 207 255
175 207 255
176 208 255
176 208 255
176 208 255
176 208 255
176 208 255
176 208 255
176 208 255
175 207 255
175 207 255
175 207 255
175 207 255
175 207 255
175 207 255
175 207 255
175 207 255
175 207 255
175 207 255
175 207 255
175 207 255
175 207 255
175 207 255
175 207 255
175 207 255
174 207 255
174 207 255
174 207 255
174 207 255
174 207 255
174 207 255
174 207 255
174 207 255
174 207 255
174 207 255
174 206 255
174 206 255
174 206 255
174 206 255
174 206 255
173 206 255
173 206 255
173 206 255
173 206 255
173 206 255
173 206 255
173 206 255
173 206 255
173 206 255
173 206 255
173 206 255
173 206 255
173 206 255
173 206 255
172 206 255
172 206 255
172 206 255
172 206 255
172 206 255
172 205 255
172 205 255
172 205 255
172 205 255
172 205 255
172 205 255
172 205 255
172 205 255
171 205 255
171 205 255
171 205 255
171 205 255
171 205 255
171 205 255
171 205 255
171 205 255
171 205 255
171 205 255
171 205 255
171 205 255
171 205 255
170 204 255
170 204 255
170 204 255
170 204 255
170 204 255
170 204 255
170 204 255
170 204 255
170 204 255
170 204 255
170 204 255
169 204 255
169 204 255
169 204 255
169 204 255
169 204 255
169 204 255
169 204 255
169 204 255
169 203 255
169 203 255
169 203 255
169 203 255
168 203 255
168 203 255
168 203 255
168 203 255
168 203 255
168 203 255
168 203 255
168 203 255
168 203 255
168 203 255
168 203 255
167 203 255
167 203 255
167 203 255
167 203 255
167 202 255
167 202 255
167 202 255
167 202 255
167 202 255
167 202 255
167 202 255
166 202 255
166 202 255
166 202 255
166 202 255
166 202 255
166 202 255
166 202 255
166 202 255
166 202 255
166 202 255
166 202 255
166 202 255
165 201 255
165 201 255
165 201 255
165 201 255
165 201 255
165 201 255
165 201 255
165 201 255
165 201 255
165 201 255
165 201 255
165 201 255
164 201 255
164 201 255
164 201 255
164 201 255
164 201 255
164 201 255
164 201 255
164 201 255
164 201 255
164 201 255
164 200 255
164 200 255
164 200 255
164 200 255
164 200 255
163 200 255
163 200 255
163 200 255
163 200 255
163 200 255
163 200 255
163 200 255
163 200 255
161 198 253
105 130 166
39 49 62
16 20 27
13 16 21
15 18 23
17 22 28
18 22 29
14 18 24
19 24 31
16 20 26
17 22 29
14 18 24
12 16 20
16 20 26
18 22 29
15 19 24
16 19 25
17 21 27
17 21 27
16 21 27
14 17 21
8 10 13
18 22 29
21 26 34
15 19 25
13 17 22
15 18 24
15 19 24
9 12 16
15 19 25
13 16 20
16 19 25
17 21 27
16 20 27
15 19 24
18 23 30
12 15 20
17 21 28
17 21 27
15 19 25
10 13 17
17 22 28
16 19 24
12 16 21
15 19 26
17 21 27
16 20 26
12 15 20
16 20 26
21 27 35
21 26 34
14 17 22
16 20 27
12 15 20
17 22 29
22 27 36
16 20 26
18 22 28
37 45 58
110 135 172
160 196 250
163 200 255
163 200 255
163 200 255
163 200 255
163 200 255
163 200 255
163 200 255
163 200 255
164 200 255
164 200 255
164 200 255
164 200 255
164 200 255
164 200 255
164 201 255
164 201 255
164 201 255
164 201 255
164 201 255
164 201 255
164 201 255
164 201 255
164 201 255
165 201 255
165 201 255
165 201 255
165 201 255
165 201 255
165 201 255
165 201 255
165 201 255
165 201 255
165 201 255
165 201 255
165 201 255
166 202 255
166 202 255
166 202 255
166 202 255
166 202 255
166 202 255
166 202 255
166 202 255
166 202 255
166 202 255
166 202 255
167 202 255
167 202 255
167 202 255
167 202 255
167 202 255
167 202 255
167 202 255
167 202 255
167 203 255
167 203 255
167 203 255
167 203 255
168 203 255
168 203 255
168 203 255
168 203 255
168 203 255
168 203 255
168 203 255
168 203 255
168 203 255
168 203 255
168 203 255
169 203 255
169 203 255
169 203 255
169 203 255
169 204 255
169 204 255
169 204 255
169 204 255
169 204 255
169 204 255
169 204 255
170 204 255
170 204 255
170 204 255
170 204 255
170 204 255
170 204 255
170 204 255
170 204 255
170 204 255
170 204 255
170 204 255
170 204 255
171 205 255
171 205 255
171 205 255
171 205 255
171 205 255
171 205 255
171 205 255
171 205 255
171 205 255
171 205 255
171 205 255
171 205 255
171 205 255
172 205 255
172 205 255
172 205 255
172 205 255
172 205 255
172 205 255
172 205 255
172 205 255
172 206 255
172 206 255
172 206 255
172 206 255
172 206 255
173 206 255
173 206 255
173 206 255
173 206 255
173 206 255
173 206 255
173 206 255
173 206 255
173 206 255
173 206 255
173 206 255
173 206 255
173 206 255
173 206 255
174 206 255
174 206 255
174 206 255
174 206 255
174 206 255
174 207 255
174 207 255
174 207 255
174 207 255
174 207 255
174 207 255
174 207 255
174 207 255
174 207 255
174 207 255
175 207 255
175 207 255
175 207 255
175 207 255
175 207 255
175 207 255
175 207 255
175 207 255
175 207 255
175 207 255
175 207 255
175 207 255
175 207 255
175 207 255
175 207 255
175 207 255
176 208 255
176 208 255
176 208 255
176 208 255
176 208 255
176 208 255
176 208 255
176 208 255
176 208 255
176 208 255
176 208 255
176 208 255
176 208 255
176 208 255
176 208 255
176 208 255
175 207 255
175 207 255
175 207 255
175 207 255
175 207 255
175 207 255
175 207 255
175 207 255
175 207 255
175 207 255
175 207 255
175 207 255
175 207 255
175 207 255
175 207 255
175 207 255
174 207 255
174 207 255
174 207 255
174 207 255
174 207 255
174 207 255
174 207 255
174 207 255
174 207 255
174 207 255
174 206 255
174 206 255
174 206 255
174 206 255
174 206 255
173 206 255
173 206 255
173 206 255
173 206 255
173 206 255
173 206 255
173 206 255
173 206 255
173 206 255
173 206 255
173 206 255
173 206 255
173 206 255
173 206 255
172 206 255
172 206 255
172 206 255
172 206 255
172 205 255
172 205 255
172 205 255
172 205 255
172 205 255
172 205 255
172 205 255
172 205 255
172 205 255
171 205 255
171 205 255
171 205 255
171 205 255
171 205 255
171 205 255
171 205 255
171 205 255
171 205 255
171 205 255
171 205 255
171 205 255
171 205 255
170 204 255
170 204 255
170 204 255
170 204 255
170 204 255
170 204 255
170 204 255
170 204 255
170 204 255
170 204 255
170 204 255
169 204 255
169 204 255
169 204 255
169 204 255
169 204 255
169 204 255
169 204 255
169 204 255
169 203 255
169 203 255
169 203 255
169 203 255
168 203 255
168 203 255
168 203 255
168 203 255
168 203 255
168 203 255
168 203 255
168 203 255
168 203 255
168 203 255
168 203 255
167 203 255
167 203 255
167 203 255
167 203 255
167 202 255
167 202 255
167 202 255
167 202 255
167 202 255
167 202 255
167 202 255
167 202 255
166 202 255
166 202 255
166 202 255
166 202 255
166 202 255
166 202 255
166 202 255
166 202 255
166 202 255
166 202 255
166 202 255
165 201 255
165 201 255
165 201 255
165 201 255
165 201 255
165 201 255
165 201 255
165 201 255
165 201 255
165 201 255
165 201 255
165 201 255
165 201 255
165 201 255
164 201 255
164 201 255
164 201 255
164 201 255
164 201 255
164 201 255
164 201 255
164 201 255
164 201 255
164 201 255
164 200 255
164 200 255
164 200 255
164 200 255
164 200 255
163 200 255
128 156 199
32 39 50
13 16 21
13 16 20
23 29 38
16 20 26
16 21 28
8 10 13
16 19 24
18 23 30
16 20 26
18 22 28
18 22 28
18 23 30
12 15 20
14 18 23
13 17 23
21 26 34
15 18 24
14 17 22
16 19 25
14 18 23
16 20 26
21 26 33
17 21 28
14 17 22
12 15 18
22 26 33
22 28 36
17 21 27
12 15 20
15 19 25
14 18 23
16 20 26
17 21 27
14 17 22
10 13 17
16 20 26
18 23 29
15 19 24
16 20 26
13 17 22
20 25 32
16 20 26
14 18 24
15 19 24
13 16 20
11 14 19
12 15 19
15 19 24
18 23 30
9 11 15
16 20 26
13 16 22
15 19 25
14 18 24
17 22 28
22 28 36
14 19 25
19 24 30
19 24 30
22 28 37
42 51 66
117 143 183
163 200 255
164 200 255
164 200 255
164 200 255
164 200 255
164 200 255
164 200 255
164 201 255
164 201 255
164 201 255
164 201 255
164 201 255
164 201 255
164 201 255
164 201 255
164 201 255
165 201 255
165 201 255
165 201 255
165 201 255
165 201 255
165 201 255
165 201 255
165 201 255
165 201 255
165 201 255
165 201 255
165 201 255
165 201 255
165 201 255
166 202 255
166 202 255
166 202 255
166 202 255
166 202 255
166 202 255
166 202 255
166 202 255
166 202 255
166 202 255
166 202 255
167 202 255
167 202 255
167 202 255
167 202 255
167 202 255
167 202 255
167 202 255
167 202 255
167 203 255
167 203 255
167 203 255
167 203 255
168 203 255
168 203 255
168 203 255
168 203 255
168 203 255
168 203 255
168 203 255
168 203 255
168 203 255
168 203 255
168 203 255
169 203 255
169 203 255
169 203 255
169 203 255
169 204 255
169 204 255
169 204 255
169 204 255
169 204 255
169 204 255
169 204 255
169 204 255
170 204 255
170 204 255
170 204 255
170 204 255
170 204 255
170 204 255
170 204 255
170 204 255
170 204 255
170 204 255
170 204 255
171 205 255
171 205 255
171 205 255
171 205 255
171 205 255
171 205 255
171 205 255
171 205 255
171 205 255
171 205 255
171 205 255
171 205 255
171 205 255
172 205 255
172 205 255
172 205 255
172 205 255
172 205 255
172 205 255
172 205 255
172 205 255
172 206 255
172 206 255
172 206 255
172 206 255
172 206 255
173 206 255
173 206 255
173 206 255
173 206 255
173 206 255
173 206 255
173 206 255
173 206 255
173 206 255
173 206 255
173 206 255
173 206 255
173 206 255
174 206 255
174 206 255
174 206 255
174 206 255
174 206 255
174 207 255
174 207 255
174 207 255
174 207 255
174 207 255
174 207 255
174 207 255
174 207 255
174 207 255
174 207 255
174 207 255
175 207 255
175 207 255
175 207 255
175 207 255
175 207 255
175 207 255
175 207 255
175 207 255
175 207 255
175 207 255
175 207 255
175 207 255
175 207 255
175 207 255
175 207 255
175 207 255
176 208 255
176 208 255
176 208 255
176 208 255
176 208 255
176 208 255
176 208 255
176 208 255
176 208 255
176 208 255
176 208 255
176 208 255
176 208 255
176 208 255
176 208 255
176 208 255
176 208 255
176 208 255
176 208 255
176 208 255
176 208 255
176 208 255
176 208 255
176 208 255
176 208 255
175 207 255
175 207 255
175 207 255
175 207 255
175 207 255
175 207 255
175 207 255
175 207 255
175 207 255
175 207 255
175 207 255
175 207 255
175 207 255
175 207 255
175 207 255
174 207 255
174 207 255
174 207 255
174 207 255
174 207 255
174 207 255
174 207 255
174 207 255
174 207 255
174 207 255
174 207 255
174 206 255
174 206 255
174 206 255
174 206 255
174 206 255
173 206 255
173 206 255
173 206 255
173 206 255
173 206 255
173 206 255
173 206 255
173 206 255
173 206 255
173 206 255
173 206 255
173 206 255
173 206 255
172 206 255
172 206 255
172 206 255
172 206 255
172 206 255
172 205 255
172 205 255
172 205 255
172 205 255
172 205 255
172 205 255
172 205 255
172 205 255
171 205 255
171 205 255
171 205 255
171 205 255
171 205 255
171 205 255
171 205 255
171 205 255
171 205 255
171 205 255
171 205 255
171 205 255
170 204 255
170 204 255
170 204 255
170 204 255
170 204 255
170 204 255
170 204 255
170 204 255
170 204 255
170 204 255
170 204 255
170 204 255
169 204 255
169 204 255
169 204 255
169 204 255
169 204 255
169 204 255
169 204 255
169 204 255
169 203 255
169 203 255
169 203 255
169 203 255
168 203 255
168 203 255
168 203 255
168 203 255
168 203 255
168 203 255
168 203 255
168 203 255
168 203 255
168 203 255
168 203 255
167 203 255
167 203 255
167 203 255
167 203 255
167 202 255
167 202 255
167 202 255
167 202 255
167 202 255
167 202 255
167 202 255
167 202 255
166 202 255
166 202 255
166 202 255
166 202 255
166 202 255
166 202 255
166 202 255
166 202 255
166 202 255
166 202 255
166 202 255
166 202 255
165 201 255
165 201 255
165 201 255
165 201 255
165 201 255
165 201 255
165 201 255
165 201 255
165 201 255
165 201 255
165 201 255
165 201 255
165 201 255
165 201 255
164 201 255
164 201 255
164 201 255
164 201 255
164 201 255
164 201 255
164 201 255
164 201 255
164 201 255
120 146 186
62 76 98
18 24 32
21 26 35
15 19 25
20 24 32
23 28 36
19 24 31
15 19 25
17 21 27
14 17 22
16 21 27
18 23 30
18 23 30
11 14 18
18 22 29
15 19 24
9 11 15
21 26 33
13 16 21
14 18 24
11 14 18
20 25 32
16 20 25
18 23 30
19 24 30
6 7 10
17 21 27
15 18 24
11 14 18
17 21 27
16 20 26
13 16 20
11 13 17
16 21 28
13 17 22
14 18 24
13 16 20
16 20 26
19 24 31
19 23 30
21 27 35
14 18 23
17 22 29
12 15 19
17 21 28
17 21 28
11 13 17
14 18 23
17 21 28
17 21 28
20 25 33
10 13 17
13 17 23
17 22 28
13 17 22
15 19 24
17 22 30
7 10 13
19 23 30
19 24 31
16 21 27
15 18 22
12 15 19
13 17 23
18 23 30
51 63 81
133 163 208
164 201 255
164 201 255
164 201 255
164 201 255
164 201 255
164 201 255
164 201 255
164 201 255
164 201 255
165 201 255
165 201 255
165 201 255
165 201 255
165 201 255
165 201 255
165 201 255
165 201 255
165 201 255
165 201 255
165 201 255
165 201 255
165 201 255
165 201 255
166 202 255
166 202 255
166 202 255
166 202 255
166 202 255
166 202 255
166 202 255
166 202 255
166 202 255
166 202 255
166 202 255
166 202 255
167 202 255
167 202 255
167 202 255
167 202 255
167 202 255
167 202 255
167 202 255
167 202 255
167 203 255
167 203 255
167 203 255
167 203 255
168 203 255
168 203 255
168 203 255
168 203 255
168 203 255
168 203 255
168 203 255
168 203 255
168 203 255
168 203 255
168 203 255
169 203 255
169 203 255
169 203 255
169 203 255
169 204 255
169 204 255
169 204 255
169 204 255
169 204 255
169 204 255
169 204 255
169 204 255
170 204 255
170 204 255
170 204 255
170 204 255
170 204 255
170 204 255
170 204 255
170 204 255
170 204 255
170 204 255
170 204 255
171 205 255
171 205 255
171 205 255
171 205 255
171 205 255
171 205 255
171 205 255
171 205 255
171 205 255
171 205 255
171 205 255
171 205 255
171 205 255
172 205 255
172 205 255
172 205 255
172 205 255
172 205 255
172 205 255
172 205 255
172 205 255
172 206 255
172 206 255
172 206 255
172 206 255
172 206 255
173 206 255
173 206 255
173 206 255
173 206 255
173 206 255
173 206 255
173 206 255
173 206 255
173 206 255
173 206 255
173 206 255
173 206 255
173 206 255
173 206 255
174 206 255
174 206 255
174 206 255
174 206 255
174 207 255
174 207 255
174 207 255
174 207 255
174 207 255
174 207 255
174 207 255
174 207 255
174 207 255
174 207 255
175 207 255
175 207 255
175 207 255
175 207 255
175 207 255
175 207 255
175 207 255
175 207 255
175 207 255
175 207 255
175 207 255
175 207 255
175 207 255
175 207 255
175 207 255
175 207 255
175 207 255
176 208 255
176 208 255
176 208 255
176 208 255
176 208 255
176 208 255
176 208 255
176 208 255
176 208 255
176 208 255
176 208 255
176 208 255
176 208 255
176 208 255
177 208 255
177 208 255
176 208 255
176 208 255
176 208 255
176 208 255
176 208 255
176 208 255
176 208 255
176 208 255
176 208 255
176 208 255
176 208 255
176 208 255
176 208 255
176 208 255
176 208 255
176 208 255
176 208 255
175 207 255
175 207 255
175 207 255
175 207 255
175 207 255
175 207 255
175 207 255
175 207 255
175 207 255
175 207 255
175 207 255
175 207 255
175 207 255
175 207 255
175 207 255
175 207 255
174 207 255
174 207 255
174 207 255
174 207 255
174 207 255
174 207 255
174 207 255
174 207 255
174 207 255
174 207 255
174 206 255
174 206 255
174 206 255
174 206 255
174 206 255
173 206 255
173 206 255
173 206 255
173 206 255
173 206 255
173 206 255
173 206 255
173 206 255
173 206 255
173 206 255
173 206 255
173 206 255
173 206 255
172 206 255
172 206 255
172 206 255
172 206 255
172 206 255
172 205 255
172 205 255
172 205 255
172 205 255
172 205 255
172 205 255
172 205 255
172 205 255
171 205 255
171 205 255
171 205 255
171 205 255
171 205 255
171 205 255
171 205 255
171 205 255
171 205 255
171 205 255
171 205 255
171 205 255
170 204 255
170 204 255
170 204 255
170 204 255
170 204 255
170 204 255
170 204 255
170 204 255
170 204 255
170 204 255
170 204 255
170 204 255
170 204 255
169 204 255
169 204 255
169 204 255
169 204 255
169 204 255
169 204 255
169 204 255
169 203 255
169 203 255
169 203 255
169 203 255
168 203 255
168 203 255
168 203 255
168 203 255
168 203 255
168 203 255
168 203 255
168 203 255
168 203 255
168 203 255
168 203 255
168 203 255
167 203 255
167 203 255
167 203 255
167 202 255
167 202 255
167 202 255
167 202 255
167 202 255
167 202 255
167 202 255
167 202 255
167 202 255
166 202 255
166 202 255
166 202 255
166 202 255
166 202 255
166 202 255
166 202 255
166 202 255
166 202 255
166 202 255
166 202 255
166 202 255
166 202 255
165 201 255
165 201 255
165 201 255
165 201 255
165 201 255
165 201 255
165 201 255
165 201 255
165 201 255
165 201 255
165 201 255
165 201 255
165 201 255
165 201 255
165 201 255
155 190 241
97 118 151
22 28 36
19 23 30
16 20 26
16 20 27
20 24 32
14 18 23
16 20 25
14 17 23
13 16 21
14 17 22
15 18 23
15 19 24
21 26 33
14 17 23
13 17 22
13 16 21
14 18 23
12 15 21
16 20 26
17 21 28
13 17 23
14 18 23
11 14 19
19 24 31
16 20 26
18 22 28
13 15 19
17 21 27
18 22 29
14 17 23
14 17 23
16 21 28
13 16 21
17 22 29
13 16 21
10 12 16
11 14 18
16 20 26
17 21 27
14 17 22
10 12 16
15 18 24
15 19 24
14 17 22
16 20 27
17 22 28
9 11 15
13 17 22
16 19 25
13 17 22
12 15 19
18 22 28
11 14 19
14 17 22
14 18 23
10 12 15
19 24 31
18 22 28
16 19 25
17 22 28
16 20 26
13 16 21
15 19 24
16 20 25
17 22 28
13 17 22
14 18 23
31 39 50
78 95 122
156 191 243
165 201 255
165 201 255
165 201 255
165 201 255
165 201 255
165 201 255
165 201 255
165 201 255
165 201 255
165 201 255
165 201 255
165 201 255
165 201 255
165 201 255
165 201 255
165 201 255
166 202 255
166 202 255
166 202 255
166 202 255
166 202 255
166 202 255
166 202 255
166 202 255
166 202 255
166 202 255
166 202 255
166 202 255
167 202 255
167 202 255
167 202 255
167 202 255
167 202 255
167 202 255
167 202 255
167 202 255
167 203 255
167 203 255
167 203 255
167 203 255
168 203 255
168 203 255
168 203 255
168 203 255
168 203 255
168 203 255
168 203 255
168 203 255
168 203 255
168 203 255
168 203 255
168 203 255
169 203 255
169 203 255
169 203 255
169 203 255
169 204 255
169 204 255
169 204 255
169 204 255
169 204 255
169 204 255
169 204 255
170 204 255
170 204 255
170 204 255
170 204 255
170 204 255
170 204 255
170 204 255
170 204 255
170 204 255
170 204 255
170 204 255
170 204 255
170 204 255
171 205 255
171 205 255
171 205 255
171 205 255
171 205 255
171 205 255
171 205 255
171 205 255
171 205 255
171 205 255
171 205 255
171 205 255
172 205 255
172 205 255
172 205 255
172 205 255
172 205 255
172 205 255
172 205 255
172 205 255
172 206 255
172 206 255
172 206 255
172 206 255
173 206 255
173 206 255
173 206 255
173 206 255
173 206 255
173 206 255
173 206 255
173 206 255
173 206 255
173 206 255
173 206 255
173 206 255
173 206 255
173 206 255
174 206 255
174 206 255
174 206 255
174 206 255
174 206 255
174 207 255
174 207 255
174 207 255
174 207 255
174 207 255
174 207 255
174 207 255
174 207 255
174 207 255
174 207 255
175 207 255
175 207 255
175 207 255
175 207 255
175 207 255
175 207 255
175 207 255
175 207 255
175 207 255
175 207 255
175 207 255
175 207 255
175 207 255
175 207 255
175 207 255
175 207 255
176 208 255
176 208 255
176 208 255
176 208 255
176 208 255
176 208 255
176 208 255
176 208 255
176 208 255
176 208 255
176 208 255
176 208 255
176 208 255
176 208 255
176 208 255
176 208 255
176 208 255
177 208 255
177 208 255
177 208 255
177 208 255
177 208 255
177 208 255
177 208 255
177 208 255
176 208 255
176 208 255
176 208 255
176 208 255
176 208 255
176 208 255
176 208 255
176 208 255
176 208 255
176 208 255
176 208 255
176 208 255
176 208 255
176 208 255
176 208 255
176 208 255
176 208 255
176 208 255
175 207 255
175 207 255
175 207 255
175 207 255
175 207 255
175 207 255
175 207 255
175 207 255
175 207 255
175 207 255
175 207 255
175 207 255
175 207 255
175 207 255
175 207 255
174 207 255
174 207 255
174 207 255
174 207 255
174 207 255
174 207 255
174 207 255
174 207 255
174 207 255
174 207 255
174 206 255
174 206 255
174 206 255
174 206 255
174 206 255
173 206 255
173 206 255
173 206 255
173 206 255
173 206 255
173 206 255
173 206 255
173 206 255
173 206 255
173 206 255
173 206 255
173 206 255
173 206 255
173 206 255
172 206 255
172 206 255
172 206 255
172 206 255
172 205 255
172 205 255
172 205 255
172 205 255
172 205 255
172 205 255
172 205 255
172 205 255
171 205 255
171 205 255
171 205 255
171 205 255
171 205 255
171 205 255
171 205 255
171 205 255
171 205 255
171 205 255
171 205 255
171 205 255
171 205 255
170 204 255
170 204 255
170 204 255
170 204 255
170 204 255
170 204 255
170 204 255
170 204 255
170 204 255
170 204 255
170 204 255
169 204 255
169 204 255
169 204 255
169 204 255
169 204 255
169 204 255
169 204 255
169 204 255
169 203 255
169 203 255
169 203 255
169 203 255
168 203 255
168 203 255
168 203 255
168 203 255
168 203 255
168 203 255
168 203 255
168 203 255
168 203 255
168 203 255
168 203 255
168 203 255
167 203 255
167 203 255
167 203 255
167 203 255
167 202 255
167 202 255
167 202 255
167 202 255
167 202 255
167 202 255
167 202 255
167 202 255
167 202 255
166 202 255
166 202 255
166 202 255
166 202 255
166 202 255
166 202 255
166 202 255
166 202 255
166 202 255
166 202 255
166 202 255
166 202 255
166 202 255
166 202 255
165 201 255
165 201 255
165 201 255
165 201 255
165 201 255
165 201 255
165 201 255
165 201 255
136 166 211
28 35 45
17 21 27
17 21 28
12 15 20
14 18 24
16 20 26
17 21 28
8 10 13
15 19 26
20 25 32
12 16 22
16 19 25
17 22 29
16 20 26
11 14 18
13 16 21
12 15 19
17 21 27
15 19 25
13 17 22
13 16 21
17 21 27
16 20 25
16 21 27
17 21 28
11 15 19
23 29 38
14 17 23
10 13 16
12 15 19
17 21 27
13 17 22
15 19 25
14 17 23
13 16 22
14 17 22
13 16 20
12 15 20
23 29 37
15 19 24
20 25 32
14 17 23
10 13 17
16 20 26
14 17 23
19 23 30
14 17 22
14 18 24
13 16 20
15 19 25
17 22 29
18 23 31
17 22 28
18 23 30
17 21 28
19 23 30
16 20 26
18 23 30
14 18 24
18 23 30
9 11 15
12 15 20
12 14 18
11 14 19
15 19 25
16 20 27
19 24 31
19 24 31
21 27 35
20 25 33
14 18 23
43 52 67
132 161 205
165 201 255
165 201 255
165 201 255
165 201 255
165 201 255
165 201 255
165 201 255
165 201 255
165 201 255
166 202 255
166 202 255
166 202 255
166 202 255
166 202 255
166 202 255
166 202 255
166 202 255
166 202 255
166 202 255
166 202 255
166 202 255
166 202 255
166 202 255
167 202 255
167 202 255
167 202 255
167 202 255
167 202 255
167 202 255
167 202 255
167 202 255
167 203 255
167 203 255
167 203 255
167 203 255
168 203 255
168 203 255
168 203 255
168 203 255
168 203 255
168 203 255
168 203 255
168 203 255
168 203 255
168 203 255
168 203 255
168 203 255
169 203 255
169 203 255
169 203 255
169 203 255
169 204 255
169 204 255
169 204 255
169 204 255
169 204 255
169 204 255
169 204 255
170 204 255
170 204 255
170 204 255
170 204 255
170 204 255
170 204 255
170 204 255
170 204 255
170 204 255
170 204 255
170 204 255
170 204 255
170 204 255
171 205 255
171 205 255
171 205 255
171 205 255
171 205 255
171 205 255
171 205 255
171 205 255
171 205 255
171 205 255
171 205 255
171 205 255
172 205 255
172 205 255
172 205 255
172 205 255
172 205 255
172 205 255
172 205 255
172 205 255
172 206 255
172 206 255
172 206 255
172 206 255
173 206 255
173 206 255
173 206 255
173 206 255
173 206 255
173 206 255
173 206 255
173 206 255
173 206 255
173 206 255
173 206 255
173 206 255
173 206 255
173 206 255
174 206 255
174 206 255
174 206 255
174 206 255
174 206 255
174 207 255
174 207 255
174 207 255
174 207 255
174 207 255
174 207 255
174 207 255
174 207 255
174 207 255
175 207 255
175 207 255
175 207 255
175 207 255
175 207 255
175 207 255
175 207 255
175 207 255
175 207 255
175 207 255
175 207 255
175 207 255
175 207 255
175 207 255
175 207 255
175 207 255
176 208 255
176 208 255
176 208 255
176 208 255
176 208 255
176 208 255
176 208 255
176 208 255
176 208 255
176 208 255
176 208 255
176 208 255
176 208 255
176 208 255
176 208 255
176 208 255
176 208 255
176 208 255
177 208 255
177 208 255
177 208 255
177 208 255
177 208 255
177 208 255
177 208 255
177 208 255
177 208 255
177 208 255
177 208 255
177 208 255
177 208 255
177 208 255
177 208 255
177 208 255
177 208 255
176 208 255
176 208 255
176 208 255
176 208 255
176 208 255
176 208 255
176 208 255
176 208 255
176 208 255
176 208 255
176 208 255
176 208 255
176 208 255
176 208 255
176 208 255
176 208 255
176 208 255
175 207 255
175 207 255
175 207 255
175 207 255
175 207 255
175 207 255
175 207 255
175 207 255
175 207 255
175 207 255
175 207 255
175 207 255
175 207 255
175 207 255
175 207 255
175 207 255
174 207 255
174 207 255
174 207 255
174 207 255
174 207 255
174 207 255
174 207 255
174 207 255
174 207 255
174 207 255
174 206 255
174 206 255
174 206 255
174 206 255
174 206 255
173 206 255
173 206 255
173 206 255
173 206 255
173 206 255
173 206 255
173 206 255
173 206 255
173 206 255
173 206 255
173 206 255
173 206 255
173 206 255
172 206 255
172 206 255
172 206 255
172 206 255
172 205 255
172 205 255
172 205 255
172 205 255
172 205 255
172 205 255
172 205 255
172 205 255
172 205 255
171 205 255
171 205 255
171 205 255
171 205 255
171 205 255
171 205 255
171 205 255
171 205 255
171 205 255
171 205 255
171 205 255
171 205 255
170 204 255
170 204 255
170 204 255
170 204 255
170 204 255
170 204 255
170 204 255
170 204 255
170 204 255
170 204 255
170 204 255
170 204 255
169 204 255
169 204 255
169 204 255
169 204 255
169 204 255
169 204 255
169 204 255
169 204 255
169 203 255
169 203 255
169 203 255
169 203 255
168 203 255
168 203 255
168 203 255
168 203 255
168 203 255
168 203 255
168 203 255
168 203 255
168 203 255
168 203 255
168 203 255
168 203 255
167 203 255
167 203 255
167 203 255
167 203 255
167 202 255
167 202 255
167 202 255
167 202 255
167 202 255
167 202 255
167 202 255
167 202 255
167 202 255
166 202 255
166 202 255
166 202 255
166 202 255
166 202 255
166 202 255
166 202 255
166 202 255
166 202 255
166 202 255
166 202 255
166 202 255
166 202 255
166 202 255
165 201 255
162 197 250
67 81 103
17 22 29
17 21 27
16 20 26
19 24 30
12 15 20
21 27 36
16 19 25
9 11 14
17 20 26
14 17 23
14 17 23
13 16 21
14 18 23
16 20 25
15 19 24
18 22 29
15 18 23
14 18 23
7 9 12
14 17 23
13 16 20
14 17 23
19 23 30
13 16 22
9 11 15
15 19 25
16 20 26
13 17 22
16 20 26
17 21 27
10 13 17
12 15 19
16 20 26
14 18 23
18 23 30
17 21 27
11 14 19
22 27 34
21 27 35
16 19 25
13 17 22
18 23 31
15 19 24
13 17 22
15 18 23
7 9 12
18 22 28
14 17 22
13 17 23
21 26 33
16 20 27
14 17 22
11 13 16
19 23 30
12 14 19
11 14 19
12 14 17
19 24 30
15 19 24
12 15 19
12 15 20
14 18 23
9 12 16
15 19 25
12 15 20
17 21 27
10 13 16
17 22 28
14 17 22
11 14 19
16 19 25
15 19 24
14 18 23
16 20 26
71 87 111
162 197 250
165 201 255
166 202 255
166 202 255
166 202 255
166 202 255
166 202 255
166 202 255
166 202 255
166 202 255
166 202 255
166 202 255
166 202 255
166 202 255
166 202 255
166 202 255
167 202 255
167 202 255
167 202 255
167 202 255
167 202 255
167 202 255
167 202 255
167 202 255
167 202 255
167 203 255
167 203 255
167 203 255
167 203 255
168 203 255
168 203 255
168 203 255
168 203 255
168 203 255
168 203 255
168 203 255
168 203 255
168 203 255
168 203 255
168 203 255
168 203 255
169 203 255
169 203 255
169 203 255
169 203 255
169 204 255
169 204 255
169 204 255
169 204 255
169 204 255
169 204 255
169 204 255
169 204 255
170 204 255
170 204 255
170 204 255
170 204 255
170 204 255
170 204 255
170 204 255
170 204 255
170 204 255
170 204 255
170 204 255
170 204 255
171 205 255
171 205 255
171 205 255
171 205 255
171 205 255
171 205 255
171 205 255
171 205 255
171 205 255
171 205 255
171 205 255
171 205 255
172 205 255
172 205 255
172 205 255
172 205 255
172 205 255
172 205 255
172 205 255
172 205 255
172 205 255
172 206 255
172 206 255
172 206 255
172 206 255
173 206 255
173 206 255
173 206 255
173 206 255
173 206 255
173 206 255
173 206 255
173 206 255
173 206 255
173 206 255
173 206 255
173 206 255
173 206 255
173 206 255
174 206 255
174 206 255
174 206 255
174 206 255
174 207 255
174 207 255
174 207 255
174 207 255
174 207 255
174 207 255
174 207 255
174 207 255
174 207 255
174 207 255
175 207 255
175 207 255
175 207 255
175 207 255
175 207 255
175 207 255
175 207 255
175 207 255
175 207 255
175 207 255
175 207 255
175 207 255
175 207 255
175 207 255
175 207 255
175 207 255
176 208 255
176 208 255
176 208 255
176 208 255
176 208 255
176 208 255
176 208 255
176 208 255
176 208 255
176 208 255
176 208 255
176 208 255
176 208 255
176 208 255
176 208 255
176 208 255
176 208 255
177 208 255
177 208 255
177 208 255
177 208 255
177 208 255
177 208 255
177 208 255
177 208 255
177 208 255
177 208 255
177 208 255
177 209 255
177 209 255
177 209 255
177 209 255
177 208 255
177 208 255
177 208 255
177 208 255
177 208 255
177 208 255
177 208 255
177 208 255
177 208 255
177 208 255
177 208 255
177 208 255
176 208 255
176 208 255
176 208 255
176 208 255
176 208 255
176 208 255
176 208 255
176 208 255
176 208 255
176 208 255
176 208 255
176 208 255
176 208 255
176 208 255
176 208 255
176 208 255
176 208 255
175 207 255
175 207 255
175 207 255
175 207 255
175 207 255
175 207 255
175 207 255
175 207 255
175 207 255
175 207 255
175 207 255
175 207 255
175 207 255
175 207 255
175 207 255
174 207 255
174 207 255
174 207 255
174 207 255
174 207 255
174 207 255
174 207 255
174 207 255
174 207 255
174 207 255
174 206 255
174 206 255
174 206 255
174 206 255
174 206 255
173 206 255
173 206 255
173 206 255
173 206 255
173 206 255
173 206 255
173 206 255
173 206 255
173 206 255
173 206 255
173 206 255
173 206 255
173 206 255
172 206 255
172 206 255
172 206 255
172 206 255
172 206 255
172 205 255
172 205 255
172 205 255
172 205 255
172 205 255
172 205 255
172 205 255
172 205 255
171 205 255
171 205 255
171 205 255
171 205 255
171 205 255
171 205 255
171 205 255
171 205 255
171 205 255
171 205 255
171 205 255
171 205 255
170 204 255
170 204 255
170 204 255
170 204 255
170 204 255
170 204 255
170 204 255
170 204 255
170 204 255
170 204 255
170 204 255
170 204 255
169 204 255
169 204 255
169 204 255
169 204 255
169 204 255
169 204 255
169 204 255
169 204 255
169 203 255
169 203 255
169 203 255
169 203 255
168 203 255
168 203 255
168 203 255
168 203 255
168 203 255
168 203 255
168 203 255
168 203 255
168 203 255
168 203 255
168 203 255
168 203 255
168 203 255
167 203 255
167 203 255
167 203 255
167 203 255
167 202 255
167 202 255
167 202 255
167 202 255
167 202 255
167 202 255
167 202 255
167 202 255
167 202 255
167 202 255
166 202 255
166 202 255
166 202 255
166 202 255
166 202 255
166 202 255
166 202 255
166 202 255
144 175 222
57 69 88
18 23 31
20 25 32
14 18 23
15 18 24
12 15 21
18 23 30
15 18 22
16 20 26
15 20 26
12 15 19
15 19 25
12 16 21
11 14 18
16 20 27
15 19 25
13 16 21
17 22 28
19 24 31
13 16 22
14 17 22
20 25 33
14 18 23
17 21 28
18 23 29
17 21 27
13 16 21
14 18 23
16 21 27
15 19 25
13 16 20
14 17 23
21 26 34
14 18 23
19 25 33
16 19 25
15 19 26
10 13 17
15 19 24
13 17 22
13 17 22
11 13 17
17 21 28
13 17 22
18 22 28
12 15 20
17 22 28
13 16 21
14 18 23
16 19 25
15 18 23
15 19 24
16 19 24
16 21 28
18 22 28
20 25 32
19 23 30
9 11 14
19 24 32
12 15 20
16 20 26
18 23 29
7 9 11
16 19 24
13 16 21
17 21 28
18 23 29
15 18 24
17 22 28
16 21 28
10 13 17
16 20 26
12 15 19
12 15 20
19 23 30
17 22 28
21 26 33
60 73 93
136 165 209
166 202 255
166 202 255
166 202 255
166 202 255
166 202 255
166 202 255
166 202 255
166 202 255
166 202 255
167 202 255
167 202 255
167 202 255
167 202 255
167 202 255
167 202 255
167 202 255
167 202 255
167 202 255
167 203 255
167 203 255
167 203 255
167 203 255
168 203 255
168 203 255
168 203 255
168 203 255
168 203 255
168 203 255
168 203 255
168 203 255
168 203 255
168 203 255
168 203 255
168 203 255
168 203 255
169 203 255
169 203 255
169 203 255
169 203 255
169 204 255
169 204 255
169 204 255
169 204 255
169 204 255
169 204 255
169 204 255
169 204 255
170 204 255
170 204 255
170 204 255
170 204 255
170 204 255
170 204 255
170 204 255
170 204 255
170 204 255
170 204 255
170 204 255
170 204 255
171 205 255
171 205 255
171 205 255
171 205 255
171 205 255
171 205 255
171 205 255
171 205 255
171 205 255
171 205 255
171 205 255
171 205 255
172 205 255
172 205 255
172 205 255
172 205 255
172 205 255
172 205 255
172 205 255
172 205 255
172 206 255
172 206 255
172 206 255
172 206 255
172 206 255
173 206 255
173 206 255
173 206 255
173 206 255
173 206 255
173 206 255
173 206 255
173 206 255
173 206 255
173 206 255
173 206 255
173 206 255
173 206 255
174 206 255
174 206 255
174 206 255
174 206 255
174 206 255
174 207 255
174 207 255
174 207 255
174 207 255
174 207 255
174 207 255
174 207 255
174 207 255
174 207 255
174 207 255
175 207 255
175 207 255
175 207 255
175 207 255
175 207 255
175 207 255
175 207 255
175 207 255
175 207 255
175 207 255
175 207 255
175 207 255
175 207 255
175 207 255
175 207 255
176 208 255
176 208 255
176 208 255
176 208 255
176 208 255
176 208 255
176 208 255
176 208 255
176 208 255
176 208 255
176 208 255
176 208 255
176 208 255
176 208 255
176 208 255
176 208 255
176 208 255
177 208 255
177 208 255
177 208 255
177 208 255
177 208 255
177 208 255
177 208 255
177 208 255
177 208 255
177 208 255
177 208 255
177 208 255
177 209 255
177 209 255
177 209 255
177 209 255
178 209 255
178 209 255
177 209 255
177 209 255
177 209 255
177 209 255
177 209 255
177 209 255
177 209 255
177 208 255
177 208 255
177 208 255
177 208 255
177 208 255
177 208 255
177 208 255
177 208 255
177 208 255
177 208 255
177 208 255
177 208 255
176 208 255
176 208 255
176 208 255
176 208 255
176 208 255
176 208 255
176 208 255
176 208 255
176 208 255
176 208 255
176 208 255
176 208 255
176 208 255
176 208 255
176 208 255
176 208 255
175 207 255
175 207 255
175 207 255
175 207 255
175 207 255
175 207 255
175 207 255
175 207 255
175 207 255
175 207 255
175 207 255
175 207 255
175 207 255
175 207 255
175 207 255
175 207 255
174 207 255
174 207 255
174 207 255
174 207 255
174 207 255
174 207 255
174 207 255
174 207 255
174 207 255
174 207 255
174 206 255
174 206 255
174 206 255
174 206 255
173 206 255
173 206 255
173 206 255
173 206 255
173 206 255
173 206 255
173 206 255
173 206 255
173 206 255
173 206 255
173 206 255
173 206 255
173 206 255
173 206 255
172 206 255
172 206 255
172 206 255
172 206 255
172 205 255
172 205 255
172 205 255
172 205 255
172 205 255
172 205 255
172 205 255
172 205 255
171 205 255
171 205 255
171 205 255
171 205 255
171 205 255
171 205 255
171 205 255
171 205 255
171 205 255
171 205 255
171 205 255
171 205 255
171 205 255
170 204 255
170 204 255
170 204 255
170 204 255
170 204 255
170 204 255
170 204 255
170 204 255
170 204 255
170 204 255
170 204 255
170 204 255
169 204 255
169 204 255
169 204 255
169 204 255
169 204 255
169 204 255
169 204 255
169 204 255
169 203 255
169 203 255
169 203 255
169 203 255
168 203 255
168 203 255
168 203 255
168 203 255
168 203 255
168 203 255
168 203 255
168 203 255
168 203 255
168 203 255
168 203 255
168 203 255
168 203 255
167 203 255
167 203 255
167 203 255
167 203 255
167 202 255
167 202 255
167 202 255
167 202 255
167 202 255
167 202 255
167 202 255
167 202 255
167 202 255
167 202 255
167 202 255
166 202 255
122 148 188
23 29 37
15 18 24
23 28 36
17 21 27
18 22 27
17 21 28
16 21 27
18 23 29
17 21 28
10 12 16
14 18 23
20 25 32
14 18 23
17 21 27
14 18 25
11 15 19
15 19 24
16 20 27
12 16 21
21 26 33
11 14 18
11 14 18
18 22 29
13 16 20
16 21 28
14 17 22
12 15 19
14 17 23
15 18 24
16 20 26
14 17 22
15 18 24
16 20 26
10 13 17
16 20 26
14 17 22
14 17 23
18 22 29
10 13 16
20 25 33
16 19 25
19 24 32
13 16 22
15 19 25
13 16 21
17 21 28
15 19 24
12 15 20
16 20 26
9 11 14
18 23 30
12 15 19
19 24 32
16 20 26
12 14 19
9 11 14
14 17 23
10 12 16
15 18 24
11 14 18
9 12 16
10 13 17
14 18 23
15 18 24
13 16 20
15 19 25
13 16 21
17 22 28
20 25 33
21 26 34
9 11 15
13 16 21
13 17 23
15 18 23
13 16 20
16 19 25
17 21 27
21 26 34
14 17 22
30 37 48
111 135 171
166 202 255
166 202 255
167 202 255
167 202 255
167 202 255
167 202 255
167 202 255
167 202 255
167 202 255
167 202 255
167 202 255
167 203 255
167 203 255
167 203 255
167 203 255
167 203 255
168 203 255
168 203 255
168 203 255
168 203 255
168 203 255
168 203 255
168 203 255
168 203 255
168 203 255
168 203 255
168 203 255
168 203 255
168 203 255
169 203 255
169 203 255
169 203 255
169 203 255
169 204 255
169 204 255
169 204 255
169 204 255
169 204 255
169 204 255
169 204 255
169 204 255
170 204 255
170 204 255
170 204 255
170 204 255
170 204 255
170 204 255
170 204 255
170 204 255
170 204 255
170 204 255
170 204 255
170 204 255
171 205 255
171 205 255
171 205 255
171 205 255
171 205 255
171 205 255
171 205 255
171 205 255
171 205 255
171 205 255
171 205 255
171 205 255
171 205 255
172 205 255
172 205 255
172 205 255
172 205 255
172 205 255
172 205 255
172 205 255
172 205 255
172 206 255
172 206 255
172 206 255
172 206 255
172 206 255
173 206 255
173 206 255
173 206 255
173 206 255
173 206 255
173 206 255
173 206 255
173 206 255
173 206 255
173 206 255
173 206 255
173 206 255
173 206 255
174 206 255
174 206 255
174 206 255
174 206 255
174 207 255
174 207 255
174 207 255
174 207 255
174 207 255
174 207 255
174 207 255
174 207 255
174 207 255
174 207 255
175 207 255
175 207 255
175 207 255
175 207 255
175 207 255
175 207 255
175 207 255
175 207 255
175 207 255
175 207 255
175 207 255
175 207 255
175 207 255
175 207 255
175 207 255
176 208 255
176 208 255
176 208 255
176 208 255
176 208 255
176 208 255
176 208 255
176 208 255
176 208 255
176 208 255
176 208 255
176 208 255
176 208 255
176 208 255
176 208 255
176 208 255
176 208 255
177 208 255
177 208 255
177 208 255
177 208 255
177 208 255
177 208 255
177 208 255
177 208 255
177 208 255
177 208 255
177 208 255
177 208 255
177 209 255
177 209 255
177 209 255
177 209 255
177 209 255
177 209 255
177 209 255
178 209 255
178 209 255
178 209 255
178 209 255
178 209 255
178 209 255
178 209 255
178 209 255
178 209 255
178 209 255
177 209 255
177 209 255
177 209 255
177 209 255
177 209 255
177 209 255
177 208 255
177 208 255
177 208 255
177 208 255
177 208 255
177 208 255
177 208 255
177 208 255
177 208 255
177 208 255
177 208 255
177 208 255
176 208 255
176 208 255
176 208 255
176 208 255
176 208 255
176 208 255
176 208 255
176 208 255
176 208 255
176 208 255
176 208 255
176 208 255
176 208 255
176 208 255
176 208 255
176 208 255
175 207 255
175 207 255
175 207 255
175 207 255
175 207 255
175 207 255
175 207 255
175 207 255
175 207 255
175 207 255
175 207 255
175 207 255
175 207 255
175 207 255
175 207 255
175 207 255
174 207 255
174 207 255
174 207 255
174 207 255
174 207 255
174 207 255
174 207 255
174 207 255
174 207 255
174 206 255
174 206 255
174 206 255
174 206 255
174 206 255
173 206 255
173 206 255
173 206 255
173 206 255
173 206 255
173 206 255
173 206 255
173 206 255
173 206 255
173 206 255
173 206 255
173 206 255
173 206 255
172 206 255
172 206 255
172 206 255
172 206 255
172 205 255
172 205 255
172 205 255
172 205 255
172 205 255
172 205 255
172 205 255
172 205 255
172 205 255
171 205 255
171 205 255
171 205 255
171 205 255
171 205 255
171 205 255
171 205 255
171 205 255
171 205 255
171 205 255
171 205 255
171 205 255
170 204 255
170 204 255
170 204 255
170 204 255
170 204 255
170 204 255
170 204 255
170 204 255
170 204 255
170 204 255
170 204 255
170 204 255
170 204 255
169 204 255
169 204 255
169 204 255
169 204 255
169 204 255
169 204 255
169 204 255
169 204 255
169 203 255
169 203 255
169 203 255
169 203 255
168 203 255
168 203 255
168 203 255
168 203 255
168 203 255
168 203 255
168 203 255
168 203 255
168 203 255
168 203 255
168 203 255
168 203 255
168 203 255
168 203 255
167 203 255
167 203 255
167 203 255
167 203 255
167 203 255
167 202 255
167 202 255
167 202 255
166 201 254
102 124 157
18 23 30
19 24 31
17 21 27
17 21 26
20 24 32
14 18 23
15 19 25
11 13 16
15 19 24
15 19 24
13 17 22
11 14 18
15 19 25
14 17 22
15 19 25
11 14 19
16 20 25
13 16 21
15 19 26
16 19 24
14 18 24
14 18 24
17 21 27
14 17 21
15 19 25
19 24 32
8 10 13
13 16 22
18 22 28
16 20 26
14 17 23
14 17 22
18 23 30
19 24 31
18 23 30
16 20 26
15 20 26
15 18 24
17 20 26
22 26 33
14 17 21
18 22 28
15 19 24
11 14 18
10 12 16
16 20 26
12 15 20
17 21 27
19 23 30
17 21 27
14 18 23
13 16 21
13 17 22
13 16 21
19 23 28
16 21 27
17 22 28
19 23 30
12 15 20
17 21 27
13 17 22
14 18 23
16 20 27
19 24 31
11 15 20
16 19 25
12 14 17
8 11 14
10 13 17
18 23 30
14 18 24
15 19 24
14 18 24
11 13 18
12 15 20
12 15 20
16 20 26
13 16 21
14 18 23
13 16 21
23 28 37
15 18 24
91 112 142
167 202 255
167 202 255
167 202 255
167 202 255
167 203 255
167 203 255
167 203 255
167 203 255
167 203 255
168 203 255
168 203 255
168 203 255
168 203 255
168 203 255
168 203 255
168 203 255
168 203 255
168 203 255
168 203 255
168 203 255
168 203 255
168 203 255
168 203 255
169 203 255
169 203 255
169 203 255
169 203 255
169 204 255
169 204 255
169 204 255
169 204 255
169 204 255
169 204 255
169 204 255
169 204 255
170 204 255
170 204 255
170 204 255
170 204 255
170 204 255
170 204 255
170 204 255
170 204 255
170 204 255
170 204 255
170 204 255
170 204 255
170 204 255
171 205 255
171 205 255
171 205 255
171 205 255
171 205 255
171 205 255
171 205 255
171 205 255
171 205 255
171 205 255
171 205 255
171 205 255
172 205 255
172 205 255
172 205 255
172 205 255
172 205 255
172 205 255
172 205 255
172 205 255
172 205 255
172 206 255
172 206 255
172 206 255
172 206 255
173 206 255
173 206 255
173 206 255
173 206 255
173 206 255
173 206 255
173 206 255
173 206 255
173 206 255
173 206 255
173 206 255
173 206 255
173 206 255
174 206 255
174 206 255
174 206 255
174 206 255
174 206 255
174 207 255
174 207 255
174 207 255
174 207 255
174 207 255
174 207 255
174 207 255
174 207 255
174 207 255
175 207 255
175 207 255
175 207 255
175 207 255
175 207 255
175 207 255
175 207 255
175 207 255
175 207 255
175 207 255
175 207 255
175 207 255
175 207 255
175 207 255
175 207 255
175 207 255
176 208 255
176 208 255
176 208 255
176 208 255
176 208 255
176 208 255
176 208 255
176 208 255
176 208 255
176 208 255
176 208 255
176 208 255
176 208 255
176 208 255
176 208 255
176 208 255
177 208 255
177 208 255
177 208 255
177 208 255
177 208 255
177 208 255
177 208 255
177 208 255
177 208 255
177 208 255
177 208 255
177 208 255
177 209 255
177 209 255
177 209 255
177 209 255
177 209 255
177 209 255
177 209 255
178 209 255
178 209 255
178 209 255
178 209 255
178 209 255
178 209 255
178 209 255
178 209 255
178 209 255
178 209 255
178 209 255
178 209 255
178 209 255
178 209 255
178 209 255
178 209 255
178 209 255
178 209 255
178 209 255
178 209 255
177 209 255
177 209 255
177 209 255
177 209 255
177 209 255
177 209 255
177 208 255
177 208 255
177 208 255
177 208 255
177 208 255
177 208 255
177 208 255
177 208 255
177 208 255
177 208 255
177 208 255
177 208 255
176 208 255
176 208 255
176 208 255
176 208 255
176 208 255
176 208 255
176 208 255
176 208 255
176 208 255
176 208 255
176 208 255
176 208 255
176 208 255
176 208 255
176 208 255
176 208 255
175 207 255
175 207 255
175 207 255
175 207 255
175 207 255
175 207 255
175 207 255
175 207 255
175 207 255
175 207 255
175 207 255
175 207 255
175 207 255
175 207 255
175 207 255
175 207 255
174 207 255
174 207 255
174 207 255
174 207 255
174 207 255
174 207 255
174 207 255
174 207 255
174 207 255
174 206 255
174 206 255
174 206 255
174 206 255
173 206 255
173 206 255
173 206 255
173 206 255
173 206 255
173 206 255
173 206 255
173 206 255
173 206 255
173 206 255
173 206 255
173 206 255
173 206 255
172 206 255
172 206 255
172 206 255
172 206 255
172 206 255
172 205 255
172 205 255
172 205 255
172 205 255
172 205 255
172 205 255
172 205 255
172 205 255
172 205 255
171 205 255
171 205 255
171 205 255
171 205 255
171 205 255
171 205 255
171 205 255
171 205 255
171 205 255
171 205 255
171 205 255
171 205 255
170 204 255
170 204 255
170 204 255
170 204 255
170 204 255
170 204 255
170 204 255
170 204 255
170 204 255
170 204 255
170 204 255
170 204 255
169 204 255
169 204 255
169 204 255
169 204 255
169 204 255
169 204 255
169 204 255
169 204 255
169 204 255
169 203 255
169 203 255
169 203 255
169 203 255
169 203 255
168 203 255
168 203 255
168 203 255
168 203 255
168 203 255
168 203 255
168 203 255
168 203 255
168 203 255
168 203 255
168 203 255
168 203 255
168 203 255
168 203 255
167 203 255
162 197 248
75 91 115
16 20 25
14 18 25
14 18 24
14 17 22
12 15 19
19 24 32
14 18 24
18 22 28
11 14 18
12 15 20
19 23 31
18 23 32
13 16 21
10 12 16
14 18 23
12 15 19
12 15 20
16 20 26
11 14 19
17 21 27
15 19 24
14 19 25
22 27 36
11 14 18
11 14 18
17 21 28
14 17 22
18 22 28
22 28 37
11 14 18
17 21 28
13 16 22
21 27 36
14 18 23
15 20 26
17 21 27
11 15 20
19 23 30
12 15 19
15 19 24
19 23 30
15 19 25
13 17 22
20 24 31
23 30 40
14 18 24
18 23 31
16 21 27
15 19 24
14 18 24
16 21 27
17 21 28
14 17 22
18 22 28
14 17 22
13 17 22
12 15 19
17 22 28
11 13 16
13 16 21
8 10 14
15 19 24
19 24 32
18 22 29
13 16 20
15 19 25
8 10 14
16 20 25
9 12 16
17 21 28
15 19 25
20 25 33
9 12 16
16 20 27
12 16 21
7 9 12
10 13 16
11 14 18
11 14 18
18 23 30
15 18 23
11 13 17
13 16 21
18 23 30
77 95 120
166 201 253
167 203 255
168 203 255
168 203 255
168 203 255
168 203 255
168 203 255
168 203 255
168 203 255
168 203 255
168 203 255
168 203 255
168 203 255
168 203 255
168 203 255
168 203 255
168 203 255
169 203 255
169 203 255
169 203 255
169 203 255
169 204 255
169 204 255
169 204 255
169 204 255
169 204 255
169 204 255
169 204 255
169 204 255
170 204 255
170 204 255
170 204 255
170 204 255
170 204 255
170 204 255
170 204 255
170 204 255
170 204 255
170 204 255
170 204 255
170 204 255
170 204 255
171 205 255
171 205 255
171 205 255
171 205 255
171 205 255
171 205 255
171 205 255
171 205 255
171 205 255
171 205 255
171 205 255
171 205 255
171 205 255
172 205 255
172 205 255
172 205 255
172 205 255
172 205 255
172 205 255
172 205 255
172 205 255
172 206 255
172 206 255
172 206 255
172 206 255
173 206 255
173 206 255
173 206 255
173 206 255
173 206 255
173 206 255
173 206 255
173 206 255
173 206 255
173 206 255
173 206 255
173 206 255
173 206 255
173 206 255
174 206 255
174 206 255
174 206 255
174 206 255
174 207 255
174 207 255
174 207 255
174 207 255
174 207 255
174 207 255
174 207 255
174 207 255
174 207 255
174 207 255
175 207 255
175 207 255
175 207 255
175 207 255
175 207 255
175 207 255
175 207 255
175 207 255
175 207 255
175 207 255
175 207 255
175 207 255
175 207 255
175 207 255
175 207 255
176 208 255
176 208 255
176 208 255
176 208 255
176 208 255
176 208 255
176 208 255
176 208 255
176 208 255
176 208 255
176 208 255
176 208 255
176 208 255
176 208 255
176 208 255
176 208 255
177 208 255
177 208 255
177 208 255
177 208 255
177 208 255
177 208 255
177 208 255
177 208 255
177 208 255
177 208 255
177 208 255
177 208 255
177 209 255
177 209 255
177 209 255
177 209 255
177 209 255
177 209 255
178 209 255
178 209 255
178 209 255
178 209 255
178 209 255
178 209 255
178 209 255
178 209 255
178 209 255
178 209 255
178 209 255
178 209 255
178 209 255
178 209 255
178 209 255
178 209 255
178 209 255
178 209 255
178 209 255
178 209 255
178 209 255
178 209 255
178 209 255
178 209 255
178 209 255
178 209 255
178 209 255
178 209 255
178 209 255
178 209 255
178 209 255
177 209 255
177 209 255
177 209 255
177 209 255
177 209 255
177 209 255
177 208 255
177 208 255
177 208 255
177 208 255
177 208 255
177 208 255
177 208 255
177 208 255
177 208 255
177 208 255
177 208 255
177 208 255
176 208 255
176 208 255
176 208 255
176 208 255
176 208 255
176 208 255
176 208 255
176 208 255
176 208 255
176 208 255
176 208 255
176 208 255
176 208 255
176 208 255
176 208 255
176 208 255
175 207 255
175 207 255
175 207 255
175 207 255
175 207 255
175 207 255
175 207 255
175 207 255
175 207 255
175 207 255
175 207 255
175 207 255
175 207 255
175 207 255
175 207 255
174 207 255
174 207 255
174 207 255
174 207 255
174 207 255
174 207 255
174 207 255
174 207 255
174 207 255
174 207 255
174 206 255
174 206 255
174 206 255
174 206 255
173 206 255
173 206 255
173 206 255
173 206 255
173 206 255
173 206 255
173 206 255
173 206 255
173 206 255
173 206 255
173 206 255
173 206 255
173 206 255
172 206 255
172 206 255
172 206 255
172 206 255
172 205 255
172 205 255
172 205 255
172 205 255
172 205 255
172 205 255
172 205 255
172 205 255
172 205 255
171 205 255
171 205 255
171 205 255
171 205 255
171 205 255
171 205 255
171 205 255
171 205 255
171 205 255
171 205 255
171 205 255
171 205 255
171 205 255
170 204 255
170 204 255
170 204 255
170 204 255
170 204 255
170 204 255
170 204 255
170 204 255
170 204 255
170 204 255
170 204 255
170 204 255
170 204 255
169 204 255
169 204 255
169 204 255
169 204 255
169 204 255
169 204 255
169 204 255
169 204 255
169 204 255
169 203 255
169 203 255
169 203 255
169 203 255
168 203 255
168 203 255
168 203 255
168 203 255
168 203 255
168 203 255
168 203 255
168 203 255
168 203 255
157 190 239
55 67 85
20 25 32
11 14 19
14 17 22
15 19 23
15 19 25
19 24 30
10 13 17
10 13 18
16 20 26
15 18 24
17 21 27
20 24 31
12 16 20
13 16 21
12 14 18
13 16 21
14 17 22
9 12 16
14 17 22
19 24 32
14 18 24
11 14 19
12 15 19
9 12 16
12 15 20
13 16 21
14 18 24
20 24 32
15 18 23
16 20 26
16 19 25
16 20 25
20 25 32
15 19 25
12 15 21
19 24 32
17 21 28
14 17 22
14 18 23
13 17 22
15 19 26
19 23 30
18 22 28
18 23 29
21 26 33
16 20 27
22 27 35
16 19 24
17 22 28
17 20 26
26 32 40
13 17 22
20 25 32
15 19 25
12 15 19
10 13 16
13 16 21
16 21 27
15 19 25
20 24 31
18 23 30
13 16 21
19 24 31
10 12 16
16 19 25
15 19 25
13 16 21
14 17 22
13 16 21
9 11 15
9 12 15
12 16 21
14 18 23
16 19 24
14 17 23
14 17 22
12 14 18
12 15 19
8 10 13
10 13 17
11 13 17
12 15 19
16 19 25
20 24 32
14 17 23
15 19 24
52 63 80
163 197 248
168 203 255
168 203 255
168 203 255
168 203 255
168 203 255
168 203 255
168 203 255
168 203 255
168 203 255
169 203 255
169 203 255
169 203 255
169 203 255
169 203 255
169 204 255
169 204 255
169 204 255
169 204 255
169 204 255
169 204 255
169 204 255
169 204 255
170 204 255
170 204 255
170 204 255
170 204 255
170 204 255
170 204 255
170 204 255
170 204 255
170 204 255
170 204 255
170 204 255
170 204 255
170 204 255
171 205 255
171 205 255
171 205 255
171 205 255
171 205 255
171 205 255
171 205 255
171 205 255
171 205 255
171 205 255
171 205 255
171 205 255
171 205 255
172 205 255
172 205 255
172 205 255
172 205 255
172 205 255
172 205 255
172 205 255
172 205 255
172 206 255
172 206 255
172 206 255
172 206 255
172 206 255
173 206 255
173 206 255
173 206 255
173 206 255
173 206 255
173 206 255
173 206 255
173 206 255
173 206 255
173 206 255
173 206 255
173 206 255
173 206 255
174 206 255
174 206 255
174 206 255
174 206 255
174 206 255
174 207 255
174 207 255
174 207 255
174 207 255
174 207 255
174 207 255
174 207 255
174 207 255
174 207 255
175 207 255
175 207 255
175 207 255
175 207 255
175 207 255
175 207 255
175 207 255
175 207 255
175 207 255
175 207 255
175 207 255
175 207 255
175 207 255
175 207 255
175 207 255
176 208 255
176 208 255
176 208 255
176 208 255
176 208 255
176 208 255
176 208 255
176 208 255
176 208 255
176 208 255
176 208 255
176 208 255
176 208 255
176 208 255
176 208 255
176 208 255
177 208 255
177 208 255
177 208 255
177 208 255
177 208 255
177 208 255
177 208 255
177 208 255
177 208 255
177 208 255
177 208 255
177 208 255
177 209 255
177 209 255
177 209 255
177 209 255
177 209 255
177 209 255
178 209 255
178 209 255
178 209 255
178 209 255
178 209 255
178 209 255
178 209 255
178 209 255
178 209 255
178 209 255
178 209 255
178 209 255
178 209 255
178 209 255
178 209 255
178 209 255
178 209 255
178 209 255
179 209 255
179 209 255
179 209 255
178 209 255
178 209 255
178 209 255
178 209 255
178 209 255
178 209 255
178 209 255
178 209 255
178 209 255
178 209 255
178 209 255
178 209 255
178 209 255
178 209 255
178 209 255
178 209 255
178 209 255
178 209 255
178 209 255
178 209 255
177 209 255
177 209 255
177 209 255
177 209 255
177 209 255
177 209 255
177 208 255
177 208 255
177 208 255
177 208 255
177 208 255
177 208 255
177 208 255
177 208 255
177 208 255
177 208 255
177 208 255
177 208 255
176 208 255
176 208 255
176 208 255
176 208 255
176 208 255
176 208 255
176 208 255
176 208 255
176 208 255
176 208 255
176 208 255
176 208 255
176 208 255
176 208 255
176 208 255
176 208 255
175 207 255
175 207 255
175 207 255
175 207 255
175 207 255
175 207 255
175 207 255
175 207 255
175 207 255
175 207 255
175 207 255
175 207 255
175 207 255
175 207 255
175 207 255
174 207 255
174 207 255
174 207 255
174 207 255
174 207 255
174 207 255
174 207 255
174 207 255
174 207 255
174 206 255
174 206 255
174 206 255
174 206 255
174 206 255
173 206 255
173 206 255
173 206 255
173 206 255
173 206 255
173 206 255
173 206 255
173 206 255
173 206 255
173 206 255
173 206 255
173 206 255
173 206 255
172 206 255
172 206 255
172 206 255
172 206 255
172 206 255
172 205 255
172 205 255
172 205 255
172 205 255
172 205 255
172 205 255
172 205 255
172 205 255
171 205 255
171 205 255
171 205 255
171 205 255
171 205 255
171 205 255
171 205 255
171 205 255
171 205 255
171 205 255
171 205 255
171 205 255
171 205 255
170 204 255
170 204 255
170 204 255
170 204 255
170 204 255
170 204 255
170 204 255
170 204 255
170 204 255
170 204 255
170 204 255
170 204 255
170 204 255
169 204 255
169 204 255
169 204 255
169 204 255
169 204 255
169 204 255
169 204 255
169 204 255
169 204 255
169 204 255
169 203 255
169 203 255
169 203 255
169 203 255
168 203 255
168 203 255
159 191 241
59 71 89
15 19 25
11 14 19
18 23 29
16 20 25
13 16 21
13 16 21
14 18 23
11 13 17
15 19 26
11 14 18
21 26 34
9 12 15
14 18 23
9 11 15
12 15 19
10 13 17
12 15 19
16 20 26
13 17 22
11 14 18
16 21 27
13 16 21
13 16 21
11 13 17
14 17 22
16 20 26
12 16 20
13 17 23
13 16 21
9 11 14
14 18 24
18 22 28
15 18 23
17 21 27
15 19 25
19 24 31
16 20 25
12 15 20
14 18 22
17 22 30
23 29 36
13 16 20
14 17 22
16 21 27
18 22 29
17 21 27
13 16 22
13 16 21
21 26 35
17 21 28
16 20 26
14 18 23
17 21 27
19 24 32
13 17 22
18 22 28
20 25 32
15 18 24
14 18 23
17 21 28
11 14 18
9 11 15
11 14 19
18 22 29
14 18 24
10 12 15
16 21 27
9 12 15
12 15 19
14 18 24
13 15 20
13 16 20
11 13 18
15 19 25
14 17 22
15 18 24
14 18 23
13 16 21
14 17 22
15 19 24
17 22 29
13 15 19
12 15 19
11 13 17
9 12 16
17 21 26
13 17 22
15 19 24
50 61 78
157 189 238
168 203 255
168 203 255
169 203 255
169 203 255
169 203 255
169 203 255
169 204 255
169 204 255
169 204 255
169 204 255
169 204 255
169 204 255
169 204 255
169 204 255
169 204 255
169 204 255
170 204 255
170 204 255
170 204 255
170 204 255
170 204 255
170 204 255
170 204 255
170 204 255
170 204 255
170 204 255
170 204 255
170 204 255
170 204 255
171 205 255
171 205 255
171 205 255
171 205 255
171 205 255
171 205 255
171 205 255
171 205 255
171 205 255
171 205 255
171 205 255
171 205 255
171 205 255
172 205 255
172 205 255
172 205 255
172 205 255
172 205 255
172 205 255
172 205 255
172 205 255
172 205 255
172 206 255
172 206 255
172 206 255
172 206 255
173 206 255
173 206 255
173 206 255
173 206 255
173 206 255
173 206 255
173 206 255
173 206 255
173 206 255
173 206 255
173 206 255
173 206 255
173 206 255
174 206 255
174 206 255
174 206 255
174 206 255
174 206 255
174 207 255
174 207 255
174 207 255
174 207 255
174 207 255
174 207 255
174 207 255
174 207 255
174 207 255
175 207 255
175 207 255
175 207 255
175 207 255
175 207 255
175 207 255
175 207 255
175 207 255
175 207 255
175 207 255
175 207 255
175 207 255
175 207 255
175 207 255
175 207 255
176 208 255
176 208 255
176 208 255
176 208 255
176 208 255
176 208 255
176 208 255
176 208 255
176 208 255
176 208 255
176 208 255
176 208 255
176 208 255
176 208 255
176 208 255
176 208 255
177 208 255
177 208 255
177 208 255
177 208 255
177 208 255
177 208 255
177 208 255
177 208 255
177 208 255
177 208 255
177 208 255
177 208 255
177 209 255
177 209 255
177 209 255
177 209 255
177 209 255
177 209 255
178 209 255
178 209 255
178 209 255
178 209 255
178 209 255
178 209 255
178 209 255
178 209 255
178 209 255
178 209 255
178 209 255
178 209 255
178 209 255
178 209 255
178 209 255
178 209 255
178 209 255
178 209 255
178 209 255
178 209 255
179 209 255
179 209 255
179 209 255
179 210 255
179 210 255
179 209 255
179 209 255
179 209 255
179 209 255
179 209 255
179 209 255
179 209 255
178 209 255
178 209 255
178 209 255
178 209 255
178 209 255
178 209 255
178 209 255
178 209 255
178 209 255
178 209 255
178 209 255
178 209 255
178 209 255
178 209 255
178 209 255
178 209 255
178 209 255
178 209 255
178 209 255
177 209 255
177 209 255
177 209 255
177 209 255
177 209 255
177 209 255
177 208 255
177 208 255
177 208 255
177 208 255
177 208 255
177 208 255
177 208 255
177 208 255
177 208 255
177 208 255
177 208 255
177 208 255
176 208 255
176 208 255
176 208 255
176 208 255
176 208 255
176 208 255
176 208 255
176 208 255
176 208 255
176 208 255
176 208 255
176 208 255
176 208 255
176 208 255
176 208 255
176 208 255
175 207 255
175 207 255
175 207 255
175 207 255
175 207 255
175 207 255
175 207 255
175 207 255
175 207 255
175 207 255
175 207 255
175 207 255
175 207 255
175 207 255
175 207 255
174 207 255
174 207 255
174 207 255
174 207 255
174 207 255
174 207 255
174 207 255
174 207 255
174 207 255
174 206 255
174 206 255
174 206 255
174 206 255
174 206 255
173 206 255
173 206 255
173 206 255
173 206 255
173 206 255
173 206 255
173 206 255
173 206 255
173 206 255
173 206 255
173 206 255
173 206 255
173 206 255
172 206 255
172 206 255
172 206 255
172 206 255
172 205 255
172 205 255
172 205 255
172 205 255
172 205 255
172 205 255
172 205 255
172 205 255
172 205 255
171 205 255
171 205 255
171 205 255
171 205 255
171 205 255
171 205 255
171 205 255
171 205 255
171 205 255
171 205 255
171 205 255
171 205 255
171 205 255
170 204 255
170 204 255
170 204 255
170 204 255
170 204 255
170 204 255
170 204 255
170 204 255
170 204 255
170 204 255
170 204 255
170 204 255
170 204 255
170 204 255
169 204 255
169 204 255
169 204 255
169 204 255
169 204 255
169 204 255
169 204 255
169 204 255
169 204 255
155 187 235
42 52 67
15 18 24
14 17 23
20 24 31
19 24 31
11 13 17
14 18 23
12 15 19
17 21 27
13 16 20
11 14 18
13 16 20
13 16 21
14 18 23
10 13 16
15 19 25
14 17 21
10 13 16
14 17 23
12 16 21
11 15 19
18 23 30
20 26 35
13 16 20
17 21 27
12 15 19
16 21 27
15 19 24
15 18 23
13 17 23
16 20 26
17 21 27
16 20 27
14 17 23
16 20 25
20 25 32
16 20 26
27 34 44
15 19 24
19 24 32
18 22 29
16 20 26
13 17 22
15 18 23
18 22 29
17 21 26
17 21 26
16 20 27
23 29 37
14 18 24
18 22 29
16 20 26
17 22 29
21 26 34
15 19 25
15 19 26
15 19 24
17 21 27
18 22 28
17 21 27
15 18 23
25 31 40
18 22 29
14 18 24
15 19 25
12 16 20
13 17 23
13 17 22
19 24 31
10 13 17
7 9 11
21 26 34
15 19 24
10 13 18
15 19 24
10 12 16
11 14 18
15 19 24
13 17 22
12 14 18
11 13 18
16 21 27
14 17 23
14 18 23
19 23 30
9 12 15
16 21 27
17 21 26
17 21 27
15 19 26
17 21 27
46 56 72
152 183 230
169 204 255
169 204 255
169 204 255
169 204 255
169 204 255
169 204 255
169 204 255
169 204 255
169 204 255
170 204 255
170 204 255
170 204 255
170 204 255
170 204 255
170 204 255
170 204 255
170 204 255
170 204 255
170 204 255
170 204 255
170 204 255
170 204 255
170 204 255
171 205 255
171 205 255
171 205 255
171 205 255
171 205 255
171 205 255
171 205 255
171 205 255
171 205 255
171 205 255
171 205 255
171 205 255
171 205 255
172 205 255
172 205 255
172 205 255
172 205 255
172 205 255
172 205 255
172 205 255
172 205 255
172 205 255
172 206 255
172 206 255
172 206 255
172 206 255
173 206 255
173 206 255
173 206 255
173 206 255
173 206 255
173 206 255
173 206 255
173 206 255
173 206 255
173 206 255
173 206 255
173 206 255
173 206 255
174 206 255
174 206 255
174 206 255
174 206 255
174 206 255
174 207 255
174 207 255
174 207 255
174 207 255
174 207 255
174 207 255
174 207 255
174 207 255
174 207 255
175 207 255
175 207 255
175 207 255
175 207 255
175 207 255
175 207 255
175 207 255
175 207 255
175 207 255
175 207 255
175 207 255
175 207 255
175 207 255
175 207 255
175 207 255
176 208 255
176 208 255
176 208 255
176 208 255
176 208 255
176 208 255
176 208 255
176 208 255
176 208 255
176 208 255
176 208 255
176 208 255
176 208 255
176 208 255
176 208 255
176 208 255
177 208 255
177 208 255
177 208 255
177 208 255
177 208 255
177 208 255
177 208 255
177 208 255
177 208 255
177 208 255
177 208 255
177 208 255
177 209 255
177 209 255
177 209 255
177 209 255
177 209 255
177 209 255
178 209 255
178 209 255
178 209 255
178 209 255
178 209 255
178 209 255
178 209 255
178 209 255
178 209 255
178 209 255
178 209 255
178 209 255
178 209 255
178 209 255
178 209 255
178 209 255
178 209 255
178 209 255
178 209 255
179 209 255
179 209 255
179 209 255
179 209 255
179 209 255
179 209 255
179 209 255
179 210 255
179 210 255
179 210 255
179 210 255
179 210 255
179 210 255
179 210 255
179 210 255
179 210 255
179 209 255
179 209 255
179 209 255
179 209 255
179 209 255
179 209 255
179 209 255
179 209 255
178 209 255
178 209 255
178 209 255
178 209 255
178 209 255
178 209 255
178 209 255
178 209 255
178 209 255
178 209 255
178 209 255
178 209 255
178 209 255
178 209 255
178 209 255
178 209 255
178 209 255
178 209 255
178 209 255
177 209 255
177 209 255
177 209 255
177 209 255
177 209 255
177 209 255
177 208 255
177 208 255
177 208 255
177 208 255
177 208 255
177 208 255
177 208 255
177 208 255
177 208 255
177 208 255
177 208 255
176 208 255
176 208 255
176 208 255
176 208 255
176 208 255
176 208 255
176 208 255
176 208 255
176 208 255
176 208 255
176 208 255
176 208 255
176 208 255
176 208 255
176 208 255
176 208 255
175 207 255
175 207 255
175 207 255
175 207 255
175 207 255
175 207 255
175 207 255
175 207 255
175 207 255
175 207 255
175 207 255
175 207 255
175 207 255
175 207 255
175 207 255
174 207 255
174 207 255
174 207 255
174 207 255
174 207 255
174 207 255
174 207 255
174 207 255
174 207 255
174 206 255
174 206 255
174 206 255
174 206 255
174 206 255
173 206 255
173 206 255
173 206 255
173 206 255
173 206 255
173 206 255
173 206 255
173 206 255
173 206 255
173 206 255
173 206 255
173 206 255
173 206 255
172 206 255
172 206 255
172 206 255
172 206 255
172 205 255
172 205 255
172 205 255
172 205 255
172 205 255
172 205 255
172 205 255
172 205 255
172 205 255
171 205 255
171 205 255
171 205 255
171 205 255
171 205 255
171 205 255
171 205 255
171 205 255
171 205 255
171 205 255
171 205 255
171 205 255
171 205 255
171 205 255
170 204 255
170 204 255
170 204 255
170 204 255
170 204 255
170 204 255
170 204 255
170 204 255
170 204 255
170 204 255
170 204 255
170 204 255
170 204 255
170 204 255
170 204 255
169 204 255
158 190 239
37 45 58
19 23 30
11 14 18
15 18 24
14 18 24
10 12 16
13 16 22
11 14 18
13 16 21
14 18 23
13 17 21
10 13 17
9 12 16
14 17 23
9 11 15
8 10 13
9 11 14
14 18 24
16 20 26
15 18 23
17 22 29
7 10 13
17 21 28
15 18 23
13 16 20
13 17 22
15 19 25
18 23 30
15 18 24
14 17 23
15 19 26
15 19 25
14 18 23
12 15 20
14 18 23
17 20 26
16 20 26
19 24 31
14 17 21
19 23 30
19 23 30
16 20 27
16 19 25
17 21 27
15 19 25
15 19 25
14 18 23
14 19 25
16 20 26
16 20 27
15 18 23
12 16 20
20 25 33
18 23 30
14 17 22
17 22 28
20 24 31
16 20 26
12 15 19
22 26 34
12 14 19
16 20 26
11 13 18
13 16 21
20 24 31
10 12 16
15 18 23
22 28 35
15 18 24
17 21 26
16 20 27
16 20 25
17 22 28
8 11 14
10 12 17
14 18 23
9 11 16
13 17 22
14 17 22
12 16 21
11 14 19
10 13 17
12 15 19
13 17 22
19 23 29
14 17 23
11 14 19
15 18 23
17 22 29
14 18 24
17 21 28
21 26 35
19 24 31
59 73 92
162 195 245
169 204 255
169 204 255
170 204 255
170 204 255
170 204 255
170 204 255
170 204 255
170 204 255
170 204 255
170 204 255
170 204 255
170 204 255
170 204 255
170 204 255
170 204 255
170 204 255
171 205 255
171 205 255
171 205 255
171 205 255
171 205 255
171 205 255
171 205 255
171 205 255
171 205 255
171 205 255
171 205 255
171 205 255
171 205 255
171 205 255
172 205 255
172 205 255
172 205 255
172 205 255
172 205 255
172 205 255
172 205 255
172 205 255
172 205 255
172 206 255
172 206 255
172 206 255
172 206 255
173 206 255
173 206 255
173 206 255
173 206 255
173 206 255
173 206 255
173 206 255
173 206 255
173 206 255
173 206 255
173 206 255
173 206 255
173 206 255
174 206 255
174 206 255
174 206 255
174 206 255
174 206 255
174 207 255
174 207 255
174 207 255
174 207 255
174 207 255
174 207 255
174 207 255
174 207 255
174 207 255
175 207 255
175 207 255
175 207 255
175 207 255
175 207 255
175 207 255
175 207 255
175 207 255
175 207 255
175 207 255
175 207 255
175 207 255
175 207 255
175 207 255
175 207 255
176 208 255
176 208 255
176 208 255
176 208 255
176 208 255
176 208 255
176 208 255
176 208 255
176 208 255
176 208 255
176 208 255
176 208 255
176 208 255
176 208 255
176 208 255
176 208 255
177 208 255
177 208 255
177 208 255
177 208 255
177 208 255
177 208 255
177 208 255
177 208 255
177 208 255
177 208 255
177 208 255
177 209 255
177 209 255
177 209 255
177 209 255
177 209 255
177 209 255
178 209 255
178 209 255
178 209 255
178 209 255
178 209 255
178 209 255
178 209 255
178 209 255
178 209 255
178 209 255
178 209 255
178 209 255
178 209 255
178 209 255
178 209 255
178 209 255
178 209 255
178 209 255
178 209 255
179 209 255
179 209 255
179 209 255
179 209 255
179 209 255
179 209 255
179 209 255
179 210 255
179 210 255
179 210 255
179 210 255
179 210 255
179 210 255
179 210 255
179 210 255
179 210 255
179 210 255
179 210 255
179 210 255
179 210 255
179 210 255
179 210 255
179 210 255
179 210 255
179 210 255
179 210 255
179 210 255
179 210 255
179 210 255
179 209 255
179 209 255
179 209 255
179 209 255
179 209 255
179 209 255
178 209 255
178 209 255
178 209 255
178 209 255
178 209 255
178 209 255
178 209 255
178 209 255
178 209 255
178 209 255
178 209 255
178 209 255
178 209 255
178 209 255
178 209 255
178 209 255
178 209 255
178 209 255
178 209 255
177 209 255
177 209 255
177 209 255
177 209 255
177 209 255
177 209 255
177 208 255
177 208 255
177 208 255
177 208 255
177 208 255
177 208 255
177 208 255
177 208 255
177 208 255
177 208 255
177 208 255
176 208 255
176 208 255
176 208 255
176 208 255
176 208 255
176 208 255
176 208 255
176 208 255
176 208 255
176 208 255
176 208 255
176 208 255
176 208 255
176 208 255
176 208 255
176 208 255
175 207 255
175 207 255
175 207 255
175 207 255
175 207 255
175 207 255
175 207 255
175 207 255
175 207 255
175 207 255
175 207 255
175 207 255
175 207 255
175 207 255
175 207 255
174 207 255
174 207 255
174 207 255
174 207 255
174 207 255
174 207 255
174 207 255
174 207 255
174 207 255
174 206 255
174 206 255
174 206 255
174 206 255
174 206 255
173 206 255
173 206 255
173 206 255
173 206 255
173 206 255
173 206 255
173 206 255
173 206 255
173 206 255
173 206 255
173 206 255
173 206 255
173 206 255
172 206 255
172 206 255
172 206 255
172 206 255
172 206 255
172 205 255
172 205 255
172 205 255
172 205 255
172 205 255
172 205 255
172 205 255
172 205 255
172 205 255
171 205 255
171 205 255
171 205 255
171 205 255
171 205 255
171 205 255
171 205 255
171 205 255
171 205 255
171 205 255
171 205 255
171 205 255
171 205 255
171 205 255
170 204 255
170 204 255
170 204 255
170 204 255
170 204 255
170 204 255
170 204 255
170 204 255
170 204 255
166 200 250
54 65 82
18 23 30
19 24 31
13 17 23
13 17 22
15 19 24
14 18 25
10 13 16
11 13 18
11 14 19
13 17 22
8 11 14
12 15 20
15 19 25
15 19 25
13 17 23
14 17 23
15 18 23
14 18 24
10 13 18
9 11 15
15 18 23
16 20 25
17 22 28
13 16 21
15 19 25
17 22 28
11 15 20
19 23 28
19 24 31
15 19 26
19 24 31
13 17 21
11 15 20
10 12 16
13 17 22
14 18 23
18 22 28
22 27 34
16 20 26
14 17 21
22 28 36
16 19 25
14 19 25
20 25 33
16 20 25
15 19 25
12 14 19
16 20 26
13 16 21
24 29 38
20 25 33
13 16 21
14 17 22
19 24 32
10 13 17
19 23 30
15 19 26
17 22 30
18 23 29
11 14 18
16 20 25
15 18 24
15 19 25
15 19 24
18 23 30
19 25 32
20 25 34
19 23 30
16 20 26
12 14 18
11 14 18
14 18 23
15 19 24
11 13 17
12 16 21
14 18 23
13 16 22
13 17 23
13 17 22
15 19 25
17 21 27
13 16 20
9 12 16
11 14 18
7 8 11
13 16 21
16 20 26
15 18 24
17 21 28
20 25 31
19 23 30
12 15 20
13 17 22
16 20 25
61 74 93
162 195 244
170 204 255
170 204 255
170 204 255
170 204 255
170 204 255
170 204 255
170 204 255
170 204 255
170 204 255
171 205 255
171 205 255
171 205 255
171 205 255
171 205 255
171 205 255
171 205 255
171 205 255
171 205 255
171 205 255
171 205 255
171 205 255
171 205 255
171 205 255
172 205 255
172 205 255
172 205 255
172 205 255
172 205 255
172 205 255
172 205 255
172 205 255
172 205 255
172 206 255
172 206 255
172 206 255
172 206 255
172 206 255
173 206 255
173 206 255
173 206 255
173 206 255
173 206 255
173 206 255
173 206 255
173 206 255
173 206 255
173 206 255
173 206 255
173 206 255
173 206 255
174 206 255
174 206 255
174 206 255
174 206 255
174 206 255
174 207 255
174 207 255
174 207 255
174 207 255
174 207 255
174 207 255
174 207 255
174 207 255
174 207 255
175 207 255
175 207 255
175 207 255
175 207 255
175 207 255
175 207 255
175 207 255
175 207 255
175 207 255
175 207 255
175 207 255
175 207 255
175 207 255
175 207 255
175 207 255
176 208 255
176 208 255
176 208 255
176 208 255
176 208 255
176 208 255
176 208 255
176 208 255
176 208 255
176 208 255
176 208 255
176 208 255
176 208 255
176 208 255
176 208 255
176 208 255
177 208 255
177 208 255
177 208 255
177 208 255
177 208 255
177 208 255
177 208 255
177 208 255
177 208 255
177 208 255
177 208 255
177 209 255
177 209 255
177 209 255
177 209 255
177 209 255
177 209 255
178 209 255
178 209 255
178 209 255
178 209 255
178 209 255
178 209 255
178 209 255
178 209 255
178 209 255
178 209 255
178 209 255
178 209 255
178 209 255
178 209 255
178 209 255
178 209 255
178 209 255
178 209 255
178 209 255
179 209 255
179 209 255
179 209 255
179 209 255
179 209 255
179 209 255
179 210 255
179 210 255
179 210 255
179 210 255
179 210 255
179 210 255
179 210 255
179 210 255
179 210 255
179 210 255
179 210 255
179 210 255
179 210 255
179 210 255
180 210 255
180 210 255
180 210 255
180 210 255
180 210 255
179 210 255
179 210 255
179 210 255
179 210 255
179 210 255
179 210 255
179 210 255
179 210 255
179 210 255
179 210 255
179 210 255
179 210 255
179 210 255
179 210 255
179 209 255
179 209 255
179 209 255
179 209 255
179 209 255
179 209 255
179 209 255
178 209 255
178 209 255
178 209 255
178 209 255
178 209 255
178 209 255
178 209 255
178 209 255
178 209 255
178 209 255
178 209 255
178 209 255
178 209 255
178 209 255
178 209 255
178 209 255
178 209 255
178 209 255
177 209 255
177 209 255
177 209 255
177 209 255
177 209 255
177 209 255
177 208 255
177 208 255
177 208 255
177 208 255
177 208 255
177 208 255
177 208 255
177 208 255
177 208 255
177 208 255
177 208 255
177 208 255
176 208 255
176 208 255
176 208 255
176 208 255
176 208 255
176 208 255
176 208 255
176 208 255
176 208 255
176 208 255
176 208 255
176 208 255
176 208 255
176 208 255
176 208 255
175 207 255
175 207 255
175 207 255
175 207 255
175 207 255
175 207 255
175 207 255
175 207 255
175 207 255
175 207 255
175 207 255
175 207 255
175 207 255
175 207 255
175 207 255
174 207 255
174 207 255
174 207 255
174 207 255
174 207 255
174 207 255
174 207 255
174 207 255
174 207 255
174 206 255
174 206 255
174 206 255
174 206 255
174 206 255
173 206 255
173 206 255
173 206 255
173 206 255
173 206 255
173 206 255
173 206 255
173 206 255
173 206 255
173 206 255
173 206 255
173 206 255
173 206 255
173 206 255
172 206 255
172 206 255
172 206 255
172 206 255
172 205 255
172 205 255
172 205 255
172 205 255
172 205 255
172 205 255
172 205 255
172 205 255
172 205 255
171 205 255
171 205 255
171 205 255
171 205 255
171 205 255
171 205 255
171 205 255
171 205 255
171 205 255
171 205 255
171 205 255
171 205 255
171 205 255
171 205 255
171 205 255
171 205 255
170 204 255
169 202 253
53 64 80
12 15 20
20 25 32
11 14 19
16 20 27
10 13 17
13 17 22
9 11 15
16 20 25
16 20 26
6 7 9
14 17 22
11 14 18
9 12 16
8 10 13
15 19 24
10 13 16
16 19 25
12 15 19
17 21 28
18 22 28
15 19 25
19 24 31
12 15 20
17 21 28
12 16 21
11 14 18
8 9 12
12 16 21
9 12 15
16 21 27
15 20 26
12 15 20
15 18 24
15 18 24
13 16 21
23 28 36
18 23 29
17 21 27
14 17 22
12 14 18
15 19 25
17 22 28
16 21 27
7 9 12
18 22 28
16 20 26
16 20 26
14 17 22
16 20 26
15 19 24
14 18 23
19 23 29
12 15 20
15 18 23
18 23 30
17 21 27
13 17 21
17 22 28
12 15 19
18 22 29
13 16 21
15 19 26
17 21 27
14 17 22
17 21 28
14 18 24
15 19 24
13 16 21
13 16 20
17 21 28
16 20 27
16 20 26
15 18 24
17 22 29
13 17 22
13 16 22
14 17 21
12 16 21
15 19 25
17 22 29
11 14 17
11 14 18
12 15 20
16 19 25
10 13 17
9 12 16
14 17 23
12 15 20
9 11 14
15 19 25
8 10 12
10 13 16
13 16 21
14 18 23
18 22 29
14 17 22
64 78 98
169 202 253
170 204 255
170 204 255
171 205 255
171 205 255
171 205 255
171 205 255
171 205 255
171 205 255
171 205 255
171 205 255
171 205 255
171 205 255
171 205 255
171 205 255
171 205 255
171 205 255
171 205 255
172 205 255
172 205 255
172 205 255
172 205 255
172 205 255
172 205 255
172 205 255
172 205 255
172 205 255
172 206 255
172 206 255
172 206 255
172 206 255
172 206 255
173 206 255
173 206 255
173 206 255
173 206 255
173 206 255
173 206 255
173 206 255
173 206 255
173 206 255
173 206 255
173 206 255
173 206 255
173 206 255
174 206 255
174 206 255
174 206 255
174 206 255
174 206 255
174 207 255
174 207 255
174 207 255
174 207 255
174 207 255
174 207 255
174 207 255
174 207 255
174 207 255
175 207 255
175 207 255
175 207 255
175 207 255
175 207 255
175 207 255
175 207 255
175 207 255
175 207 255
175 207 255
175 207 255
175 207 255
175 207 255
175 207 255
175 207 255
176 208 255
176 208 255
176 208 255
176 208 255
176 208 255
176 208 255
176 208 255
176 208 255
176 208 255
176 208 255
176 208 255
176 208 255
176 208 255
176 208 255
176 208 255
177 208 255
177 208 255
177 208 255
177 208 255
177 208 255
177 208 255
177 208 255
177 208 255
177 208 255
177 208 255
177 208 255
177 209 255
177 209 255
177 209 255
177 209 255
177 209 255
177 209 255
177 209 255
178 209 255
178 209 255
178 209 255
178 209 255
178 209 255
178 209 255
178 209 255
178 209 255
178 209 255
178 209 255
178 209 255
178 209 255
178 209 255
178 209 255
178 209 255
178 209 255
178 209 255
178 209 255
179 209 255
179 209 255
179 209 255
179 209 255
179 209 255
179 209 255
179 209 255
179 210 255
179 210 255
179 210 255
179 210 255
179 210 255
179 210 255
179 210 255
179 210 255
179 210 255
179 210 255
179 210 255
179 210 255
179 210 255
179 210 255
180 210 255
180 210 255
180 210 255
180 210 255
180 210 255
180 210 255
180 210 255
180 210 255
180 210 255
180 210 255
180 210 255
180 210 255
180 210 255
180 210 255
180 210 255
180 210 255
179 210 255
179 210 255
179 210 255
179 210 255
179 210 255
179 210 255
179 210 255
179 210 255
179 210 255
179 210 255
179 210 255
179 210 255
179 210 255
179 210 255
179 209 255
179 209 255
179 209 255
179 209 255
179 209 255
179 209 255
179 209 255
178 209 255
178 209 255
178 209 255
178 209 255
178 209 255
178 209 255
178 209 255
178 209 255
178 209 255
178 209 255
178 209 255
178 209 255
178 209 255
178 209 255
178 209 255
178 209 255
178 209 255
178 209 255
177 209 255
177 209 255
177 209 255
177 209 255
177 209 255
177 209 255
177 208 255
177 208 255
177 208 255
177 208 255
177 208 255
177 208 255
177 208 255
177 208 255
177 208 255
177 208 255
177 208 255
176 208 255
176 208 255
176 208 255
176 208 255
176 208 255
176 208 255
176 208 255
176 208 255
176 208 255
176 208 255
176 208 255
176 208 255
176 208 255
176 208 255
176 208 255
176 208 255
175 207 255
175 207 255
175 207 255
175 207 255
175 207 255
175 207 255
175 207 255
175 207 255
175 207 255
175 207 255
175 207 255
175 207 255
175 207 255
175 207 255
174 207 255
174 207 255
174 207 255
174 207 255
174 207 255
174 207 255
174 207 255
174 207 255
174 207 255
174 207 255
174 206 255
174 206 255
174 206 255
174 206 255
173 206 255
173 206 255
173 206 255
173 206 255
173 206 255
173 206 255
173 206 255
173 206 255
173 206 255
173 206 255
173 206 255
173 206 255
173 206 255
173 206 255
172 206 255
172 206 255
172 206 255
172 206 255
172 206 255
172 205 255
172 205 255
172 205 255
172 205 255
172 205 255
172 205 255
172 205 255
172 205 255
172 205 255
172 205 255
171 205 255
171 205 255
171 205 255
171 205 255
171 205 255
171 205 255
171 205 255
171 205 255
171 205 255
171 205 255
79 96 120
15 18 23
19 24 32
16 20 26
14 18 23
14 18 23
8 10 13
12 15 20
10 12 16
15 18 24
15 19 25
12 15 20
13 16 21
18 22 29
11 14 18
11 14 18
16 20 26
16 20 26
13 16 21
20 25 32
15 18 23
18 23 30
16 20 26
16 20 25
17 21 27
16 20 27
15 19 24
17 22 29
15 18 22
21 26 33
15 19 25
14 17 23
17 21 28
10 13 17
15 19 24
18 22 29
10 12 16
17 21 27
19 24 32
20 24 30
15 19 24
18 23 29
17 22 28
15 18 24
17 22 30
13 16 20
19 23 30
13 16 21
9 12 15
15 19 24
16 20 26
18 23 30
13 16 21
21 26 34
11 14 18
11 14 18
10 13 16
15 19 25
17 21 28
14 18 23
17 21 27
15 19 24
15 19 25
16 20 25
14 17 23
14 18 23
15 20 26
12 15 20
16 20 26
15 18 24
12 16 20
19 24 31
17 20 26
18 22 29
17 21 27
13 16 21
15 19 24
15 19 24
17 21 28
16 19 24
14 18 24
9 11 15
13 16 20
9 11 15
16 19 25
11 13 17
13 17 21
10 13 17
11 14 18
15 19 25
11 14 17
17 21 27
15 18 24
14 18 23
16 21 28
16 20 27
16 20 26
14 18 23
15 19 24
90 109 138
171 205 255
171 205 255
171 205 255
171 205 255
171 205 255
171 205 255
171 205 255
171 205 255
171 205 255
171 205 255
172 205 255
172 205 255
172 205 255
172 205 255
172 205 255
172 205 255
172 205 255
172 205 255
172 205 255
172 205 255
172 206 255
172 206 255
172 206 255
172 206 255
172 206 255
173 206 255
173 206 255
173 206 255
173 206 255
173 206 255
173 206 255
173 206 255
173 206 255
173 206 255
173 206 255
173 206 255
173 206 255
173 206 255
173 206 255
174 206 255
174 206 255
174 206 255
174 206 255
174 207 255
174 207 255
174 207 255
174 207 255
174 207 255
174 207 255
174 207 255
174 207 255
174 207 255
174 207 255
175 207 255
175 207 255
175 207 255
175 207 255
175 207 255
175 207 255
175 207 255
175 207 255
175 207 255
175 207 255
175 207 255
175 207 255
175 207 255
175 207 255
176 208 255
176 208 255
176 208 255
176 208 255
176 208 255
176 208 255
176 208 255
176 208 255
176 208 255
176 208 255
176 208 255
176 208 255
176 208 255
176 208 255
176 208 255
176 208 255
177 208 255
177 208 255
177 208 255
177 208 255
177 208 255
177 208 255
177 208 255
177 208 255
177 208 255
177 208 255
177 208 255
177 209 255
177 209 255
177 209 255
177 209 255
177 209 255
177 209 255
178 209 255
178 209 255
178 209 255
178 209 255
178 209 255
178 209 255
178 209 255
178 209 255
178 209 255
178 209 255
178 209 255
178 209 255
178 209 255
178 209 255
178 209 255
178 209 255
178 209 255
178 209 255
179 209 255
179 209 255
179 209 255
179 209 255
179 209 255
179 209 255
179 209 255
179 210 255
179 210 255
179 210 255
179 210 255
179 210 255
179 210 255
179 210 255
179 210 255
179 210 255
179 210 255
179 210 255
179 210 255
179 210 255
179 210 255
180 210 255
180 210 255
180 210 255
180 210 255
180 210 255
180 210 255
180 210 255
180 210 255
180 210 255
180 210 255
180 210 255
180 210 255
180 210 255
180 210 255
180 210 255
180 210 255
180 210 255
180 210 255
180 210 255
180 210 255
180 210 255
180 210 255
180 210 255
180 210 255
180 210 255
180 210 255
180 210 255
180 210 255
179 210 255
179 210 255
179 210 255
179 210 255
179 210 255
179 210 255
179 210 255
179 210 255
179 210 255
179 210 255
179 210 255
179 210 255
179 210 255
179 210 255
179 209 255
179 209 255
179 209 255
179 209 255
179 209 255
179 209 255
178 209 255
178 209 255
178 209 255
178 209 255
178 209 255
178 209 255
178 209 255
178 209 255
178 209 255
178 209 255
178 209 255
178 209 255
178 209 255
178 209 255
178 209 255
178 209 255
178 209 255
178 209 255
178 209 255
177 209 255
177 209 255
177 209 255
177 209 255
177 209 255
177 209 255
177 208 255
177 208 255
177 208 255
177 208 255
177 208 255
177 208 255
177 208 255
177 208 255
177 208 255
177 208 255
177 208 255
176 208 255
176 208 255
176 208 255
176 208 255
176 208 255
176 208 255
176 208 255
176 208 255
176 208 255
176 208 255
176 208 255
176 208 255
176 208 255
176 208 255
176 208 255
175 207 255
175 207 255
175 207 255
175 207 255
175 207 255
175 207 255
175 207 255
175 207 255
175 207 255
175 207 255
175 207 255
175 207 255
175 207 255
175 207 255
175 207 255
174 207 255
174 207 255
174 207 255
174 207 255
174 207 255
174 207 255
174 207 255
174 207 255
174 207 255
174 206 255
174 206 255
174 206 255
174 206 255
174 206 255
173 206 255
173 206 255
173 206 255
173 206 255
173 206 255
173 206 255
173 206 255
173 206 255
173 206 255
173 206 255
173 206 255
173 206 255
173 206 255
173 206 255
172 206 255
172 206 255
172 206 255
172 206 255
172 206 255
172 205 255
172 205 255
172 205 255
172 205 255
172 205 255
172 205 255
172 205 255
172 205 255
172 205 255
172 205 255
171 205 255
171 205 255
171 205 255
122 147 183
16 21 28
17 22 28
13 16 20
13 17 23
14 18 23
16 20 26
11 13 17
14 18 24
15 18 24
17 22 29
10 13 16
11 13 17
15 18 24
13 16 21
11 13 17
13 16 21
14 17 22
15 19 24
17 21 28
11 14 18
12 15 19
16 20 26
16 20 26
21 26 33
17 22 28
15 18 24
14 18 24
14 18 22
16 19 24
12 14 19
17 20 26
15 20 26
11 14 17
15 18 24
13 17 22
16 20 26
16 20 26
13 16 20
19 24 31
17 21 28
17 21 28
14 17 22
14 18 23
18 22 29
19 23 29
19 25 33
15 19 25
10 12 15
16 19 25
15 19 25
16 20 27
18 23 30
18 23 29
19 24 32
14 18 24
20 25 32
14 18 24
14 17 22
16 20 26
16 21 28
13 16 21
22 28 36
19 23 30
15 19 25
20 25 33
16 20 26
20 25 33
20 24 31
22 28 36
18 21 27
14 17 22
15 19 24
12 15 20
16 20 27
18 23 29
19 24 31
14 18 24
13 17 21
13 16 20
10 12 16
19 24 30
16 20 26
13 17 22
17 21 28
16 20 26
15 19 26
6 8 10
12 15 20
10 13 17
11 13 18
13 15 20
5 7 9
13 17 22
13 16 21
12 15 20
16 19 25
17 20 26
12 16 21
13 16 22
15 19 24
126 152 189
171 205 255
171 205 255
172 205 255
172 205 255
172 205 255
172 205 255
172 205 255
172 205 255
172 205 255
172 205 255
172 205 255
172 205 255
172 205 255
172 206 255
172 206 255
172 206 255
172 206 255
172 206 255
173 206 255
173 206 255
173 206 255
173 206 255
173 206 255
173 206 255
173 206 255
173 206 255
173 206 255
173 206 255
173 206 255
173 206 255
173 206 255
173 206 255
174 206 255
174 206 255
174 206 255
174 206 255
174 206 255
174 207 255
174 207 255
174 207 255
174 207 255
174 207 255
174 207 255
174 207 255
174 207 255
174 207 255
175 207 255
175 207 255
175 207 255
175 207 255
175 207 255
175 207 255
175 207 255
175 207 255
175 207 255
175 207 255
175 207 255
175 207 255
175 207 255
175 207 255
175 207 255
176 208 255
176 208 255
176 208 255
176 208 255
176 208 255
176 208 255
176 208 255
176 208 255
176 208 255
176 208 255
176 208 255
176 208 255
176 208 255
176 208 255
176 208 255
176 208 255
177 208 255
177 208 255
177 208 255
177 208 255
177 208 255
177 208 255
177 208 255
177 208 255
177 208 255
177 208 255
177 209 255
177 209 255
177 209 255
177 209 255
177 209 255
177 209 255
178 209 255
178 209 255
178 209 255
178 209 255
178 209 255
178 209 255
178 209 255
178 209 255
178 209 255
178 209 255
178 209 255
178 209 255
178 209 255
178 209 255
178 209 255
178 209 255
178 209 255
178 209 255
178 209 255
179 209 255
179 209 255
179 209 255
179 209 255
179 209 255
179 209 255
179 210 255
179 210 255
179 210 255
179 210 255
179 210 255
179 210 255
179 210 255
179 210 255
179 210 255
179 210 255
179 210 255
179 210 255
179 210 255
179 210 255
180 210 255
180 210 255
180 210 255
180 210 255
180 210 255
180 210 255
180 210 255
180 210 255
180 210 255
180 210 255
180 210 255
180 210 255
180 210 255
180 210 255
180 210 255
180 210 255
180 210 255
180 210 255
180 210 255
180 210 255
180 210 255
180 210 255
180 210 255
180 210 255
180 210 255
180 210 255
180 210 255
180 210 255
180 210 255
180 210 255
180 210 255
180 210 255
180 210 255
180 210 255
180 210 255
180 210 255
180 210 255
180 210 255
180 210 255
180 210 255
179 210 255
179 210 255
179 210 255
179 210 255
179 210 255
179 210 255
179 210 255
179 210 255
179 210 255
179 210 255
179 210 255
179 210 255
179 210 255
179 210 255
179 209 255
179 209 255
179 209 255
179 209 255
179 209 255
179 209 255
178 209 255
178 209 255
178 209 255
178 209 255
178 209 255
178 209 255
178 209 255
178 209 255
178 209 255
178 209 255
178 209 255
178 209 255
178 209 255
178 209 255
178 209 255
178 209 255
178 209 255
178 209 255
178 209 255
177 209 255
177 209 255
177 209 255
177 209 255
177 209 255
177 208 255
177 208 255
177 208 255
177 208 255
177 208 255
177 208 255
177 208 255
177 208 255
177 208 255
177 208 255
177 208 255
176 208 255
176 208 255
176 208 255
176 208 255
176 208 255
176 208 255
176 208 255
176 208 255
176 208 255
176 208 255
176 208 255
176 208 255
176 208 255
176 208 255
176 208 255
175 207 255
175 207 255
175 207 255
175 207 255
175 207 255
175 207 255
175 207 255
175 207 255
175 207 255
175 207 255
175 207 255
175 207 255
175 207 255
175 207 255
175 207 255
174 207 255
174 207 255
174 207 255
174 207 255
174 207 255
174 207 255
174 207 255
174 207 255
174 207 255
174 207 255
174 206 255
174 206 255
174 206 255
174 206 255
174 206 255
173 206 255
173 206 255
173 206 255
173 206 255
173 206 255
173 206 255
173 206 255
173 206 255
173 206 255
173 206 255
173 206 255
173 206 255
173 206 255
173 206 255
172 206 255
172 206 255
172 206 255
172 206 255
172 206 255
172 206 255
172 205 255
172 205 255
172 205 255
172 205 255
172 205 255
131 157 196
26 32 42
19 24 31
10 13 17
13 16 20
12 15 19
14 17 22
12 15 20
15 20 26
9 12 16
16 20 25
11 14 18
15 19 24
10 12 16
15 19 25
13 16 21
10 12 16
11 14 18
10 12 15
18 23 30
12 15 19
13 17 22
16 19 25
13 17 22
12 16 20
13 16 21
15 19 26
16 20 26
17 22 28
20 25 32
12 16 21
18 22 28
18 22 27
19 24 31
17 21 28
21 26 33
14 18 23
11 14 18
18 23 30
18 23 30
18 23 30
15 18 23
18 22 29
16 21 28
18 22 28
15 18 23
16 20 26
25 31 40
14 18 23
16 20 26
17 21 26
13 16 21
19 24 31
19 23 29
15 18 24
21 25 33
15 18 24
16 20 26
13 16 22
14 18 23
19 24 31
9 12 17
14 17 22
11 13 18
17 20 26
14 18 23
12 15 19
15 18 24
14 18 23
27 33 43
16 21 27
12 14 19
14 17 23
12 15 19
20 25 33
13 17 23
15 18 24
16 20 26
17 21 28
19 23 29
15 19 24
14 18 23
15 19 25
13 16 21
7 8 11
13 16 21
16 20 26
9 11 14
21 25 32
9 11 15
7 9 11
13 16 20
13 16 20
13 16 21
16 20 26
13 17 23
14 18 24
13 16 21
14 18 23
19 23 29
14 17 23
11 14 19
15 19 25
136 162 202
172 205 255
172 205 255
172 205 255
172 205 255
172 205 255
172 206 255
172 206 255
172 206 255
172 206 255
172 206 255
173 206 255
173 206 255
173 206 255
173 206 255
173 206 255
173 206 255
173 206 255
173 206 255
173 206 255
173 206 255
173 206 255
173 206 255
173 206 255
173 206 255
173 206 255
174 206 255
174 206 255
174 206 255
174 206 255
174 206 255
174 207 255
174 207 255
174 207 255
174 207 255
174 207 255
174 207 255
174 207 255
174 207 255
174 207 255
174 207 255
175 207 255
175 207 255
175 207 255
175 207 255
175 207 255
175 207 255
175 207 255
175 207 255
175 207 255
175 207 255
175 207 255
175 207 255
175 207 255
175 207 255
175 207 255
176 208 255
176 208 255
176 208 255
176 208 255
176 208 255
176 208 255
176 208 255
176 208 255
176 208 255
176 208 255
176 208 255
176 208 255
176 208 255
176 208 255
176 208 255
177 208 255
177 208 255
177 208 255
177 208 255
177 208 255
177 208 255
177 208 255
177 208 255
177 208 255
177 208 255
177 208 255
177 209 255
177 209 255
177 209 255
177 209 255
177 209 255
178 209 255
178 209 255
178 209 255
178 209 255
178 209 255
178 209 255
178 209 255
178 209 255
178 209 255
178 209 255
178 209 255
178 209 255
178 209 255
178 209 255
178 209 255
178 209 255
178 209 255
178 209 255
179 209 255
179 209 255
179 209 255
179 209 255
179 209 255
179 209 255
179 209 255
179 210 255
179 210 255
179 210 255
179 210 255
179 210 255
179 210 255
179 210 255
179 210 255
179 210 255
179 210 255
179 210 255
179 210 255
179 210 255
179 210 255
180 210 255
180 210 255
180 210 255
180 210 255
180 210 255
180 210 255
180 210 255
180 210 255
180 210 255
180 210 255
180 210 255
180 210 255
180 210 255
180 210 255
180 210 255
180 210 255
180 210 255
180 210 255
180 210 255
180 210 255
180 210 255
180 210 255
180 210 255
181 211 255
181 211 255
181 211 255
181 211 255
181 211 255
181 211 255
181 211 255
180 210 255
180 210 255
180 210 255
180 210 255
180 210 255
180 210 255
180 210 255
180 210 255
180 210 255
180 210 255
180 210 255
180 210 255
180 210 255
180 210 255
180 210 255
180 210 255
180 210 255
180 210 255
180 210 255
180 210 255
180 210 255
180 210 255
179 210 255
179 210 255
179 210 255
179 210 255
179 210 255
179 210 255
179 210 255
179 210 255
179 210 255
179 210 255
179 210 255
179 210 255
179 210 255
179 210 255
179 209 255
179 209 255
179 209 255
179 209 255
179 209 255
179 209 255
178 209 255
178 209 255
178 209 255
178 209 255
178 209 255
178 209 255
178 209 255
178 209 255
178 209 255
178 209 255
178 209 255
178 209 255
178 209 255
178 209 255
178 209 255
178 209 255
178 209 255
178 209 255
177 209 255
177 209 255
177 209 255
177 209 255
177 209 255
177 209 255
177 208 255
177 208 255
177 208 255
177 208 255
177 208 255
177 208 255
177 208 255
177 208 255
177 208 255
177 208 255
177 208 255
176 208 255
176 208 255
176 208 255
176 208 255
176 208 255
176 208 255
176 208 255
176 208 255
176 208 255
176 208 255
176 208 255
176 208 255
176 208 255
176 208 255
176 208 255
175 207 255
175 207 255
175 207 255
175 207 255
175 207 255
175 207 255
175 207 255
175 207 255
175 207 255
175 207 255
175 207 255
175 207 255
175 207 255
175 207 255
175 207 255
174 207 255
174 207 255
174 207 255
174 207 255
174 207 255
174 207 255
174 207 255
174 207 255
174 207 255
174 207 255
174 206 255
174 206 255
174 206 255
174 206 255
174 206 255
173 206 255
173 206 255
173 206 255
173 206 255
173 206 255
173 206 255
173 206 255
173 206 255
173 206 255
173 206 255
173 206 255
173 206 255
173 206 255
173 206 255
173 206 255
173 206 255
172 206 255
172 206 255
159 189 235
42 50 63
19 23 30
12 15 20
18 23 31
10 13 17
16 20 25
14 17 23
8 10 14
13 16 21
10 12 16
15 19 24
14 18 24
18 22 28
11 14 18
12 16 21
11 13 17
16 20 25
11 14 19
12 15 20
14 17 23
17 21 28
16 20 25
13 16 21
18 23 29
16 19 25
18 22 28
15 19 24
12 16 20
12 15 20
22 28 37
14 18 24
21 27 35
15 19 25
19 24 31
15 18 24
15 18 23
15 19 25
14 18 23
20 25 32
18 22 28
15 19 26
17 22 29
20 26 34
20 25 32
20 25 32
23 28 36
18 22 28
17 21 26
20 25 32
19 23 29
15 19 25
19 24 30
15 18 24
19 24 31
16 20 26
18 22 28
17 21 27
17 22 28
17 21 28
16 20 25
19 24 31
15 19 24
21 27 35
17 21 27
14 18 23
15 18 23
16 19 25
12 15 19
15 19 25
17 21 27
23 29 37
22 28 36
22 28 36
10 13 18
12 16 21
16 20 25
17 21 28
15 19 24
23 28 35
14 17 22
16 19 24
16 20 27
14 18 23
13 16 21
13 16 21
14 18 24
17 21 27
8 10 13
17 21 26
14 18 24
11 13 17
14 18 23
8 10 13
12 15 19
16 20 26
9 12 15
11 15 19
14 18 23
9 12 17
17 21 27
10 13 16
16 21 27
8 10 13
39 47 60
159 190 236
172 206 255
172 206 255
173 206 255
173 206 255
173 206 255
173 206 255
173 206 255
173 206 255
173 206 255
173 206 255
173 206 255
173 206 255
173 206 255
173 206 255
173 206 255
173 206 255
173 206 255
173 206 255
174 206 255
174 206 255
174 206 255
174 206 255
174 206 255
174 207 255
174 207 255
174 207 255
174 207 255
174 207 255
174 207 255
174 207 255
174 207 255
174 207 255
174 207 255
175 207 255
175 207 255
175 207 255
175 207 255
175 207 255
175 207 255
175 207 255
175 207 255
175 207 255
175 207 255
175 207 255
175 207 255
175 207 255
175 207 255
175 207 255
176 208 255
176 208 255
176 208 255
176 208 255
176 208 255
176 208 255
176 208 255
176 208 255
176 208 255
176 208 255
176 208 255
176 208 255
176 208 255
176 208 255
176 208 255
177 208 255
177 208 255
177 208 255
177 208 255
177 208 255
177 208 255
177 208 255
177 208 255
177 208 255
177 208 255
177 208 255
177 209 255
177 209 255
177 209 255
177 209 255
177 209 255
178 209 255
178 209 255
178 209 255
178 209 255
178 209 255
178 209 255
178 209 255
178 209 255
178 209 255
178 209 255
178 209 255
178 209 255
178 209 255
178 209 255
178 209 255
178 209 255
178 209 255
178 209 255
178 209 255
179 209 255
179 209 255
179 209 255
179 209 255
179 209 255
179 209 255
179 210 255
179 210 255
179 210 255
179 210 255
179 210 255
179 210 255
179 210 255
179 210 255
179 210 255
179 210 255
179 210 255
179 210 255
179 210 255
179 210 255
180 210 255
180 210 255
180 210 255
180 210 255
180 210 255
180 210 255
180 210 255
180 210 255
180 210 255
180 210 255
180 210 255
180 210 255
180 210 255
180 210 255
180 210 255
180 210 255
180 210 255
180 210 255
180 210 255
180 210 255
180 210 255
180 210 255
180 210 255
181 211 255
181 211 255
181 211 255
181 211 255
181 211 255
181 211 255
181 211 255
181 211 255
181 211 255
181 211 255
181 211 255
181 211 255
181 211 255
181 211 255
181 211 255
181 211 255
181 211 255
181 211 255
181 211 255
180 210 255
180 210 255
180 210 255
180 210 255
180 210 255
180 210 255
180 210 255
180 210 255
180 210 255
180 210 255
180 210 255
180 210 255
180 210 255
180 210 255
180 210 255
180 210 255
180 210 255
180 210 255
180 210 255
180 210 255
180 210 255
180 210 255
180 210 255
179 210 255
179 210 255
179 210 255
179 210 255
179 210 255
179 210 255
179 210 255
179 210 255
179 210 255
179 210 255
179 210 255
179 210 255
179 210 255
179 209 255
179 209 255
179 209 255
179 209 255
179 209 255
179 209 255
179 209 255
178 209 255
178 209 255
178 209 255
178 209 255
178 209 255
178 209 255
178 209 255
178 209 255
178 209 255
178 209 255
178 209 255
178 209 255
178 209 255
178 209 255
178 209 255
178 209 255
178 209 255
177 209 255
177 209 255
177 209 255
177 209 255
177 209 255
177 209 255
177 208 255
177 208 255
177 208 255
177 208 255
177 208 255
177 208 255
177 208 255
177 208 255
177 208 255
177 208 255
176 208 255
176 208 255
176 208 255
176 208 255
176 208 255
176 208 255
176 208 255
176 208 255
176 208 255
176 208 255
176 208 255
176 208 255
176 208 255
176 208 255
176 208 255
176 208 255
175 207 255
175 207 255
175 207 255
175 207 255
175 207 255
175 207 255
175 207 255
175 207 255
175 207 255
175 207 255
175 207 255
175 207 255
175 207 255
175 207 255
175 207 255
174 207 255
174 207 255
174 207 255
174 207 255
174 207 255
174 207 255
174 207 255
174 207 255
174 207 255
174 207 255
174 207 255
174 206 255
174 206 255
174 206 255
174 206 255
173 206 255
173 206 255
173 206 255
173 206 255
173 206 255
173 206 255
173 206 255
173 206 255
173 206 255
173 206 255
173 206 255
173 206 255
67 80 100
15 20 26
13 16 22
19 24 32
11 14 19
9 12 16
10 12 16
16 20 25
10 13 17
13 16 21
10 12 16
12 15 20
13 16 21
10 13 17
10 12 16
12 15 19
10 13 17
14 18 24
15 19 25
8 10 13
12 15 19
23 28 36
17 21 26
14 18 24
19 24 31
14 17 21
18 22 27
17 21 27
16 20 27
15 18 23
16 20 25
14 18 23
17 20 26
22 27 35
15 19 26
14 17 22
15 18 24
15 19 24
14 18 24
24 29 38
17 22 28
18 22 27
16 20 25
14 17 23
19 23 30
13 17 21
20 25 33
12 15 20
23 29 37
16 20 26
17 21 28
19 23 30
18 22 29
15 19 24
11 14 18
12 15 19
16 19 25
16 20 26
18 22 29
26 31 40
17 21 27
21 26 34
20 25 32
17 21 28
19 23 31
10 12 16
12 15 19
13 17 23
19 24 31
19 24 30
16 19 25
15 18 23
13 16 21
19 24 32
18 22 29
18 21 27
21 26 34
13 17 22
12 15 18
20 25 32
13 16 21
16 20 27
13 16 21
20 25 32
19 23 28
13 16 21
14 17 23
19 24 32
11 14 17
14 17 22
13 16 21
12 15 19
16 20 26
10 13 17
12 15 20
7 9 12
16 20 26
14 18 24
14 17 22
13 16 21
7 9 12
9 12 15
20 25 32
11 14 18
19 23 30
47 57 72
173 206 255
173 206 255
173 206 255
173 206 255
173 206 255
173 206 255
173 206 255
173 206 255
173 206 255
173 206 255
173 206 255
174 206 255
174 206 255
174 206 255
174 206 255
174 206 255
174 206 255
174 207 255
174 207 255
174 207 255
174 207 255
174 207 255
174 207 255
174 207 255
174 207 255
174 207 255
174 207 255
175 207 255
175 207 255
175 207 255
175 207 255
175 207 255
175 207 255
175 207 255
175 207 255
175 207 255
175 207 255
175 207 255
175 207 255
175 207 255
175 207 255
175 207 255
176 208 255
176 208 255
176 208 255
176 208 255
176 208 255
176 208 255
176 208 255
176 208 255
176 208 255
176 208 255
176 208 255
176 208 255
176 208 255
176 208 255
176 208 255
176 208 255
177 208 255
177 208 255
177 208 255
177 208 255
177 208 255
177 208 255
177 208 255
177 208 255
177 208 255
177 208 255
177 208 255
177 209 255
177 209 255
177 209 255
177 209 255
177 209 255
178 209 255
178 209 255
178 209 255
178 209 255
178 209 255
178 209 255
178 209 255
178 209 255
178 209 255
178 209 255
178 209 255
178 209 255
178 209 255
178 209 255
178 209 255
178 209 255
178 209 255
178 209 255
179 209 255
179 209 255
179 209 255
179 209 255
179 209 255
179 209 255
179 210 255
179 210 255
179 210 255
179 210 255
179 210 255
179 210 255
179 210 255
179 210 255
179 210 255
179 210 255
179 210 255
179 210 255
179 210 255
180 210 255
180 210 255
180 210 255
180 210 255
180 210 255
180 210 255
180 210 255
180 210 255
180 210 255
180 210 255
180 210 255
180 210 255
180 210 255
180 210 255
180 210 255
180 210 255
180 210 255
180 210 255
180 210 255
180 210 255
180 210 255
180 210 255
180 210 255
181 211 255
181 211 255
181 211 255
181 211 255
181 211 255
181 211 255
181 211 255
181 211 255
181 211 255
181 211 255
181 211 255
181 211 255
181 211 255
181 211 255
181 211 255
181 211 255
181 211 255
181 211 255
181 211 255
181 211 255
181 211 255
181 211 255
181 211 255
181 211 255
181 211 255
181 211 255
181 211 255
181 211 255
181 211 255
181 211 255
181 211 255
181 211 255
181 211 255
180 210 255
180 210 255
180 210 255
180 210 255
180 210 255
180 210 255
180 210 255
180 210 255
180 210 255
180 210 255
180 210 255
180 210 255
180 210 255
180 210 255
180 210 255
180 210 255
180 210 255
180 210 255
180 210 255
180 210 255
180 210 255
180 210 255
179 210 255
179 210 255
179 210 255
179 210 255
179 210 255
179 210 255
179 210 255
179 210 255
179 210 255
179 210 255
179 210 255
179 210 255
179 210 255
179 209 255
179 209 255
179 209 255
179 209 255
179 209 255
179 209 255
179 209 255
178 209 255
178 209 255
178 209 255
178 209 255
178 209 255
178 209 255
178 209 255
178 209 255
178 209 255
178 209 255
178 209 255
178 209 255
178 209 255
178 209 255
178 209 255
178 209 255
178 209 255
177 209 255
177 209 255
177 209 255
177 209 255
177 209 255
177 209 255
177 208 255
177 208 255
177 208 255
177 208 255
177 208 255
177 208 255
177 208 255
177 208 255
177 208 255
177 208 255
177 208 255
176 208 255
176 208 255
176 208 255
176 208 255
176 208 255
176 208 255
176 208 255
176 208 255
176 208 255
176 208 255
176 208 255
176 208 255
176 208 255
176 208 255
176 208 255
175 207 255
175 207 255
175 207 255
175 207 255
175 207 255
175 207 255
175 207 255
175 207 255
175 207 255
175 207 255
175 207 255
175 207 255
175 207 255
175 207 255
175 207 255
175 207 255
174 207 255
174 207 255
174 207 255
174 207 255
174 207 255
174 207 255
174 207 255
174 207 255
174 207 255
174 207 255
174 206 255
174 206 255
174 206 255
174 206 255
174 206 255
174 206 255
173 206 255
173 206 255
173 206 255
109 130 161
12 15 19
11 14 19
15 19 26
10 12 16
16 19 25
18 22 28
12 15 20
13 17 23
17 21 28
14 17 22
14 18 23
10 13 17
10 12 15
15 19 25
15 19 24
16 20 26
14 16 21
9 12 15
15 19 24
17 21 27
11 13 17
16 20 26
13 17 22
17 20 26
11 14 18
18 22 29
12 15 20
13 17 23
14 18 24
18 21 27
10 14 18
17 21 28
12 15 20
13 17 22
20 26 34
11 13 17
17 22 29
13 16 21
17 22 29
16 20 26
14 17 22
18 23 30
21 26 35
16 20 27
13 17 22
23 29 37
17 21 27
16 19 25
13 16 22
23 29 37
12 16 20
19 23 30
18 22 29
14 18 24
18 22 29
18 22 27
20 25 32
14 17 22
22 27 35
18 23 29
20 25 32
19 23 30
18 22 29
17 21 27
24 30 39
17 22 29
14 18 24
13 17 22
13 16 21
16 20 26
13 17 22
17 20 25
16 20 26
13 17 21
12 15 20
17 21 28
11 14 18
11 14 18
19 24 31
19 23 30
20 25 32
14 18 23
13 16 20
14 17 22
15 19 24
21 26 34
11 14 18
11 14 18
16 20 26
15 19 24
18 22 28
12 15 19
13 16 20
15 18 23
8 10 13
16 20 25
11 14 18
15 18 24
14 17 22
11 14 18
12 16 21
17 21 28
15 19 25
18 22 29
12 16 21
20 24 31
119 142 176
173 206 255
173 206 255
173 206 255
174 206 255
174 206 255
174 206 255
174 206 255
174 206 255
174 206 255
174 207 255
174 207 255
174 207 255
174 207 255
174 207 255
174 207 255
174 207 255
174 207 255
174 207 255
174 207 255
174 207 255
175 207 255
175 207 255
175 207 255
175 207 255
175 207 255
175 207 255
175 207 255
175 207 255
175 207 255
175 207 255
175 207 255
175 207 255
175 207 255
175 207 255
175 207 255
176 208 255
176 208 255
176 208 255
176 208 255
176 208 255
176 208 255
176 208 255
176 208 255
176 208 255
176 208 255
176 208 255
176 208 255
176 208 255
176 208 255
176 208 255
176 208 255
177 208 255
177 208 255
177 208 255
177 208 255
177 208 255
177 208 255
177 208 255
177 208 255
177 208 255
177 208 255
177 209 255
177 209 255
177 209 255
177 209 255
177 209 255
177 209 255
178 209 255
178 209 255
178 209 255
178 209 255
178 209 255
178 209 255
178 209 255
178 209 255
178 209 255
178 209 255
178 209 255
178 209 255
178 209 255
178 209 255
178 209 255
178 209 255
178 209 255
178 209 255
179 209 255
179 209 255
179 209 255
179 209 255
179 209 255
179 209 255
179 210 255
179 210 255
179 210 255
179 210 255
179 210 255
179 210 255
179 210 255
179 210 255
179 210 255
179 210 255
179 210 255
179 210 255
179 210 255
180 210 255
180 210 255
180 210 255
180 210 255
180 210 255
180 210 255
180 210 255
180 210 255
180 210 255
180 210 255
180 210 255
180 210 255
180 210 255
180 210 255
180 210 255
180 210 255
180 210 255
180 210 255
180 210 255
180 210 255
180 210 255
180 210 255
181 211 255
181 211 255
181 211 255
181 211 255
181 211 255
181 211 255
181 211 255
181 211 255
181 211 255
181 211 255
181 211 255
181 211 255
181 211 255
181 211 255
181 211 255
181 211 255
181 211 255
181 211 255
181 211 255
181 211 255
182 211 255
182 211 255
181 211 255
181 211 255
181 211 255
181 211 255
181 211 255
181 211 255
181 211 255
181 211 255
181 211 255
181 211 255
181 211 255
181 211 255
181 211 255
181 211 255
181 211 255
181 211 255
181 211 255
181 211 255
181 211 255
181 211 255
181 211 255
181 211 255
181 211 255
181 211 255
181 211 255
180 210 255
180 210 255
180 210 255
180 210 255
180 210 255
180 210 255
180 210 255
180 210 255
180 210 255
180 210 255
180 210 255
180 210 255
180 210 255
180 210 255
180 210 255
180 210 255
180 210 255
180 210 255
180 210 255
180 210 255
180 210 255
180 210 255
179 210 255
179 210 255
179 210 255
179 210 255
179 210 255
179 210 255
179 210 255
179 210 255
179 210 255
179 210 255
179 210 255
179 210 255
179 210 255
179 209 255
179 209 255
179 209 255
179 209 255
179 209 255
179 209 255
178 209 255
178 209 255
178 209 255
178 209 255
178 209 255
178 209 255
178 209 255
178 209 255
178 209 255
178 209 255
178 209 255
178 209 255
178 209 255
178 209 255
178 209 255
178 209 255
178 209 255
177 209 255
177 209 255
177 209 255
177 209 255
177 209 255
177 209 255
177 208 255
177 208 255
177 208 255
177 208 255
177 208 255
177 208 255
177 208 255
177 208 255
177 208 255
177 208 255
177 208 255
176 208 255
176 208 255
176 208 255
176 208 255
176 208 255
176 208 255
176 208 255
176 208 255
176 208 255
176 208 255
176 208 255
176 208 255
176 208 255
176 208 255
176 208 255
176 208 255
175 207 255
175 207 255
175 207 255
175 207 255
175 207 255
175 207 255
175 207 255
175 207 255
175 207 255
175 207 255
175 207 255
175 207 255
175 207 255
175 207 255
175 207 255
175 207 255
174 207 255
174 207 255
174 207 255
174 207 255
174 207 255
174 207 255
174 207 255
174 207 255
174 207 255
174 207 255
174 207 255
149 177 220
21 26 33
13 16 21
12 15 20
13 16 20
13 16 21
13 15 19
10 12 16
10 13 17
15 19 25
10 13 17
13 16 21
9 12 16
14 17 22
11 14 19
19 24 30
12 15 20
16 20 27
8 11 14
11 14 18
11 14 18
20 25 32
14 16 21
14 18 25
20 25 32
14 17 22
11 14 17
9 11 14
15 19 25
9 12 16
18 22 29
21 25 32
22 27 34
15 18 23
16 19 25
16 20 26
20 25 33
16 20 26
12 15 18
16 19 25
15 19 25
15 18 24
25 31 40
19 23 29
20 25 33
12 15 19
16 20 26
19 24 30
18 22 28
19 23 30
15 19 26
23 28 36
13 17 22
25 31 41
26 33 43
17 21 27
22 27 35
23 29 38
24 30 39
15 18 24
17 21 28
20 24 31
19 24 31
17 22 29
13 16 20
10 13 18
17 21 27
18 22 29
22 28 37
18 23 29
18 22 29
11 14 18
15 18 24
23 29 38
22 27 34
9 12 16
10 12 16
17 21 28
20 25 32
12 15 20
14 17 22
18 22 27
8 10 13
16 20 25
17 20 26
15 19 25
19 23 29
17 21 26
15 19 25
10 13 17
8 9 12
11 14 18
17 21 28
13 16 20
17 21 28
13 16 20
12 15 20
16 20 26
14 18 23
14 18 23
14 18 23
13 17 22
10 12 15
17 21 27
12 15 19
16 19 25
15 20 26
11 13 17
28 34 43
154 183 227
174 207 255
174 207 255
174 207 255
174 207 255
174 207 255
174 207 255
174 207 255
174 207 255
174 207 255
174 207 255
174 207 255
175 207 255
175 207 255
175 207 255
175 207 255
175 207 255
175 207 255
175 207 255
175 207 255
175 207 255
175 207 255
175 207 255
175 207 255
175 207 255
175 207 255
175 207 255
175 207 255
176 208 255
176 208 255
176 208 255
176 208 255
176 208 255
176 208 255
176 208 255
176 208 255
176 208 255
176 208 255
176 208 255
176 208 255
176 208 255
176 208 255
176 208 255
176 208 255
177 208 255
177 208 255
177 208 255
177 208 255
177 208 255
177 208 255
177 208 255
177 208 255
177 208 255
177 208 255
177 208 255
177 209 255
177 209 255
177 209 255
177 209 255
177 209 255
177 209 255
178 209 255
178 209 255
178 209 255
178 209 255
178 209 255
178 209 255
178 209 255
178 209 255
178 209 255
178 209 255
178 209 255
178 209 255
178 209 255
178 209 255
178 209 255
178 209 255
178 209 255
179 209 255
179 209 255
179 209 255
179 209 255
179 209 255
179 209 255
179 210 255
179 210 255
179 210 255
179 210 255
179 210 255
179 210 255
179 210 255
179 210 255
179 210 255
179 210 255
179 210 255
179 210 255
179 210 255
180 210 255
180 210 255
180 210 255
180 210 255
180 210 255
180 210 255
180 210 255
180 210 255
180 210 255
180 210 255
180 210 255
180 210 255
180 210 255
180 210 255
180 210 255
180 210 255
180 210 255
180 210 255
180 210 255
180 210 255
180 210 255
180 210 255
181 211 255
181 211 255
181 211 255
181 211 255
181 211 255
181 211 255
181 211 255
181 211 255
181 211 255
181 211 255
181 211 255
181 211 255
181 211 255
181 211 255
181 211 255
181 211 255
181 211 255
181 211 255
181 211 255
181 211 255
181 211 255
181 211 255
181 211 255
181 211 255
182 211 255
182 211 255
182 211 255
182 211 255
182 211 255
182 211 255
182 211 255
182 211 255
182 211 255
182 211 255
182 211 255
182 211 255
182 211 255
181 211 255
181 211 255
181 211 255
181 211 255
181 211 255
181 211 255
181 211 255
181 211 255
181 211 255
181 211 255
181 211 255
181 211 255
181 211 255
181 211 255
181 211 255
181 211 255
181 211 255
181 211 255
181 211 255
181 211 255
181 211 255
181 211 255
181 211 255
181 211 255
180 210 255
180 210 255
180 210 255
180 210 255
180 210 255
180 210 255
180 210 255
180 210 255
180 210 255
180 210 255
180 210 255
180 210 255
180 210 255
180 210 255
180 210 255
180 210 255
180 210 255
180 210 255
180 210 255
180 210 255
180 210 255
179 210 255
179 210 255
179 210 255
179 210 255
179 210 255
179 210 255
179 210 255
179 210 255
179 210 255
179 210 255
179 210 255
179 210 255
179 210 255
179 209 255
179 209 255
179 209 255
179 209 255
179 209 255
179 209 255
178 209 255
178 209 255
178 209 255
178 209 255
178 209 255
178 209 255
178 209 255
178 209 255
178 209 255
178 209 255
178 209 255
178 209 255
178 209 255
178 209 255
178 209 255
178 209 255
178 209 255
177 209 255
177 209 255
177 209 255
177 209 255
177 209 255
177 209 255
177 208 255
177 208 255
177 208 255
177 208 255
177 208 255
177 208 255
177 208 255
177 208 255
177 208 255
177 208 255
177 208 255
176 208 255
176 208 255
176 208 255
176 208 255
176 208 255
176 208 255
176 208 255
176 208 255
176 208 255
176 208 255
176 208 255
176 208 255
176 208 255
176 208 255
176 208 255
176 208 255
175 207 255
175 207 255
175 207 255
175 207 255
175 207 255
175 207 255
175 207 255
175 207 255
175 207 255
175 207 255
175 207 255
175 207 255
175 207 255
175 207 255
175 207 255
175 207 255
175 207 255
174 207 255
174 207 255
174 207 255
174 207 255
70 84 105
15 19 25
14 18 24
15 18 23
15 19 25
17 21 27
13 16 21
18 22 27
8 10 14
9 11 15
14 17 21
11 14 18
10 12 16
15 19 24
13 17 21
12 14 19
17 22 28
14 17 22
15 19 24
16 19 24
16 20 26
19 23 29
20 24 32
18 21 27
15 19 25
19 23 30
21 27 36
16 20 26
19 24 31
14 18 23
15 18 23
8 11 14
15 18 24
21 26 34
22 27 35
19 24 30
14 17 22
17 21 27
18 22 29
20 24 31
15 19 24
18 23 29
17 21 26
17 21 27
20 24 31
26 32 41
17 20 26
15 19 24
16 20 25
15 19 24
11 14 18
22 27 34
17 21 26
17 21 27
19 24 31
16 21 27
22 27 34
16 20 27
23 28 36
22 27 34
22 28 37
15 19 24
16 20 27
16 20 26
21 26 34
18 22 29
14 18 23
18 22 29
13 16 22
14 18 23
19 24 31
22 27 35
17 22 29
16 20 26
14 17 23
15 19 26
9 11 14
20 25 33
21 26 34
12 15 19
19 23 30
14 17 22
18 22 29
15 18 24
11 14 18
19 24 31
20 24 30
12 15 19
16 20 25
13 16 21
13 17 22
17 22 28
14 18 24
14 18 23
11 14 19
19 24 31
12 15 19
18 21 27
14 17 23
10 12 17
14 17 22
10 12 16
14 17 23
5 7 8
12 15 20
11 14 19
19 24 30
19 23 30
21 26 34
56 67 85
173 205 253
174 207 255
174 207 255
174 207 255
175 207 255
175 207 255
175 207 255
175 207 255
175 207 255
175 207 255
175 207 255
175 207 255
175 207 255
175 207 255
175 207 255
175 207 255
175 207 255
175 207 255
175 207 255
175 207 255
176 208 255
176 208 255
176 208 255
176 208 255
176 208 255
176 208 255
176 208 255
176 208 255
176 208 255
176 208 255
176 208 255
176 208 255
176 208 255
176 208 255
176 208 255
176 208 255
176 208 255
177 208 255
177 208 255
177 208 255
177 208 255
177 208 255
177 208 255
177 208 255
177 208 255
177 208 255
177 208 255
177 208 255
177 209 255
177 209 255
177 209 255
177 209 255
177 209 255
178 209 255
178 209 255
178 209 255
178 209 255
178 209 255
178 209 255
178 209 255
178 209 255
178 209 255
178 209 255
178 209 255
178 209 255
178 209 255
178 209 255
178 209 255
178 209 255
178 209 255
178 209 255
179 209 255
179 209 255
179 209 255
179 209 255
179 209 255
179 209 255
179 210 255
179 210 255
179 210 255
179 210 255
179 210 255
179 210 255
179 210 255
179 210 255
179 210 255
179 210 255
179 210 255
179 210 255
179 210 255
180 210 255
180 210 255
180 210 255
180 210 255
180 210 255
180 210 255
180 210 255
180 210 255
180 210 255
180 210 255
180 210 255
180 210 255
180 210 255
180 210 255
180 210 255
180 210 255
180 210 255
180 210 255
180 210 255
180 210 255
180 210 255
181 211 255
181 211 255
181 211 255
181 211 255
181 211 255
181 211 255
181 211 255
181 211 255
181 211 255
181 211 255
181 211 255
181 211 255
181 211 255
181 211 255
181 211 255
181 211 255
181 211 255
181 211 255
181 211 255
181 211 255
181 211 255
181 211 255
181 211 255
181 211 255
182 211 255
182 211 255
182 211 255
182 211 255
182 211 255
182 211 255
182 211 255
182 211 255
182 211 255
182 211 255
182 211 255
182 211 255
182 211 255
182 211 255
182 211 255
182 211 255
182 211 255
182 211 255
182 211 255
182 211 255
182 211 255
182 211 255
182 211 255
182 211 255
182 211 255
182 211 255
182 211 255
181 211 255
181 211 255
181 211 255
181 211 255
181 211 255
181 211 255
181 211 255
181 211 255
181 211 255
181 211 255
181 211 255
181 211 255
181 211 255
181 211 255
181 211 255
181 211 255
181 211 255
181 211 255
181 211 255
181 211 255
181 211 255
181 211 255
181 211 255
181 211 255
180 210 255
180 210 255
180 210 255
180 210 255
180 210 255
180 210 255
180 210 255
180 210 255
180 210 255
180 210 255
180 210 255
180 210 255
180 210 255
180 210 255
180 210 255
180 210 255
180 210 255
180 210 255
180 210 255
180 210 255
180 210 255
179 210 255
179 210 255
179 210 255
179 210 255
179 210 255
179 210 255
179 210 255
179 210 255
179 210 255
179 210 255
179 210 255
179 210 255
179 210 255
179 209 255
179 209 255
179 209 255
179 209 255
179 209 255
179 209 255
178 209 255
178 209 255
178 209 255
178 209 255
178 209 255
178 209 255
178 209 255
178 209 255
178 209 255
178 209 255
178 209 255
178 209 255
178 209 255
178 209 255
178 209 255
178 209 255
178 209 255
177 209 255
177 209 255
177 209 255
177 209 255
177 209 255
177 209 255
177 208 255
177 208 255
177 208 255
177 208 255
177 208 255
177 208 255
177 208 255
177 208 255
177 208 255
177 208 255
177 208 255
176 208 255
176 208 255
176 208 255
176 208 255
176 208 255
176 208 255
176 208 255
176 208 255
176 208 255
176 208 255
176 208 255
176 208 255
176 208 255
176 208 255
176 208 255
176 208 255
176 208 255
175 207 255
175 207 255
175 207 255
175 207 255
175 207 255
175 207 255
175 207 255
175 207 255
175 207 255
175 207 255
175 207 255
175 207 255
131 156 193
17 22 30
14 17 22
11 14 18
13 16 20
13 16 21
14 18 23
11 13 18
11 14 18
11 14 19
12 14 19
10 12 16
14 17 21
15 18 24
13 16 21
10 12 15
12 15 19
14 18 23
12 16 21
23 29 37
15 18 24
15 19 24
16 20 27
14 17 22
9 12 15
15 18 23
16 19 25
13 17 22
18 23 30
13 16 21
20 25 32
13 16 21
19 24 31
18 23 31
18 22 29
15 19 25
13 17 21
9 12 16
17 22 29
12 15 19
12 15 20
16 20 26
21 27 35
18 23 31
18 22 29
18 22 27
20 24 31
20 25 32
13 17 22
19 23 30
17 22 28
20 24 31
19 23 30
24 30 39
13 16 21
22 28 36
22 27 36
22 27 35
17 21 27
22 27 35
15 19 26
17 21 26
18 22 28
12 15 20
14 18 24
19 23 30
27 33 42
22 28 36
15 18 22
20 25 32
18 22 28
16 19 24
13 17 22
15 18 23
16 21 27
22 27 35
21 26 34
12 15 19
13 16 21
17 21 27
20 25 32
16 20 25
17 22 29
16 20 27
13 16 21
10 13 16
18 22 27
14 18 24
10 12 16
19 24 31
14 18 23
11 13 17
9 11 15
16 20 26
11 14 18
13 16 21
13 16 21
16 20 26
11 14 19
11 14 18
11 14 18
14 18 24
13 16 22
5 7 9
11 13 18
10 13 16
12 15 19
15 19 25
14 17 23
13 17 22
12 15 20
122 145 179
175 207 255
175 207 255
175 207 255
175 207 255
175 207 255
175 207 255
175 207 255
175 207 255
175 207 255
175 207 255
175 207 255
175 207 255
176 208 255
176 208 255
176 208 255
176 208 255
176 208 255
176 208 255
176 208 255
176 208 255
176 208 255
176 208 255
176 208 255
176 208 255
176 208 255
176 208 255
176 208 255
176 208 255
176 208 255
177 208 255
177 208 255
177 208 255
177 208 255
177 208 255
177 208 255
177 208 255
177 208 255
177 208 255
177 208 255
177 208 255
177 209 255
177 209 255
177 209 255
177 209 255
177 209 255
177 209 255
178 209 255
178 209 255
178 209 255
178 209 255
178 209 255
178 209 255
178 209 255
178 209 255
178 209 255
178 209 255
178 209 255
178 209 255
178 209 255
178 209 255
178 209 255
178 209 255
178 209 255
179 209 255
179 209 255
179 209 255
179 209 255
179 209 255
179 209 255
179 210 255
179 210 255
179 210 255
179 210 255
179 210 255
179 210 255
179 210 255
179 210 255
179 210 255
179 210 255
179 210 255
179 210 255
179 210 255
180 210 255
180 210 255
180 210 255
180 210 255
180 210 255
180 210 255
180 210 255
180 210 255
180 210 255
180 210 255
180 210 255
180 210 255
180 210 255
180 210 255
180 210 255
180 210 255
180 210 255
180 210 255
180 210 255
180 210 255
180 210 255
181 211 255
181 211 255
181 211 255
181 211 255
181 211 255
181 211 255
181 211 255
181 211 255
181 211 255
181 211 255
181 211 255
181 211 255
181 211 255
181 211 255
181 211 255
181 211 255
181 211 255
181 211 255
181 211 255
181 211 255
181 211 255
181 211 255
181 211 255
181 211 255
182 211 255
182 211 255
182 211 255
182 211 255
182 211 255
182 211 255
182 211 255
182 211 255
182 211 255
182 211 255
182 211 255
182 211 255
182 211 255
182 211 255
182 211 255
182 211 255
182 211 255
182 212 255
182 212 255
182 212 255
182 212 255
182 212 255
182 212 255
182 211 255
182 211 255
182 211 255
182 211 255
182 211 255
182 211 255
182 211 255
182 211 255
182 211 255
182 211 255
182 211 255
182 211 255
182 211 255
182 211 255
182 211 255
182 211 255
182 211 255
182 211 255
181 211 255
181 211 255
181 211 255
181 211 255
181 211 255
181 211 255
181 211 255
181 211 255
181 211 255
181 211 255
181 211 255
181 211 255
181 211 255
181 211 255
181 211 255
181 211 255
181 211 255
181 211 255
181 211 255
181 211 255
181 211 255
181 211 255
181 211 255
181 211 255
180 210 255
180 210 255
180 210 255
180 210 255
180 210 255
180 210 255
180 210 255
180 210 255
180 210 255
180 210 255
180 210 255
180 210 255
180 210 255
180 210 255
180 210 255
180 210 255
180 210 255
180 210 255
180 210 255
180 210 255
180 210 255
179 210 255
179 210 255
179 210 255
179 210 255
179 210 255
179 210 255
179 210 255
179 210 255
179 210 255
179 210 255
179 210 255
179 210 255
179 210 255
179 209 255
179 209 255
179 209 255
179 209 255
179 209 255
179 209 255
178 209 255
178 209 255
178 209 255
178 209 255
178 209 255
178 209 255
178 209 255
178 209 255
178 209 255
178 209 255
178 209 255
178 209 255
178 209 255
178 209 255
178 209 255
178 209 255
178 209 255
177 209 255
177 209 255
177 209 255
177 209 255
177 209 255
177 209 255
177 208 255
177 208 255
177 208 255
177 208 255
177 208 255
177 208 255
177 208 255
177 208 255
177 208 255
177 208 255
177 208 255
176 208 255
176 208 255
176 208 255
176 208 255
176 208 255
176 208 255
176 208 255
176 208 255
176 208 255
176 208 255
176 208 255
176 208 255
176 208 255
176 208 255
176 208 255
176 208 255
176 208 255
175 207 255
175 207 255
175 207 255
175 207 255
171 202 249
31 38 48
15 20 26
14 17 22
11 14 18
9 11 14
16 20 26
10 13 18
15 19 25
13 15 20
13 16 20
15 18 24
8 9 12
17 21 28
8 11 14
16 20 26
19 23 30
18 22 28
13 16 20
14 17 23
15 19 24
16 21 27
12 15 20
11 14 19
14 18 23
15 19 25
13 17 22
11 13 17
17 22 29
11 14 19
14 18 24
15 18 24
14 18 23
20 25 32
15 18 23
20 26 34
20 25 32
26 33 42
22 27 34
22 27 35
20 25 33
15 19 24
15 19 24
17 21 28
18 22 29
17 22 30
23 29 38
19 23 29
24 30 40
18 23 30
17 22 29
15 18 24
18 23 30
11 14 18
17 21 27
20 24 31
12 14 18
15 19 25
17 21 27
15 18 23
17 21 28
19 23 29
20 24 31
15 20 26
16 21 27
18 22 28
16 20 26
16 20 26
15 19 25
18 23 30
17 22 28
18 22 29
11 14 18
18 23 29
18 23 30
13 16 21
18 22 27
20 24 31
19 23 30
20 25 33
13 17 22
12 14 18
20 25 33
15 18 24
18 22 28
13 16 21
16 20 26
13 16 20
16 19 25
21 26 32
13 16 21
16 20 26
14 17 22
11 14 19
15 20 26
18 22 28
9 12 16
12 15 20
15 19 24
12 15 20
10 13 16
16 19 25
11 13 17
14 17 21
13 17 22
12 14 17
11 13 18
13 17 22
10 13 17
11 14 18
13 16 20
18 23 29
29 35 44
173 205 253
175 207 255
175 207 255
175 207 255
176 208 255
176 208 255
176 208 255
176 208 255
176 208 255
176 208 255
176 208 255
176 208 255
176 208 255
176 208 255
176 208 255
176 208 255
176 208 255
176 208 255
176 208 255
176 208 255
176 208 255
176 208 255
177 208 255
177 208 255
177 208 255
177 208 255
177 208 255
177 208 255
177 208 255
177 208 255
177 208 255
177 208 255
177 208 255
177 209 255
177 209 255
177 209 255
177 209 255
177 209 255
177 209 255
178 209 255
178 209 255
178 209 255
178 209 255
178 209 255
178 209 255
178 209 255
178 209 255
178 209 255
178 209 255
178 209 255
178 209 255
178 209 255
178 209 255
178 209 255
178 209 255
178 209 255
179 209 255
179 209 255
179 209 255
179 209 255
179 209 255
179 209 255
179 210 255
179 210 255
179 210 255
179 210 255
179 210 255
179 210 255
179 210 255
179 210 255
179 210 255
179 210 255
179 210 255
179 210 255
179 210 255
180 210 255
180 210 255
180 210 255
180 210 255
180 210 255
180 210 255
180 210 255
180 210 255
180 210 255
180 210 255
180 210 255
180 210 255
180 210 255
180 210 255
180 210 255
180 210 255
180 210 255
180 210 255
180 210 255
180 210 255
180 210 255
181 211 255
181 211 255
181 211 255
181 211 255
181 211 255
181 211 255
181 211 255
181 211 255
181 211 255
181 211 255
181 211 255
181 211 255
181 211 255
181 211 255
181 211 255
181 211 255
181 211 255
181 211 255
181 211 255
181 211 255
181 211 255
181 211 255
181 211 255
181 211 255
182 211 255
182 211 255
182 211 255
182 211 255
182 211 255
182 211 255
182 211 255
182 211 255
182 211 255
182 211 255
182 211 255
182 211 255
182 211 255
182 211 255
182 211 255
182 211 255
182 211 255
182 212 255
182 212 255
182 212 255
182 212 255
182 212 255
182 212 255
182 212 255
183 212 255
183 212 255
183 212 255
183 212 255
183 212 255
182 212 255
182 212 255
182 212 255
182 212 255
182 212 255
182 212 255
182 212 255
182 212 255
182 212 255
182 212 255
182 211 255
182 211 255
182 211 255
182 211 255
182 211 255
182 211 255
182 211 255
182 211 255
182 211 255
182 211 255
182 211 255
182 211 255
182 211 255
182 211 255
182 211 255
182 211 255
182 211 255
181 211 255
181 211 255
181 211 255
181 211 255
181 211 255
181 211 255
181 211 255
181 211 255
181 211 255
181 211 255
181 211 255
181 211 255
181 211 255
181 211 255
181 211 255
181 211 255
181 211 255
181 211 255
181 211 255
181 211 255
181 211 255
181 211 255
181 211 255
180 210 255
180 210 255
180 210 255
180 210 255
180 210 255
180 210 255
180 210 255
180 210 255
180 210 255
180 210 255
180 210 255
180 210 255
180 210 255
180 210 255
180 210 255
180 210 255
180 210 255
180 210 255
180 210 255
180 210 255
179 210 255
179 210 255
179 210 255
179 210 255
179 210 255
179 210 255
179 210 255
179 210 255
179 210 255
179 210 255
179 210 255
179 210 255
179 210 255
179 210 255
179 209 255
179 209 255
179 209 255
179 209 255
179 209 255
179 209 255
178 209 255
178 209 255
178 209 255
178 209 255
178 209 255
178 209 255
178 209 255
178 209 255
178 209 255
178 209 255
178 209 255
178 209 255
178 209 255
178 209 255
178 209 255
178 209 255
178 209 255
177 209 255
177 209 255
177 209 255
177 209 255
177 209 255
177 209 255
177 208 255
177 208 255
177 208 255
177 208 255
177 208 255
177 208 255
177 208 255
177 208 255
177 208 255
177 208 255
177 208 255
176 208 255
176 208 255
176 208 255
176 208 255
176 208 255
176 208 255
176 208 255
176 208 255
176 208 255
176 208 255
176 208 255
176 208 255
176 208 255
176 208 255
92 109 136
15 18 24
19 24 31
19 23 29
14 17 22
13 16 21
15 19 24
15 19 24
15 19 26
14 18 23
18 23 30
16 20 27
13 17 22
13 16 21
11 14 18
11 14 18
13 16 21
14 17 23
13 16 20
14 17 22
20 25 33
10 13 16
19 23 30
13 17 22
19 23 29
13 16 20
21 27 34
22 27 34
19 23 30
16 21 27
19 23 29
17 21 28
18 22 28
15 19 24
16 19 24
20 26 34
18 22 28
13 16 21
15 19 25
19 23 30
13 17 23
16 19 24
20 26 34
18 23 29
21 27 35
21 26 35
16 19 25
15 18 23
20 25 31
15 18 24
14 18 23
16 20 26
20 25 32
19 24 32
12 15 20
21 25 32
17 20 26
22 27 35
19 24 32
19 24 31
19 23 30
19 24 31
13 16 21
15 19 25
15 19 26
17 21 27
15 19 25
20 25 33
12 15 19
14 18 23
11 14 19
14 18 22
17 22 28
16 20 25
17 21 27
16 20 27
15 19 25
17 21 27
19 23 31
17 21 28
14 17 23
18 23 30
18 23 30
19 24 31
9 11 14
12 15 20
16 19 24
19 25 33
12 15 19
13 16 20
12 15 20
11 13 17
12 15 20
19 23 30
15 19 25
15 19 24
12 15 20
13 17 22
11 14 18
13 16 21
9 11 15
15 19 24
17 21 27
9 11 14
13 17 21
8 10 13
13 16 22
10 13 17
10 12 15
16 20 25
19 24 31
12 15 20
20 25 32
96 114 142
176 208 255
176 208 255
176 208 255
176 208 255
176 208 255
176 208 255
176 208 255
176 208 255
176 208 255
176 208 255
176 208 255
176 208 255
176 208 255
177 208 255
177 208 255
177 208 255
177 208 255
177 208 255
177 208 255
177 208 255
177 208 255
177 208 255
177 208 255
177 208 255
177 208 255
177 209 255
177 209 255
177 209 255
177 209 255
177 209 255
177 209 255
178 209 255
178 209 255
178 209 255
178 209 255
178 209 255
178 209 255
178 209 255
178 209 255
178 209 255
178 209 255
178 209 255
178 209 255
178 209 255
178 209 255
178 209 255
178 209 255
178 209 255
179 209 255
179 209 255
179 209 255
179 209 255
179 209 255
179 209 255
179 209 255
179 210 255
179 210 255
179 210 255
179 210 255
179 210 255
179 210 255
179 210 255
179 210 255
179 210 255
179 210 255
179 210 255
179 210 255
180 210 255
180 210 255
180 210 255
180 210 255
180 210 255
180 210 255
180 210 255
180 210 255
180 210 255
180 210 255
180 210 255
180 210 255
180 210 255
180 210 255
180 210 255
180 210 255
180 210 255
180 210 255
180 210 255
180 210 255
180 210 255
181 211 255
181 211 255
181 211 255
181 211 255
181 211 255
181 211 255
181 211 255
181 211 255
181 211 255
181 211 255
181 211 255
181 211 255
181 211 255
181 211 255
181 211 255
181 211 255
181 211 255
181 211 255
181 211 255
181 211 255
181 211 255
181 211 255
181 211 255
181 211 255
182 211 255
182 211 255
182 211 255
182 211 255
182 211 255
182 211 255
182 211 255
182 211 255
182 211 255
182 211 255
182 211 255
182 211 255
182 211 255
182 211 255
182 211 255
182 211 255
182 211 255
182 212 255
182 212 255
182 212 255
182 212 255
182 212 255
182 212 255
182 212 255
182 212 255
182 212 255
182 212 255
183 212 255
183 212 255
183 212 255
183 212 255
183 212 255
183 212 255
183 212 255
183 212 255
183 212 255
183 212 255
183 212 255
183 212 255
183 212 255
183 212 255
183 212 255
183 212 255
183 212 255
182 212 255
182 212 255
182 212 255
182 212 255
182 212 255
182 212 255
182 212 255
182 212 255
182 212 255
182 211 255
182 211 255
182 211 255
182 211 255
182 211 255
182 211 255
182 211 255
182 211 255
182 211 255
182 211 255
182 211 255
182 211 255
182 211 255
182 211 255
182 211 255
182 211 255
182 211 255
181 211 255
181 211 255
181 211 255
181 211 255
181 211 255
181 211 255
181 211 255
181 211 255
181 211 255
181 211 255
181 211 255
181 211 255
181 211 255
181 211 255
181 211 255
181 211 255
181 211 255
181 211 255
181 211 255
181 211 255
181 211 255
181 211 255
181 211 255
181 211 255
180 210 255
180 210 255
180 210 255
180 210 255
180 210 255
180 210 255
180 210 255
180 210 255
180 210 255
180 210 255
180 210 255
180 210 255
180 210 255
180 210 255
180 210 255
180 210 255
180 210 255
180 210 255
180 210 255
180 210 255
179 210 255
179 210 255
179 210 255
179 210 255
179 210 255
179 210 255
179 210 255
179 210 255
179 210 255
179 210 255
179 210 255
179 210 255
179 209 255
179 209 255
179 209 255
179 209 255
179 209 255
179 209 255
179 209 255
178 209 255
178 209 255
178 209 255
178 209 255
178 209 255
178 209 255
178 209 255
178 209 255
178 209 255
178 209 255
178 209 255
178 209 255
178 209 255
178 209 255
178 209 255
178 209 255
178 209 255
178 209 255
177 209 255
177 209 255
177 209 255
177 209 255
177 209 255
177 208 255
177 208 255
177 208 255
177 208 255
177 208 255
177 208 255
177 208 255
177 208 255
177 208 255
177 208 255
177 208 255
177 208 255
177 208 255
176 208 255
176 208 255
176 208 255
176 208 255
153 181 222
27 33 42
17 21 27
14 18 24
8 11 15
16 20 26
15 19 25
11 14 18
9 11 14
12 14 19
12 15 20
10 12 16
13 16 21
13 16 21
16 20 27
13 16 21
12 15 20
16 20 26
13 17 22
16 20 26
15 19 25
17 21 27
14 18 23
17 20 26
13 16 21
17 21 27
10 12 16
13 16 20
18 22 29
11 14 19
18 23 30
12 16 21
15 19 26
18 22 29
15 20 26
17 21 28
14 18 24
16 20 25
19 23 30
21 26 33
20 25 32
19 24 30
20 25 32
17 21 27
18 22 28
18 23 30
17 21 28
17 22 29
25 30 39
16 21 28
22 28 37
15 19 25
27 33 43
15 19 25
16 21 27
15 18 23
20 25 32
11 14 19
22 27 34
19 24 32
21 26 34
15 19 24
22 28 35
16 21 28
20 25 32
23 28 37
17 22 29
14 17 22
19 24 31
18 23 29
14 18 23
15 19 24
15 19 24
19 24 31
17 21 27
22 27 35
19 23 30
15 18 24
19 24 31
13 16 21
15 19 24
19 23 30
18 22 29
18 23 30
16 20 27
16 20 27
15 18 23
11 14 18
17 21 28
17 21 27
11 13 16
14 17 22
11 14 18
18 22 29
16 20 26
13 17 23
16 19 24
17 21 28
15 19 25
12 15 19
15 18 24
10 12 15
13 16 21
8 10 13
13 16 21
16 20 27
13 16 22
11 15 20
12 15 20
9 11 15
12 15 19
14 18 24
16 20 25
11 13 17
25 31 39
164 193 238
176 208 255
176 208 255
176 208 255
176 208 255
177 208 255
177 208 255
177 208 255
177 208 255
177 208 255
177 208 255
177 208 255
177 208 255
177 208 255
177 208 255
177 208 255
177 208 255
177 208 255
177 209 255
177 209 255
177 209 255
177 209 255
177 209 255
177 209 255
178 209 255
178 209 255
178 209 255
178 209 255
178 209 255
178 209 255
178 209 255
178 209 255
178 209 255
178 209 255
178 209 255
178 209 255
178 209 255
178 209 255
178 209 255
178 209 255
178 209 255
179 209 255
179 209 255
179 209 255
179 209 255
179 209 255
179 209 255
179 210 255
179 210 255
179 210 255
179 210 255
179 210 255
179 210 255
179 210 255
179 210 255
179 210 255
179 210 255
179 210 255
179 210 255
179 210 255
180 210 255
180 210 255
180 210 255
180 210 255
180 210 255
180 210 255
180 210 255
180 210 255
180 210 255
180 210 255
180 210 255
180 210 255
180 210 255
180 210 255
180 210 255
180 210 255
180 210 255
180 210 255
180 210 255
180 210 255
180 210 255
181 211 255
181 211 255
181 211 255
181 211 255
181 211 255
181 211 255
181 211 255
181 211 255
181 211 255
181 211 255
181 211 255
181 211 255
181 211 255
181 211 255
181 211 255
181 211 255
181 211 255
181 211 255
181 211 255
181 211 255
181 211 255
181 211 255
182 211 255
182 211 255
182 211 255
182 211 255
182 211 255
182 211 255
182 211 255
182 211 255
182 211 255
182 211 255
182 211 255
182 211 255
182 211 255
182 211 255
182 211 255
182 211 255
182 211 255
182 211 255
182 212 255
182 212 255
182 212 255
182 212 255
182 212 255
182 212 255
182 212 255
182 212 255
182 212 255
183 212 255
183 212 255
183 212 255
183 212 255
183 212 255
183 212 255
183 212 255
183 212 255
183 212 255
183 212 255
183 212 255
183 212 255
183 212 255
183 212 255
183 212 255
183 212 255
183 212 255
183 212 255
183 212 255
183 212 255
183 212 255
183 212 255
183 212 255
183 212 255
183 212 255
183 212 255
183 212 255
183 212 255
183 212 255
183 212 255
183 212 255
183 212 255
183 212 255
183 212 255
182 212 255
182 212 255
182 212 255
182 212 255
182 212 255
182 212 255
182 212 255
182 212 255
182 212 255
182 211 255
182 211 255
182 211 255
182 211 255
182 211 255
182 211 255
182 211 255
182 211 255
182 211 255
182 211 255
182 211 255
182 211 255
182 211 255
182 211 255
182 211 255
182 211 255
182 211 255
181 211 255
181 211 255
181 211 255
181 211 255
181 211 255
181 211 255
181 211 255
181 211 255
181 211 255
181 211 255
181 211 255
181 211 255
181 211 255
181 211 255
181 211 255
181 211 255
181 211 255
181 211 255
181 211 255
181 211 255
181 211 255
181 211 255
181 211 255
180 210 255
180 210 255
180 210 255
180 210 255
180 210 255
180 210 255
180 210 255
180 210 255
180 210 255
180 210 255
180 210 255
180 210 255
180 210 255
180 210 255
180 210 255
180 210 255
180 210 255
180 210 255
180 210 255
180 210 255
179 210 255
179 210 255
179 210 255
179 210 255
179 210 255
179 210 255
179 210 255
179 210 255
179 210 255
179 210 255
179 210 255
179 210 255
179 209 255
179 209 255
179 209 255
179 209 255
179 209 255
179 209 255
179 209 255
178 209 255
178 209 255
178 209 255
178 209 255
178 209 255
178 209 255
178 209 255
178 209 255
178 209 255
178 209 255
178 209 255
178 209 255
178 209 255
178 209 255
178 209 255
178 209 255
178 209 255
178 209 255
178 209 255
177 209 255
177 209 255
177 209 255
177 209 255
177 209 255
177 209 255
177 208 255
177 208 255
177 208 255
177 208 255
177 208 255
177 208 255
177 208 255
177 208 255
73 87 108
16 20 25
8 10 13
15 18 24
11 14 18
15 18 24
11 14 18
12 15 20
15 18 23
12 14 19
13 17 21
9 11 14
12 14 18
9 12 15
11 14 18
12 16 21
8 10 12
11 13 17
13 16 21
11 13 17
13 15 20
11 14 19
13 15 20
14 17 22
15 19 24
22 26 33
16 19 25
11 13 18
14 17 22
13 17 22
17 21 26
17 21 28
10 12 15
18 22 29
13 17 22
17 21 28
17 21 28
17 21 28
19 24 32
12 14 18
14 17 22
10 13 17
19 23 30
19 24 32
15 18 24
18 23 30
16 20 25
20 25 33
17 20 26
22 27 36
18 23 29
15 19 24
21 25 33
22 28 37
21 26 33
24 30 39
15 19 24
21 25 32
18 22 28
16 21 27
22 27 34
16 19 25
13 17 22
15 19 24
16 20 25
16 20 26
14 17 22
24 29 37
17 21 26
20 25 33
27 34 44
16 20 26
15 19 25
17 22 28
13 16 21
21 26 33
14 18 24
16 19 24
14 17 22
15 19 25
19 25 33
21 25 33
13 16 21
14 17 22
11 14 18
18 23 31
18 22 28
16 21 27
13 16 21
14 17 23
16 19 25
18 23 29
22 27 35
13 16 21
13 16 21
19 23 29
16 20 26
20 24 31
15 19 26
14 17 21
18 23 31
15 18 24
18 22 29
18 22 28
13 16 20
10 13 17
6 7 10
10 13 17
9 11 15
17 22 28
18 23 29
13 16 21
13 17 22
9 12 17
10 12 15
63 75 93
177 208 255
177 208 255
177 208 255
177 208 255
177 208 255
177 208 255
177 208 255
177 208 255
177 209 255
177 209 255
177 209 255
177 209 255
177 209 255
177 209 255
178 209 255
178 209 255
178 209 255
178 209 255
178 209 255
178 209 255
178 209 255
178 209 255
178 209 255
178 209 255
178 209 255
178 209 255
178 209 255
178 209 255
178 209 255
178 209 255
178 209 255
178 209 255
178 209 255
179 209 255
179 209 255
179 209 255
179 209 255
179 209 255
179 209 255
179 210 255
179 210 255
179 210 255
179 210 255
179 210 255
179 210 255
179 210 255
179 210 255
179 210 255
179 210 255
179 210 255
179 210 255
179 210 255
180 210 255
180 210 255
180 210 255
180 210 255
180 210 255
180 210 255
180 210 255
180 210 255
180 210 255
180 210 255
180 210 255
180 210 255
180 210 255
180 210 255
180 210 255
180 210 255
180 210 255
180 210 255
180 210 255
180 210 255
181 211 255
181 211 255
181 211 255
181 211 255
181 211 255
181 211 255
181 211 255
181 211 255
181 211 255
181 211 255
181 211 255
181 211 255
181 211 255
181 211 255
181 211 255
181 211 255
181 211 255
181 211 255
181 211 255
181 211 255
181 211 255
181 211 255
181 211 255
182 211 255
182 211 255
182 211 255
182 211 255
182 211 255
182 211 255
182 211 255
182 211 255
182 211 255
182 211 255
182 211 255
182 211 255
182 211 255
182 211 255
182 211 255
182 211 255
182 211 255
182 212 255
182 212 255
182 212 255
182 212 255
182 212 255
182 212 255
182 212 255
182 212 255
182 212 255
183 212 255
183 212 255
183 212 255
183 212 255
183 212 255
183 212 255
183 212 255
183 212 255
183 212 255
183 212 255
183 212 255
183 212 255
183 212 255
183 212 255
183 212 255
183 212 255
183 212 255
183 212 255
183 212 255
183 212 255
183 212 255
183 212 255
183 212 255
183 212 255
183 212 255
183 212 255
183 212 255
183 212 255
183 212 255
183 212 255
183 212 255
183 212 255
183 212 255
183 212 255
183 212 255
183 212 255
183 212 255
183 212 255
183 212 255
183 212 255
183 212 255
183 212 255
183 212 255
183 212 255
183 212 255
183 212 255
183 212 255
183 212 255
183 212 255
183 212 255
183 212 255
182 212 255
182 212 255
182 212 255
182 212 255
182 212 255
182 212 255
182 212 255
182 212 255
182 211 255
182 211 255
182 211 255
182 211 255
182 211 255
182 211 255
182 211 255
182 211 255
182 211 255
182 211 255
182 211 255
182 211 255
182 211 255
182 211 255
182 211 255
182 211 255
182 211 255
181 211 255
181 211 255
181 211 255
181 211 255
181 211 255
181 211 255
181 211 255
181 211 255
181 211 255
181 211 255
181 211 255
181 211 255
181 211 255
181 211 255
181 211 255
181 211 255
181 211 255
181 211 255
181 211 255
181 211 255
181 211 255
181 211 255
181 211 255
180 210 255
180 210 255
180 210 255
180 210 255
180 210 255
180 210 255
180 210 255
180 210 255
180 210 255
180 210 255
180 210 255
180 210 255
180 210 255
180 210 255
180 210 255
180 210 255
180 210 255
180 210 255
180 210 255
180 210 255
179 210 255
179 210 255
179 210 255
179 210 255
179 210 255
179 210 255
179 210 255
179 210 255
179 210 255
179 210 255
179 210 255
179 210 255
179 210 255
179 209 255
179 209 255
179 209 255
179 209 255
179 209 255
179 209 255
178 209 255
178 209 255
178 209 255
178 209 255
178 209 255
178 209 255
178 209 255
178 209 255
178 209 255
178 209 255
178 209 255
178 209 255
178 209 255
178 209 255
178 209 255
178 209 255
178 209 255
178 209 255
178 209 255
177 209 255
177 209 255
177 209 255
177 209 255
177 209 255
158 186 227
17 20 25
15 18 23
16 19 25
13 17 22
14 16 21
12 15 20
11 14 18
8 10 13
10 13 17
12 14 18
17 21 27
10 12 16
11 14 18
8 10 13
16 20 26
12 15 19
9 12 15
18 22 28
14 18 22
19 24 31
15 18 23
14 17 22
14 18 23
18 22 27
15 19 25
17 22 28
15 19 25
15 19 24
19 24 31
16 19 25
18 23 30
17 21 27
19 23 29
18 22 28
12 14 18
16 20 26
17 21 28
16 20 25
16 20 26
21 25 32
19 23 30
14 18 23
15 19 25
15 19 25
17 21 27
15 18 23
14 17 23
16 19 25
19 23 30
20 24 30
22 26 34
18 23 31
14 18 23
16 19 25
14 17 22
23 29 38
22 27 35
18 22 28
15 19 25
20 25 33
17 21 27
15 19 24
17 21 28
20 24 31
26 32 42
19 23 30
15 19 25
17 21 27
18 22 29
15 19 25
21 25 32
22 28 36
20 25 32
22 27 36
24 30 38
11 13 17
18 22 29
23 28 37
15 18 24
12 14 18
20 25 33
15 19 25
11 13 17
12 15 20
20 25 33
16 19 24
13 16 21
14 18 24
14 18 24
19 24 31
18 22 28
20 24 30
10 12 16
7 9 11
17 21 27
17 20 26
15 19 25
17 21 27
13 16 21
8 10 12
14 17 22
12 15 20
11 13 17
10 13 18
11 13 16
11 14 19
12 15 19
11 13 17
17 21 28
14 17 23
11 13 17
12 14 19
10 13 17
17 21 26
16 20 25
20 25 32
150 177 217
177 209 255
177 209 255
177 209 255
177 209 255
178 209 255
178 209 255
178 209 255
178 209 255
178 209 255
178 209 255
178 209 255
178 209 255
178 209 255
178 209 255
178 209 255
178 209 255
178 209 255
178 209 255
178 209 255
178 209 255
178 209 255
178 209 255
178 209 255
178 209 255
179 209 255
179 209 255
179 209 255
179 209 255
179 209 255
179 209 255
179 210 255
179 210 255
179 210 255
179 210 255
179 210 255
179 210 255
179 210 255
179 210 255
179 210 255
179 210 255
179 210 255
179 210 255
179 210 255
180 210 255
180 210 255
180 210 255
180 210 255
180 210 255
180 210 255
180 210 255
180 210 255
180 210 255
180 210 255
180 210 255
180 210 255
180 210 255
180 210 255
180 210 255
180 210 255
180 210 255
180 210 255
180 210 255
180 210 255
181 211 255
181 211 255
181 211 255
181 211 255
181 211 255
181 211 255
181 211 255
181 211 255
181 211 255
181 211 255
181 211 255
181 211 255
181 211 255
181 211 255
181 211 255
181 211 255
181 211 255
181 211 255
181 211 255
181 211 255
181 211 255
181 211 255
181 211 255
182 211 255
182 211 255
182 211 255
182 211 255
182 211 255
182 211 255
182 211 255
182 211 255
182 211 255
182 211 255
182 211 255
182 211 255
182 211 255
182 211 255
182 211 255
182 211 255
182 211 255
182 212 255
182 212 255
182 212 255
182 212 255
182 212 255
182 212 255
182 212 255
182 212 255
183 212 255
183 212 255
183 212 255
183 212 255
183 212 255
183 212 255
183 212 255
183 212 255
183 212 255
183 212 255
183 212 255
183 212 255
183 212 255
183 212 255
183 212 255
183 212 255
183 212 255
183 212 255
183 212 255
183 212 255
183 212 255
183 212 255
183 212 255
183 212 255
183 212 255
183 212 255
183 212 255
183 212 255
183 212 255
183 212 255
184 212 255
184 212 255
184 212 255
184 212 255
184 212 255
184 212 255
184 212 255
184 212 255
183 212 255
183 212 255
183 212 255
183 212 255
183 212 255
183 212 255
183 212 255
183 212 255
183 212 255
183 212 255
183 212 255
183 212 255
183 212 255
183 212 255
183 212 255
183 212 255
183 212 255
183 212 255
183 212 255
183 212 255
183 212 255
183 212 255
183 212 255
183 212 255
183 212 255
183 212 255
183 212 255
183 212 255
183 212 255
183 212 255
183 212 255
182 212 255
182 212 255
182 212 255
182 212 255
182 212 255
182 212 255
182 212 255
182 212 255
182 211 255
182 211 255
182 211 255
182 211 255
182 211 255
182 211 255
182 211 255
182 211 255
182 211 255
182 211 255
182 211 255
182 211 255
182 211 255
182 211 255
182 211 255
182 211 255
181 211 255
181 211 255
181 211 255
181 211 255
181 211 255
181 211 255
181 211 255
181 211 255
181 211 255
181 211 255
181 211 255
181 211 255
181 211 255
181 211 255
181 211 255
181 211 255
181 211 255
181 211 255
181 211 255
181 211 255
181 211 255
181 211 255
181 211 255
180 210 255
180 210 255
180 210 255
180 210 255
180 210 255
180 210 255
180 210 255
180 210 255
180 210 255
180 210 255
180 210 255
180 210 255
180 210 255
180 210 255
180 210 255
180 210 255
180 210 255
180 210 255
180 210 255
180 210 255
179 210 255
179 210 255
179 210 255
179 210 255
179 210 255
179 210 255
179 210 255
179 210 255
179 210 255
179 210 255
179 210 255
179 210 255
179 210 255
179 209 255
179 209 255
179 209 255
179 209 255
179 209 255
179 209 255
178 209 255
178 209 255
178 209 255
178 209 255
178 209 255
178 209 255
178 209 255
178 209 255
178 209 255
178 209 255
178 209 255
178 209 255
178 209 255
178 209 255
178 209 255
178 209 255
76 89 110
11 14 18
15 18 24
14 18 23
14 18 23
13 16 21
11 14 19
16 20 26
18 22 27
9 12 15
10 13 17
10 12 15
14 18 23
9 11 14
12 15 19
15 18 24
8 10 12
14 18 23
11 14 18
15 19 24
13 16 22
11 13 17
11 15 19
14 17 22
16 19 25
8 11 15
15 19 24
18 23 30
17 22 28
18 23 30
14 17 22
15 19 24
14 18 23
15 18 24
19 23 30
18 23 30
18 22 29
18 22 28
15 18 23
16 20 26
16 20 26
18 23 29
18 22 29
17 21 27
16 20 27
13 17 21
16 21 27
21 26 34
19 23 30
22 27 34
22 27 34
21 26 34
17 21 26
16 20 26
21 25 33
18 23 30
12 14 18
15 18 24
21 26 32
20 25 33
15 19 25
20 25 32
19 24 30
15 18 23
12 15 19
18 22 28
21 25 32
22 27 35
16 19 25
19 24 30
17 21 28
19 23 29
14 17 22
21 27 35
19 24 31
18 23 29
18 22 28
11 14 19
20 25 31
23 29 37
18 23 31
13 16 21
14 17 23
19 24 31
17 21 27
17 21 26
17 21 28
15 19 25
19 24 32
18 23 29
11 14 18
18 22 28
20 25 33
12 15 20
16 20 26
21 26 33
16 20 26
21 26 33
14 18 24
14 18 23
11 13 17
11 14 19
13 16 21
9 12 15
11 14 18
15 18 23
14 18 23
15 18 23
7 9 11
11 14 18
8 10 14
13 16 21
9 12 15
10 12 16
20 24 31
12 15 20
15 18 23
73 86 106
178 209 255
178 209 255
178 209 255
178 209 255
178 209 255
178 209 255
178 209 255
178 209 255
178 209 255
178 209 255
178 209 255
178 209 255
178 209 255
178 209 255
178 209 255
178 209 255
179 209 255
179 209 255
179 209 255
179 209 255
179 209 255
179 209 255
179 210 255
179 210 255
179 210 255
179 210 255
179 210 255
179 210 255
179 210 255
179 210 255
179 210 255
179 210 255
179 210 255
179 210 255
179 210 255
180 210 255
180 210 255
180 210 255
180 210 255
180 210 255
180 210 255
180 210 255
180 210 255
180 210 255
180 210 255
180 210 255
180 210 255
180 210 255
180 210 255
180 210 255
180 210 255
180 210 255
180 210 255
180 210 255
180 210 255
181 211 255
181 211 255
181 211 255
181 211 255
181 211 255
181 211 255
181 211 255
181 211 255
181 211 255
181 211 255
181 211 255
181 211 255
181 211 255
181 211 255
181 211 255
181 211 255
181 211 255
181 211 255
181 211 255
181 211 255
181 211 255
181 211 255
181 211 255
182 211 255
182 211 255
182 211 255
182 211 255
182 211 255
182 211 255
182 211 255
182 211 255
182 211 255
182 211 255
182 211 255
182 211 255
182 211 255
182 211 255
182 211 255
182 211 255
182 212 255
182 212 255
182 212 255
182 212 255
182 212 255
182 212 255
182 212 255
182 212 255
182 212 255
183 212 255
183 212 255
183 212 255
183 212 255
183 212 255
183 212 255
183 212 255
183 212 255
183 212 255
183 212 255
183 212 255
183 212 255
183 212 255
183 212 255
183 212 255
183 212 255
183 212 255
183 212 255
183 212 255
183 212 255
183 212 255
183 212 255
183 212 255
183 212 255
183 212 255
183 212 255
183 212 255
183 212 255
183 212 255
183 212 255
184 212 255
184 212 255
184 212 255
184 212 255
184 212 255
184 212 255
184 212 255
184 212 255
184 213 255
184 213 255
184 213 255
184 213 255
184 213 255
184 213 255
184 213 255
184 212 255
184 212 255
184 212 255
184 212 255
184 212 255
184 212 255
184 212 255
184 212 255
184 212 255
184 212 255
184 212 255
183 212 255
183 212 255
183 212 255
183 212 255
183 212 255
183 212 255
183 212 255
183 212 255
183 212 255
183 212 255
183 212 255
183 212 255
183 212 255
183 212 255
183 212 255
183 212 255
183 212 255
183 212 255
183 212 255
183 212 255
183 212 255
183 212 255
183 212 255
183 212 255
183 212 255
183 212 255
183 212 255
183 212 255
183 212 255
182 212 255
182 212 255
182 212 255
182 212 255
182 212 255
182 212 255
182 212 255
182 212 255
182 211 255
182 211 255
182 211 255
182 211 255
182 211 255
182 211 255
182 211 255
182 211 255
182 211 255
182 211 255
182 211 255
182 211 255
182 211 255
182 211 255
182 211 255
182 211 255
182 211 255
181 211 255
181 211 255
181 211 255
181 211 255
181 211 255
181 211 255
181 211 255
181 211 255
181 211 255
181 211 255
181 211 255
181 211 255
181 211 255
181 211 255
181 211 255
181 211 255
181 211 255
181 211 255
181 211 255
181 211 255
181 211 255
181 211 255
180 210 255
180 210 255
180 210 255
180 210 255
180 210 255
180 210 255
180 210 255
180 210 255
180 210 255
180 210 255
180 210 255
180 210 255
180 210 255
180 210 255
180 210 255
180 210 255
180 210 255
180 210 255
180 210 255
180 210 255
179 210 255
179 210 255
179 210 255
179 210 255
179 210 255
179 210 255
179 210 255
179 210 255
179 210 255
179 210 255
179 210 255
179 210 255
179 210 255
179 210 255
179 209 255
179 209 255
179 209 255
179 209 255
179 209 255
179 209 255
179 209 255
178 209 255
178 209 255
178 209 255
178 209 255
178 209 255
154 181 221
19 23 30
14 17 22
14 18 23
12 16 21
13 16 21
11 14 18
18 22 27
11 13 17
18 22 28
9 11 14
8 10 13
13 16 21
17 21 28
16 20 26
10 12 17
16 20 26
13 15 20
14 17 21
13 16 20
16 20 26
13 17 22
15 18 23
12 15 19
21 26 33
16 20 26
13 16 21
10 12 16
12 14 18
12 15 20
16 19 25
19 24 31
16 21 28
16 20 26
15 20 26
16 19 24
15 18 24
13 16 21
25 30 38
18 22 29
18 23 30
20 25 31
18 23 31
19 24 31
17 21 28
15 19 25
17 21 27
19 25 33
17 21 28
12 16 20
22 28 37
22 28 36
17 22 29
20 25 32
19 24 31
20 25 32
19 24 31
17 21 28
17 21 27
21 26 33
21 26 33
10 12 16
19 23 30
18 23 30
15 19 25
15 19 25
18 23 29
20 25 32
11 14 18
17 21 28
17 22 28
23 28 36
18 22 28
16 19 25
23 29 37
20 25 32
16 20 26
15 18 24
18 22 28
13 16 21
11 14 18
19 23 30
19 23 30
15 18 23
17 21 28
15 19 25
17 21 27
16 20 26
13 16 21
13 17 22
14 17 22
19 24 32
13 17 23
17 21 27
16 20 25
9 11 15
18 23 30
14 18 23
12 14 18
13 16 20
17 21 27
16 20 26
17 21 27
10 13 17
15 19 24
8 10 14
16 19 23
16 19 25
14 18 23
13 16 21
10 13 16
16 20 26
8 10 13
19 22 28
12 15 19
13 17 22
15 19 24
14 18 23
18 22 28
159 187 229
178 209 255
178 209 255
178 209 255
178 209 255
178 209 255
178 209 255
179 209 255
179 209 255
179 209 255
179 209 255
179 209 255
179 209 255
179 209 255
179 210 255
179 210 255
179 210 255
179 210 255
179 210 255
179 210 255
179 210 255
179 210 255
179 210 255
179 210 255
179 210 255
179 210 255
179 210 255
180 210 255
180 210 255
180 210 255
180 210 255
180 210 255
180 210 255
180 210 255
180 210 255
180 210 255
180 210 255
180 210 255
180 210 255
180 210 255
180 210 255
180 210 255
180 210 255
180 210 255
180 210 255
180 210 255
180 210 255
181 211 255
181 211 255
181 211 255
181 211 255
181 211 255
181 211 255
181 211 255
181 211 255
181 211 255
181 211 255
181 211 255
181 211 255
181 211 255
181 211 255
181 211 255
181 211 255
181 211 255
181 211 255
181 211 255
181 211 255
181 211 255
181 211 255
181 211 255
182 211 255
182 211 255
182 211 255
182 211 255
182 211 255
182 211 255
182 211 255
182 211 255
182 211 255
182 211 255
182 211 255
182 211 255
182 211 255
182 211 255
182 211 255
182 212 255
182 212 255
182 212 255
182 212 255
182 212 255
182 212 255
182 212 255
182 212 255
182 212 255
183 212 255
183 212 255
183 212 255
183 212 255
183 212 255
183 212 255
183 212 255
183 212 255
183 212 255
183 212 255
183 212 255
183 212 255
183 212 255
183 212 255
183 212 255
183 212 255
183 212 255
183 212 255
183 212 255
183 212 255
183 212 255
183 212 255
183 212 255
183 212 255
183 212 255
183 212 255
183 212 255
183 212 255
183 212 255
184 212 255
184 212 255
184 212 255
184 212 255
184 212 255
184 212 255
184 212 255
184 212 255
184 212 255
184 212 255
184 212 255
184 212 255
184 213 255
184 213 255
184 213 255
184 213 255
184 213 255
184 213 255
184 213 255
184 213 255
184 213 255
184 213 255
184 213 255
184 213 255
184 213 255
184 213 255
184 213 255
184 213 255
184 213 255
184 213 255
184 213 255
184 213 255
184 213 255
184 213 255
184 213 255
184 212 255
184 212 255
184 212 255
184 212 255
184 212 255
184 212 255
184 212 255
184 212 255
184 212 255
184 212 255
183 212 255
183 212 255
183 212 255
183 212 255
183 212 255
183 212 255
183 212 255
183 212 255
183 212 255
183 212 255
183 212 255
183 212 255
183 212 255
183 212 255
183 212 255
183 212 255
183 212 255
183 212 255
183 212 255
183 212 255
183 212 255
183 212 255
183 212 255
183 212 255
183 212 255
183 212 255
183 212 255
183 212 255
183 212 255
182 212 255
182 212 255
182 212 255
182 212 255
182 212 255
182 212 255
182 212 255
182 212 255
182 211 255
182 211 255
182 211 255
182 211 255
182 211 255
182 211 255
182 211 255
182 211 255
182 211 255
182 211 255
182 211 255
182 211 255
182 211 255
182 211 255
182 211 255
182 211 255
181 211 255
181 211 255
181 211 255
181 211 255
181 211 255
181 211 255
181 211 255
181 211 255
181 211 255
181 211 255
181 211 255
181 211 255
181 211 255
181 211 255
181 211 255
181 211 255
181 211 255
181 211 255
181 211 255
181 211 255
181 211 255
181 211 255
180 210 255
180 210 255
180 210 255
180 210 255
180 210 255
180 210 255
180 210 255
180 210 255
180 210 255
180 210 255
180 210 255
180 210 255
180 210 255
180 210 255
180 210 255
180 210 255
180 210 255
180 210 255
180 210 255
180 210 255
180 210 255
179 210 255
179 210 255
179 210 255
179 210 255
179 210 255
179 210 255
179 210 255
179 210 255
179 210 255
179 210 255
179 210 255
179 210 255
179 210 255
179 210 255
179 209 255
179 209 255
179 209 255
88 103 127
16 20 26
17 21 26
15 18 24
14 17 22
18 22 29
10 13 16
13 16 21
17 21 27
8 10 14
14 17 21
12 15 20
7 9 11
8 11 14
11 14 19
14 17 22
15 18 23
11 13 16
14 17 22
17 21 28
12 15 20
13 16 21
10 13 16
20 25 33
12 15 19
16 20 26
16 20 26
13 16 21
15 18 24
17 22 30
13 15 20
20 26 34
10 12 16
19 23 30
18 23 29
17 22 28
15 19 25
13 16 21
13 17 22
23 29 37
17 22 28
22 27 34
17 22 28
15 19 25
20 25 32
16 19 25
22 27 35
12 15 20
16 19 25
17 21 27
22 27 36
15 19 24
16 19 24
14 18 23
21 26 33
20 25 33
14 17 22
14 16 21
16 20 26
19 23 30
14 18 23
16 19 25
20 24 31
26 31 40
16 20 26
14 18 24
22 26 33
15 19 26
21 26 34
21 26 33
15 19 24
15 19 24
20 24 31
21 26 33
15 18 24
20 25 32
17 21 27
17 21 29
15 19 24
18 23 29
19 24 30
17 21 27
15 19 25
19 23 29
23 28 37
16 20 26
18 23 29
17 20 26
14 18 23
17 21 26
17 22 29
18 22 27
16 20 27
16 19 24
16 20 26
19 23 30
20 26 34
18 23 30
14 18 23
13 17 22
10 13 17
14 18 24
15 19 25
13 16 21
11 13 17
17 21 26
12 14 19
12 14 19
12 15 19
10 12 15
11 13 17
13 16 21
12 15 20
13 16 21
11 15 20
16 21 27
10 13 17
13 16 21
14 18 24
97 114 140
179 209 255
179 209 255
179 209 255
179 210 255
179 210 255
179 210 255
179 210 255
179 210 255
179 210 255
179 210 255
179 210 255
179 210 255
179 210 255
179 210 255
179 210 255
179 210 255
179 210 255
179 210 255
180 210 255
180 210 255
180 210 255
180 210 255
180 210 255
180 210 255
180 210 255
180 210 255
180 210 255
180 210 255
180 210 255
180 210 255
180 210 255
180 210 255
180 210 255
180 210 255
180 210 255
180 210 255
180 210 255
180 210 255
181 211 255
181 211 255
181 211 255
181 211 255
181 211 255
181 211 255
181 211 255
181 211 255
181 211 255
181 211 255
181 211 255
181 211 255
181 211 255
181 211 255
181 211 255
181 211 255
181 211 255
181 211 255
181 211 255
181 211 255
181 211 255
181 211 255
182 211 255
182 211 255
182 211 255
182 211 255
182 211 255
182 211 255
182 211 255
182 211 255
182 211 255
182 211 255
182 211 255
182 211 255
182 211 255
182 211 255
182 211 255
182 211 255
182 212 255
182 212 255
182 212 255
182 212 255
182 212 255
182 212 255
182 212 255
182 212 255
183 212 255
183 212 255
183 212 255
183 212 255
183 212 255
183 212 255
183 212 255
183 212 255
183 212 255
183 212 255
183 212 255
183 212 255
183 212 255
183 212 255
183 212 255
183 212 255
183 212 255
183 212 255
183 212 255
183 212 255
183 212 255
183 212 255
183 212 255
183 212 255
183 212 255
183 212 255
183 212 255
183 212 255
183 212 255
184 212 255
184 212 255
184 212 255
184 212 255
184 212 255
184 212 255
184 212 255
184 212 255
184 212 255
184 212 255
184 212 255
184 213 255
184 213 255
184 213 255
184 213 255
184 213 255
184 213 255
184 213 255
184 213 255
184 213 255
184 213 255
184 213 255
184 213 255
184 213 255
184 213 255
184 213 255
184 213 255
185 213 255
185 213 255
185 213 255
184 213 255
184 213 255
184 213 255
184 213 255
184 213 255
184 213 255
184 213 255
184 213 255
184 213 255
184 213 255
184 213 255
184 213 255
184 213 255
184 213 255
184 213 255
184 213 255
184 213 255
184 213 255
184 213 255
184 213 255
184 213 255
184 213 255
184 213 255
184 212 255
184 212 255
184 212 255
184 212 255
184 212 255
184 212 255
184 212 255
184 212 255
184 212 255
184 212 255
184 212 255
183 212 255
183 212 255
183 212 255
183 212 255
183 212 255
183 212 255
183 212 255
183 212 255
183 212 255
183 212 255
183 212 255
183 212 255
183 212 255
183 212 255
183 212 255
183 212 255
183 212 255
183 212 255
183 212 255
183 212 255
183 212 255
183 212 255
183 212 255
183 212 255
183 212 255
183 212 255
183 212 255
182 212 255
182 212 255
182 212 255
182 212 255
182 212 255
182 212 255
182 212 255
182 212 255
182 212 255
182 211 255
182 211 255
182 211 255
182 211 255
182 211 255
182 211 255
182 211 255
182 211 255
182 211 255
182 211 255
182 211 255
182 211 255
182 211 255
182 211 255
182 211 255
182 211 255
181 211 255
181 211 255
181 211 255
181 211 255
181 211 255
181 211 255
181 211 255
181 211 255
181 211 255
181 211 255
181 211 255
181 211 255
181 211 255
181 211 255
181 211 255
181 211 255
181 211 255
181 211 255
181 211 255
181 211 255
181 211 255
181 211 255
180 210 255
180 210 255
180 210 255
180 210 255
180 210 255
180 210 255
180 210 255
180 210 255
180 210 255
180 210 255
180 210 255
180 210 255
180 210 255
180 210 255
180 210 255
180 210 255
180 210 255
180 210 255
180 210 255
180 210 255
180 210 255
180 210 255
179 210 255
179 210 255
179 210 255
179 210 255
179 210 255
179 210 255
176 206 250
24 29 37
11 14 18
14 18 23
18 22 28
12 15 20
8 10 14
8 9 12
11 14 19
15 19 24
9 11 14
18 22 28
11 14 19
14 17 22
14 17 22
12 14 18
10 12 16
16 20 25
12 15 19
18 23 30
17 21 27
11 14 18
13 17 22
16 21 28
21 27 35
10 12 16
22 28 37
11 15 19
12 15 19
17 21 27
17 21 26
11 14 19
12 15 19
16 20 27
15 19 26
14 18 23
19 24 30
12 15 19
19 23 30
19 23 29
13 17 21
14 18 24
12 15 19
20 25 31
15 19 25
18 23 30
13 17 22
13 16 21
18 22 28
21 26 34
13 17 22
17 20 26
22 27 35
17 21 27
20 25 32
20 25 32
19 24 31
19 23 29
21 26 32
21 25 33
19 23 29
22 27 35
21 26 34
19 24 30
17 21 27
18 23 30
15 19 24
16 20 26
19 23 29
15 19 24
19 23 29
16 20 26
18 22 29
19 23 30
20 24 31
20 25 32
14 17 22
21 25 32
12 16 21
23 28 36
21 25 32
14 18 23
20 24 31
17 21 27
18 22 28
17 21 27
19 24 31
18 22 27
14 17 22
14 18 23
13 16 20
21 26 33
8 10 13
16 20 25
9 11 15
15 18 23
11 14 17
13 16 20
13 16 21
10 13 16
11 14 17
11 14 19
18 23 30
16 20 26
14 17 22
14 18 23
13 16 21
10 13 16
15 19 25
16 19 24
19 24 31
11 15 19
12 15 20
13 16 21
11 13 17
10 12 16
12 15 19
9 11 14
12 15 20
16 21 27
31 37 47
177 208 253
179 210 255
179 210 255
179 210 255
179 210 255
179 210 255
179 210 255
180 210 255
180 210 255
180 210 255
180 210 255
180 210 255
180 210 255
180 210 255
180 210 255
180 210 255
180 210 255
180 210 255
180 210 255
180 210 255
180 210 255
180 210 255
180 210 255
180 210 255
180 210 255
180 210 255
180 210 255
180 210 255
181 211 255
181 211 255
181 211 255
181 211 255
181 211 255
181 211 255
181 211 255
181 211 255
181 211 255
181 211 255
181 211 255
181 211 255
181 211 255
181 211 255
181 211 255
181 211 255
181 211 255
181 211 255
181 211 255
181 211 255
181 211 255
181 211 255
181 211 255
182 211 255
182 211 255
182 211 255
182 211 255
182 211 255
182 211 255
182 211 255
182 211 255
182 211 255
182 211 255
182 211 255
182 211 255
182 211 255
182 211 255
182 211 255
182 211 255
182 212 255
182 212 255
182 212 255
182 212 255
182 212 255
182 212 255
182 212 255
182 212 255
183 212 255
183 212 255
183 212 255
183 212 255
183 212 255
183 212 255
183 212 255
183 212 255
183 212 255
183 212 255
183 212 255
183 212 255
183 212 255
183 212 255
183 212 255
183 212 255
183 212 255
183 212 255
183 212 255
183 212 255
183 212 255
183 212 255
183 212 255
183 212 255
183 212 255
183 212 255
183 212 255
183 212 255
184 212 255
184 212 255
184 212 255
184 212 255
184 212 255
184 212 255
184 212 255
184 212 255
184 212 255
184 212 255
184 212 255
184 213 255
184 213 255
184 213 255
184 213 255
184 213 255
184 213 255
184 213 255
184 213 255
184 213 255
184 213 255
184 213 255
184 213 255
184 213 255
184 213 255
184 213 255
184 213 255
184 213 255
184 213 255
184 213 255
184 213 255
184 213 255
184 213 255
184 213 255
184 213 255
185 213 255
185 213 255
185 213 255
185 213 255
185 213 255
185 213 255
185 213 255
185 213 255
185 213 255
185 213 255
185 213 255
185 213 255
185 213 255
185 213 255
185 213 255
184 213 255
184 213 255
184 213 255
184 213 255
184 213 255
184 213 255
184 213 255
184 213 255
184 213 255
184 213 255
184 213 255
184 213 255
184 213 255
184 213 255
184 213 255
184 213 255
184 213 255
184 213 255
184 213 255
184 213 255
184 213 255
184 213 255
184 213 255
184 212 255
184 212 255
184 212 255
184 212 255
184 212 255
184 212 255
184 212 255
184 212 255
184 212 255
184 212 255
183 212 255
183 212 255
183 212 255
183 212 255
183 212 255
183 212 255
183 212 255
183 212 255
183 212 255
183 212 255
183 212 255
183 212 255
183 212 255
183 212 255
183 212 255
183 212 255
183 212 255
183 212 255
183 212 255
183 212 255
183 212 255
183 212 255
183 212 255
183 212 255
183 212 255
183 212 255
183 212 255
183 212 255
182 212 255
182 212 255
182 212 255
182 212 255
182 212 255
182 212 255
182 212 255
182 212 255
182 211 255
182 211 255
182 211 255
182 211 255
182 211 255
182 211 255
182 211 255
182 211 255
182 211 255
182 211 255
182 211 255
182 211 255
182 211 255
182 211 255
182 211 255
182 211 255
182 211 255
181 211 255
181 211 255
181 211 255
181 211 255
181 211 255
181 211 255
181 211 255
181 211 255
181 211 255
181 211 255
181 211 255
181 211 255
181 211 255
181 211 255
181 211 255
181 211 255
181 211 255
181 211 255
181 211 255
181 211 255
181 211 255
181 211 255
180 210 255
180 210 255
180 210 255
180 210 255
180 210 255
180 210 255
180 210 255
180 210 255
180 210 255
180 210 255
180 210 255
180 210 255
180 210 255
180 210 255
180 210 255
180 210 255
180 210 255
180 210 255
126 148 181
10 14 18
11 13 17
18 23 30
10 13 16
9 11 14
13 16 21
17 21 27
14 17 22
11 14 18
12 16 20
8 11 14
18 22 29
18 22 28
12 15 20
17 21 26
13 17 21
16 20 26
16 20 26
11 14 18
14 17 21
15 18 24
17 21 27
15 19 25
12 15 20
18 22 27
14 18 22
11 13 17
16 20 25
17 22 29
13 17 22
11 14 18
17 21 27
23 28 35
13 17 22
11 13 17
21 26 34
22 26 32
16 20 25
18 23 30
16 20 26
23 29 38
8 10 13
12 14 19
17 21 27
17 21 26
23 29 37
19 23 30
17 21 27
13 17 23
18 22 27
13 17 22
16 20 26
16 20 26
16 20 25
20 25 31
17 21 28
19 24 32
22 28 37
19 23 30
20 25 32
17 21 28
19 24 31
19 23 30
22 26 33
19 23 30
21 26 34
21 26 33
13 16 20
24 30 39
15 19 24
20 25 32
22 28 35
21 26 33
18 23 29
19 23 30
17 22 29
19 24 31
15 19 25
21 27 35
12 15 20
16 19 25
17 21 28
22 26 34
19 23 30
10 13 17
20 24 32
18 22 28
14 17 22
11 13 17
16 19 25
14 17 22
15 18 24
14 18 23
15 18 24
22 27 35
14 18 24
13 16 21
13 16 21
10 12 16
12 15 19
15 18 24
15 18 24
14 18 24
20 24 31
16 20 26
13 16 21
14 18 24
14 17 23
13 16 21
14 18 23
10 12 17
11 14 19
13 17 22
14 17 23
14 18 23
10 12 16
10 13 17
12 15 20
15 19 24
11 15 20
127 148 181
180 210 255
180 210 255
180 210 255
180 210 255
180 210 255
180 210 255
180 210 255
180 210 255
180 210 255
180 210 255
180 210 255
180 210 255
180 210 255
180 210 255
180 210 255
180 210 255
180 210 255
180 210 255
181 211 255
181 211 255
181 211 255
181 211 255
181 211 255
181 211 255
181 211 255
181 211 255
181 211 255
181 211 255
181 211 255
181 211 255
181 211 255
181 211 255
181 211 255
181 211 255
181 211 255
181 211 255
181 211 255
181 211 255
181 211 255
181 211 255
181 211 255
182 211 255
182 211 255
182 211 255
182 211 255
182 211 255
182 211 255
182 211 255
182 211 255
182 211 255
182 211 255
182 211 255
182 211 255
182 211 255
182 211 255
182 211 255
182 211 255
182 212 255
182 212 255
182 212 255
182 212 255
182 212 255
182 212 255
182 212 255
182 212 255
183 212 255
183 212 255
183 212 255
183 212 255
183 212 255
183 212 255
183 212 255
183 212 255
183 212 255
183 212 255
183 212 255
183 212 255
183 212 255
183 212 255
183 212 255
183 212 255
183 212 255
183 212 255
183 212 255
183 212 255
183 212 255
183 212 255
183 212 255
183 212 255
183 212 255
183 212 255
183 212 255
183 212 255
184 212 255
184 212 255
184 212 255
184 212 255
184 212 255
184 212 255
184 212 255
184 212 255
184 212 255
184 212 255
184 213 255
184 213 255
184 213 255
184 213 255
184 213 255
184 213 255
184 213 255
184 213 255
184 213 255
184 213 255
184 213 255
184 213 255
184 213 255
184 213 255
184 213 255
184 213 255
184 213 255
184 213 255
184 213 255
184 213 255
184 213 255
184 213 255
184 213 255
185 213 255
185 213 255
185 213 255
185 213 255
185 213 255
185 213 255
185 213 255
185 213 255
185 213 255
185 213 255
185 213 255
185 213 255
185 213 255
185 213 255
185 213 255
185 213 255
185 213 255
185 213 255
185 213 255
185 213 255
185 213 255
185 213 255
185 213 255
185 213 255
185 213 255
185 213 255
185 213 255
185 213 255
185 213 255
185 213 255
185 213 255
185 213 255
185 213 255
185 213 255
185 213 255
185 213 255
185 213 255
184 213 255
184 213 255
184 213 255
184 213 255
184 213 255
184 213 255
184 213 255
184 213 255
184 213 255
184 213 255
184 213 255
184 213 255
184 213 255
184 213 255
184 213 255
184 213 255
184 213 255
184 213 255
184 213 255
184 213 255
184 213 255
184 213 255
184 212 255
184 212 255
184 212 255
184 212 255
184 212 255
184 212 255
184 212 255
184 212 255
184 212 255
184 212 255
184 212 255
183 212 255
183 212 255
183 212 255
183 212 255
183 212 255
183 212 255
183 212 255
183 212 255
183 212 255
183 212 255
183 212 255
183 212 255
183 212 255
183 212 255
183 212 255
183 212 255
183 212 255
183 212 255
183 212 255
183 212 255
183 212 255
183 212 255
183 212 255
183 212 255
183 212 255
183 212 255
183 212 255
182 212 255
182 212 255
182 212 255
182 212 255
182 212 255
182 212 255
182 212 255
182 212 255
182 211 255
182 211 255
182 211 255
182 211 255
182 211 255
182 211 255
182 211 255
182 211 255
182 211 255
182 211 255
182 211 255
182 211 255
182 211 255
182 211 255
182 211 255
182 211 255
181 211 255
181 211 255
181 211 255
181 211 255
181 211 255
181 211 255
181 211 255
181 211 255
181 211 255
181 211 255
181 211 255
181 211 255
181 211 255
181 211 255
181 211 255
181 211 255
181 211 255
181 211 255
181 211 255
181 211 255
181 211 255
181 211 255
181 211 255
180 210 255
180 210 255
180 210 255
180 210 255
180 210 255
180 210 255
180 210 255
180 210 255
66 78 96
9 11 15
15 18 23
12 14 18
14 18 23
14 18 22
11 14 18
7 9 12
9 12 15
10 13 16
9 12 15
9 12 15
14 18 23
15 18 23
13 17 22
12 16 21
12 15 19
9 12 15
16 20 25
9 11 15
13 16 21
16 20 27
17 21 27
14 18 24
13 16 21
15 19 24
17 21 28
21 26 33
16 19 25
14 17 22
13 17 22
27 34 43
18 22 29
20 25 32
13 17 22
19 24 32
14 18 23
17 21 26
15 19 25
17 21 27
18 22 29
16 20 26
18 22 28
19 23 28
21 25 33
16 20 26
17 21 28
15 19 25
17 22 29
18 22 29
13 16 21
12 15 20
21 26 34
15 18 24
16 20 26
23 28 36
18 22 29
13 16 20
13 16 20
20 25 31
19 24 31
19 24 30
18 22 28
12 16 20
17 21 27
15 19 24
17 22 28
21 26 34
20 25 31
23 27 34
22 28 36
16 20 26
17 21 27
16 20 26
13 16 20
22 27 35
19 24 30
14 17 23
15 19 24
14 18 23
19 23 29
23 28 35
16 20 26
16 20 26
16 19 25
21 27 35
14 17 23
18 22 29
16 19 25
20 24 31
13 16 21
17 21 27
18 22 28
20 24 31
16 20 26
13 16 21
12 15 19
12 15 19
15 19 24
13 15 20
11 14 18
11 13 17
18 22 28
10 12 16
14 17 21
11 14 17
10 13 17
14 17 22
11 14 18
19 23 30
9 11 14
14 18 22
14 18 24
16 20 26
8 10 13
8 10 14
16 19 25
15 18 23
9 12 15
17 21 28
15 18 24
41 49 60
180 210 255
180 210 255
180 210 255
180 210 255
180 210 255
180 210 255
180 210 255
180 210 255
181 211 255
181 211 255
181 211 255
181 211 255
181 211 255
181 211 255
181 211 255
181 211 255
181 211 255
181 211 255
181 211 255
181 211 255
181 211 255
181 211 255
181 211 255
181 211 255
181 211 255
181 211 255
181 211 255
181 211 255
181 211 255
181 211 255
181 211 255
182 211 255
182 211 255
182 211 255
182 211 255
182 211 255
182 211 255
182 211 255
182 211 255
182 211 255
182 211 255
182 211 255
182 211 255
182 211 255
182 211 255
182 211 255
182 211 255
182 212 255
182 212 255
182 212 255
182 212 255
182 212 255
182 212 255
182 212 255
182 212 255
183 212 255
183 212 255
183 212 255
183 212 255
183 212 255
183 212 255
183 212 255
183 212 255
183 212 255
183 212 255
183 212 255
183 212 255
183 212 255
183 212 255
183 212 255
183 212 255
183 212 255
183 212 255
183 212 255
183 212 255
183 212 255
183 212 255
183 212 255
183 212 255
183 212 255
183 212 255
183 212 255
183 212 255
184 212 255
184 212 255
184 212 255
184 212 255
184 212 255
184 212 255
184 212 255
184 212 255
184 212 255
184 212 255
184 213 255
184 213 255
184 213 255
184 213 255
184 213 255
184 213 255
184 213 255
184 213 255
184 213 255
184 213 255
184 213 255
184 213 255
184 213 255
184 213 255
184 213 255
184 213 255
184 213 255
184 213 255
184 213 255
184 213 255
184 213 255
185 213 255
184 213 255
185 213 255
185 213 255
185 213 255
185 213 255
185 213 255
185 213 255
185 213 255
185 213 255
185 213 255
185 213 255
185 213 255
185 213 255
185 213 255
185 213 255
185 213 255
185 213 255
185 213 255
185 213 255
185 213 255
185 213 255
185 213 255
185 213 255
185 213 255
185 213 255
185 213 255
185 213 255
185 213 255
185 213 255
185 213 255
185 213 255
185 213 255
185 213 255
185 213 255
185 213 255
185 213 255
185 213 255
185 213 255
185 213 255
185 213 255
185 213 255
185 213 255
185 213 255
185 213 255
185 213 255
185 213 255
185 213 255
185 213 255
185 213 255
185 213 255
185 213 255
185 213 255
185 213 255
185 213 255
185 213 255
185 213 255
185 213 255
185 213 255
185 213 255
184 213 255
184 213 255
184 213 255
184 213 255
184 213 255
184 213 255
184 213 255
184 213 255
184 213 255
184 213 255
184 213 255
184 213 255
184 213 255
184 213 255
184 213 255
184 213 255
184 213 255
184 213 255
184 213 255
184 213 255
184 213 255
184 212 255
184 212 255
184 212 255
184 212 255
184 212 255
184 212 255
184 212 255
184 212 255
184 212 255
184 212 255
184 212 255
183 212 255
183 212 255
183 212 255
183 212 255
183 212 255
183 212 255
183 212 255
183 212 255
183 212 255
183 212 255
183 212 255
183 212 255
183 212 255
183 212 255
183 212 255
183 212 255
183 212 255
183 212 255
183 212 255
183 212 255
183 212 255
183 212 255
183 212 255
183 212 255
183 212 255
183 212 255
183 212 255
182 212 255
182 212 255
182 212 255
182 212 255
182 212 255
182 212 255
182 212 255
182 212 255
182 211 255
182 211 255
182 211 255
182 211 255
182 211 255
182 211 255
182 211 255
182 211 255
182 211 255
182 211 255
182 211 255
182 211 255
182 211 255
182 211 255
182 211 255
182 211 255
181 211 255
181 211 255
181 211 255
181 211 255
181 211 255
181 211 255
181 211 255
181 211 255
181 211 255
181 211 255
181 211 255
181 211 255
181 211 255
181 211 255
181 211 255
181 211 255
181 211 255
181 211 255
181 211 255
181 211 255
166 194 235
15 18 24
9 11 15
12 15 20
19 24 30
15 19 25
16 20 27
11 14 18
17 21 27
14 18 24
12 15 19
11 13 16
10 12 15
15 19 25
21 25 33
15 19 25
15 18 23
11 14 17
17 21 27
11 14 18
13 17 22
12 15 20
18 22 28
17 21 27
12 16 21
12 15 19
18 23 30
16 20 25
10 13 16
13 16 20
14 17 22
15 19 25
24 29 38
22 27 35
13 17 22
15 18 23
14 18 23
20 25 32
11 14 18
19 24 31
17 21 28
12 16 21
21 26 33
18 23 30
16 20 27
17 22 28
14 17 21
20 25 32
23 28 36
12 15 19
24 30 40
24 30 38
19 23 28
22 29 39
22 27 35
15 19 25
21 25 31
24 29 38
18 22 29
19 23 30
20 25 32
12 15 20
12 14 19
21 26 32
14 17 21
19 23 30
22 28 37
17 21 27
20 25 32
19 24 31
21 26 34
17 22 28
18 23 29
18 22 28
16 19 25
13 16 21
11 14 18
24 30 39
15 19 25
11 14 18
15 18 23
18 23 29
15 18 24
23 28 35
17 20 26
14 18 23
17 20 26
14 17 23
17 21 27
14 18 23
15 19 24
12 15 19
12 14 19
16 20 26
14 17 21
13 15 19
17 21 27
16 20 25
15 19 24
14 18 23
10 12 15
12 15 20
8 10 12
16 20 26
8 10 13
15 19 24
11 14 18
15 18 23
11 14 19
13 16 21
12 16 21
12 16 21
12 15 19
7 9 12
11 13 17
16 19 24
12 15 20
17 21 26
9 11 15
16 20 25
15 18 23
12 16 21
16 20 25
164 191 232
181 211 255
181 211 255
181 211 255
181 211 255
181 211 255
181 211 255
181 211 255
181 211 255
181 211 255
181 211 255
181 211 255
181 211 255
181 211 255
181 211 255
181 211 255
181 211 255
181 211 255
181 211 255
181 211 255
181 211 255
182 211 255
182 211 255
182 211 255
182 211 255
182 211 255
182 211 255
182 211 255
182 211 255
182 211 255
182 211 255
182 211 255
182 211 255
182 211 255
182 211 255
182 211 255
182 211 255
182 212 255
182 212 255
182 212 255
182 212 255
182 212 255
182 212 255
182 212 255
182 212 255
182 212 255
183 212 255
183 212 255
183 212 255
183 212 255
183 212 255
183 212 255
183 212 255
183 212 255
183 212 255
183 212 255
183 212 255
183 212 255
183 212 255
183 212 255
183 212 255
183 212 255
183 212 255
183 212 255
183 212 255
183 212 255
183 212 255
183 212 255
183 212 255
183 212 255
183 212 255
183 212 255
183 212 255
184 212 255
184 212 255
184 212 255
184 212 255
184 212 255
184 212 255
184 212 255
184 212 255
184 212 255
184 213 255
184 213 255
184 213 255
184 213 255
184 213 255
184 213 255
184 213 255
184 213 255
184 213 255
184 213 255
184 213 255
184 213 255
184 213 255
184 213 255
184 213 255
184 213 255
184 213 255
184 213 255
184 213 255
184 213 255
184 213 255
184 213 255
185 213 255
185 213 255
185 213 255
185 213 255
185 213 255
185 213 255
185 213 255
185 213 255
185 213 255
185 213 255
185 213 255
185 213 255
185 213 255
185 213 255
185 213 255
185 213 255
185 213 255
185 213 255
185 213 255
185 213 255
185 213 255
185 213 255
185 213 255
185 213 255
185 213 255
185 213 255
185 213 255
185 213 255
185 213 255
185 213 255
185 213 255
185 213 255
185 213 255
185 213 255
185 213 255
186 214 255
186 214 255
186 214 255
186 214 255
186 214 255
186 214 255
186 214 255
185 213 255
185 213 255
185 213 255
185 213 255
185 213 255
185 213 255
185 213 255
185 213 255
185 213 255
185 213 255
185 213 255
185 213 255
185 213 255
185 213 255
185 213 255
185 213 255
185 213 255
185 213 255
185 213 255
185 213 255
185 213 255
185 213 255
185 213 255
185 213 255
185 213 255
185 213 255
185 213 255
185 213 255
185 213 255
185 213 255
185 213 255
185 213 255
185 213 255
185 213 255
185 213 255
185 213 255
185 213 255
185 213 255
185 213 255
184 213 255
184 213 255
184 213 255
184 213 255
184 213 255
184 213 255
184 213 255
184 213 255
184 213 255
184 213 255
184 213 255
184 213 255
184 213 255
184 213 255
184 213 255
184 213 255
184 213 255
184 213 255
184 213 255
184 213 255
184 213 255
184 212 255
184 212 255
184 212 255
184 212 255
184 212 255
184 212 255
184 212 255
184 212 255
184 212 255
184 212 255
183 212 255
183 212 255
183 212 255
183 212 255
183 212 255
183 212 255
183 212 255
183 212 255
183 212 255
183 212 255
183 212 255
183 212 255
183 212 255
183 212 255
183 212 255
183 212 255
183 212 255
183 212 255
183 212 255
183 212 255
183 212 255
183 212 255
183 212 255
183 212 255
183 212 255
183 212 255
183 212 255
182 212 255
182 212 255
182 212 255
182 212 255
182 212 255
182 212 255
182 212 255
182 212 255
182 212 255
182 211 255
182 211 255
182 211 255
182 211 255
182 211 255
182 211 255
182 211 255
182 211 255
182 211 255
182 211 255
182 211 255
182 211 255
182 211 255
182 211 255
182 211 255
182 211 255
181 211 255
181 211 255
181 211 255
181 211 255
181 211 255
181 211 255
181 211 255
181 211 255
181 211 255
110 128 156
10 13 18
15 19 24
8 11 14
8 10 14
14 17 23
14 17 22
15 19 24
10 13 17
10 13 17
7 9 11
10 13 17
14 17 23
14 17 21
10 13 17
14 18 24
9 11 14
11 14 18
7 9 12
13 16 21
15 19 25
15 18 24
20 24 30
14 18 23
16 20 26
20 25 32
13 17 22
22 27 35
14 18 23
15 19 24
19 24 30
15 19 25
19 24 31
15 18 23
17 22 28
14 18 23
17 21 27
19 24 32
19 23 29
19 24 31
18 22 28
15 19 24
28 34 43
15 18 23
14 18 23
12 15 20
26 31 40
15 18 24
24 30 40
17 21 28
21 26 34
22 28 35
16 20 27
15 19 24
21 26 34
14 17 22
25 30 39
20 25 32
25 30 39
15 19 25
19 24 31
13 17 23
21 26 33
21 26 33
23 29 37
15 19 24
13 16 22
20 24 31
14 18 23
19 23 29
20 25 32
25 31 41
19 23 30
17 21 28
20 25 32
17 21 28
17 21 28
17 21 27
15 19 24
14 18 24
12 15 20
19 23 28
15 18 24
11 14 17
16 20 25
16 20 26
14 17 22
13 17 21
19 23 29
14 17 22
12 14 18
13 17 22
23 28 36
15 19 25
17 21 27
23 28 35
14 17 21
20 25 31
13 17 21
18 23 29
15 19 24
13 17 22
15 19 25
14 17 22
16 19 25
11 13 17
13 17 22
14 18 24
7 9 13
10 13 18
14 17 21
20 26 33
17 21 27
15 19 24
13 17 22
10 12 16
9 12 15
13 17 22
15 19 26
19 24 32
14 17 23
13 16 21
10 12 16
102 119 146
181 211 255
181 211 255
181 211 255
181 211 255
181 211 255
181 211 255
181 211 255
181 211 255
182 211 255
182 211 255
182 211 255
182 211 255
182 211 255
182 211 255
182 211 255
182 211 255
182 211 255
182 211 255
182 211 255
182 211 255
182 211 255
182 211 255
182 211 255
182 211 255
182 211 255
182 211 255
182 212 255
182 212 255
182 212 255
182 212 255
182 212 255
182 212 255
182 212 255
182 212 255
183 212 255
183 212 255
183 212 255
183 212 255
183 212 255
183 212 255
183 212 255
183 212 255
183 212 255
183 212 255
183 212 255
183 212 255
183 212 255
183 212 255
183 212 255
183 212 255
183 212 255
183 212 255
183 212 255
183 212 255
183 212 255
183 212 255
183 212 255
183 212 255
183 212 255
183 212 255
183 212 255
184 212 255
184 212 255
184 212 255
184 212 255
184 212 255
184 212 255
184 212 255
184 212 255
184 212 255
184 212 255
184 213 255
184 213 255
184 213 255
184 213 255
184 213 255
184 213 255
184 213 255
184 213 255
184 213 255
184 213 255
184 213 255
184 213 255
184 213 255
184 213 255
184 213 255
184 213 255
184 213 255
184 213 255
184 213 255
184 213 255
184 213 255
185 213 255
185 213 255
185 213 255
185 213 255
185 213 255
185 213 255
185 213 255
185 213 255
185 213 255
185 213 255
185 213 255
185 213 255
185 213 255
185 213 255
185 213 255
185 213 255
185 213 255
185 213 255
185 213 255
185 213 255
185 213 255
185 213 255
185 213 255
185 213 255
185 213 255
185 213 255
185 213 255
185 213 255
185 213 255
185 213 255
185 213 255
185 213 255
185 213 255
185 213 255
185 213 255
185 213 255
185 213 255
185 213 255
186 214 255
186 214 255
186 214 255
186 214 255
186 214 255
186 214 255
186 214 255
186 214 255
186 214 255
186 214 255
186 214 255
186 214 255
186 214 255
186 214 255
186 214 255
186 214 255
186 214 255
186 214 255
186 214 255
186 214 255
186 214 255
186 214 255
186 214 255
186 214 255
186 214 255
186 214 255
186 214 255
186 214 255
185 213 255
185 213 255
185 213 255
185 213 255
185 213 255
185 213 255
185 213 255
185 213 255
185 213 255
185 213 255
185 213 255
185 213 255
185 213 255
185 213 255
185 213 255
185 213 255
185 213 255
185 213 255
185 213 255
185 213 255
185 213 255
185 213 255
185 213 255
185 213 255
185 213 255
185 213 255
185 213 255
185 213 255
185 213 255
185 213 255
185 213 255
185 213 255
185 213 255
185 213 255
185 213 255
185 213 255
185 213 255
184 213 255
184 213 255
184 213 255
184 213 255
184 213 255
184 213 255
184 213 255
184 213 255
184 213 255
184 213 255
184 213 255
184 213 255
184 213 255
184 213 255
184 213 255
184 213 255
184 213 255
184 213 255
184 213 255
184 213 255
184 213 255
184 212 255
184 212 255
184 212 255
184 212 255
184 212 255
184 212 255
184 212 255
184 212 255
184 212 255
184 212 255
183 212 255
183 212 255
183 212 255
183 212 255
183 212 255
183 212 255
183 212 255
183 212 255
183 212 255
183 212 255
183 212 255
183 212 255
183 212 255
183 212 255
183 212 255
183 212 255
183 212 255
183 212 255
183 212 255
183 212 255
183 212 255
183 212 255
183 212 255
183 212 255
183 212 255
183 212 255
183 212 255
182 212 255
182 212 255
182 212 255
182 212 255
182 212 255
182 212 255
182 212 255
182 212 255
182 212 255
182 211 255
182 211 255
182 211 255
182 211 255
182 211 255
182 211 255
182 211 255
182 211 255
182 211 255
182 211 255
182 211 255
182 211 255
182 211 255
182 211 255
47 56 69
17 21 26
18 22 29
12 16 21
10 13 16
10 13 16
13 16 21
18 22 28
12 15 19
18 23 29
10 12 16
15 18 23
9 11 14
14 17 22
11 14 18
9 11 14
12 16 21
11 14 19
17 20 26
13 16 22
17 21 27
20 24 30
18 22 29
20 24 31
12 15 19
23 28 36
13 16 21
16 19 24
17 21 28
15 19 25
19 24 31
22 27 35
17 21 27
16 20 26
16 20 26
17 21 28
21 26 33
18 23 30
13 17 22
18 22 28
18 23 30
14 17 22
15 18 24
22 27 35
17 22 29
18 22 28
23 29 38
21 26 33
22 28 35
15 18 22
26 33 44
14 18 23
18 22 28
15 19 24
19 24 32
18 23 29
22 28 37
18 22 29
22 28 35
14 18 24
20 25 33
23 29 37
15 18 23
20 25 32
11 13 17
13 16 21
22 27 35
12 15 19
18 22 28
19 24 31
17 21 27
11 14 18
11 14 19
19 23 30
20 25 33
17 20 26
16 20 25
19 24 31
17 21 28
17 21 28
19 23 30
18 22 28
19 23 30
15 19 26
16 21 28
19 23 29
15 18 24
15 19 25
14 18 23
16 19 25
12 16 20
14 18 23
12 15 20
15 18 24
21 26 34
8 10 13
10 13 16
15 19 25
8 10 13
18 23 29
17 21 26
15 19 24
14 17 23
17 21 26
15 19 25
11 14 18
9 11 14
7 9 11
11 13 17
9 12 16
12 15 20
10 12 16
13 17 22
6 7 9
11 14 18
12 15 20
14 17 21
11 14 19
16 21 28
12 14 18
15 19 24
12 15 19
17 20 26
28 33 42
182 211 255
182 211 255
182 211 255
182 211 255
182 211 255
182 211 255
182 211 255
182 211 255
182 211 255
182 211 255
182 211 255
182 211 255
182 211 255
182 212 255
182 212 255
182 212 255
182 212 255
182 212 255
182 212 255
182 212 255
182 212 255
182 212 255
183 212 255
183 212 255
183 212 255
183 212 255
183 212 255
183 212 255
183 212 255
183 212 255
183 212 255
183 212 255
183 212 255
183 212 255
183 212 255
183 212 255
183 212 255
183 212 255
183 212 255
183 212 255
183 212 255
183 212 255
183 212 255
183 212 255
183 212 255
183 212 255
183 212 255
183 212 255
183 212 255
183 212 255
184 212 255
184 212 255
184 212 255
184 212 255
184 212 255
184 212 255
184 212 255
184 212 255
184 212 255
184 212 255
184 213 255
184 213 255
184 213 255
184 213 255
184 213 255
184 213 255
184 213 255
184 213 255
184 213 255
184 213 255
184 213 255
184 213 255
184 213 255
184 213 255
184 213 255
184 213 255
184 213 255
184 213 255
184 213 255
184 213 255
185 213 255
185 213 255
185 213 255
185 213 255
185 213 255
185 213 255
185 213 255
185 213 255
185 213 255
185 213 255
185 213 255
185 213 255
185 213 255
185 213 255
185 213 255
185 213 255
185 213 255
185 213 255
185 213 255
185 213 255
185 213 255
185 213 255
185 213 255
185 213 255
185 213 255
185 213 255
185 213 255
185 213 255
185 213 255
185 213 255
185 213 255
185 213 255
185 213 255
185 213 255
185 213 255
185 213 255
185 213 255
185 213 255
185 213 255
186 214 255
186 214 255
186 214 255
186 214 255
186 214 255
186 214 255
186 214 255
186 214 255
186 214 255
186 214 255
186 214 255
186 214 255
186 214 255
186 214 255
186 214 255
186 214 255
186 214 255
186 214 255
186 214 255
186 214 255
186 214 255
186 214 255
186 214 255
186 214 255
186 214 255
186 214 255
186 214 255
186 214 255
186 214 255
186 214 255
186 214 255
186 214 255
186 214 255
186 214 255
186 214 255
186 214 255
186 214 255
186 214 255
186 214 255
186 214 255
186 214 255
186 214 255
186 214 255
186 214 255
186 214 255
186 214 255
186 214 255
186 214 255
186 214 255
186 214 255
186 214 255
185 213 255
185 213 255
185 213 255
185 213 255
185 213 255
185 213 255
185 213 255
185 213 255
185 213 255
185 213 255
185 213 255
185 213 255
185 213 255
185 213 255
185 213 255
185 213 255
185 213 255
185 213 255
185 213 255
185 213 255
185 213 255
185 213 255
185 213 255
185 213 255
185 213 255
185 213 255
185 213 255
185 213 255
185 213 255
185 213 255
185 213 255
185 213 255
185 213 255
185 213 255
185 213 255
185 213 255
185 213 255
184 213 255
184 213 255
184 213 255
184 213 255
184 213 255
184 213 255
184 213 255
184 213 255
184 213 255
184 213 255
184 213 255
184 213 255
184 213 255
184 213 255
184 213 255
184 213 255
184 213 255
184 213 255
184 213 255
184 213 255
184 213 255
184 212 255
184 212 255
184 212 255
184 212 255
184 212 255
184 212 255
184 212 255
184 212 255
184 212 255
183 212 255
183 212 255
183 212 255
183 212 255
183 212 255
183 212 255
183 212 255
183 212 255
183 212 255
183 212 255
183 212 255
183 212 255
183 212 255
183 212 255
183 212 255
183 212 255
183 212 255
183 212 255
183 212 255
183 212 255
183 212 255
183 212 255
183 212 255
183 212 255
183 212 255
183 212 255
183 212 255
183 212 255
183 212 255
182 212 255
182 212 255
182 212 255
182 212 255
182 212 255
182 212 255
182 212 255
182 212 255
182 212 255
165 191 231
22 26 34
15 19 25
9 11 14
22 27 33
9 12 15
9 11 15
15 19 24
15 18 24
18 22 28
11 13 18
10 12 16
10 12 16
16 20 25
17 21 27
13 16 20
15 19 25
20 25 32
12 15 19
15 19 24
8 10 12
12 15 20
12 16 21
15 19 24
16 19 25
20 25 32
10 13 17
14 17 22
21 26 35
10 13 17
14 17 22
20 25 34
20 25 32
20 24 31
17 21 27
17 22 28
13 16 21
11 14 18
16 20 26
10 13 17
19 23 30
19 24 31
15 18 24
14 17 23
19 24 31
13 16 22
17 21 26
17 22 29
17 20 25
20 25 32
23 29 37
15 19 24
21 26 34
16 20 26
14 17 22
12 15 19
14 18 24
19 24 31
19 24 31
13 16 21
16 20 25
22 28 37
20 25 32
18 22 29
20 24 30
13 16 21
17 21 28
21 27 34
18 22 28
24 30 39
17 21 27
19 23 31
18 23 30
16 19 25
23 28 36
17 20 25
14 18 23
15 19 24
23 29 36
14 17 23
14 17 22
20 24 31
21 27 35
18 22 28
15 18 23
19 23 29
14 18 23
14 17 23
15 19 24
15 18 24
14 18 23
18 22 28
15 18 24
14 18 23
20 25 32
18 23 29
16 20 26
13 16 21
17 21 27
18 23 29
14 18 23
14 17 22
19 24 30
17 20 25
8 10 13
18 22 28
14 17 22
12 15 19
11 14 18
14 18 23
11 14 18
11 14 18
9 12 15
16 20 25
17 21 26
16 20 26
9 11 13
9 11 14
8 10 13
7 9 11
16 19 25
8 10 14
14 18 23
14 17 22
11 13 17
167 194 234
182 212 255
182 212 255
182 212 255
182 212 255
182 212 255
182 212 255
182 212 255
182 212 255
182 212 255
182 212 255
183 212 255
183 212 255
183 212 255
183 212 255
183 212 255
183 212 255
183 212 255
183 212 255
183 212 255
183 212 255
183 212 255
183 212 255
183 212 255
183 212 255
183 212 255
183 212 255
183 212 255
183 212 255
183 212 255
183 212 255
183 212 255
183 212 255
183 212 255
183 212 255
183 212 255
183 212 255
183 212 255
183 212 255
184 212 255
184 212 255
184 212 255
184 212 255
184 212 255
184 212 255
184 212 255
184 212 255
184 212 255
184 213 255
184 213 255
184 213 255
184 213 255
184 213 255
184 213 255
184 213 255
184 213 255
184 213 255
184 213 255
184 213 255
184 213 255
184 213 255
184 213 255
184 213 255
184 213 255
184 213 255
184 213 255
184 213 255
184 213 255
184 213 255
185 213 255
185 213 255
185 213 255
185 213 255
185 213 255
185 213 255
185 213 255
185 213 255
185 213 255
185 213 255
185 213 255
185 213 255
185 213 255
185 213 255
185 213 255
185 213 255
185 213 255
185 213 255
185 213 255
185 213 255
185 213 255
185 213 255
185 213 255
185 213 255
185 213 255
185 213 255
185 213 255
185 213 255
185 213 255
185 213 255
185 213 255
185 213 255
185 213 255
185 213 255
185 213 255
185 213 255
186 214 255
186 214 255
186 214 255
186 214 255
186 214 255
186 214 255
186 214 255
186 214 255
186 214 255
186 214 255
186 214 255
186 214 255
186 214 255
186 214 255
186 214 255
186 214 255
186 214 255
186 214 255
186 214 255
186 214 255
186 214 255
186 214 255
186 214 255
186 214 255
186 214 255
186 214 255
186 214 255
186 214 255
186 214 255
186 214 255
186 214 255
186 214 255
186 214 255
186 214 255
186 214 255
186 214 255
186 214 255
186 214 255
186 214 255
186 214 255
186 214 255
186 214 255
186 214 255
186 214 255
186 214 255
186 214 255
186 214 255
186 214 255
186 214 255
186 214 255
186 214 255
186 214 255
186 214 255
186 214 255
186 214 255
186 214 255
186 214 255
186 214 255
186 214 255
186 214 255
186 214 255
186 214 255
186 214 255
186 214 255
186 214 255
186 214 255
186 214 255
186 214 255
186 214 255
186 214 255
186 214 255
186 214 255
186 214 255
186 214 255
186 214 255
186 214 255
186 214 255
186 214 255
186 214 255
185 213 255
185 213 255
185 213 255
185 213 255
185 213 255
185 213 255
185 213 255
185 213 255
185 213 255
185 213 255
185 213 255
185 213 255
185 213 255
185 213 255
185 213 255
185 213 255
185 213 255
185 213 255
185 213 255
185 213 255
185 213 255
185 213 255
185 213 255
185 213 255
185 213 255
185 213 255
185 213 255
185 213 255
185 213 255
185 213 255
185 213 255
185 213 255
185 213 255
185 213 255
185 213 255
184 213 255
184 213 255
184 213 255
184 213 255
184 213 255
184 213 255
184 213 255
184 213 255
184 213 255
184 213 255
184 213 255
184 213 255
184 213 255
184 213 255
184 213 255
184 213 255
184 213 255
184 213 255
184 213 255
184 213 255
184 213 255
184 212 255
184 212 255
184 212 255
184 212 255
184 212 255
184 212 255
184 212 255
184 212 255
184 212 255
184 212 255
183 212 255
183 212 255
183 212 255
183 212 255
183 212 255
183 212 255
183 212 255
183 212 255
183 212 255
183 212 255
183 212 255
183 212 255
183 212 255
183 212 255
183 212 255
183 212 255
183 212 255
183 212 255
183 212 255
183 212 255
183 212 255
183 212 255
183 212 255
183 212 255
183 212 255
107 124 151
16 19 24
17 21 27
7 9 11
14 17 22
14 17 22
7 9 12
10 12 16
6 7 10
8 11 14
14 17 22
14 17 22
17 22 29
10 13 18
10 12 16
14 18 23
13 17 21
14 18 23
11 14 18
15 18 23
15 19 24
14 18 23
13 16 21
17 22 28
17 21 28
13 16 21
15 19 25
12 15 20
21 25 32
17 21 27
15 19 25
19 24 31
21 26 34
17 21 28
15 18 22
13 17 22
12 16 21
17 22 28
14 17 21
24 30 38
11 15 20
20 24 32
24 30 39
17 21 26
19 24 32
22 28 37
13 16 21
20 25 32
15 19 25
14 18 23
14 17 22
13 16 21
19 23 30
17 21 26
21 26 35
13 17 23
16 20 26
19 24 31
13 17 23
22 28 36
21 27 35
13 15 19
17 22 29
18 22 28
24 30 38
18 22 28
16 20 27
13 16 21
19 24 30
23 28 36
18 23 30
12 16 21
16 19 25
18 23 30
18 23 29
15 18 24
20 25 32
17 21 27
20 25 32
11 13 17
16 20 26
16 20 25
16 20 26
19 23 29
20 24 32
15 18 23
16 20 26
15 18 24
22 27 34
20 24 31
16 20 26
21 27 35
20 25 32
17 21 28
15 18 23
21 26 34
13 15 20
16 19 25
17 20 26
22 27 35
12 14 18
16 20 25
9 11 14
19 24 31
14 17 21
11 14 18
10 12 15
15 19 24
16 20 26
10 12 15
17 21 27
14 17 22
13 17 22
15 18 22
12 14 18
15 18 23
11 13 17
14 17 22
9 11 14
12 15 19
16 19 25
15 19 24
18 22 29
17 21 28
18 22 28
102 118 143
183 212 255
183 212 255
183 212 255
183 212 255
183 212 255
183 212 255
183 212 255
183 212 255
183 212 255
183 212 255
183 212 255
183 212 255
183 212 255
183 212 255
183 212 255
183 212 255
183 212 255
183 212 255
183 212 255
183 212 255
183 212 255
183 212 255
183 212 255
183 212 255
183 212 255
184 212 255
184 212 255
184 212 255
184 212 255
184 212 255
184 212 255
184 212 255
184 212 255
184 212 255
184 212 255
184 213 255
184 213 255
184 213 255
184 213 255
184 213 255
184 213 255
184 213 255
184 213 255
184 213 255
184 213 255
184 213 255
184 213 255
184 213 255
184 213 255
184 213 255
184 213 255
184 213 255
184 213 255
184 213 255
184 213 255
185 213 255
185 213 255
185 213 255
185 213 255
185 213 255
185 213 255
185 213 255
185 213 255
185 213 255
185 213 255
185 213 255
185 213 255
185 213 255
185 213 255
185 213 255
185 213 255
185 213 255
185 213 255
185 213 255
185 213 255
185 213 255
185 213 255
185 213 255
185 213 255
185 213 255
185 213 255
185 213 255
185 213 255
185 213 255
185 213 255
185 213 255
185 213 255
185 213 255
185 213 255
185 213 255
185 213 255
186 214 255
186 214 255
186 214 255
186 214 255
186 214 255
186 214 255
186 214 255
186 214 255
186 214 255
186 214 255
186 214 255
186 214 255
186 214 255
186 214 255
186 214 255
186 214 255
186 214 255
186 214 255
186 214 255
186 214 255
186 214 255
186 214 255
186 214 255
186 214 255
186 214 255
186 214 255
186 214 255
186 214 255
186 214 255
186 214 255
186 214 255
186 214 255
186 214 255
186 214 255
186 214 255
186 214 255
186 214 255
186 214 255
186 214 255
186 214 255
186 214 255
186 214 255
186 214 255
186 214 255
186 214 255
186 214 255
187 214 255
187 214 255
187 214 255
187 214 255
187 214 255
187 214 255
187 214 255
187 214 255
187 214 255
187 214 255
187 214 255
187 214 255
187 214 255
187 214 255
187 214 255
186 214 255
186 214 255
186 214 255
186 214 255
186 214 255
186 214 255
186 214 255
186 214 255
186 214 255
186 214 255
186 214 255
186 214 255
186 214 255
186 214 255
186 214 255
186 214 255
186 214 255
186 214 255
186 214 255
186 214 255
186 214 255
186 214 255
186 214 255
186 214 255
186 214 255
186 214 255
186 214 255
186 214 255
186 214 255
186 214 255
186 214 255
186 214 255
186 214 255
186 214 255
186 214 255
186 214 255
186 214 255
186 214 255
186 214 255
186 214 255
186 214 255
186 214 255
186 214 255
186 214 255
185 213 255
185 213 255
185 213 255
185 213 255
185 213 255
185 213 255
185 213 255
185 213 255
185 213 255
185 213 255
185 213 255
185 213 255
185 213 255
185 213 255
185 213 255
185 213 255
185 213 255
185 213 255
185 213 255
185 213 255
185 213 255
185 213 255
185 213 255
185 213 255
185 213 255
185 213 255
185 213 255
185 213 255
185 213 255
185 213 255
185 213 255
185 213 255
185 213 255
185 213 255
185 213 255
184 213 255
184 213 255
184 213 255
184 213 255
184 213 255
184 213 255
184 213 255
184 213 255
184 213 255
184 213 255
184 213 255
184 213 255
184 213 255
184 213 255
184 213 255
184 213 255
184 213 255
184 213 255
184 213 255
184 213 255
184 213 255
184 213 255
184 212 255
184 212 255
184 212 255
184 212 255
184 212 255
184 212 255
184 212 255
184 212 255
184 212 255
184 212 255
183 212 255
183 212 255
183 212 255
183 212 255
183 212 255
183 212 255
183 212 255
183 212 255
183 212 255
183 212 255
183 212 255
77 90 110
12 16 20
15 19 25
16 19 25
14 17 22
14 17 22
12 15 19
14 17 23
16 20 25
8 10 13
11 14 18
13 17 22
11 15 19
14 18 23
12 15 20
16 19 25
10 12 16
16 20 25
11 14 19
14 18 23
17 21 27
16 20 26
18 23 31
11 15 19
18 22 30
18 22 28
18 23 30
18 23 30
13 17 22
19 23 30
14 17 21
12 15 20
19 23 29
20 24 30
20 25 32
16 20 27
18 22 28
12 15 19
16 20 26
22 27 35
15 19 26
16 20 25
24 30 39
21 25 33
9 12 16
13 16 21
23 28 36
17 21 28
22 27 34
18 23 30
15 18 22
21 25 32
14 18 23
15 19 24
20 25 32
22 27 36
16 19 24
16 20 25
16 20 26
23 28 36
20 25 33
17 22 29
27 33 42
24 29 38
14 18 23
14 18 23
17 21 27
19 24 32
19 24 32
15 19 25
18 22 29
20 25 33
23 28 36
16 20 26
19 24 32
18 23 29
16 20 25
23 28 36
21 26 33
19 24 31
14 17 23
18 22 29
19 23 30
17 21 28
21 27 35
24 30 38
21 26 33
19 24 31
13 16 20
21 26 33
20 25 32
15 19 24
20 25 32
22 27 34
11 13 17
20 24 31
16 20 25
17 20 25
11 14 17
12 15 20
15 18 23
16 20 26
8 10 12
15 20 26
15 19 25
14 18 24
20 25 32
18 22 28
19 24 30
14 18 23
13 16 22
9 11 14
15 18 23
11 13 17
14 17 22
14 17 21
12 14 18
11 14 18
11 15 20
12 15 20
11 14 18
8 10 13
14 17 23
7 8 11
16 20 26
63 73 88
183 212 255
183 212 255
183 212 255
183 212 255
183 212 255
183 212 255
183 212 255
183 212 255
183 212 255
183 212 255
183 212 255
184 212 255
184 212 255
184 212 255
184 212 255
184 212 255
184 212 255
184 212 255
184 212 255
184 212 255
184 212 255
184 212 255
184 213 255
184 213 255
184 213 255
184 213 255
184 213 255
184 213 255
184 213 255
184 213 255
184 213 255
184 213 255
184 213 255
184 213 255
184 213 255
184 213 255
184 213 255
184 213 255
184 213 255
184 213 255
184 213 255
184 213 255
184 213 255
185 213 255
185 213 255
185 213 255
185 213 255
185 213 255
185 213 255
185 213 255
185 213 255
185 213 255
185 213 255
185 213 255
185 213 255
185 213 255
185 213 255
185 213 255
185 213 255
185 213 255
185 213 255
185 213 255
185 213 255
185 213 255
185 213 255
185 213 255
185 213 255
185 213 255
185 213 255
185 213 255
185 213 255
185 213 255
185 213 255
185 213 255
185 213 255
185 213 255
185 213 255
185 213 255
186 214 255
186 214 255
186 214 255
186 214 255
186 214 255
186 214 255
186 214 255
186 214 255
186 214 255
186 214 255
186 214 255
186 214 255
186 214 255
186 214 255
186 214 255
186 214 255
186 214 255
186 214 255
186 214 255
186 214 255
186 214 255
186 214 255
186 214 255
186 214 255
186 214 255
186 214 255
186 214 255
186 214 255
186 214 255
186 214 255
186 214 255
186 214 255
186 214 255
186 214 255
186 214 255
186 214 255
186 214 255
186 214 255
186 214 255
186 214 255
186 214 255
186 214 255
186 214 255
186 214 255
187 214 255
187 214 255
187 214 255
187 214 255
187 214 255
187 214 255
187 214 255
187 214 255
187 214 255
187 214 255
187 214 255
187 214 255
187 214 255
187 214 255
187 214 255
187 214 255
187 214 255
187 214 255
187 214 255
187 214 255
187 214 255
187 214 255
187 214 255
187 214 255
187 214 255
187 214 255
187 214 255
187 214 255
187 214 255
187 214 255
187 214 255
187 214 255
187 214 255
187 214 255
187 214 255
187 214 255
187 214 255
187 214 255
187 214 255
187 214 255
187 214 255
187 214 255
187 214 255
187 214 255
186 214 255
186 214 255
186 214 255
186 214 255
186 214 255
186 214 255
186 214 255
186 214 255
186 214 255
186 214 255
186 214 255
186 214 255
186 214 255
186 214 255
186 214 255
186 214 255
186 214 255
186 214 255
186 214 255
186 214 255
186 214 255
186 214 255
186 214 255
186 214 255
186 214 255
186 214 255
186 214 255
186 214 255
186 214 255
186 214 255
186 214 255
186 214 255
186 214 255
186 214 255
186 214 255
186 214 255
186 214 255
186 214 255
186 214 255
186 214 255
186 214 255
186 214 255
186 214 255
186 214 255
185 213 255
185 213 255
185 213 255
185 213 255
185 213 255
185 213 255
185 213 255
185 213 255
185 213 255
185 213 255
185 213 255
185 213 255
185 213 255
185 213 255
185 213 255
185 213 255
185 213 255
185 213 255
185 213 255
185 213 255
185 213 255
185 213 255
185 213 255
185 213 255
185 213 255
185 213 255
185 213 255
185 213 255
185 213 255
185 213 255
185 213 255
185 213 255
185 213 255
185 213 255
185 213 255
185 213 255
184 213 255
184 213 255
184 213 255
184 213 255
184 213 255
184 213 255
184 213 255
184 213 255
184 213 255
184 213 255
184 213 255
184 213 255
184 213 255
184 213 255
184 213 255
184 213 255
184 213 255
184 213 255
184 213 255
184 213 255
184 212 255
184 212 255
184 212 255
184 212 255
184 212 255
184 212 255
184 212 255
182 210 253
18 22 27
15 19 25
16 20 25
17 20 25
13 17 22
18 22 28
16 20 26
10 13 17
5 6 9
12 16 20
12 15 20
11 14 18
15 19 25
15 19 24
18 22 28
12 15 18
17 22 28
17 21 27
12 15 20
23 29 37
11 15 20
13 17 22
18 23 29
16 20 27
17 21 27
15 19 25
17 21 26
15 19 24
18 22 28
19 23 30
9 11 14
16 20 26
16 21 27
21 25 33
17 21 28
12 15 19
14 18 23
16 20 27
15 18 24
15 18 23
18 22 29
19 23 29
15 18 23
18 22 29
19 25 32
14 17 22
14 17 22
18 23 30
12 15 19
20 24 32
16 20 25
16 20 25
17 22 28
18 22 29
20 25 31
19 24 31
21 26 33
18 23 29
19 23 29
19 24 31
19 24 31
14 18 23
16 21 27
21 26 34
16 20 26
20 24 31
16 20 25
21 26 34
18 21 27
17 21 27
18 23 29
19 23 29
25 31 39
18 22 29
17 21 26
18 22 29
18 23 30
19 24 30
18 22 29
19 23 30
14 18 23
15 18 24
15 18 23
19 23 29
19 23 31
19 24 30
19 24 31
16 20 26
11 14 18
16 20 26
14 18 24
15 19 25
14 18 24
19 24 31
17 22 29
17 21 28
11 14 18
13 17 22
16 20 26
12 14 18
15 19 25
13 16 22
17 22 29
17 21 27
19 23 30
16 19 24
15 19 25
8 10 13
18 22 28
14 18 24
18 23 29
14 18 23
17 21 27
10 13 17
7 8 11
16 19 25
10 12 16
9 12 15
12 16 21
9 11 14
14 17 22
18 22 27
15 18 22
13 16 21
19 23 29
14 17 22
184 212 255
184 212 255
184 212 255
184 212 255
184 212 255
184 212 255
184 212 255
184 213 255
184 213 255
184 213 255
184 213 255
184 213 255
184 213 255
184 213 255
184 213 255
184 213 255
184 213 255
184 213 255
184 213 255
184 213 255
184 213 255
184 213 255
184 213 255
184 213 255
184 213 255
184 213 255
184 213 255
184 213 255
184 213 255
185 213 255
185 213 255
185 213 255
185 213 255
185 213 255
185 213 255
185 213 255
185 213 255
185 213 255
185 213 255
185 213 255
185 213 255
185 213 255
185 213 255
185 213 255
185 213 255
185 213 255
185 213 255
185 213 255
185 213 255
185 213 255
185 213 255
185 213 255
185 213 255
185 213 255
185 213 255
185 213 255
185 213 255
185 213 255
185 213 255
185 213 255
185 213 255
185 213 255
185 213 255
185 213 255
186 214 255
186 214 255
186 214 255
186 214 255
186 214 255
186 214 255
186 214 255
186 214 255
186 214 255
186 214 255
186 214 255
186 214 255
186 214 255
186 214 255
186 214 255
186 214 255
186 214 255
186 214 255
186 214 255
186 214 255
186 214 255
186 214 255
186 214 255
186 214 255
186 214 255
186 214 255
186 214 255
186 214 255
186 214 255
186 214 255
186 214 255
186 214 255
186 214 255
186 214 255
186 214 255
186 214 255
186 214 255
186 214 255
186 214 255
186 214 255
186 214 255
186 214 255
186 214 255
187 214 255
187 214 255
187 214 255
187 214 255
187 214 255
187 214 255
187 214 255
187 214 255
187 214 255
187 214 255
187 214 255
187 214 255
187 214 255
187 214 255
187 214 255
187 214 255
187 214 255
187 214 255
187 214 255
187 214 255
187 214 255
187 214 255
187 214 255
187 214 255
187 214 255
187 214 255
187 214 255
187 214 255
187 214 255
187 214 255
187 215 255
187 215 255
187 215 255
187 215 255
187 215 255
187 215 255
187 215 255
187 215 255
187 215 255
187 214 255
187 214 255
187 214 255
187 214 255
187 214 255
187 214 255
187 214 255
187 214 255
187 214 255
187 214 255
187 214 255
187 214 255
187 214 255
187 214 255
187 214 255
187 214 255
187 214 255
187 214 255
187 214 255
187 214 255
187 214 255
187 214 255
187 214 255
187 214 255
187 214 255
187 214 255
187 214 255
187 214 255
187 214 255
187 214 255
187 214 255
187 214 255
187 214 255
187 214 255
187 214 255
186 214 255
186 214 255
186 214 255
186 214 255
186 214 255
186 214 255
186 214 255
186 214 255
186 214 255
186 214 255
186 214 255
186 214 255
186 214 255
186 214 255
186 214 255
186 214 255
186 214 255
186 214 255
186 214 255
186 214 255
186 214 255
186 214 255
186 214 255
186 214 255
186 214 255
186 214 255
186 214 255
186 214 255
186 214 255
186 214 255
186 214 255
186 214 255
186 214 255
186 214 255
186 214 255
186 214 255
186 214 255
186 214 255
186 214 255
186 214 255
186 214 255
186 214 255
186 214 255
185 213 255
185 213 255
185 213 255
185 213 255
185 213 255
185 213 255
185 213 255
185 213 255
185 213 255
185 213 255
185 213 255
185 213 255
185 213 255
185 213 255
185 213 255
185 213 255
185 213 255
185 213 255
185 213 255
185 213 255
185 213 255
185 213 255
185 213 255
185 213 255
185 213 255
185 213 255
185 213 255
185 213 255
185 213 255
185 213 255
185 213 255
185 213 255
185 213 255
185 213 255
185 213 255
185 213 255
184 213 255
184 213 255
184 213 255
184 213 255
184 213 255
184 213 255
184 213 255
184 213 255
184 213 255
184 213 255
184 213 255
184 213 255
184 213 255
153 177 213
14 17 23
17 20 26
13 16 21
19 23 30
14 17 21
11 14 17
10 12 16
9 11 15
17 22 28
18 22 29
12 14 19
14 18 23
9 11 15
11 14 18
9 11 14
7 9 11
15 19 24
11 14 19
18 22 29
18 22 28
18 23 29
12 15 20
16 20 26
18 22 28
19 23 29
16 20 26
20 25 31
14 17 22
20 26 34
19 24 30
15 18 24
18 23 30
20 24 31
15 19 25
17 22 30
15 20 26
15 19 24
21 25 32
10 13 16
18 22 29
15 18 24
19 23 30
20 24 31
21 27 36
15 19 25
17 21 27
20 25 32
24 30 39
21 26 33
17 21 27
15 20 27
20 24 31
25 31 40
17 22 30
20 24 31
17 21 28
15 19 24
16 20 26
19 24 31
23 27 34
16 21 28
19 23 30
14 18 24
16 20 26
24 29 37
20 24 30
21 26 34
15 19 25
19 24 32
17 21 27
13 16 20
16 20 25
23 28 36
25 30 39
20 24 31
23 28 36
24 30 38
18 22 28
17 21 26
14 18 23
20 24 31
20 25 32
11 14 18
18 23 30
27 33 43
16 20 26
14 17 22
14 18 24
18 23 29
11 14 19
19 24 30
17 21 27
14 17 22
18 23 29
17 21 27
13 16 21
17 21 27
17 22 28
21 27 35
16 20 27
18 21 27
16 20 26
11 14 18
14 18 23
13 16 21
12 15 19
11 13 17
11 14 18
8 11 14
13 17 21
14 17 22
10 12 15
10 12 16
11 13 17
11 14 18
12 15 20
15 19 23
9 11 15
13 16 19
10 13 16
20 24 32
13 16 22
11 14 18
9 12 16
11 13 17
18 22 28
155 179 216
184 213 255
184 213 255
184 213 255
184 213 255
184 213 255
184 213 255
184 213 255
184 213 255
184 213 255
184 213 255
184 213 255
184 213 255
184 213 255
185 213 255
185 213 255
185 213 255
185 213 255
185 213 255
185 213 255
185 213 255
185 213 255
185 213 255
185 213 255
185 213 255
185 213 255
185 213 255
185 213 255
185 213 255
185 213 255
185 213 255
185 213 255
185 213 255
185 213 255
185 213 255
185 213 255
185 213 255
185 213 255
185 213 255
185 213 255
185 213 255
185 213 255
185 213 255
185 213 255
185 213 255
185 213 255
185 213 255
185 213 255
185 213 255
185 213 255
186 214 255
186 214 255
186 214 255
186 214 255
186 214 255
186 214 255
186 214 255
186 214 255
186 214 255
186 214 255
186 214 255
186 214 255
186 214 255
186 214 255
186 214 255
186 214 255
186 214 255
186 214 255
186 214 255
186 214 255
186 214 255
186 214 255
186 214 255
186 214 255
186 214 255
186 214 255
186 214 255
186 214 255
186 214 255
186 214 255
186 214 255
186 214 255
186 214 255
186 214 255
186 214 255
186 214 255
186 214 255
186 214 255
186 214 255
186 214 255
186 214 255
186 214 255
187 214 255
187 214 255
187 214 255
187 214 255
187 214 255
187 214 255
187 214 255
187 214 255
187 214 255
187 214 255
187 214 255
187 214 255
187 214 255
187 214 255
187 214 255
187 214 255
187 214 255
187 214 255
187 214 255
187 214 255
187 214 255
187 214 255
187 214 255
187 214 255
187 214 255
187 214 255
187 214 255
187 214 255
187 214 255
187 214 255
187 214 255
187 214 255
187 214 255
187 214 255
187 214 255
187 215 255
187 215 255
187 215 255
187 215 255
187 215 255
187 215 255
187 215 255
187 215 255
187 215 255
187 215 255
188 215 255
188 215 255
188 215 255
188 215 255
188 215 255
188 215 255
187 215 255
187 215 255
187 215 255
187 215 255
187 215 255
187 215 255
187 215 255
187 215 255
187 215 255
187 215 255
187 215 255
187 215 255
187 215 255
187 215 255
187 215 255
187 215 255
187 215 255
187 215 255
187 215 255
187 215 255
187 215 255
187 214 255
187 214 255
187 214 255
187 214 255
187 214 255
187 214 255
187 214 255
187 214 255
187 214 255
187 214 255
187 214 255
187 214 255
187 214 255
187 214 255
187 214 255
187 214 255
187 214 255
187 214 255
187 214 255
187 214 255
187 214 255
187 214 255
187 214 255
187 214 255
187 214 255
187 214 255
187 214 255
187 214 255
187 214 255
187 214 255
187 214 255
187 214 255
187 214 255
187 214 255
186 214 255
186 214 255
186 214 255
186 214 255
186 214 255
186 214 255
186 214 255
186 214 255
186 214 255
186 214 255
186 214 255
186 214 255
186 214 255
186 214 255
186 214 255
186 214 255
186 214 255
186 214 255
186 214 255
186 214 255
186 214 255
186 214 255
186 214 255
186 214 255
186 214 255
186 214 255
186 214 255
186 214 255
186 214 255
186 214 255
186 214 255
186 214 255
186 214 255
186 214 255
186 214 255
186 214 255
186 214 255
186 214 255
186 214 255
186 214 255
186 214 255
186 214 255
185 213 255
185 213 255
185 213 255
185 213 255
185 213 255
185 213 255
185 213 255
185 213 255
185 213 255
185 213 255
185 213 255
185 213 255
185 213 255
185 213 255
185 213 255
185 213 255
185 213 255
185 213 255
185 213 255
185 213 255
185 213 255
185 213 255
185 213 255
185 213 255
185 213 255
185 213 255
185 213 255
185 213 255
185 213 255
185 213 255
185 213 255
185 213 255
185 213 255
112 130 157
14 17 22
15 19 25
9 11 14
17 21 27
12 14 19
8 11 15
11 13 16
18 22 28
9 11 14
15 18 23
7 9 12
9 11 14
12 15 19
12 15 19
15 18 24
15 19 25
14 18 23
18 22 28
17 21 27
17 21 28
14 17 21
12 15 20
15 19 25
19 23 30
18 23 30
14 17 22
17 22 28
17 21 27
11 13 18
13 17 22
12 15 20
22 26 34
16 20 26
13 16 21
16 20 25
19 24 30
19 24 30
21 26 33
13 17 22
20 26 33
16 20 25
10 13 17
18 22 29
22 27 34
15 18 24
15 19 25
13 17 22
15 19 25
13 17 22
21 26 33
17 20 25
20 25 32
17 22 29
21 26 33
14 18 23
16 20 25
16 20 26
18 22 29
20 25 33
22 27 35
17 21 27
24 30 39
20 25 32
18 22 28
13 16 20
21 27 35
18 22 28
14 18 23
19 24 31
18 22 29
15 18 23
21 26 34
23 29 37
17 21 27
19 24 32
19 24 31
19 24 31
20 24 31
17 21 27
17 21 26
10 12 16
22 27 35
20 25 32
18 22 29
17 21 28
25 30 39
17 22 28
18 22 29
16 20 25
16 20 26
17 20 26
22 28 35
11 13 17
16 20 26
15 19 24
21 26 34
18 22 29
15 18 23
21 26 33
17 21 27
13 16 21
18 23 29
17 21 28
16 21 27
14 17 23
19 24 31
13 17 23
17 21 28
19 24 32
17 21 26
15 19 25
12 15 20
14 18 23
13 16 21
14 17 22
13 16 21
14 18 23
18 22 27
13 16 21
15 19 25
18 22 28
15 18 23
16 20 26
13 16 21
8 10 13
17 21 27
116 135 163
185 213 255
185 213 255
185 213 255
185 213 255
185 213 255
185 213 255
185 213 255
185 213 255
185 213 255
185 213 255
185 213 255
185 213 255
185 213 255
185 213 255
185 213 255
185 213 255
185 213 255
185 213 255
185 213 255
185 213 255
185 213 255
185 213 255
185 213 255
185 213 255
185 213 255
185 213 255
185 213 255
185 213 255
185 213 255
185 213 255
185 213 255
185 213 255
185 213 255
186 214 255
186 214 255
186 214 255
186 214 255
186 214 255
186 214 255
186 214 255
186 214 255
186 214 255
186 214 255
186 214 255
186 214 255
186 214 255
186 214 255
186 214 255
186 214 255
186 214 255
186 214 255
186 214 255
186 214 255
186 214 255
186 214 255
186 214 255
186 214 255
186 214 255
186 214 255
186 214 255
186 214 255
186 214 255
186 214 255
186 214 255
186 214 255
186 214 255
186 214 255
186 214 255
186 214 255
186 214 255
186 214 255
186 214 255
186 214 255
186 214 255
186 214 255
187 214 255
187 214 255
187 214 255
187 214 255
187 214 255
187 214 255
187 214 255
187 214 255
187 214 255
187 214 255
187 214 255
187 214 255
187 214 255
187 214 255
187 214 255
187 214 255
187 214 255
187 214 255
187 214 255
187 214 255
187 214 255
187 214 255
187 214 255
187 214 255
187 214 255
187 214 255
187 214 255
187 214 255
187 214 255
187 214 255
187 214 255
187 214 255
187 214 255
187 214 255
187 214 255
187 215 255
187 215 255
187 215 255
187 215 255
187 215 255
187 215 255
187 215 255
187 215 255
187 215 255
187 215 255
187 215 255
187 215 255
187 215 255
187 215 255
187 215 255
187 215 255
187 215 255
187 215 255
187 215 255
188 215 255
188 215 255
188 215 255
188 215 255
188 215 255
188 215 255
188 215 255
188 215 255
188 215 255
188 215 255
188 215 255
188 215 255
188 215 255
188 215 255
188 215 255
188 215 255
188 215 255
188 215 255
188 215 255
188 215 255
188 215 255
188 215 255
188 215 255
188 215 255
188 215 255
188 215 255
188 215 255
188 215 255
188 215 255
188 215 255
188 215 255
188 215 255
187 215 255
187 215 255
187 215 255
187 215 255
187 215 255
187 215 255
187 215 255
187 215 255
187 215 255
187 215 255
187 215 255
187 215 255
187 215 255
187 215 255
187 215 255
187 215 255
187 215 255
187 215 255
187 215 255
187 215 255
187 214 255
187 214 255
187 214 255
187 214 255
187 214 255
187 214 255
187 214 255
187 214 255
187 214 255
187 214 255
187 214 255
187 214 255
187 214 255
187 214 255
187 214 255
187 214 255
187 214 255
187 214 255
187 214 255
187 214 255
187 214 255
187 214 255
187 214 255
187 214 255
187 214 255
187 214 255
187 214 255
187 214 255
187 214 255
187 214 255
187 214 255
187 214 255
187 214 255
186 214 255
186 214 255
186 214 255
186 214 255
186 214 255
186 214 255
186 214 255
186 214 255
186 214 255
186 214 255
186 214 255
186 214 255
186 214 255
186 214 255
186 214 255
186 214 255
186 214 255
186 214 255
186 214 255
186 214 255
186 214 255
186 214 255
186 214 255
186 214 255
186 214 255
186 214 255
186 214 255
186 214 255
186 214 255
186 214 255
186 214 255
186 214 255
186 214 255
186 214 255
186 214 255
186 214 255
186 214 255
186 214 255
186 214 255
186 214 255
186 214 255
185 213 255
185 213 255
185 213 255
185 213 255
185 213 255
185 213 255
185 213 255
185 213 255
185 213 255
185 213 255
185 213 255
185 213 255
185 213 255
185 213 255
185 213 255
185 213 255
185 213 255
70 82 98
16 20 26
7 9 12
16 19 24
10 13 18
12 16 21
17 20 26
11 14 17
11 14 19
8 9 12
11 14 17
10 12 15
17 20 26
19 24 32
18 22 28
11 14 18
12 15 20
11 13 17
15 18 23
11 13 17
10 13 17
18 23 29
17 21 27
16 19 25
10 13 16
14 19 25
15 18 24
26 32 41
15 18 24
15 18 23
18 22 28
15 19 24
21 26 33
12 16 20
17 21 27
12 15 19
13 16 21
15 19 24
16 20 26
14 17 23
18 23 29
15 19 24
19 24 32
21 26 33
15 18 23
20 24 31
22 28 36
17 22 28
13 17 22
19 24 31
23 28 36
18 22 28
23 28 36
15 19 25
22 26 34
17 22 29
17 21 27
15 19 25
21 27 34
24 29 37
12 15 20
12 15 19
19 24 30
19 23 30
18 23 29
16 20 25
19 23 30
18 22 28
25 31 40
17 21 26
18 23 29
21 25 32
22 27 35
14 18 24
17 21 27
18 23 30
18 22 30
12 15 19
24 29 38
21 26 34
14 18 23
16 20 26
21 26 33
19 24 31
18 23 30
14 18 24
18 23 30
15 19 24
16 20 25
21 26 34
19 23 30
14 17 23
12 14 18
19 24 31
17 21 27
14 17 21
17 21 26
16 21 27
20 24 31
18 22 28
9 11 14
14 17 22
15 18 24
18 22 28
12 15 19
14 18 24
14 18 23
18 22 27
12 14 18
12 15 20
12 16 20
13 16 21
12 15 19
11 14 17
19 23 31
15 19 26
10 13 17
10 13 17
8 10 13
12 15 19
9 12 16
10 12 15
17 22 28
14 18 23
15 18 23
8 10 14
18 22 28
79 92 111
185 213 255
185 213 255
185 213 255
185 213 255
185 213 255
185 213 255
185 213 255
185 213 255
185 213 255
185 213 255
185 213 255
185 213 255
185 213 255
185 213 255
185 213 255
185 213 255
186 214 255
186 214 255
186 214 255
186 214 255
186 214 255
186 214 255
186 214 255
186 214 255
186 214 255
186 214 255
186 214 255
186 214 255
186 214 255
186 214 255
186 214 255
186 214 255
186 214 255
186 214 255
186 214 255
186 214 255
186 214 255
186 214 255
186 214 255
186 214 255
186 214 255
186 214 255
186 214 255
186 214 255
186 214 255
186 214 255
186 214 255
186 214 255
186 214 255
186 214 255
186 214 255
186 214 255
186 214 255
186 214 255
186 214 255
186 214 255
186 214 255
186 214 255
187 214 255
187 214 255
187 214 255
187 214 255
187 214 255
187 214 255
187 214 255
187 214 255
187 214 255
187 214 255
187 214 255
187 214 255
187 214 255
187 214 255
187 214 255
187 214 255
187 214 255
187 214 255
187 214 255
187 214 255
187 214 255
187 214 255
187 214 255
187 214 255
187 214 255
187 214 255
187 214 255
187 214 255
187 214 255
187 214 255
187 214 255
187 214 255
187 214 255
187 215 255
187 215 255
187 215 255
187 215 255
187 215 255
187 215 255
187 215 255
187 215 255
187 215 255
187 215 255
187 215 255
187 215 255
187 215 255
187 215 255
187 215 255
187 215 255
187 215 255
187 215 255
187 215 255
187 215 255
188 215 255
188 215 255
188 215 255
188 215 255
188 215 255
188 215 255
188 215 255
188 215 255
188 215 255
188 215 255
188 215 255
188 215 255
188 215 255
188 215 255
188 215 255
188 215 255
188 215 255
188 215 255
188 215 255
188 215 255
188 215 255
188 215 255
188 215 255
188 215 255
188 215 255
188 215 255
188 215 255
188 215 255
188 215 255
188 215 255
188 215 255
188 215 255
188 215 255
188 215 255
188 215 255
188 215 255
188 215 255
188 215 255
188 215 255
188 215 255
188 215 255
188 215 255
188 215 255
188 215 255
188 215 255
188 215 255
188 215 255
188 215 255
188 215 255
188 215 255
188 215 255
188 215 255
188 215 255
188 215 255
188 215 255
188 215 255
188 215 255
188 215 255
188 215 255
188 215 255
188 215 255
188 215 255
188 215 255
188 215 255
188 215 255
188 215 255
188 215 255
188 215 255
188 215 255
188 215 255
187 215 255
187 215 255
187 215 255
187 215 255
187 215 255
187 215 255
187 215 255
187 215 255
187 215 255
187 215 255
187 215 255
187 215 255
187 215 255
187 215 255
187 215 255
187 215 255
187 215 255
187 215 255
187 215 255
187 214 255
187 214 255
187 214 255
187 214 255
187 214 255
187 214 255
187 214 255
187 214 255
187 214 255
187 214 255
187 214 255
187 214 255
187 214 255
187 214 255
187 214 255
187 214 255
187 214 255
187 214 255
187 214 255
187 214 255
187 214 255
187 214 255
187 214 255
187 214 255
187 214 255
187 214 255
187 214 255
187 214 255
187 214 255
187 214 255
187 214 255
187 214 255
186 214 255
186 214 255
186 214 255
186 214 255
186 214 255
186 214 255
186 214 255
186 214 255
186 214 255
186 214 255
186 214 255
186 214 255
186 214 255
186 214 255
186 214 255
186 214 255
186 214 255
186 214 255
186 214 255
186 214 255
186 214 255
186 214 255
186 214 255
186 214 255
186 214 255
186 214 255
186 214 255
186 214 255
186 214 255
186 214 255
186 214 255
186 214 255
186 214 255
186 214 255
186 214 255
186 214 255
186 214 255
186 214 255
186 214 255
186 214 255
29 34 42
15 18 23
15 19 24
13 16 21
16 19 25
10 13 16
9 11 14
10 13 17
16 21 27
12 14 18
9 12 15
12 14 18
12 14 18
18 22 28
10 13 17
12 15 19
15 19 24
14 17 22
15 19 25
13 16 20
16 19 25
18 23 30
17 21 27
16 20 26
15 18 23
16 20 25
18 23 29
19 23 29
12 15 20
14 17 22
10 12 16
23 28 35
17 21 27
13 16 21
19 23 30
17 21 26
20 25 33
16 19 25
15 19 25
15 19 24
11 13 17
15 19 24
16 20 26
24 30 39
16 20 25
14 16 20
14 18 24
18 22 28
19 23 30
21 26 33
23 29 36
16 20 26
20 25 33
20 24 30
13 17 22
16 20 25
20 25 31
18 23 29
19 23 30
19 23 30
18 21 27
23 28 37
25 31 41
24 30 38
20 24 31
21 26 34
19 24 31
21 26 33
17 21 27
23 28 36
12 15 20
17 22 28
17 21 27
18 22 29
19 24 32
13 16 20
17 21 27
15 18 23
21 26 33
20 25 32
18 22 28
15 19 24
20 24 31
15 18 24
15 18 24
19 24 31
16 20 26
18 23 30
21 26 33
21 25 32
17 22 28
23 28 37
16 20 27
18 22 29
13 16 20
16 19 25
18 22 28
18 21 27
7 9 11
16 20 25
14 17 22
15 19 24
15 18 23
14 17 22
16 20 26
17 20 25
15 18 23
13 15 20
22 26 33
18 23 29
11 13 17
18 23 29
11 14 18
13 16 20
17 20 26
9 12 16
15 18 23
14 17 22
11 13 17
12 14 18
13 15 20
14 18 23
14 17 23
14 17 22
9 11 15
12 14 17
16 20 26
42 49 61
186 214 255
186 214 255
186 214 255
186 214 255
186 214 255
186 214 255
186 214 255
186 214 255
186 214 255
186 214 255
186 214 255
186 214 255
186 214 255
186 214 255
186 214 255
186 214 255
186 214 255
186 214 255
186 214 255
186 214 255
186 214 255
186 214 255
186 214 255
186 214 255
186 214 255
186 214 255
186 214 255
186 214 255
186 214 255
186 214 255
186 214 255
186 214 255
186 214 255
186 214 255
186 214 255
186 214 255
186 214 255
186 214 255
186 214 255
187 214 255
187 214 255
187 214 255
187 214 255
187 214 255
187 214 255
187 214 255
187 214 255
187 214 255
187 214 255
187 214 255
187 214 255
187 214 255
187 214 255
187 214 255
187 214 255
187 214 255
187 214 255
187 214 255
187 214 255
187 214 255
187 214 255
187 214 255
187 214 255
187 214 255
187 214 255
187 214 255
187 214 255
187 214 255
187 214 255
187 214 255
187 214 255
187 214 255
187 215 255
187 215 255
187 215 255
187 215 255
187 215 255
187 215 255
187 215 255
187 215 255
187 215 255
187 215 255
187 215 255
187 215 255
187 215 255
187 215 255
187 215 255
187 215 255
187 215 255
187 215 255
187 215 255
188 215 255
188 215 255
188 215 255
188 215 255
188 215 255
188 215 255
188 215 255
188 215 255
188 215 255
188 215 255
188 215 255
188 215 255
188 215 255
188 215 255
188 215 255
188 215 255
188 215 255
188 215 255
188 215 255
188 215 255
188 215 255
188 215 255
188 215 255
188 215 255
188 215 255
188 215 255
188 215 255
188 215 255
188 215 255
188 215 255
188 215 255
188 215 255
188 215 255
188 215 255
188 215 255
188 215 255
188 215 255
188 215 255
188 215 255
188 215 255
188 215 255
188 215 255
188 215 255
188 215 255
188 215 255
188 215 255
188 215 255
188 215 255
188 215 255
188 215 255
188 215 255
188 215 255
188 215 255
188 215 255
188 215 255
188 215 255
188 215 255
188 215 255
188 215 255
188 215 255
188 215 255
188 215 255
188 215 255
188 215 255
188 215 255
188 215 255
188 215 255
188 215 255
188 215 255
188 215 255
188 215 255
188 215 255
188 215 255
188 215 255
188 215 255
188 215 255
188 215 255
188 215 255
188 215 255
188 215 255
188 215 255
188 215 255
188 215 255
188 215 255
188 215 255
188 215 255
188 215 255
188 215 255
188 215 255
188 215 255
188 215 255
188 215 255
188 215 255
188 215 255
188 215 255
188 215 255
188 215 255
188 215 255
188 215 255
188 215 255
188 215 255
188 215 255
188 215 255
188 215 255
188 215 255
188 215 255
188 215 255
188 215 255
188 215 255
188 215 255
188 215 255
187 215 255
187 215 255
187 215 255
187 215 255
187 215 255
187 215 255
187 215 255
187 215 255
187 215 255
187 215 255
187 215 255
187 215 255
187 215 255
187 215 255
187 215 255
187 215 255
187 214 255
187 214 255
187 214 255
187 214 255
187 214 255
187 214 255
187 214 255
187 214 255
187 214 255
187 214 255
187 214 255
187 214 255
187 214 255
187 214 255
187 214 255
187 214 255
187 214 255
187 214 255
187 214 255
187 214 255
187 214 255
187 214 255
187 214 255
187 214 255
187 214 255
187 214 255
187 214 255
187 214 255
187 214 255
187 214 255
187 214 255
187 214 255
187 214 255
187 214 255
186 214 255
186 214 255
186 214 255
186 214 255
186 214 255
186 214 255
186 214 255
186 214 255
186 214 255
186 214 255
186 214 255
186 214 255
186 214 255
186 214 255
186 214 255
186 214 255
186 214 255
186 214 255
186 214 255
183 211 252
25 30 37
18 23 29
15 18 24
14 17 22
10 13 17
11 13 17
19 23 29
10 12 16
10 12 15
11 14 18
12 15 20
14 18 23
12 15 20
8 10 13
16 19 24
16 20 27
20 24 32
23 29 37
14 18 23
14 18 23
16 20 26
14 18 24
9 11 13
23 28 36
18 22 27
17 21 27
14 17 23
15 19 25
16 19 24
26 32 41
19 23 29
21 25 32
13 16 21
18 22 28
15 19 24
22 28 36
14 18 23
16 20 26
18 22 28
16 20 26
17 21 27
16 19 25
23 28 35
18 22 30
13 17 22
20 25 32
18 22 28
17 21 27
14 17 22
15 19 25
18 22 28
23 28 36
15 18 23
16 20 26
23 28 35
19 24 31
13 17 22
20 24 31
15 18 23
17 21 27
17 20 26
14 17 22
18 22 28
15 19 25
19 23 29
17 20 25
16 19 24
18 22 28
19 24 31
21 25 33
19 23 30
18 23 30
17 20 25
16 21 28
21 25 32
18 22 28
18 21 27
18 22 27
21 25 32
15 18 24
21 25 32
17 21 27
21 26 34
20 25 32
20 25 33
16 20 25
19 23 30
21 25 33
16 20 26
17 21 27
16 20 25
14 18 23
17 21 27
16 20 26
19 24 30
19 23 29
13 16 22
15 19 25
14 17 22
18 23 29
16 19 25
13 17 22
15 19 24
14 17 23
13 16 21
14 17 22
13 16 20
16 20 26
18 21 26
11 14 18
20 24 31
11 14 18
12 15 19
8 11 14
12 15 20
13 15 19
11 14 19
10 12 16
13 16 21
19 23 30
10 12 17
10 12 15
8 10 14
10 13 16
8 10 13
12 15 20
10 13 17
19 24 32
169 195 232
186 214 255
186 214 255
186 214 255
186 214 255
186 214 255
186 214 255
186 214 255
186 214 255
186 214 255
186 214 255
186 214 255
186 214 255
186 214 255
186 214 255
186 214 255
186 214 255
186 214 255
186 214 255
187 214 255
187 214 255
187 214 255
187 214 255
187 214 255
187 214 255
187 214 255
187 214 255
187 214 255
187 214 255
187 214 255
187 214 255
187 214 255
187 214 255
187 214 255
187 214 255
187 214 255
187 214 255
187 214 255
187 214 255
187 214 255
187 214 255
187 214 255
187 214 255
187 214 255
187 214 255
187 214 255
187 214 255
187 214 255
187 214 255
187 214 255
187 214 255
187 214 255
187 214 255
187 215 255
187 215 255
187 215 255
187 215 255
187 215 255
187 215 255
187 215 255
187 215 255
187 215 255
187 215 255
187 215 255
187 215 255
187 215 255
187 215 255
187 215 255
187 215 255
187 215 255
187 215 255
187 215 255
188 215 255
188 215 255
188 215 255
188 215 255
188 215 255
188 215 255
188 215 255
188 215 255
188 215 255
188 215 255
188 215 255
188 215 255
188 215 255
188 215 255
188 215 255
188 215 255
188 215 255
188 215 255
188 215 255
188 215 255
188 215 255
188 215 255
188 215 255
188 215 255
188 215 255
188 215 255
188 215 255
188 215 255
188 215 255
188 215 255
188 215 255
188 215 255
188 215 255
188 215 255
188 215 255
188 215 255
188 215 255
188 215 255
188 215 255
188 215 255
188 215 255
188 215 255
188 215 255
188 215 255
188 215 255
188 215 255
188 215 255
188 215 255
188 215 255
188 215 255
188 215 255
188 215 255
188 215 255
188 215 255
188 215 255
188 215 255
188 215 255
188 215 255
188 215 255
188 215 255
188 215 255
188 215 255
188 215 255
188 215 255
189 215 255
189 215 255
189 215 255
189 215 255
189 215 255
189 215 255
189 215 255
189 215 255
189 215 255
189 215 255
189 215 255
189 215 255
189 215 255
189 215 255
189 215 255
189 215 255
189 215 255
189 215 255
189 215 255
188 215 255
188 215 255
188 215 255
188 215 255
188 215 255
188 215 255
188 215 255
188 215 255
188 215 255
188 215 255
188 215 255
188 215 255
188 215 255
188 215 255
188 215 255
188 215 255
188 215 255
188 215 255
188 215 255
188 215 255
188 215 255
188 215 255
188 215 255
188 215 255
188 215 255
188 215 255
188 215 255
188 215 255
188 215 255
188 215 255
188 215 255
188 215 255
188 215 255
188 215 255
188 215 255
188 215 255
188 215 255
188 215 255
188 215 255
188 215 255
188 215 255
188 215 255
188 215 255
188 215 255
188 215 255
188 215 255
188 215 255
188 215 255
188 215 255
188 215 255
188 215 255
188 215 255
188 215 255
188 215 255
188 215 255
188 215 255
188 215 255
188 215 255
188 215 255
188 215 255
188 215 255
188 215 255
188 215 255
188 215 255
188 215 255
188 215 255
188 215 255
188 215 255
187 215 255
187 215 255
187 215 255
187 215 255
187 215 255
187 215 255
187 215 255
187 215 255
187 215 255
187 215 255
187 215 255
187 215 255
187 215 255
187 215 255
187 215 255
187 215 255
187 215 255
187 215 255
187 214 255
187 214 255
187 214 255
187 214 255
187 214 255
187 214 255
187 214 255
187 214 255
187 214 255
187 214 255
187 214 255
187 214 255
187 214 255
187 214 255
187 214 255
187 214 255
187 214 255
187 214 255
187 214 255
187 214 255
187 214 255
187 214 255
187 214 255
187 214 255
187 214 255
187 214 255
187 214 255
187 214 255
187 214 255
187 214 255
153 175 210
14 18 24
14 18 23
12 16 20
11 14 18
17 22 28
11 14 18
15 18 23
10 12 16
11 14 18
11 14 18
7 10 13
16 19 24
14 18 23
17 21 27
4 5 7
13 17 22
15 19 25
18 22 29
18 22 28
17 21 28
10 12 15
13 15 20
12 15 20
12 16 20
17 21 27
17 20 24
19 23 30
12 15 20
14 17 21
15 19 24
16 20 26
13 16 21
18 22 29
16 20 27
16 19 25
14 18 24
17 21 26
17 20 26
21 26 32
14 17 22
17 21 26
14 17 21
23 28 36
21 26 34
15 19 24
17 22 29
18 23 31
18 22 28
15 18 23
11 13 17
24 29 37
21 26 33
23 29 37
16 19 25
21 26 33
15 19 25
25 30 39
21 25 33
14 17 22
16 21 28
20 24 30
23 28 36
15 19 25
14 18 23
15 18 24
18 23 30
21 26 34
18 22 29
18 22 29
19 23 30
21 26 33
16 20 25
18 23 29
21 26 34
20 25 32
23 28 36
19 23 30
23 29 37
12 14 18
11 14 17
21 25 32
16 20 26
17 21 27
13 16 21
17 22 28
17 20 26
18 21 27
14 18 23
20 25 32
16 20 27
12 15 20
18 22 29
23 28 36
18 22 29
17 21 27
20 25 33
15 19 24
12 15 19
13 16 21
16 19 25
12 15 19
12 15 20
11 13 17
14 18 23
18 22 28
17 21 27
11 13 17
12 15 20
12 15 20
20 24 31
17 21 27
13 16 20
14 17 21
10 13 18
12 16 20
8 10 13
8 11 14
16 20 25
14 17 23
17 22 28
12 14 19
11 14 18
15 18 23
14 17 22
10 12 16
10 12 16
15 19 24
8 10 14
139 159 190
187 214 255
187 214 255
187 214 255
187 214 255
187 214 255
187 214 255
187 214 255
187 214 255
187 214 255
187 214 255
187 214 255
187 214 255
187 214 255
187 214 255
187 214 255
187 214 255
187 214 255
187 214 255
187 214 255
187 214 255
187 214 255
187 214 255
187 214 255
187 214 255
187 214 255
187 214 255
187 214 255
187 214 255
187 214 255
187 214 255
187 214 255
187 215 255
187 215 255
187 215 255
187 215 255
187 215 255
187 215 255
187 215 255
187 215 255
187 215 255
187 215 255
187 215 255
187 215 255
187 215 255
187 215 255
187 215 255
187 215 255
187 215 255
188 215 255
188 215 255
188 215 255
188 215 255
188 215 255
188 215 255
188 215 255
188 215 255
188 215 255
188 215 255
188 215 255
188 215 255
188 215 255
188 215 255
188 215 255
188 215 255
188 215 255
188 215 255
188 215 255
188 215 255
188 215 255
188 215 255
188 215 255
188 215 255
188 215 255
188 215 255
188 215 255
188 215 255
188 215 255
188 215 255
188 215 255
188 215 255
188 215 255
188 215 255
188 215 255
188 215 255
188 215 255
188 215 255
188 215 255
188 215 255
188 215 255
188 215 255
188 215 255
188 215 255
188 215 255
188 215 255
188 215 255
188 215 255
188 215 255
188 215 255
188 215 255
188 215 255
188 215 255
188 215 255
188 215 255
188 215 255
188 215 255
188 215 255
188 215 255
188 215 255
188 215 255
188 215 255
188 215 255
188 215 255
188 215 255
188 215 255
188 215 255
188 215 255
189 215 255
189 215 255
189 215 255
189 215 255
189 215 255
189 215 255
189 215 255
189 215 255
189 215 255
189 215 255
189 215 255
189 215 255
189 215 255
189 215 255
189 215 255
189 215 255
189 215 255
189 215 255
189 215 255
189 216 255
189 216 255
189 216 255
189 216 255
189 216 255
189 216 255
189 216 255
189 216 255
189 216 255
189 216 255
189 216 255
189 216 255
189 216 255
189 216 255
189 216 255
189 215 255
189 215 255
189 215 255
189 215 255
189 215 255
189 215 255
189 215 255
189 215 255
189 215 255
189 215 255
189 215 255
189 215 255
189 215 255
189 215 255
189 215 255
189 215 255
189 215 255
189 215 255
189 215 255
189 215 255
189 215 255
189 215 255
189 215 255
189 215 255
189 215 255
189 215 255
189 215 255
189 215 255
189 215 255
188 215 255
188 215 255
188 215 255
188 215 255
188 215 255
188 215 255
188 215 255
188 215 255
188 215 255
188 215 255
188 215 255
188 215 255
188 215 255
188 215 255
188 215 255
188 215 255
188 215 255
188 215 255
188 215 255
188 215 255
188 215 255
188 215 255
188 215 255
188 215 255
188 215 255
188 215 255
188 215 255
188 215 255
188 215 255
188 215 255
188 215 255
188 215 255
188 215 255
188 215 255
188 215 255
188 215 255
188 215 255
188 215 255
188 215 255
188 215 255
188 215 255
188 215 255
188 215 255
188 215 255
188 215 255
188 215 255
188 215 255
188 215 255
188 215 255
188 215 255
188 215 255
188 215 255
188 215 255
188 215 255
188 215 255
188 215 255
188 215 255
188 215 255
188 215 255
188 215 255
188 215 255
188 215 255
188 215 255
188 215 255
188 215 255
187 215 255
187 215 255
187 215 255
187 215 255
187 215 255
187 215 255
187 215 255
187 215 255
187 215 255
187 215 255
187 215 255
187 215 255
187 215 255
187 215 255
187 215 255
187 215 255
187 215 255
187 215 255
187 215 255
187 214 255
187 215 255
187 214 255
187 214 255
187 214 255
187 214 255
187 214 255
131 151 181
10 12 15
15 19 25
10 13 16
9 11 15
20 24 31
12 15 20
10 13 16
10 12 16
14 18 23
11 14 17
17 21 27
17 20 25
14 18 24
16 20 25
11 13 17
11 14 19
16 20 26
19 23 30
14 17 22
13 16 20
8 9 12
10 12 16
12 14 18
14 16 21
17 21 27
13 16 20
15 19 24
19 23 29
9 12 15
11 14 17
12 14 18
16 19 25
13 15 19
23 28 36
19 23 30
15 19 24
14 17 22
16 19 25
16 20 26
11 14 18
19 23 31
22 28 37
14 17 22
16 20 26
20 25 33
18 21 27
22 27 34
19 23 30
14 17 22
12 15 19
18 22 29
17 22 28
15 18 22
19 24 31
14 17 22
21 26 34
19 23 30
18 22 28
20 25 33
18 22 30
20 24 30
18 22 28
17 20 26
14 18 24
18 23 30
27 33 42
18 23 29
21 26 34
14 18 23
15 18 23
16 20 25
19 23 29
20 25 32
24 29 38
19 24 31
17 21 28
14 17 21
16 20 26
17 21 27
15 18 22
16 20 26
18 22 29
19 23 29
14 18 23
19 23 29
18 22 28
16 20 25
17 21 27
17 22 28
9 12 15
21 26 33
16 20 26
16 20 25
15 18 24
14 17 21
22 27 34
20 24 31
14 17 22
18 22 29
12 15 20
13 17 22
12 15 20
16 20 25
12 15 20
18 23 30
15 18 24
19 24 30
12 16 20
13 17 21
11 13 17
14 17 22
18 22 29
18 23 29
7 9 12
15 19 25
15 19 25
12 15 20
12 15 20
12 15 20
10 13 16
11 14 17
8 10 13
9 12 16
12 15 19
14 17 22
15 18 23
14 18 23
15 18 23
108 124 148
187 214 255
187 214 255
187 214 255
187 214 255
187 215 255
187 214 255
187 215 255
187 215 255
187 215 255
187 215 255
187 215 255
187 215 255
187 215 255
187 215 255
187 215 255
187 215 255
187 215 255
187 215 255
187 215 255
187 215 255
187 215 255
187 215 255
187 215 255
187 215 255
188 215 255
188 215 255
188 215 255
188 215 255
188 215 255
188 215 255
188 215 255
188 215 255
188 215 255
188 215 255
188 215 255
188 215 255
188 215 255
188 215 255
188 215 255
188 215 255
188 215 255
188 215 255
188 215 255
188 215 255
188 215 255
188 215 255
188 215 255
188 215 255
188 215 255
188 215 255
188 215 255
188 215 255
188 215 255
188 215 255
188 215 255
188 215 255
188 215 255
188 215 255
188 215 255
188 215 255
188 215 255
188 215 255
188 215 255
188 215 255
188 215 255
188 215 255
188 215 255
188 215 255
188 215 255
188 215 255
188 215 255
188 215 255
188 215 255
188 215 255
188 215 255
188 215 255
188 215 255
188 215 255
188 215 255
188 215 255
188 215 255
188 215 255
188 215 255
188 215 255
188 215 255
188 215 255
188 215 255
188 215 255
188 215 255
188 215 255
189 215 255
189 215 255
189 215 255
189 215 255
189 215 255
189 215 255
189 215 255
189 215 255
189 215 255
189 215 255
189 215 255
189 215 255
189 215 255
189 215 255
189 215 255
189 215 255
189 215 255
189 215 255
189 215 255
189 215 255
189 215 255
189 215 255
189 215 255
189 215 255
189 215 255
189 215 255
189 215 255
189 215 255
189 216 255
189 215 255
189 216 255
189 216 255
189 216 255
189 216 255
189 216 255
189 216 255
189 216 255
189 216 255
189 216 255
189 216 255
189 216 255
189 216 255
189 216 255
189 216 255
189 216 255
189 216 255
189 216 255
189 216 255
189 216 255
189 216 255
189 216 255
189 216 255
189 216 255
189 216 255
189 216 255
189 216 255
189 216 255
189 216 255
189 216 255
189 216 255
189 216 255
189 216 255
189 216 255
189 216 255
189 216 255
189 216 255
189 216 255
189 216 255
189 216 255
189 216 255
189 216 255
189 216 255
189 216 255
189 216 255
189 216 255
189 216 255
189 216 255
189 216 255
189 216 255
189 216 255
189 216 255
189 216 255
189 216 255
189 216 255
189 216 255
189 216 255
189 216 255
189 216 255
189 216 255
189 216 255
189 215 255
189 215 255
189 215 255
189 215 255
189 215 255
189 215 255
189 215 255
189 215 255
189 215 255
189 215 255
189 215 255
189 215 255
189 215 255
189 215 255
189 215 255
189 215 255
189 215 255
189 215 255
189 215 255
189 215 255
189 215 255
189 215 255
189 215 255
189 215 255
189 215 255
189 215 255
189 215 255
189 215 255
189 215 255
188 215 255
188 215 255
188 215 255
188 215 255
188 215 255
188 215 255
188 215 255
188 215 255
188 215 255
188 215 255
188 215 255
188 215 255
188 215 255
188 215 255
188 215 255
188 215 255
188 215 255
188 215 255
188 215 255
188 215 255
188 215 255
188 215 255
188 215 255
188 215 255
188 215 255
188 215 255
188 215 255
188 215 255
188 215 255
188 215 255
188 215 255
188 215 255
188 215 255
188 215 255
188 215 255
188 215 255
188 215 255
188 215 255
188 215 255
188 215 255
188 215 255
188 215 255
188 215 255
188 215 255
188 215 255
188 215 255
188 215 255
188 215 255
188 215 255
188 215 255
188 215 255
188 215 255
188 215 255
188 215 255
188 215 255
188 215 255
188 215 255
188 215 255
188 215 255
188 215 255
188 215 255
116 133 160
17 21 27
14 17 22
11 13 17
13 15 19
12 15 19
12 15 19
11 13 18
11 14 18
8 9 12
11 13 17
12 15 19
17 21 26
8 10 13
15 19 24
13 16 20
11 13 16
14 17 22
21 26 33
14 17 23
11 14 18
18 23 29
12 15 18
15 19 24
6 7 10
13 17 22
15 19 24
11 15 20
14 18 23
13 16 21
21 26 34
22 27 35
20 25 32
16 20 26
16 20 25
17 21 27
17 22 28
20 24 31
23 29 38
23 28 37
15 19 25
18 22 27
19 23 30
16 21 27
16 19 25
16 20 26
12 15 20
19 23 29
22 27 34
16 20 25
19 23 30
19 24 32
18 21 27
12 15 19
15 19 24
25 30 38
20 25 32
16 20 26
15 19 24
18 22 28
18 21 27
21 27 34
14 17 23
19 23 29
16 19 25
15 18 23
14 18 23
16 19 24
25 31 39
17 20 26
16 20 25
19 23 29
11 13 17
19 24 30
27 33 42
19 24 31
19 23 30
17 21 26
15 19 24
25 31 40
20 25 32
17 21 27
19 24 32
19 24 31
23 29 36
20 25 32
21 27 34
20 25 32
21 26 33
18 22 28
18 23 29
18 22 29
16 19 25
16 20 25
18 22 28
14 17 22
19 24 31
17 21 27
14 18 23
23 28 37
11 13 17
14 17 21
17 21 27
10 12 16
17 21 26
15 19 24
20 24 31
12 15 19
7 9 11
18 22 28
18 22 28
16 19 25
13 16 20
17 21 26
15 18 23
9 11 14
13 16 21
14 17 23
10 13 17
18 23 29
6 8 11
13 16 21
12 15 19
15 18 23
23 28 36
9 11 15
13 16 20
12 15 20
15 18 23
105 121 145
188 215 255
188 215 255
188 215 255
188 215 255
188 215 255
188 215 255
188 215 255
188 215 255
188 215 255
188 215 255
188 215 255
188 215 255
188 215 255
188 215 255
188 215 255
188 215 255
188 215 255
188 215 255
188 215 255
188 215 255
188 215 255
188 215 255
188 215 255
188 215 255
188 215 255
188 215 255
188 215 255
188 215 255
188 215 255
188 215 255
188 215 255
188 215 255
188 215 255
188 215 255
188 215 255
188 215 255
188 215 255
188 215 255
188 215 255
188 215 255
188 215 255
188 215 255
188 215 255
188 215 255
188 215 255
188 215 255
188 215 255
188 215 255
188 215 255
188 215 255
188 215 255
188 215 255
188 215 255
188 215 255
188 215 255
188 215 255
188 215 255
188 215 255
188 215 255
188 215 255
188 215 255
188 215 255
188 215 255
189 215 255
189 215 255
189 215 255
189 215 255
189 215 255
189 215 255
189 215 255
189 215 255
189 215 255
189 215 255
189 215 255
189 215 255
189 215 255
189 215 255
189 215 255
189 215 255
189 215 255
189 215 255
189 215 255
189 215 255
189 215 255
189 215 255
189 215 255
189 215 255
189 215 255
189 215 255
189 215 255
189 216 255
189 216 255
189 216 255
189 216 255
189 216 255
189 216 255
189 216 255
189 216 255
189 216 255
189 216 255
189 216 255
189 216 255
189 216 255
189 216 255
189 216 255
189 216 255
189 216 255
189 216 255
189 216 255
189 216 255
189 216 255
189 216 255
189 216 255
189 216 255
189 216 255
189 216 255
189 216 255
189 216 255
189 216 255
189 216 255
189 216 255
189 216 255
189 216 255
189 216 255
189 216 255
189 216 255
189 216 255
189 216 255
189 216 255
189 216 255
189 216 255
189 216 255
189 216 255
189 216 255
189 216 255
190 216 255
190 216 255
190 216 255
190 216 255
190 216 255
190 216 255
189 216 255
189 216 255
189 216 255
189 216 255
189 216 255
189 216 255
189 216 255
189 216 255
189 216 255
189 216 255
189 216 255
189 216 255
189 216 255
189 216 255
189 216 255
189 216 255
189 216 255
189 216 255
189 216 255
189 216 255
189 216 255
189 216 255
189 216 255
189 216 255
189 216 255
189 216 255
189 216 255
189 216 255
189 216 255
189 216 255
189 216 255
189 216 255
189 216 255
189 216 255
189 216 255
189 216 255
189 216 255
189 216 255
189 216 255
189 216 255
189 216 255
189 216 255
189 216 255
189 216 255
189 216 255
189 216 255
189 216 255
189 216 255
189 216 255
189 216 255
189 216 255
189 216 255
189 216 255
189 216 255
189 216 255
189 216 255
189 216 255
189 216 255
189 216 255
189 216 255
189 216 255
189 216 255
189 216 255
189 216 255
189 216 255
189 216 255
189 216 255
189 216 255
189 216 255
189 216 255
189 215 255
189 215 255
189 215 255
189 215 255
189 215 255
189 215 255
189 215 255
189 215 255
189 215 255
189 215 255
189 215 255
189 215 255
189 215 255
189 215 255
189 215 255
189 215 255
189 215 255
189 215 255
189 215 255
189 215 255
189 215 255
189 215 255
189 215 255
189 215 255
189 215 255
189 215 255
188 215 255
188 215 255
188 215 255
188 215 255
188 215 255
188 215 255
188 215 255
188 215 255
188 215 255
188 215 255
188 215 255
188 215 255
188 215 255
188 215 255
188 215 255
188 215 255
188 215 255
188 215 255
188 215 255
188 215 255
188 215 255
188 215 255
188 215 255
188 215 255
188 215 255
188 215 255
188 215 255
188 215 255
188 215 255
188 215 255
188 215 255
188 215 255
188 215 255
92 107 129
14 18 23
12 15 20
13 16 21
11 13 17
13 16 20
12 15 20
14 17 22
13 17 22
12 15 19
12 15 20
16 20 25
14 18 23
9 12 15
11 14 18
15 19 24
10 13 17
13 16 21
12 15 20
13 17 22
15 19 25
14 18 23
17 21 27
15 18 23
19 23 30
14 18 24
13 16 21
14 18 23
18 22 28
13 16 21
15 19 24
16 20 26
12 15 19
16 20 27
13 16 20
13 16 21
16 20 26
18 23 29
13 17 21
12 15 19
18 23 29
13 16 21
20 25 32
24 30 38
19 23 30
16 19 24
17 21 28
13 16 21
15 18 24
12 15 19
23 28 36
14 17 22
16 20 25
22 27 35
18 22 29
21 26 34
15 18 23
13 17 21
18 22 28
21 26 34
15 18 24
19 24 31
18 22 28
13 17 22
21 27 34
25 32 41
20 25 32
19 23 30
21 26 35
12 15 19
15 18 23
18 22 28
17 21 27
17 21 27
19 23 29
10 12 15
19 23 30
14 17 22
14 17 22
23 29 37
16 19 24
22 26 33
19 23 29
15 18 23
20 25 33
14 18 24
13 16 20
19 23 29
11 14 19
15 19 24
21 26 33
18 22 29
19 24 31
21 25 33
12 14 19
16 20 25
10 12 16
15 19 24
17 21 27
14 17 23
14 17 22
13 16 20
10 13 18
18 22 29
17 21 27
16 20 25
15 19 24
16 20 26
13 17 22
10 13 16
13 15 20
22 27 35
15 18 24
11 14 17
19 23 30
16 19 25
11 13 17
11 14 18
12 16 20
10 13 17
14 18 24
8 10 13
14 18 23
8 10 14
11 13 17
20 24 30
11 14 18
18 22 28
16 20 25
75 86 104
188 215 255
188 215 255
188 215 255
188 215 255
188 215 255
188 215 255
188 215 255
188 215 255
188 215 255
188 215 255
188 215 255
188 215 255
188 215 255
188 215 255
188 215 255
188 215 255
188 215 255
188 215 255
188 215 255
188 215 255
188 215 255
188 215 255
188 215 255
188 215 255
188 215 255
188 215 255
188 215 255
188 215 255
188 215 255
188 215 255
188 215 255
188 215 255
188 215 255
189 215 255
189 215 255
189 215 255
189 215 255
189 215 255
189 215 255
189 215 255
189 215 255
189 215 255
189 215 255
189 215 255
189 215 255
189 215 255
189 215 255
189 215 255
189 215 255
189 215 255
189 215 255
189 215 255
189 215 255
189 215 255
189 215 255
189 215 255
189 215 255
189 215 255
189 215 255
189 215 255
189 216 255
189 216 255
189 216 255
189 216 255
189 216 255
189 216 255
189 216 255
189 216 255
189 216 255
189 216 255
189 216 255
189 216 255
189 216 255
189 216 255
189 216 255
189 216 255
189 216 255
189 216 255
189 216 255
189 216 255
189 216 255
189 216 255
189 216 255
189 216 255
189 216 255
189 216 255
189 216 255
189 216 255
189 216 255
189 216 255
189 216 255
189 216 255
189 216 255
189 216 255
189 216 255
189 216 255
189 216 255
189 216 255
189 216 255
189 216 255
189 216 255
189 216 255
189 216 255
189 216 255
189 216 255
189 216 255
189 216 255
189 216 255
189 216 255
189 216 255
189 216 255
189 216 255
189 216 255
189 216 255
189 216 255
189 216 255
189 216 255
189 216 255
189 216 255
189 216 255
189 216 255
189 216 255
189 216 255
189 216 255
189 216 255
189 216 255
189 216 255
189 216 255
190 216 255
190 216 255
190 216 255
190 216 255
190 216 255
190 216 255
190 216 255
190 216 255
190 216 255
190 216 255
190 216 255
190 216 255
190 216 255
190 216 255
190 216 255
190 216 255
190 216 255
190 216 255
190 216 255
190 216 255
190 216 255
190 216 255
190 216 255
190 216 255
190 216 255
190 216 255
190 216 255
190 216 255
190 216 255
190 216 255
190 216 255
190 216 255
190 216 255
190 216 255
190 216 255
190 216 255
190 216 255
190 216 255
190 216 255
190 216 255
190 216 255
190 216 255
190 216 255
190 216 255
190 216 255
190 216 255
190 216 255
190 216 255
190 216 255
190 216 255
190 216 255
190 216 255
189 216 255
189 216 255
189 216 255
189 216 255
189 216 255
189 216 255
189 216 255
189 216 255
189 216 255
189 216 255
189 216 255
189 216 255
189 216 255
189 216 255
189 216 255
189 216 255
189 216 255
189 216 255
189 216 255
189 216 255
189 216 255
189 216 255
189 216 255
189 216 255
189 216 255
189 216 255
189 216 255
189 216 255
189 216 255
189 216 255
189 216 255
189 216 255
189 216 255
189 216 255
189 216 255
189 216 255
189 216 255
189 216 255
189 216 255
189 216 255
189 216 255
189 216 255
189 216 255
189 216 255
189 216 255
189 216 255
189 216 255
189 216 255
189 216 255
189 216 255
189 216 255
189 216 255
189 216 255
189 216 255
189 216 255
189 216 255
189 216 255
189 216 255
189 216 255
189 216 255
189 216 255
189 216 255
189 216 255
189 216 255
189 215 255
189 215 255
189 215 255
189 215 255
189 215 255
189 215 255
189 215 255
189 215 255
189 215 255
189 215 255
189 215 255
189 215 255
189 215 255
189 215 255
189 215 255
189 215 255
189 215 255
189 215 255
189 215 255
189 215 255
189 215 255
189 215 255
189 215 255
189 215 255
189 215 255
189 215 255
75 86 104
14 18 23
15 19 24
12 15 19
9 11 14
11 14 18
12 15 18
9 11 15
13 16 21
15 19 24
10 12 16
7 9 12
10 12 16
11 13 17
13 15 19
11 14 18
10 12 16
8 11 14
11 14 18
15 19 25
13 16 20
17 21 27
17 21 27
17 22 30
14 17 22
18 22 27
16 20 25
18 22 28
13 16 21
16 20 26
13 16 21
15 18 24
14 17 23
16 20 26
14 17 22
21 26 34
12 14 19
13 16 21
18 22 29
14 18 22
16 20 27
19 24 31
10 12 16
17 21 27
15 18 24
14 17 23
16 20 27
17 21 28
21 26 33
13 17 21
15 19 25
20 25 32
20 25 32
15 19 25
14 18 24
24 29 37
20 25 32
19 24 30
14 17 22
21 26 33
12 15 20
11 13 17
23 28 36
14 18 23
15 18 23
18 22 28
17 21 26
16 20 26
20 24 31
21 26 34
15 18 23
18 22 28
15 18 24
16 21 27
25 30 38
18 22 28
17 22 28
22 27 35
27 34 44
20 25 32
21 26 33
16 20 25
25 30 39
14 17 23
15 19 24
21 26 34
21 26 33
20 24 30
17 22 28
21 26 33
16 20 26
17 20 25
8 10 14
13 16 20
15 18 23
15 19 24
13 16 20
12 15 20
23 28 36
14 18 23
14 17 22
18 21 27
14 18 23
12 14 18
12 16 21
18 23 30
11 14 18
16 20 26
9 11 14
12 16 21
14 17 22
14 17 22
11 14 18
17 21 27
14 17 22
12 15 20
10 13 16
14 17 22
13 16 21
12 15 19
9 10 13
14 17 21
9 12 15
7 9 12
9 11 15
15 19 24
11 14 18
18 23 30
16 19 25
75 86 103
189 215 255
189 215 255
189 215 255
189 215 255
189 215 255
189 215 255
189 215 255
189 215 255
189 215 255
189 215 255
189 215 255
189 215 255
189 215 255
189 215 255
189 215 255
189 215 255
189 215 255
189 215 255
189 215 255
189 215 255
189 215 255
189 215 255
189 215 255
189 216 255
189 215 255
189 216 255
189 216 255
189 216 255
189 216 255
189 216 255
189 216 255
189 216 255
189 216 255
189 216 255
189 216 255
189 216 255
189 216 255
189 216 255
189 216 255
189 216 255
189 216 255
189 216 255
189 216 255
189 216 255
189 216 255
189 216 255
189 216 255
189 216 255
189 216 255
189 216 255
189 216 255
189 216 255
189 216 255
189 216 255
189 216 255
189 216 255
189 216 255
189 216 255
189 216 255
189 216 255
189 216 255
189 216 255
189 216 255
189 216 255
189 216 255
189 216 255
189 216 255
189 216 255
189 216 255
189 216 255
189 216 255
189 216 255
189 216 255
189 216 255
189 216 255
189 216 255
189 216 255
189 216 255
189 216 255
189 216 255
189 216 255
189 216 255
189 216 255
189 216 255
189 216 255
189 216 255
189 216 255
189 216 255
189 216 255
189 216 255
190 216 255
190 216 255
190 216 255
190 216 255
190 216 255
190 216 255
190 216 255
190 216 255
190 216 255
190 216 255
190 216 255
190 216 255
190 216 255
190 216 255
190 216 255
190 216 255
190 216 255
190 216 255
190 216 255
190 216 255
190 216 255
190 216 255
190 216 255
190 216 255
190 216 255
190 216 255
190 216 255
190 216 255
190 216 255
190 216 255
190 216 255
190 216 255
190 216 255
190 216 255
190 216 255
190 216 255
190 216 255
190 216 255
190 216 255
190 216 255
190 216 255
190 216 255
190 216 255
190 216 255
190 216 255
190 216 255
190 216 255
190 216 255
190 216 255
190 216 255
190 216 255
190 216 255
190 216 255
190 216 255
190 216 255
190 216 255
190 216 255
190 216 255
190 216 255
190 216 255
190 216 255
190 216 255
190 216 255
190 216 255
190 216 255
190 216 255
190 216 255
190 216 255
190 216 255
190 216 255
190 216 255
190 216 255
190 216 255
190 216 255
190 216 255
190 216 255
190 216 255
190 216 255
190 216 255
190 216 255
190 216 255
190 216 255
190 216 255
190 216 255
190 216 255
190 216 255
190 216 255
190 216 255
190 216 255
190 216 255
190 216 255
190 216 255
190 216 255
190 216 255
190 216 255
190 216 255
190 216 255
190 216 255
190 216 255
190 216 255
190 216 255
190 216 255
190 216 255
190 216 255
190 216 255
190 216 255
190 216 255
190 216 255
190 216 255
190 216 255
190 216 255
190 216 255
190 216 255
190 216 255
190 216 255
190 216 255
190 216 255
190 216 255
190 216 255
190 216 255
190 216 255
190 216 255
190 216 255
190 216 255
190 216 255
190 216 255
190 216 255
190 216 255
190 216 255
190 216 255
190 216 255
189 216 255
189 216 255
189 216 255
189 216 255
189 216 255
189 216 255
189 216 255
189 216 255
189 216 255
189 216 255
189 216 255
189 216 255
189 216 255
189 216 255
189 216 255
189 216 255
189 216 255
189 216 255
189 216 255
189 216 255
189 216 255
189 216 255
189 216 255
189 216 255
189 216 255
189 216 255
189 216 255
189 216 255
189 216 255
189 216 255
189 216 255
189 216 255
189 216 255
189 216 255
189 216 255
189 216 255
189 216 255
189 216 255
189 216 255
189 216 255
189 216 255
189 216 255
189 216 255
189 216 255
189 216 255
189 216 255
189 216 255
189 216 255
189 216 255
41 47 57
15 18 22
13 16 20
13 16 21
15 18 24
15 18 23
15 18 23
12 15 19
11 15 19
15 19 24
13 16 21
13 16 20
12 15 20
10 12 16
15 18 23
11 14 18
10 13 17
15 19 24
20 24 31
16 19 25
8 11 15
21 25 32
13 16 21
12 15 19
9 12 15
18 23 29
9 11 15
13 17 22
11 14 18
17 21 26
15 19 24
16 20 26
18 23 29
20 24 31
15 18 22
18 22 29
17 21 27
12 15 19
22 27 34
16 19 24
15 19 25
14 18 23
19 23 30
17 22 28
18 22 29
15 18 24
15 19 25
17 21 28
17 21 27
19 24 31
18 23 30
22 26 33
11 14 19
21 26 34
15 19 24
18 22 28
23 29 37
18 22 29
19 23 30
19 24 30
22 26 34
16 20 26
17 21 27
19 23 30
17 20 26
16 20 26
10 13 17
23 29 37
19 23 30
14 17 22
16 20 26
15 19 24
18 22 28
22 28 36
21 26 33
17 21 27
21 26 32
21 27 35
17 22 28
16 20 26
15 18 23
16 19 25
17 21 27
16 19 24
19 24 31
13 17 23
16 19 25
20 24 30
10 12 16
16 20 26
22 28 36
17 21 27
16 19 25
16 20 25
15 19 25
17 22 28
21 26 34
13 16 21
23 28 37
14 17 22
16 19 25
14 17 22
16 20 26
14 17 23
14 17 23
13 17 22
13 15 20
14 18 24
16 20 26
9 11 15
22 27 34
14 17 22
13 16 20
20 25 32
11 14 19
13 16 20
20 25 31
15 18 23
10 12 15
12 16 21
13 16 20
9 12 16
13 16 21
14 17 23
9 11 14
15 19 25
10 12 15
10 12 15
11 14 19
47 55 67
189 216 255
189 216 255
189 216 255
189 216 255
189 216 255
189 216 255
189 216 255
189 216 255
189 216 255
189 216 255
189 216 255
189 216 255
189 216 255
189 216 255
189 216 255
189 216 255
189 216 255
189 216 255
189 216 255
189 216 255
189 216 255
189 216 255
189 216 255
189 216 255
189 216 255
189 216 255
189 216 255
189 216 255
189 216 255
189 216 255
189 216 255
189 216 255
189 216 255
189 216 255
189 216 255
189 216 255
189 216 255
189 216 255
189 216 255
189 216 255
189 216 255
189 216 255
189 216 255
189 216 255
189 216 255
189 216 255
189 216 255
189 216 255
190 216 255
190 216 255
190 216 255
190 216 255
190 216 255
190 216 255
190 216 255
190 216 255
190 216 255
190 216 255
190 216 255
190 216 255
190 216 255
190 216 255
190 216 255
190 216 255
190 216 255
190 216 255
190 216 255
190 216 255
190 216 255
190 216 255
190 216 255
190 216 255
190 216 255
190 216 255
190 216 255
190 216 255
190 216 255
190 216 255
190 216 255
190 216 255
190 216 255
190 216 255
190 216 255
190 216 255
190 216 255
190 216 255
190 216 255
190 216 255
190 216 255
190 216 255
190 216 255
190 216 255
190 216 255
190 216 255
190 216 255
190 216 255
190 216 255
190 216 255
190 216 255
190 216 255
190 216 255
190 216 255
190 216 255
190 216 255
190 216 255
190 216 255
190 216 255
190 216 255
190 216 255
190 216 255
190 216 255
190 216 255
190 216 255
190 216 255
190 216 255
190 216 255
190 216 255
190 216 255
190 216 255
190 216 255
190 216 255
190 216 255
190 216 255
190 216 255
190 216 255
190 216 255
190 216 255
190 216 255
190 216 255
190 216 255
190 216 255
190 216 255
190 216 255
190 216 255
190 216 255
190 216 255
190 216 255
190 216 255
190 216 255
190 216 255
190 216 255
190 216 255
190 216 255
190 216 255
190 216 255
190 216 255
190 216 255
190 216 255
190 216 255
190 216 255
190 216 255
190 216 255
190 216 255
190 216 255
190 216 255
190 216 255
190 216 255
190 216 255
190 216 255
190 216 255
190 216 255
190 216 255
190 216 255
190 216 255
190 216 255
190 216 255
190 216 255
190 216 255
190 216 255
190 216 255
190 216 255
190 216 255
190 216 255
190 216 255
190 216 255
190 216 255
190 216 255
190 216 255
190 216 255
190 216 255
190 216 255
190 216 255
190 216 255
190 216 255
190 216 255
190 216 255
190 216 255
190 216 255
190 216 255
190 216 255
190 216 255
190 216 255
190 216 255
190 216 255
190 216 255
190 216 255
190 216 255
190 216 255
190 216 255
190 216 255
190 216 255
190 216 255
190 216 255
190 216 255
190 216 255
190 216 255
190 216 255
190 216 255
190 216 255
190 216 255
190 216 255
190 216 255
190 216 255
190 216 255
190 216 255
190 216 255
190 216 255
190 216 255
190 216 255
190 216 255
190 216 255
190 216 255
190 216 255
190 216 255
190 216 255
190 216 255
190 216 255
190 216 255
190 216 255
190 216 255
190 216 255
190 216 255
190 216 255
190 216 255
190 216 255
190 216 255
190 216 255
190 216 255
190 216 255
190 216 255
190 216 255
190 216 255
190 216 255
190 216 255
190 216 255
190 216 255
190 216 255
190 216 255
190 216 255
190 216 255
190 216 255
190 216 255
190 216 255
190 216 255
190 216 255
190 216 255
190 216 255
190 216 255
190 216 255
190 216 255
190 216 255
190 216 255
190 216 255
190 216 255
190 216 255
190 216 255
190 216 255
190 216 255
190 216 255
190 216 255
44 52 64
11 13 17
10 12 16
9 11 14
13 17 22
16 20 26
15 19 24
15 18 23
11 13 17
16 19 25
14 18 23
16 20 26
14 17 22
11 14 18
13 16 21
13 16 20
13 16 21
15 19 25
9 11 15
17 20 25
19 24 31
9 11 14
11 14 17
22 26 33
17 20 26
15 19 24
9 12 15
14 18 23
18 23 30
12 15 19
16 20 26
14 17 22
16 20 26
12 15 20
19 24 31
13 17 23
19 24 31
15 19 25
19 23 29
22 28 36
20 25 33
23 29 38
11 14 19
17 21 27
19 24 32
18 23 29
18 22 29
24 29 38
9 11 14
22 27 35
15 19 24
21 26 34
19 24 31
16 20 26
19 23 29
22 27 34
15 19 24
17 21 27
21 26 34
18 23 29
17 20 26
15 18 24
10 12 16
24 30 40
23 28 35
11 15 19
18 22 28
20 25 31
23 29 37
16 19 25
20 24 31
15 18 24
16 20 25
16 19 25
20 25 31
16 20 26
14 17 22
14 18 23
16 20 27
15 18 24
19 23 30
15 19 25
18 21 27
21 26 35
16 20 26
23 29 38
13 17 22
16 21 27
14 17 22
18 23 29
23 28 37
20 25 32
14 18 23
16 20 25
14 17 22
12 14 19
16 20 26
15 19 25
15 18 24
10 12 16
23 28 35
21 26 33
14 16 21
15 18 23
11 14 18
17 21 27
14 17 22
12 15 19
14 16 21
7 9 12
10 12 16
13 17 22
11 15 19
15 19 24
7 8 11
12 15 19
12 15 19
17 22 28
11 14 19
12 15 19
10 13 16
10 13 17
10 13 16
17 21 27
13 15 20
13 16 21
10 12 16
14 18 23
17 21 27
41 48 59
190 216 255
190 216 255
190 216 255
190 216 255
190 216 255
190 216 255
190 216 255
190 216 255
190 216 255
190 216 255
190 216 255
190 216 255
190 216 255
190 216 255
190 216 255
190 216 255
190 216 255
190 216 255
190 216 255
190 216 255
190 216 255
190 216 255
190 216 255
190 216 255
190 216 255
190 216 255
190 216 255
190 216 255
190 216 255
190 216 255
190 216 255
190 216 255
190 216 255
190 216 255
190 216 255
190 216 255
190 216 255
190 216 255
190 216 255
190 216 255
190 216 255
190 216 255
190 216 255
190 216 255
190 216 255
190 216 255
190 216 255
190 216 255
190 216 255
190 216 255
190 216 255
190 216 255
190 216 255
190 216 255
190 216 255
190 216 255
190 216 255
190 216 255
190 216 255
190 216 255
190 216 255
190 216 255
190 216 255
190 216 255
190 216 255
190 216 255
190 216 255
190 216 255
190 216 255
190 216 255
190 216 255
190 216 255
190 216 255
190 216 255
190 216 255
190 216 255
190 216 255
190 216 255
190 216 255
190 216 255
190 216 255
190 216 255
190 216 255
190 216 255
190 216 255
190 216 255
190 216 255
190 216 255
190 216 255
190 216 255
190 216 255
190 216 255
190 216 255
190 216 255
190 216 255
190 216 255
190 216 255
190 216 255
190 216 255
190 216 255
190 216 255
190 216 255
190 216 255
190 216 255
190 216 255
190 216 255
190 216 255
190 216 255
190 216 255
190 216 255
190 216 255
190 216 255
190 216 255
190 216 255
190 216 255
190 216 255
190 216 255
190 216 255
190 216 255
190 216 255
190 216 255
190 216 255
190 216 255
190 216 255
190 216 255
190 216 255
190 216 255
190 216 255
190 216 255
190 216 255
190 216 255
190 216 255
190 216 255
190 216 255
190 216 255
191 217 255
191 217 255
191 217 255
191 217 255
191 217 255
191 217 255
191 217 255
191 217 255
191 217 255
191 217 255
191 217 255
191 217 255
191 217 255
191 217 255
191 217 255
191 217 255
191 217 255
191 217 255
191 217 255
191 217 255
191 217 255
191 217 255
191 217 255
191 217 255
191 217 255
191 217 255
191 217 255
191 217 255
191 217 255
191 217 255
191 217 255
191 217 255
191 217 255
191 217 255
191 217 255
191 217 255
191 217 255
191 217 255
191 217 255
191 217 255
191 217 255
191 217 255
191 217 255
190 216 255
190 216 255
190 216 255
190 216 255
190 216 255
190 216 255
190 216 255
190 216 255
190 216 255
190 216 255
190 216 255
190 216 255
190 216 255
190 216 255
190 216 255
190 216 255
190 216 255
190 216 255
190 216 255
190 216 255
190 216 255
190 216 255
190 216 255
190 216 255
190 216 255
190 216 255
190 216 255
190 216 255
190 216 255
190 216 255
190 216 255
190 216 255
190 216 255
190 216 255
190 216 255
190 216 255
190 216 255
190 216 255
190 216 255
190 216 255
190 216 255
190 216 255
190 216 255
190 216 255
190 216 255
190 216 255
190 216 255
190 216 255
190 216 255
190 216 255
190 216 255
190 216 255
190 216 255
190 216 255
190 216 255
190 216 255
190 216 255
190 216 255
190 216 255
190 216 255
190 216 255
190 216 255
190 216 255
190 216 255
190 216 255
190 216 255
190 216 255
190 216 255
190 216 255
190 216 255
190 216 255
190 216 255
190 216 255
190 216 255
190 216 255
190 216 255
190 216 255
190 216 255
190 216 255
190 216 255
190 216 255
190 216 255
190 216 255
190 216 255
190 216 255
190 216 255
190 216 255
190 216 255
190 216 255
190 216 255
190 216 255
190 216 255
35 41 49
9 11 14
14 17 22
18 22 29
8 11 14
12 14 18
17 21 27
17 21 27
11 14 18
7 9 12
7 9 11
9 11 14
11 14 17
12 15 20
14 17 21
10 13 16
9 11 15
12 15 19
20 25 32
15 19 25
14 17 21
19 23 30
14 17 22
13 16 21
11 13 17
15 18 24
15 19 25
17 20 26
12 14 18
13 15 20
15 18 23
14 17 23
13 16 21
14 17 21
23 27 35
20 25 32
15 18 24
14 17 22
16 20 25
18 22 28
16 20 26
16 20 26
8 10 12
19 24 30
16 20 26
9 12 15
15 19 25
18 22 29
16 20 27
16 20 26
14 17 22
11 14 18
19 23 30
20 24 31
20 25 32
11 13 17
14 18 23
22 27 34
16 19 24
15 18 23
17 21 26
16 20 25
19 24 31
20 25 33
21 25 31
17 21 27
14 17 22
15 19 25
19 24 30
25 30 38
21 26 34
16 20 27
16 19 25
16 20 25
17 22 28
20 24 31
18 22 29
16 20 27
23 28 36
22 27 34
21 25 32
15 18 23
14 17 23
22 27 34
20 24 31
16 20 26
15 18 23
13 16 21
19 23 30
17 21 27
22 27 34
21 26 33
23 29 37
18 22 29
20 24 31
15 18 23
18 23 31
14 18 23
14 17 22
16 20 26
20 24 31
22 27 34
14 17 22
13 16 21
13 16 20
10 13 17
17 21 27
12 15 19
18 22 27
10 12 16
13 16 20
25 30 38
13 17 22
18 23 30
7 9 12
10 12 15
12 15 19
10 12 16
9 11 14
13 16 22
13 15 19
12 15 20
12 15 19
13 16 21
15 19 25
14 17 23
14 17 22
9 11 15
11 14 18
33 39 48
190 216 255
190 216 255
190 216 255
190 216 255
190 216 255
190 216 255
190 216 255
190 216 255
190 216 255
190 216 255
190 216 255
190 216 255
190 216 255
190 216 255
190 216 255
190 216 255
190 216 255
190 216 255
190 216 255
190 216 255
190 216 255
190 216 255
190 216 255
190 216 255
190 216 255
190 216 255
190 216 255
190 216 255
190 216 255
190 216 255
190 216 255
190 216 255
190 216 255
190 216 255
190 216 255
190 216 255
190 216 255
190 216 255
190 216 255
190 216 255
190 216 255
190 216 255
190 216 255
190 216 255
190 216 255
190 216 255
190 216 255
190 216 255
190 216 255
190 216 255
190 216 255
190 216 255
190 216 255
190 216 255
190 216 255
190 216 255
190 216 255
190 216 255
190 216 255
190 216 255
190 216 255
190 216 255
190 216 255
190 216 255
190 216 255
190 216 255
190 216 255
190 216 255
190 216 255
190 216 255
190 216 255
190 216 255
190 216 255
190 216 255
190 216 255
190 216 255
190 216 255
190 216 255
190 216 255
190 216 255
190 216 255
190 216 255
190 216 255
190 216 255
190 216 255
190 216 255
190 216 255
191 217 255
190 216 255
190 216 255
191 217 255
191 217 255
191 217 255
191 217 255
191 217 255
191 217 255
191 217 255
191 217 255
191 217 255
191 217 255
191 217 255
191 217 255
191 217 255
191 217 255
191 217 255
191 217 255
191 217 255
191 217 255
191 217 255
191 217 255
191 217 255
191 217 255
191 217 255
191 217 255
191 217 255
191 217 255
191 217 255
191 217 255
191 217 255
191 217 255
191 217 255
191 217 255
191 217 255
191 217 255
191 217 255
191 217 255
191 217 255
191 217 255
191 217 255
191 217 255
191 217 255
191 217 255
191 217 255
191 217 255
191 217 255
191 217 255
191 217 255
191 217 255
191 217 255
191 217 255
191 217 255
191 217 255
191 217 255
191 217 255
191 217 255
191 217 255
191 217 255
191 217 255
191 217 255
191 217 255
191 217 255
191 217 255
191 217 255
191 217 255
191 217 255
191 217 255
191 217 255
191 217 255
191 217 255
191 217 255
191 217 255
191 217 255
191 217 255
191 217 255
191 217 255
191 217 255
191 217 255
191 217 255
191 217 255
191 217 255
191 217 255
191 217 255
191 217 255
191 217 255
191 217 255
191 217 255
191 217 255
191 217 255
191 217 255
191 217 255
191 217 255
191 217 255
191 217 255
191 217 255
191 217 255
191 217 255
191 217 255
191 217 255
191 217 255
191 217 255
191 217 255
191 217 255
191 217 255
191 217 255
191 217 255
191 217 255
191 217 255
191 217 255
191 217 255
191 217 255
191 217 255
191 217 255
191 217 255
191 217 255
191 217 255
191 217 255
191 217 255
191 217 255
191 217 255
191 217 255
191 217 255
191 217 255
191 217 255
191 217 255
191 217 255
191 217 255
191 217 255
191 217 255
191 217 255
191 217 255
191 217 255
191 217 255
191 217 255
191 217 255
191 217 255
191 217 255
191 217 255
191 217 255
191 217 255
191 217 255
191 217 255
191 217 255
191 217 255
191 217 255
191 217 255
191 217 255
191 217 255
191 217 255
191 217 255
191 217 255
191 217 255
191 217 255
191 217 255
191 217 255
191 217 255
191 217 255
191 217 255
191 217 255
191 217 255
191 217 255
191 217 255
191 217 255
191 217 255
191 217 255
191 217 255
191 217 255
191 217 255
191 217 255
191 217 255
191 217 255
191 217 255
191 217 255
191 217 255
191 217 255
191 217 255
191 217 255
191 217 255
191 217 255
191 217 255
191 217 255
31 36 44
15 19 24
12 15 20
8 10 12
14 17 22
12 15 19
12 15 20
10 12 16
12 15 19
11 13 17
11 13 17
12 15 20
15 19 24
16 19 25
12 15 19
12 15 19
15 18 24
11 14 18
18 23 30
19 24 31
11 13 17
14 18 23
10 13 18
15 18 23
18 22 28
15 18 23
20 24 30
15 18 23
14 17 21
16 20 26
17 21 26
19 23 29
16 20 25
16 19 24
17 21 27
19 25 32
20 24 31
20 24 31
16 20 25
16 20 25
12 15 20
17 21 27
18 22 29
17 21 27
18 23 29
18 22 28
16 19 24
19 23 29
16 20 26
17 22 28
13 17 23
17 21 27
14 17 22
18 23 29
19 24 31
15 18 23
17 21 26
10 12 16
15 19 25
22 27 34
22 28 36
18 22 28
15 18 23
14 18 23
21 26 33
17 21 26
16 20 26
16 20 25
23 29 37
16 20 26
20 24 32
22 27 34
17 20 26
19 23 29
13 17 22
23 29 37
17 21 27
17 21 26
12 16 21
18 21 27
15 18 22
17 21 27
12 15 20
20 25 32
14 17 22
22 27 35
13 17 22
12 15 19
13 16 20
14 18 23
15 18 23
23 28 35
20 25 32
10 13 16
16 20 26
8 11 14
10 12 15
14 18 23
15 18 23
16 20 26
13 16 21
15 18 24
14 17 23
15 18 23
10 12 15
19 24 30
11 14 19
18 22 28
18 22 28
14 17 22
15 18 22
16 20 26
14 18 23
19 23 29
13 16 21
12 15 19
12 15 19
17 20 25
10 13 16
17 20 26
13 17 21
15 19 24
15 19 24
11 14 18
13 15 19
13 16 21
9 11 15
13 17 22
18 22 28
34 41 51
191 217 255
191 217 255
191 217 255
191 217 255
191 217 255
191 217 255
191 217 255
191 217 255
191 217 255
191 217 255
191 217 255
191 217 255
191 217 255
191 217 255
191 217 255
191 217 255
191 217 255
191 217 255
191 217 255
191 217 255
191 217 255
191 217 255
191 217 255
191 217 255
191 217 255
191 217 255
191 217 255
191 217 255
191 217 255
191 217 255
191 217 255
191 217 255
191 217 255
191 217 255
191 217 255
191 217 255
191 217 255
191 217 255
191 217 255
191 217 255
191 217 255
191 217 255
191 217 255
191 217 255
191 217 255
191 217 255
191 217 255
191 217 255
191 217 255
191 217 255
191 217 255
191 217 255
191 217 255
191 217 255
191 217 255
191 217 255
191 217 255
191 217 255
191 217 255
191 217 255
191 217 255
191 217 255
191 217 255
191 217 255
191 217 255
191 217 255
191 217 255
191 217 255
191 217 255
191 217 255
191 217 255
191 217 255
191 217 255
191 217 255
191 217 255
191 217 255
191 217 255
191 217 255
191 217 255
191 217 255
191 217 255
191 217 255
191 217 255
191 217 255
191 217 255
191 217 255
191 217 255
191 217 255
191 217 255
191 217 255
191 217 255
191 217 255
191 217 255
191 217 255
191 217 255
191 217 255
191 217 255
191 217 255
191 217 255
191 217 255
191 217 255
191 217 255
191 217 255
191 217 255
191 217 255
191 217 255
191 217 255
191 217 255
191 217 255
191 217 255
191 217 255
191 217 255
191 217 255
191 217 255
191 217 255
191 217 255
191 217 255
191 217 255
191 217 255
191 217 255
191 217 255
191 217 255
191 217 255
191 217 255
191 217 255
191 217 255
191 217 255
191 217 255
191 217 255
191 217 255
191 217 255
191 217 255
191 217 255
191 217 255
191 217 255
191 217 255
191 217 255
191 217 255
191 217 255
191 217 255
191 217 255
191 217 255
191 217 255
191 217 255
191 217 255
191 217 255
191 217 255
191 217 255
191 217 255
191 217 255
191 217 255
191 217 255
191 217 255
191 217 255
191 217 255
191 217 255
191 217 255
191 217 255
191 217 255
191 217 255
191 217 255
191 217 255
191 217 255
191 217 255
191 217 255
191 217 255
191 217 255
191 217 255
191 217 255
191 217 255
191 217 255
191 217 255
191 217 255
191 217 255
191 217 255
191 217 255
191 217 255
191 217 255
191 217 255
191 217 255
191 217 255
191 217 255
191 217 255
191 217 255
191 217 255
191 217 255
191 217 255
191 217 255
191 217 255
191 217 255
191 217 255
191 217 255
191 217 255
191 217 255
191 217 255
191 217 255
191 217 255
191 217 255
191 217 255
191 217 255
191 217 255
191 217 255
191 217 255
191 217 255
191 217 255
191 217 255
191 217 255
191 217 255
191 217 255
191 217 255
191 217 255
191 217 255
191 217 255
191 217 255
191 217 255
191 217 255
191 217 255
191 217 255
191 217 255
191 217 255
191 217 255
191 217 255
191 217 255
191 217 255
191 217 255
191 217 255
191 217 255
191 217 255
191 217 255
191 217 255
191 217 255
191 217 255
191 217 255
191 217 255
191 217 255
191 217 255
191 217 255
191 217 255
191 217 255
191 217 255
191 217 255
191 217 255
191 217 255
191 217 255
191 217 255
191 217 255
191 217 255
191 217 255
191 217 255
191 217 255
191 217 255
191 217 255
191 217 255
191 217 255
191 217 255
191 217 255
191 217 255
191 217 255
191 217 255
191 217 255
191 217 255
191 217 255
191 217 255
191 217 255
191 217 255
191 217 255
191 217 255
191 217 255
191 217 255
191 217 255
22 26 32
14 18 23
10 13 17
13 16 20
14 17 21
13 15 20
21 26 32
9 12 15
12 14 18
15 18 24
14 17 22
11 14 18
11 14 17
11 13 17
10 12 16
12 15 19
16 20 26
18 23 29
12 15 19
8 10 13
13 17 21
16 20 25
17 21 26
10 12 16
17 20 26
13 16 21
14 17 22
17 21 27
14 17 22
10 12 16
18 22 28
14 17 22
18 21 27
17 21 28
12 15 20
12 15 19
14 17 22
24 29 36
23 29 37
19 23 29
20 25 32
20 24 31
12 15 20
17 21 27
18 22 28
18 22 28
12 16 20
18 22 28
20 25 32
16 20 25
20 24 31
18 22 29
20 25 32
15 19 24
13 17 22
25 31 39
14 17 23
17 21 26
22 27 35
21 26 33
19 24 31
16 19 25
19 24 32
23 28 36
19 23 30
18 22 28
17 22 28
18 23 30
18 24 31
22 27 35
11 14 18
16 19 24
18 22 28
13 16 21
21 26 33
17 21 27
15 18 23
10 12 16
20 25 32
16 20 26
17 21 27
18 22 29
17 21 28
22 27 34
21 26 34
16 20 26
15 18 23
16 21 27
20 24 30
20 25 32
19 23 29
16 20 26
17 21 27
16 20 26
14 18 23
18 22 29
17 21 27
13 15 20
17 22 28
19 24 30
20 24 31
14 17 21
13 16 21
15 18 24
12 15 20
16 19 24
16 19 25
14 17 22
21 26 33
14 17 22
19 24 30
12 15 19
16 19 24
15 19 24
12 15 19
12 15 20
12 15 20
11 13 17
11 14 17
8 10 12
10 12 16
11 14 18
10 13 17
14 18 23
18 22 28
14 16 21
14 17 22
8 9 12
12 15 20
26 31 38
191 217 255
191 217 255
191 217 255
191 217 255
191 217 255
191 217 255
191 217 255
191 217 255
191 217 255
191 217 255
191 217 255
191 217 255
191 217 255
191 217 255
191 217 255
191 217 255
191 217 255
191 217 255
191 217 255
191 217 255
191 217 255
191 217 255
191 217 255
191 217 255
191 217 255
191 217 255
191 217 255
191 217 255
191 217 255
191 217 255
191 217 255
191 217 255
191 217 255
191 217 255
191 217 255
191 217 255
191 217 255
191 217 255
191 217 255
191 217 255
191 217 255
191 217 255
191 217 255
191 217 255
191 217 255
191 217 255
191 217 255
191 217 255
191 217 255
191 217 255
191 217 255
191 217 255
191 217 255
191 217 255
191 217 255
191 217 255
191 217 255
191 217 255
191 217 255
191 217 255
191 217 255
191 217 255
191 217 255
191 217 255
191 217 255
191 217 255
191 217 255
191 217 255
191 217 255
191 217 255
191 217 255
191 217 255
191 217 255
191 217 255
191 217 255
191 217 255
191 217 255
191 217 255
191 217 255
191 217 255
191 217 255
191 217 255
191 217 255
191 217 255
191 217 255
191 217 255
191 217 255
191 217 255
191 217 255
191 217 255
191 217 255
191 217 255
191 217 255
191 217 255
191 217 255
191 217 255
191 217 255
191 217 255
191 217 255
191 217 255
191 217 255
191 217 255
191 217 255
191 217 255
191 217 255
191 217 255
191 217 255
191 217 255
191 217 255
191 217 255
191 217 255
191 217 255
191 217 255
191 217 255
191 217 255
191 217 255
191 217 255
191 217 255
191 217 255
191 217 255
191 217 255
191 217 255
191 217 255
191 217 255
191 217 255
191 217 255
191 217 255
191 217 255
191 217 255
191 217 255
191 217 255
191 217 255
191 217 255
191 217 255
191 217 255
192 217 255
191 217 255
191 217 255
191 217 255
192 217 255
192 217 255
192 217 255
192 217 255
192 217 255
192 217 255
192 217 255
192 217 255
192 217 255
192 217 255
192 217 255
192 217 255
191 217 255
192 217 255
192 217 255
192 217 255
192 217 255
191 217 255
191 217 255
191 217 255
191 217 255
192 217 255
192 217 255
191 217 255
191 217 255
191 217 255
191 217 255
191 217 255
192 217 255
192 217 255
191 217 255
192 217 255
192 217 255
192 217 255
191 217 255
191 217 255
192 217 255
192 217 255
192 217 255
191 217 255
191 217 255
191 217 255
191 217 255
191 217 255
191 217 255
192 217 255
191 217 255
191 217 255
191 217 255
191 217 255
191 217 255
192 217 255
192 217 255
192 217 255
191 217 255
192 217 255
192 217 255
191 217 255
192 217 255
192 217 255
192 217 255
192 217 255
192 217 255
191 217 255
191 217 255
191 217 255
191 217 255
192 217 255
192 217 255
192 217 255
191 217 255
192 217 255
191 217 255
191 217 255
192 217 255
192 217 255
191 217 255
192 217 255
191 217 255
192 217 255
191 217 255
191 217 255
191 217 255
192 217 255
192 217 255
192 217 255
191 217 255
192 217 255
191 217 255
191 217 255
192 217 255
191 217 255
192 217 255
192 217 255
192 217 255
191 217 255
192 217 255
191 217 255
191 217 255
191 217 255
191 217 255
191 217 255
192 217 255
192 217 255
192 217 255
192 217 255
191 217 255
191 217 255
191 217 255
191 217 255
191 217 255
192 217 255
192 217 255
192 217 255
192 217 255
192 217 255
192 217 255
191 217 255
191 217 255
191 217 255
192 217 255
192 217 255
192 217 255
191 217 255
191 217 255
191 217 255
191 217 255
192 217 255
192 217 255
192 217 255
191 217 255
20 24 30
17 21 26
13 17 22
14 18 23
7 9 11
12 14 18
11 14 19
8 10 13
9 11 14
12 15 20
9 11 15
11 14 18
6 8 10
11 15 19
12 16 21
13 16 20
13 17 22
12 15 19
12 15 20
16 20 26
15 19 24
16 19 24
17 21 27
10 13 16
11 14 18
14 17 22
12 14 19
17 21 27
13 16 20
18 23 29
15 19 24
17 21 27
17 20 26
19 24 30
13 16 21
12 15 19
19 24 31
16 20 26
14 17 22
17 22 28
16 20 26
20 25 32
16 19 25
20 25 32
13 16 20
15 20 26
14 17 22
21 26 32
21 26 33
12 15 19
22 26 34
23 28 36
12 16 21
16 20 26
16 20 25
14 17 22
21 26 33
14 17 22
19 23 30
17 22 28
19 24 31
17 21 26
20 25 32
15 19 24
19 24 32
19 23 30
13 17 21
17 21 28
20 25 32
15 18 24
16 20 25
19 24 30
11 14 18
20 24 31
19 24 31
20 25 32
15 18 24
17 21 28
21 26 33
16 19 24
16 19 25
18 23 30
19 23 30
23 28 37
19 22 28
18 22 29
18 23 30
12 15 19
14 18 24
20 25 31
13 16 21
13 17 21
17 21 27
14 17 22
9 11 13
18 23 30
19 23 30
9 12 16
12 16 20
19 23 29
15 19 24
12 14 18
13 16 20
12 14 18
14 17 22
10 12 16
11 14 18
10 12 15
14 17 21
10 13 16
16 19 25
14 18 23
9 11 14
16 19 24
15 18 23
13 16 20
8 10 12
15 18 23
8 10 13
11 14 18
14 17 22
8 10 13
14 18 23
15 18 24
15 19 25
14 18 23
12 15 20
12 15 19
14 17 22
26 31 38
191 217 255
192 217 255
191 217 255
192 217 255
191 217 255
192 217 255
191 217 255
192 217 255
191 217 255
191 217 255
192 217 255
192 217 255
191 217 255
192 217 255
191 217 255
191 217 255
191 217 255
191 217 255
191 217 255
192 217 255
191 217 255
191 217 255
191 217 255
191 217 255
192 217 255
191 217 255
192 217 255
192 217 255
191 217 255
191 217 255
191 217 255
191 217 255
191 217 255
192 217 255
191 217 255
191 217 255
192 217 255
191 217 255
192 217 255
192 217 255
191 217 255
191 217 255
192 217 255
192 217 255
191 217 255
192 217 255
191 217 255
192 217 255
192 217 255
191 217 255
191 217 255
192 217 255
192 217 255
192 217 255
191 217 255
191 217 255
191 217 255
191 217 255
192 217 255
192 217 255
191 217 255
191 217 255
192 217 255
191 217 255
191 217 255
191 217 255
191 217 255
192 217 255
191 217 255
192 217 255
192 217 255
191 217 255
192 217 255
191 217 255
192 217 255
191 217 255
191 217 255
192 217 255
192 217 255
191 217 255
192 217 255
192 217 255
191 217 255
192 217 255
191 217 255
192 217 255
192 217 255
192 217 255
191 217 255
191 217 255
192 217 255
191 217 255
192 217 255
191 217 255
192 217 255
192 217 255
192 217 255
192 217 255
191 217 255
192 217 255
191 217 255
191 217 255
191 217 255
191 217 255
192 217 255
191 217 255
192 217 255
192 217 255
192 217 255
192 217 255
192 217 255
191 217 255
192 217 255
192 217 255
192 217 255
192 217 255
192 217 255
192 217 255
191 217 255
191 217 255
192 217 255
191 217 255
191 217 255
191 217 255
191 217 255
192 217 255
192 217 255
191 217 255
191 217 255
192 217 255
192 217 255
191 217 255
192 217 255
192 217 255
191 217 255
192 217 255
192 217 255
192 217 255
192 217 255
192 217 255
192 217 255
192 217 255
192 217 255
192 217 255
192 217 255
192 217 255
192 217 255
192 217 255
192 217 255
192 217 255
192 217 255
192 217 255
192 217 255
192 217 255
192 217 255
192 217 255
192 217 255
192 217 255
192 217 255
192 217 255
192 217 255
192 217 255
192 217 255
192 217 255
192 217 255
192 217 255
192 217 255
192 217 255
192 217 255
192 217 255
192 217 255
192 217 255
192 217 255
192 217 255
192 217 255
192 217 255
192 217 255
192 217 255
192 217 255
192 217 255
192 217 255
192 217 255
192 217 255
192 217 255
192 217 255
192 217 255
192 217 255
192 217 255
192 217 255
192 217 255
192 217 255
192 217 255
192 217 255
192 217 255
192 217 255
192 217 255
192 217 255
192 217 255
192 217 255
192 217 255
192 217 255
192 217 255
192 217 255
192 217 255
192 217 255
192 217 255
192 217 255
192 217 255
192 217 255
192 217 255
192 217 255
192 217 255
192 217 255
192 217 255
192 217 255
192 217 255
192 217 255
192 217 255
192 217 255
192 217 255
192 217 255
192 217 255
192 217 255
192 217 255
192 217 255
192 217 255
192 217 255
192 217 255
192 217 255
192 217 255
192 217 255
192 217 255
192 217 255
192 217 255
192 217 255
192 217 255
192 217 255
192 217 255
192 217 255
192 217 255
192 217 255
192 217 255
192 217 255
192 217 255
192 217 255
192 217 255
192 217 255
192 217 255
192 217 255
192 217 255
192 217 255
192 217 255
192 217 255
192 217 255
192 217 255
192 217 255
192 217 255
192 217 255
192 217 255
192 217 255
192 217 255
192 217 255
192 217 255
192 217 255
192 217 255
192 217 255
192 217 255
192 217 255
192 217 255
192 217 255
20 24 30
18 22 27
17 21 27
8 10 13
12 15 20
11 14 18
7 9 12
13 16 21
10 13 17
13 16 20
12 15 19
14 17 22
13 16 21
12 15 19
21 25 32
15 18 24
16 19 25
12 15 19
18 22 28
14 17 22
14 18 23
14 18 23
21 26 34
14 17 22
10 13 16
20 24 30
13 16 22
8 11 14
13 16 20
14 18 23
15 20 26
13 17 22
17 21 26
14 17 22
17 21 27
15 19 24
23 28 37
13 16 21
22 27 35
13 16 21
13 16 21
19 23 29
23 28 35
14 17 23
16 21 27
21 26 33
15 19 24
15 19 24
17 21 26
19 23 30
12 15 19
15 19 25
17 21 26
24 29 38
18 22 28
21 25 33
17 21 28
17 21 27
19 24 30
19 24 31
19 24 30
13 16 21
16 20 26
21 26 33
24 30 38
15 19 24
14 17 22
12 15 20
15 19 24
16 20 27
16 20 26
24 30 38
22 28 36
14 17 21
16 20 26
14 18 23
18 22 29
15 18 23
12 15 19
12 15 19
19 23 29
18 23 30
16 19 24
18 23 29
21 26 34
19 24 31
15 18 24
10 12 16
20 25 33
16 20 26
15 18 24
19 23 29
15 19 24
16 20 25
15 18 24
13 17 22
10 12 15
17 21 27
17 20 26
19 24 30
19 24 32
14 17 22
23 28 36
15 19 24
12 15 19
13 16 20
10 13 17
12 16 21
15 18 23
18 22 28
17 21 27
10 13 17
12 14 19
13 16 21
16 20 25
12 15 19
15 19 25
12 15 20
10 12 15
13 16 20
11 14 18
17 21 27
13 16 21
16 20 26
13 16 21
13 16 22
12 15 18
12 15 19
10 13 16
23 27 34
192 217 255
192 217 255
192 217 255
192 217 255
192 217 255
192 217 255
192 217 255
192 217 255
192 217 255
192 217 255
192 217 255
192 217 255
192 217 255
192 217 255
192 217 255
192 217 255
192 217 255
192 217 255
192 217 255
192 217 255
192 217 255
192 217 255
192 217 255
192 217 255
192 217 255
192 217 255
192 217 255
192 217 255
192 217 255
192 217 255
192 217 255
192 217 255
192 217 255
192 217 255
192 217 255
192 217 255
192 217 255
192 217 255
192 217 255
192 217 255
192 217 255
192 217 255
192 217 255
192 217 255
192 217 255
192 217 255
192 217 255
192 217 255
192 217 255
192 217 255
192 217 255
192 217 255
192 217 255
192 217 255
192 217 255
192 217 255
192 217 255
192 217 255
192 217 255
192 217 255
192 217 255
192 217 255
192 217 255
192 217 255
192 217 255
192 217 255
192 217 255
192 217 255
192 217 255
192 217 255
192 217 255
192 217 255
192 217 255
192 217 255
192 217 255
192 217 255
192 217 255
192 217 255
192 217 255
192 217 255
192 217 255
192 217 255
192 217 255
192 217 255
192 217 255
192 217 255
192 217 255
192 217 255
192 217 255
192 217 255
192 217 255
192 217 255
192 217 255
192 217 255
192 217 255
192 217 255
192 217 255
192 217 255
192 217 255
192 217 255
192 217 255
192 217 255
192 217 255
192 217 255
192 217 255
192 217 255
192 217 255
192 217 255
192 217 255
192 217 255
192 217 255
192 217 255
192 217 255
192 217 255
192 217 255
192 217 255
192 217 255
192 217 255
192 217 255
192 217 255
192 217 255
192 217 255
192 217 255
192 217 255
192 217 255
192 217 255
192 217 255
192 217 255
192 217 255
192 217 255
192 217 255
192 217 255
192 217 255
192 217 255
192 217 255
192 217 255
192 217 255
192 217 255
192 217 255
192 217 255
192 217 255
192 217 255
192 217 255
192 217 255
192 217 255
192 217 255
192 217 255
192 217 255
192 217 255
192 217 255
192 217 255
192 217 255
192 217 255
192 217 255
192 217 255
192 217 255
192 217 255
192 217 255
192 217 255
192 217 255
192 217 255
192 217 255
192 217 255
192 217 255
192 217 255
192 217 255
192 217 255
192 217 255
192 217 255
192 217 255
192 217 255
192 217 255
192 217 255
192 217 255
192 217 255
192 217 255
192 218 255
192 218 255
192 217 255
192 217 255
192 217 255
192 218 255
192 217 255
192 218 255
192 218 255
192 218 255
192 218 255
192 218 255
192 218 255
192 218 255
192 218 255
192 218 255
192 218 255
192 218 255
192 218 255
192 218 255
192 218 255
192 218 255
192 218 255
192 218 255
192 218 255
192 218 255
192 218 255
192 218 255
192 218 255
192 218 255
192 218 255
192 218 255
192 218 255
192 218 255
192 218 255
192 218 255
192 218 255
192 218 255
192 218 255
192 218 255
192 218 255
192 218 255
192 218 255
192 218 255
192 218 255
192 218 255
192 218 255
192 218 255
192 218 255
192 218 255
192 218 255
192 218 255
192 218 255
192 218 255
192 218 255
192 218 255
192 218 255
192 218 255
192 218 255
192 218 255
192 218 255
192 218 255
192 218 255
192 218 255
192 218 255
192 218 255
192 218 255
192 218 255
192 218 255
192 218 255
192 218 255
192 218 255
192 218 255
192 218 255
192 218 255
192 218 255
192 218 255
192 218 255
192 218 255
192 218 255
192 218 255
192 218 255
192 218 255
192 218 255
192 218 255
192 218 255
192 218 255
192 218 255
192 218 255
192 218 255
192 218 255
192 218 255
192 218 255
192 218 255
15 19 24
7 8 11
11 14 18
16 20 27
12 15 20
14 17 22
7 9 13
12 16 21
15 19 24
10 12 16
8 10 13
19 22 28
9 11 14
11 13 17
14 17 22
16 19 25
13 16 20
19 23 30
16 21 27
17 20 26
18 22 28
20 25 32
11 13 16
16 20 25
9 11 15
14 17 22
14 18 23
15 18 22
16 20 26
14 17 22
15 19 25
10 13 17
10 12 16
12 15 20
16 19 24
12 15 19
15 19 24
14 18 22
18 22 29
11 14 18
19 22 28
16 20 26
17 20 26
17 22 28
20 24 31
20 25 32
19 24 30
13 16 20
17 20 26
13 16 21
20 24 31
20 25 32
14 17 23
15 18 24
19 24 30
19 23 28
17 21 27
20 24 31
15 18 23
13 17 22
18 23 29
21 25 32
18 22 28
15 19 24
17 20 26
14 17 21
19 24 31
17 22 28
16 20 26
17 21 27
15 19 24
20 24 31
27 33 42
18 23 29
16 19 25
19 23 29
17 21 27
17 21 27
16 20 26
17 22 28
13 16 20
13 17 21
20 25 32
13 16 20
25 31 40
19 23 30
14 18 24
17 21 28
18 22 28
15 19 24
13 16 21
16 19 24
20 24 31
15 18 23
10 12 16
21 25 32
11 13 17
14 18 24
15 18 24
16 20 25
12 15 19
17 22 28
15 18 23
15 18 24
15 18 22
17 21 26
12 14 19
13 16 21
11 13 16
10 13 16
11 14 18
9 11 14
20 24 31
12 15 20
16 20 25
13 16 20
9 12 15
12 15 19
10 13 17
12 15 19
12 15 19
14 17 23
12 15 19
13 17 22
13 16 20
10 12 16
11 14 19
15 19 24
10 13 17
22 27 33
192 218 255
192 218 255
192 218 255
192 218 255
192 218 255
192 218 255
192 218 255
192 218 255
192 218 255
192 218 255
192 218 255
192 218 255
192 218 255
192 218 255
192 218 255
192 218 255
192 218 255
192 218 255
192 218 255
192 218 255
192 218 255
192 218 255
192 218 255
192 218 255
192 218 255
192 218 255
192 218 255
192 218 255
192 218 255
192 218 255
192 218 255
192 218 255
192 218 255
192 218 255
192 218 255
192 218 255
192 218 255
192 218 255
192 218 255
192 218 255
192 218 255
192 218 255
192 218 255
192 218 255
192 218 255
192 218 255
192 218 255
192 218 255
192 218 255
192 218 255
192 218 255
192 218 255
192 218 255
192 218 255
192 218 255
192 218 255
192 218 255
192 218 255
192 218 255
192 218 255
192 218 255
192 218 255
192 218 255
192 218 255
192 218 255
192 218 255
192 218 255
192 218 255
192 218 255
192 218 255
192 218 255
192 218 255
192 218 255
192 218 255
192 218 255
192 218 255
192 218 255
192 218 255
192 218 255
192 218 255
192 218 255
192 218 255
192 218 255
192 218 255
192 218 255
192 217 255
192 217 255
192 218 255
192 218 255
192 218 255
192 217 255
192 218 255
192 217 255
192 217 255
192 218 255
192 217 255
192 217 255
192 217 255
192 217 255
192 217 255
192 217 255
192 217 255
192 217 255
192 217 255
192 217 255
192 217 255
192 217 255
192 217 255
192 217 255
192 217 255
192 217 255
192 217 255
192 217 255
192 217 255
192 217 255
192 217 255
192 217 255
192 217 255
192 217 255
192 217 255
192 217 255
192 217 255
192 217 255
192 217 255
192 217 255
192 217 255
192 217 255
192 217 255
192 217 255
192 217 255
192 217 255
192 217 255
192 217 255
192 217 255
192 217 255
192 218 255
192 218 255
192 218 255
192 218 255
192 218 255
192 218 255
192 218 255
192 218 255
192 218 255
192 218 255
192 218 255
192 218 255
192 218 255
192 218 255
192 218 255
192 218 255
192 218 255
192 218 255
192 218 255
192 218 255
192 218 255
192 218 255
192 218 255
192 218 255
192 218 255
192 218 255
192 218 255
192 218 255
192 218 255
192 218 255
192 218 255
192 218 255
192 218 255
192 218 255
192 218 255
192 218 255
192 218 255
192 218 255
192 218 255
192 218 255
192 218 255
193 218 255
192 218 255
192 218 255
193 218 255
193 218 255
192 218 255
193 218 255
193 218 255
193 218 255
193 218 255
193 218 255
193 218 255
193 218 255
193 218 255
193 218 255
193 218 255
193 218 255
193 218 255
193 218 255
193 218 255
193 218 255
193 218 255
193 218 255
193 218 255
193 218 255
193 218 255
193 218 255
193 218 255
193 218 255
193 218 255
193 218 255
193 218 255
193 218 255
193 218 255
193 218 255
193 218 255
193 218 255
193 218 255
193 218 255
193 218 255
193 218 255
193 218 255
193 218 255
193 218 255
193 218 255
193 218 255
193 218 255
193 218 255
193 218 255
193 218 255
193 218 255
193 218 255
193 218 255
193 218 255
193 218 255
193 218 255
193 218 255
193 218 255
193 218 255
193 218 255
193 218 255
193 218 255
193 218 255
193 218 255
193 218 255
193 218 255
193 218 255
193 218 255
193 218 255
193 218 255
193 218 255
193 218 255
193 218 255
193 218 255
193 218 255
193 218 255
193 218 255
193 218 255
193 218 255
193 218 255
193 218 255
193 218 255
193 218 255
193 218 255
193 218 255
193 218 255
193 218 255
193 218 255
193 218 255
193 218 255
193 218 255
193 218 255
193 218 255
193 218 255
28 33 41
4 6 8
13 17 23
14 18 22
12 15 19
9 11 14
12 15 18
12 15 19
15 18 23
14 17 21
11 14 18
11 14 18
9 12 15
15 19 24
11 14 18
14 17 23
15 19 24
13 16 20
13 16 21
12 15 20
14 17 22
15 19 25
12 16 20
17 21 27
15 18 23
16 19 25
14 17 21
12 14 18
10 13 17
20 25 32
17 20 26
10 13 17
14 18 23
16 19 24
14 17 22
11 13 17
16 20 26
21 25 32
16 20 25
14 17 22
16 20 25
17 20 26
12 16 20
20 24 31
17 21 27
18 22 28
14 17 21
25 31 40
18 23 29
15 19 24
19 24 30
20 24 31
16 20 26
18 22 28
16 20 25
17 20 26
17 22 28
16 20 26
21 27 35
18 22 28
23 28 35
11 13 17
22 28 36
20 24 31
18 22 29
18 22 28
16 20 25
23 28 35
17 21 27
14 18 23
17 21 27
15 18 23
16 19 25
16 20 26
18 23 30
15 18 23
22 27 35
22 27 34
13 16 20
12 15 19
12 15 20
19 23 30
16 20 26
16 20 26
18 22 27
21 25 32
9 12 16
15 18 23
15 19 24
19 23 30
20 25 31
15 18 24
20 25 32
15 18 24
20 24 31
18 23 30
16 19 24
21 26 34
13 16 20
15 19 24
19 23 29
13 16 21
10 13 18
13 16 21
11 14 19
12 14 18
17 20 25
14 18 23
11 14 18
14 16 21
16 20 25
15 18 24
7 8 10
14 17 22
11 14 18
13 16 21
13 16 21
11 13 18
13 16 21
10 13 16
10 12 15
11 14 19
11 14 17
12 15 19
12 15 20
15 18 24
10 13 17
13 16 21
12 15 19
29 34 42
193 218 255
193 218 255
193 218 255
193 218 255
193 218 255
193 218 255
193 218 255
193 218 255
193 218 255
193 218 255
193 218 255
193 218 255
193 218 255
193 218 255
193 218 255
193 218 255
193 218 255
193 218 255
193 218 255
193 218 255
193 218 255
193 218 255
193 218 255
193 218 255
193 218 255
193 218 255
193 218 255
193 218 255
193 218 255
193 218 255
193 218 255
193 218 255
193 218 255
193 218 255
193 218 255
193 218 255
193 218 255
193 218 255
193 218 255
193 218 255
193 218 255
193 218 255
193 218 255
193 218 255
193 218 255
193 218 255
193 218 255
193 218 255
193 218 255
193 218 255
193 218 255
193 218 255
193 218 255
193 218 255
193 218 255
193 218 255
193 218 255
193 218 255
193 218 255
193 218 255
193 218 255
193 218 255
193 218 255
193 218 255
193 218 255
193 218 255
193 218 255
193 218 255
193 218 255
193 218 255
193 218 255
193 218 255
193 218 255
193 218 255
193 218 255
193 218 255
193 218 255
193 218 255
193 218 255
193 218 255
193 218 255
193 218 255
193 218 255
193 218 255
193 218 255
193 218 255
193 218 255
193 218 255
193 218 255
193 218 255
193 218 255
193 218 255
192 218 255
192 218 255
192 218 255
192 218 255
192 218 255
192 218 255
192 218 255
192 218 255
192 218 255
192 218 255
192 218 255
192 218 255
192 218 255
192 218 255
192 218 255
192 218 255
192 218 255
192 218 255
192 218 255
192 218 255
192 218 255
192 218 255
192 218 255
192 218 255
192 218 255
192 218 255
192 218 255
192 218 255
192 218 255
192 218 255
192 218 255
192 218 255
192 218 255
192 218 255
192 218 255
192 218 255
192 218 255
192 218 255
192 218 255
192 218 255
192 218 255
192 218 255
192 218 255
193 218 255
193 218 255
193 218 255
193 218 255
193 218 255
193 218 255
193 218 255
193 218 255
193 218 255
193 218 255
193 218 255
193 218 255
193 218 255
193 218 255
193 218 255
193 218 255
193 218 255
193 218 255
193 218 255
193 218 255
193 218 255
193 218 255
193 218 255
193 218 255
193 218 255
193 218 255
193 218 255
193 218 255
193 218 255
193 218 255
193 218 255
193 218 255
193 218 255
193 218 255
193 218 255
193 218 255
193 218 255
193 218 255
193 218 255
193 218 255
193 218 255
193 218 255
193 218 255
193 218 255
193 218 255
193 218 255
193 218 255
193 218 255
193 218 255
193 218 255
193 218 255
193 218 255
193 218 255
193 218 255
193 218 255
193 218 255
193 218 255
193 218 255
193 218 255
193 218 255
193 218 255
193 218 255
193 218 255
193 218 255
193 218 255
193 218 255
193 218 255
193 218 255
193 218 255
193 218 255
193 218 255
193 218 255
193 218 255
193 218 255
193 218 255
193 218 255
193 218 255
193 218 255
193 218 255
193 218 255
193 218 255
193 218 255
193 218 255
193 218 255
193 218 255
193 218 255
193 218 255
193 218 255
193 218 255
193 218 255
193 218 255
193 218 255
193 218 255
193 218 255
193 218 255
193 218 255
193 218 255
193 218 255
193 218 255
193 218 255
193 218 255
193 218 255
193 218 255
193 218 255
193 218 255
193 218 255
193 218 255
193 218 255
193 218 255
193 218 255
193 218 255
193 218 255
193 218 255
193 218 255
193 218 255
193 218 255
193 218 255
193 218 255
193 218 255
193 218 255
193 218 255
193 218 255
193 218 255
193 218 255
193 218 255
193 218 255
193 218 255
193 218 255
193 218 255
193 218 255
193 218 255
193 218 255
193 218 255
193 218 255
193 218 255
39 45 54
18 23 30
13 16 20
14 17 22
8 10 14
5 6 8
10 12 16
11 14 18
12 15 19
13 16 20
7 9 12
10 13 16
11 13 16
15 19 24
11 14 19
15 18 23
12 15 20
15 19 24
7 9 12
15 18 24
14 16 21
12 15 18
14 18 24
19 23 30
15 18 24
11 14 19
18 23 30
13 15 20
14 18 24
17 21 27
15 18 23
16 20 26
19 23 30
22 27 34
23 28 36
17 21 27
19 23 30
12 15 19
26 32 41
11 14 18
16 20 25
14 17 22
14 18 23
17 21 26
14 17 22
17 21 27
13 16 21
13 16 20
15 18 23
13 16 21
17 21 27
15 18 24
16 20 25
20 24 30
14 17 22
18 22 29
14 17 22
16 20 26
22 27 35
15 18 23
14 17 21
17 21 27
17 20 26
15 18 23
16 20 26
20 25 32
18 22 28
16 19 24
17 21 27
17 21 27
13 17 21
15 18 23
14 18 23
14 18 24
15 18 23
16 19 24
15 18 23
20 25 31
17 21 28
18 22 28
16 20 26
16 19 25
17 22 29
18 22 29
18 22 28
21 25 32
16 20 25
15 19 24
16 21 28
13 17 22
21 26 33
23 28 35
21 26 33
15 18 23
13 17 22
15 19 25
19 23 30
15 19 24
20 25 33
17 20 26
15 18 23
17 21 28
15 18 24
13 16 20
12 15 19
16 20 25
14 17 22
16 20 25
11 13 17
16 19 25
17 20 26
15 18 24
11 13 17
15 18 23
11 14 18
10 12 16
9 11 14
11 14 18
11 13 17
8 10 13
12 15 20
9 11 14
10 12 16
8 10 13
12 14 19
14 17 22
12 15 18
9 11 14
12 15 19
41 47 56
193 218 255
193 218 255
193 218 255
193 218 255
193 218 255
193 218 255
193 218 255
193 218 255
193 218 255
193 218 255
193 218 255
193 218 255
193 218 255
193 218 255
193 218 255
193 218 255
193 218 255
193 218 255
193 218 255
193 218 255
193 218 255
193 218 255
193 218 255
193 218 255
193 218 255
193 218 255
193 218 255
193 218 255
193 218 255
193 218 255
193 218 255
193 218 255
193 218 255
193 218 255
193 218 255
193 218 255
193 218 255
193 218 255
193 218 255
193 218 255
193 218 255
193 218 255
193 218 255
193 218 255
193 218 255
193 218 255
193 218 255
193 218 255
193 218 255
193 218 255
193 218 255
193 218 255
193 218 255
193 218 255
193 218 255
193 218 255
193 218 255
193 218 255
193 218 255
193 218 255
193 218 255
193 218 255
193 218 255
193 218 255
193 218 255
193 218 255
193 218 255
193 218 255
193 218 255
193 218 255
193 218 255
193 218 255
193 218 255
193 218 255
193 218 255
193 218 255
193 218 255
193 218 255
193 218 255
193 218 255
193 218 255
193 218 255
193 218 255
193 218 255
193 218 255
193 218 255
193 218 255
193 218 255
193 218 255
193 218 255
193 218 255
193 218 255
193 218 255
193 218 255
193 218 255
193 218 255
193 218 255
193 218 255
193 218 255
193 218 255
193 218 255
193 218 255
193 218 255
193 218 255
193 218 255
193 218 255
193 218 255
193 218 255
193 218 255
193 218 255
193 218 255
193 218 255
193 218 255
193 218 255
193 218 255
193 218 255
193 218 255
193 218 255
193 218 255
193 218 255
193 218 255
193 218 255
193 218 255
193 218 255
193 218 255
193 218 255
193 218 255
193 218 255
193 218 255
193 218 255
193 218 255
193 218 255
193 218 255
193 218 255
193 218 255
193 218 255
193 218 255
193 218 255
193 218 255
193 218 255
193 218 255
193 218 255
193 218 255
193 218 255
193 218 255
193 218 255
193 218 255
193 218 255
193 218 255
193 218 255
193 218 255
193 218 255
193 218 255
193 218 255
193 218 255
193 218 255
193 218 255
193 218 255
193 218 255
193 218 255
193 218 255
193 218 255
193 218 255
193 218 255
193 218 255
193 218 255
193 218 255
193 218 255
193 218 255
193 218 255
193 218 255
193 218 255
193 218 255
193 218 255
193 218 255
193 218 255
193 218 255
193 218 255
193 218 255
193 218 255
193 218 255
193 218 255
193 218 255
193 218 255
193 218 255
193 218 255
193 218 255
193 218 255
193 218 255
193 218 255
193 218 255
193 218 255
193 218 255
193 218 255
193 218 255
193 218 255
193 218 255
193 218 255
193 218 255
193 218 255
193 218 255
193 218 255
193 218 255
193 218 255
193 218 255
193 218 255
193 218 255
193 218 255
193 218 255
193 218 255
193 218 255
193 218 255
193 218 255
193 218 255
193 218 255
193 218 255
193 218 255
193 218 255
193 218 255
193 218 255
193 218 255
193 218 255
194 218 255
194 218 255
194 218 255
194 218 255
194 218 255
194 218 255
194 218 255
194 218 255
194 218 255
194 218 255
194 218 255
194 218 255
194 218 255
194 218 255
194 218 255
194 218 255
194 218 255
194 218 255
194 218 255
194 218 255
194 218 255
194 218 255
194 218 255
194 218 255
194 218 255
194 218 255
194 218 255
194 218 255
194 218 255
194 218 255
194 218 255
194 218 255
194 218 255
194 218 255
194 219 255
194 219 255
194 219 255
194 219 255
194 219 255
194 219 255
194 219 255
194 219 255
194 219 255
194 219 255
194 219 255
194 219 255
194 219 255
194 219 255
48 55 65
18 23 29
13 16 21
11 14 18
12 14 18
6 7 9
11 14 18
15 19 24
10 13 16
10 13 16
18 23 29
12 15 20
14 16 20
13 16 20
12 16 21
12 16 20
17 21 27
20 25 32
12 14 19
10 12 16
17 21 26
11 13 17
9 11 14
15 19 25
12 15 18
16 20 25
14 17 21
16 19 24
13 17 22
13 16 20
16 20 26
14 17 22
17 22 28
12 15 19
15 18 23
16 20 26
18 23 29
21 26 33
19 23 28
14 17 21
10 12 16
13 16 20
23 28 35
18 21 26
14 18 23
15 19 24
18 22 27
14 17 23
15 18 24
15 19 24
23 28 37
29 36 46
17 21 27
15 19 25
18 23 29
19 24 31
18 22 28
19 24 31
17 21 27
14 17 23
22 27 35
22 27 35
12 15 19
16 20 26
18 22 28
17 20 26
12 15 20
17 20 25
19 24 31
15 18 24
14 17 22
16 20 26
17 21 27
15 18 24
16 19 25
20 24 30
18 21 27
17 21 28
16 20 26
14 17 22
22 27 35
11 14 18
13 16 21
16 19 24
18 23 29
11 13 16
14 17 22
13 16 20
11 14 18
15 18 23
15 18 23
14 17 21
17 21 26
18 22 28
15 18 24
15 18 24
13 16 19
17 21 27
19 23 30
12 14 18
13 16 21
17 21 27
16 20 25
12 15 20
14 18 23
13 15 19
13 16 21
9 12 15
10 12 16
16 20 26
14 18 23
12 14 19
13 16 21
11 13 17
10 12 15
11 14 18
14 17 22
12 15 19
14 18 23
12 15 20
12 15 19
12 16 21
14 17 22
13 16 20
10 13 16
13 16 21
12 16 21
12 14 19
10 12 15
62 72 86
194 219 255
194 219 255
194 219 255
194 219 255
194 219 255
194 219 255
194 219 255
194 219 255
194 219 255
194 219 255
194 219 255
194 219 255
194 219 255
194 219 255
194 218 255
194 218 255
194 218 255
194 218 255
194 218 255
194 218 255
194 218 255
194 218 255
194 218 255
194 218 255
194 218 255
194 218 255
194 218 255
194 218 255
194 218 255
194 218 255
194 218 255
194 218 255
194 218 255
194 218 255
194 218 255
194 218 255
194 218 255
194 218 255
194 218 255
194 218 255
194 218 255
194 218 255
194 218 255
194 218 255
194 218 255
194 218 255
194 218 255
194 218 255
193 218 255
194 218 255
193 218 255
193 218 255
193 218 255
193 218 255
193 218 255
193 218 255
193 218 255
193 218 255
193 218 255
193 218 255
193 218 255
193 218 255
193 218 255
193 218 255
193 218 255
193 218 255
193 218 255
193 218 255
193 218 255
193 218 255
193 218 255
193 218 255
193 218 255
193 218 255
193 218 255
193 218 255
193 218 255
193 218 255
193 218 255
193 218 255
193 218 255
193 218 255
193 218 255
193 218 255
193 218 255
193 218 255
193 218 255
193 218 255
193 218 255
193 218 255
193 218 255
193 218 255
193 218 255
193 218 255
193 218 255
193 218 255
193 218 255
193 218 255
193 218 255
193 218 255
193 218 255
193 218 255
193 218 255
193 218 255
193 218 255
193 218 255
193 218 255
193 218 255
193 218 255
193 218 255
193 218 255
193 218 255
193 218 255
193 218 255
193 218 255
193 218 255
193 218 255
193 218 255
193 218 255
193 218 255
193 218 255
193 218 255
193 218 255
193 218 255
193 218 255
193 218 255
193 218 255
193 218 255
193 218 255
193 218 255
193 218 255
193 218 255
193 218 255
193 218 255
193 218 255
193 218 255
193 218 255
193 218 255
193 218 255
193 218 255
193 218 255
193 218 255
193 218 255
193 218 255
193 218 255
193 218 255
193 218 255
193 218 255
193 218 255
193 218 255
193 218 255
193 218 255
193 218 255
193 218 255
193 218 255
193 218 255
193 218 255
193 218 255
193 218 255
193 218 255
193 218 255
193 218 255
193 218 255
193 218 255
193 218 255
193 218 255
193 218 255
193 218 255
193 218 255
193 218 255
193 218 255
193 218 255
193 218 255
193 218 255
193 218 255
193 218 255
193 218 255
193 218 255
193 218 255
193 218 255
194 218 255
194 218 255
194 218 255
194 218 255
194 218 255
194 218 255
194 218 255
194 218 255
194 218 255
194 218 255
194 218 255
194 218 255
194 218 255
194 218 255
194 218 255
194 218 255
194 218 255
194 218 255
194 218 255
194 218 255
194 218 255
194 218 255
194 218 255
194 218 255
194 218 255
194 218 255
194 218 255
194 218 255
194 218 255
194 218 255
194 218 255
194 218 255
194 218 255
194 218 255
194 219 255
194 219 255
194 219 255
194 219 255
194 219 255
194 219 255
194 219 255
194 219 255
194 219 255
194 219 255
194 219 255
194 219 255
194 219 255
194 219 255
194 219 255
194 219 255
194 219 255
194 219 255
194 219 255
194 219 255
194 219 255
194 219 255
194 219 255
194 219 255
194 219 255
194 219 255
194 219 255
194 219 255
194 219 255
194 219 255
194 219 255
194 219 255
194 219 255
194 219 255
194 219 255
194 219 255
194 219 255
194 219 255
194 219 255
194 219 255
194 219 255
194 219 255
194 219 255
194 219 255
194 219 255
194 219 255
194 219 255
194 219 255
194 219 255
194 219 255
194 219 255
194 219 255
194 219 255
194 219 255
194 219 255
194 219 255
79 89 105
15 18 23
10 13 17
12 15 18
9 11 14
10 12 16
13 16 20
12 15 19
17 21 27
13 16 21
12 15 19
14 17 22
12 15 19
16 20 26
11 14 18
10 12 16
13 16 21
15 19 25
14 18 23
14 17 22
14 17 22
13 16 21
13 16 21
11 13 17
13 16 21
12 15 20
16 20 25
18 22 28
24 29 37
18 22 27
18 23 30
13 17 22
15 18 22
14 17 22
13 16 21
13 16 20
24 29 37
20 25 33
22 27 34
19 24 31
20 25 31
16 20 25
18 21 27
16 20 25
14 17 22
12 15 20
21 27 34
18 23 29
18 22 29
20 24 30
13 16 21
14 17 22
24 30 38
18 22 27
15 19 24
19 24 31
12 15 20
14 18 23
16 20 26
16 20 26
17 21 28
18 23 29
14 16 21
25 31 40
21 26 33
12 15 20
17 21 27
25 31 39
16 20 25
19 23 30
18 23 29
13 16 20
24 30 38
22 27 34
19 23 28
16 20 27
15 18 23
18 22 28
18 22 28
21 25 32
15 19 25
17 22 28
16 20 26
15 18 22
22 27 35
13 16 20
11 14 18
13 16 20
19 23 28
13 16 20
14 17 22
18 22 29
20 24 30
12 14 18
16 19 25
11 14 18
13 17 22
17 21 28
17 20 26
13 16 20
16 19 25
12 15 20
17 21 27
16 20 25
11 13 16
13 16 20
17 22 28
10 12 16
12 14 19
14 17 23
11 14 18
16 19 24
6 7 10
13 16 21
14 17 22
6 7 9
14 17 22
16 19 25
13 16 20
6 7 9
17 21 27
13 17 22
10 12 16
10 12 15
13 16 20
14 17 22
12 15 19
14 18 23
9 11 15
60 69 82
194 219 255
194 219 255
194 219 255
194 219 255
194 219 255
194 219 255
194 219 255
194 219 255
194 219 255
194 219 255
194 219 255
194 219 255
194 219 255
194 219 255
194 219 255
194 219 255
194 219 255
194 219 255
194 219 255
194 219 255
194 219 255
194 219 255
194 219 255
194 219 255
194 219 255
194 219 255
194 219 255
194 219 255
194 219 255
194 219 255
194 219 255
194 219 255
194 219 255
194 219 255
194 219 255
194 219 255
194 219 255
194 219 255
194 219 255
194 219 255
194 219 255
194 219 255
194 219 255
194 219 255
194 219 255
194 219 255
194 219 255
194 219 255
194 219 255
194 219 255
194 219 255
194 219 255
194 218 255
194 219 255
194 218 255
194 219 255
194 218 255
194 218 255
194 218 255
194 218 255
194 218 255
194 218 255
194 218 255
194 218 255
194 218 255
194 218 255
194 218 255
194 218 255
194 218 255
194 218 255
194 218 255
194 218 255
194 218 255
194 218 255
194 218 255
194 218 255
194 218 255
194 218 255
194 218 255
194 218 255
194 218 255
194 218 255
194 218 255
194 218 255
194 218 255
194 218 255
194 218 255
194 218 255
194 218 255
194 218 255
193 218 255
193 218 255
193 218 255
193 218 255
193 218 255
193 218 255
193 218 255
193 218 255
193 218 255
193 218 255
193 218 255
193 218 255
193 218 255
193 218 255
193 218 255
193 218 255
193 218 255
193 218 255
193 218 255
193 218 255
193 218 255
193 218 255
193 218 255
193 218 255
193 218 255
193 218 255
193 218 255
193 218 255
193 218 255
193 218 255
193 218 255
193 218 255
193 218 255
193 218 255
193 218 255
193 218 255
193 218 255
193 218 255
193 218 255
193 218 255
193 218 255
193 218 255
193 218 255
193 218 255
193 218 255
193 218 255
193 218 255
193 218 255
193 218 255
193 218 255
193 218 255
193 218 255
194 218 255
194 218 255
194 218 255
194 218 255
194 218 255
194 218 255
194 218 255
194 218 255
194 218 255
194 218 255
194 218 255
194 218 255
194 218 255
194 218 255
194 218 255
194 218 255
194 218 255
194 218 255
194 218 255
194 218 255
194 218 255
194 218 255
194 218 255
194 218 255
194 218 255
194 218 255
194 218 255
194 218 255
194 218 255
194 218 255
194 218 255
194 218 255
194 218 255
194 218 255
194 218 255
194 218 255
194 218 255
194 218 255
194 219 255
194 219 255
194 219 255
194 219 255
194 219 255
194 219 255
194 219 255
194 219 255
194 219 255
194 219 255
194 219 255
194 219 255
194 219 255
194 219 255
194 219 255
194 219 255
194 219 255
194 219 255
194 219 255
194 219 255
194 219 255
194 219 255
194 219 255
194 219 255
194 219 255
194 219 255
194 219 255
194 219 255
194 219 255
194 219 255
194 219 255
194 219 255
194 219 255
194 219 255
194 219 255
194 219 255
194 219 255
194 219 255
194 219 255
194 219 255
194 219 255
194 219 255
194 219 255
194 219 255
194 219 255
194 219 255
194 219 255
194 219 255
194 219 255
194 219 255
194 219 255
194 219 255
194 219 255
194 219 255
194 219 255
194 219 255
195 219 255
194 219 255
195 219 255
195 219 255
195 219 255
195 219 255
195 219 255
195 219 255
195 219 255
195 219 255
195 219 255
195 219 255
195 219 255
195 219 255
195 219 255
195 219 255
195 219 255
195 219 255
195 219 255
195 219 255
195 219 255
195 219 255
195 219 255
195 219 255
195 219 255
195 219 255
195 219 255
195 219 255
195 219 255
195 219 255
195 219 255
195 219 255
195 219 255
195 219 255
103 117 137
13 16 21
17 21 27
13 15 19
11 13 17
13 16 21
10 13 16
7 9 12
5 6 8
8 10 13
12 14 18
9 12 16
11 13 18
12 14 19
9 11 14
7 9 12
10 12 16
18 21 27
12 15 19
11 14 17
15 18 23
13 16 21
15 19 24
14 17 22
15 19 25
18 22 29
16 19 24
15 19 25
13 17 21
13 17 21
16 19 24
12 15 20
14 17 21
16 20 26
18 22 29
12 14 18
18 23 29
16 19 24
16 20 26
17 21 26
20 24 31
16 20 26
21 26 33
18 22 28
20 24 30
19 23 29
15 18 23
23 28 36
13 16 20
16 20 26
20 24 30
14 17 22
23 28 35
21 25 32
29 36 47
20 24 30
18 23 29
16 19 25
14 18 24
15 19 25
16 19 23
14 17 22
13 15 20
21 26 33
20 25 31
16 19 24
19 24 31
13 16 21
19 23 30
19 24 31
15 18 23
18 22 28
17 21 27
15 19 24
12 14 19
16 19 25
16 19 25
18 22 28
17 20 26
15 19 25
18 21 27
16 21 27
17 21 28
19 23 30
18 23 30
12 14 19
15 19 24
16 19 25
16 19 24
13 16 20
23 28 36
13 16 20
17 21 26
15 18 23
18 22 29
12 15 19
16 20 26
12 14 18
11 13 17
14 17 21
19 23 31
9 11 15
16 19 25
14 17 21
19 23 29
18 22 29
11 14 19
15 18 23
10 13 16
10 12 15
10 13 17
14 17 21
15 19 24
9 11 15
16 20 26
12 15 19
12 15 19
20 25 31
16 20 26
11 14 19
8 10 12
9 11 14
11 13 16
13 16 20
11 14 17
11 13 17
13 16 21
15 19 24
13 16 21
83 95 112
195 219 255
195 219 255
195 219 255
195 219 255
195 219 255
195 219 255
195 219 255
195 219 255
195 219 255
195 219 255
195 219 255
195 219 255
195 219 255
195 219 255
195 219 255
195 219 255
195 219 255
195 219 255
195 219 255
195 219 255
195 219 255
195 219 255
195 219 255
195 219 255
195 219 255
195 219 255
195 219 255
195 219 255
195 219 255
195 219 255
195 219 255
195 219 255
195 219 255
194 219 255
194 219 255
194 219 255
194 219 255
194 219 255
194 219 255
194 219 255
194 219 255
194 219 255
194 219 255
194 219 255
194 219 255
194 219 255
194 219 255
194 219 255
194 219 255
194 219 255
194 219 255
194 219 255
194 219 255
194 219 255
194 219 255
194 219 255
194 219 255
194 219 255
194 219 255
194 219 255
194 219 255
194 219 255
194 219 255
194 219 255
194 219 255
194 219 255
194 219 255
194 219 255
194 219 255
194 219 255
194 219 255
194 219 255
194 219 255
194 219 255
194 219 255
194 219 255
194 219 255
194 219 255
194 219 255
194 219 255
194 219 255
194 219 255
194 219 255
194 219 255
194 219 255
194 219 255
194 219 255
194 219 255
194 219 255
194 219 255
194 218 255
194 218 255
194 219 255
194 218 255
194 218 255
194 218 255
194 218 255
194 218 255
194 218 255
194 218 255
194 218 255
194 218 255
194 218 255
194 218 255
194 218 255
194 218 255
194 218 255
194 218 255
194 218 255
194 218 255
194 218 255
194 218 255
194 218 255
194 218 255
194 218 255
194 218 255
194 218 255
194 218 255
194 218 255
194 218 255
194 218 255
194 218 255
194 218 255
194 218 255
194 218 255
194 218 255
194 218 255
194 218 255
193 218 255
193 218 255
193 218 255
193 218 255
193 218 255
193 218 255
193 218 255
194 218 255
194 218 255
194 218 255
194 218 255
194 218 255
194 218 255
194 218 255
194 218 255
194 218 255
194 218 255
194 218 255
194 219 255
194 219 255
194 219 255
194 219 255
194 219 255
194 219 255
194 219 255
194 219 255
194 219 255
194 219 255
194 219 255
194 219 255
194 219 255
194 219 255
194 219 255
194 219 255
194 219 255
194 219 255
194 219 255
194 219 255
194 219 255
194 219 255
194 219 255
194 219 255
194 219 255
194 219 255
194 219 255
194 219 255
194 219 255
194 219 255
194 219 255
194 219 255
194 219 255
194 219 255
194 219 255
194 219 255
194 219 255
194 219 255
194 219 255
194 219 255
194 219 255
194 219 255
194 219 255
194 219 255
194 219 255
194 219 255
194 219 255
194 219 255
194 219 255
194 219 255
194 219 255
194 219 255
194 219 255
194 219 255
194 219 255
194 219 255
194 219 255
194 219 255
194 219 255
194 219 255
195 219 255
195 219 255
195 219 255
195 219 255
195 219 255
195 219 255
195 219 255
195 219 255
195 219 255
195 219 255
195 219 255
195 219 255
195 219 255
195 219 255
195 219 255
195 219 255
195 219 255
195 219 255
195 219 255
195 219 255
195 219 255
195 219 255
195 219 255
195 219 255
195 219 255
195 219 255
195 219 255
195 219 255
195 219 255
195 219 255
195 219 255
195 219 255
195 219 255
195 219 255
195 219 255
195 219 255
195 219 255
195 219 255
195 219 255
195 219 255
195 219 255
195 219 255
195 219 255
195 219 255
195 219 255
195 219 255
195 219 255
195 219 255
195 219 255
195 219 255
195 219 255
195 219 255
195 219 255
195 219 255
195 219 255
195 219 255
195 219 255
195 219 255
195 219 255
195 219 255
195 219 255
195 219 255
195 219 255
195 219 255
129 145 170
12 15 20
11 13 17
10 13 17
14 17 22
11 13 17
15 18 23
8 10 13
8 9 12
10 12 16
8 10 12
11 14 17
13 16 21
14 16 20
10 13 18
11 14 17
13 16 21
16 20 25
11 14 18
14 17 21
8 10 12
12 14 19
12 15 20
11 13 18
13 17 22
15 19 24
12 14 18
16 20 26
15 19 25
16 19 24
12 15 19
17 21 28
14 17 22
13 16 21
21 26 34
21 25 32
11 13 17
19 23 29
19 23 30
9 11 14
19 24 31
15 18 22
16 19 24
15 18 23
19 23 30
18 22 28
12 15 19
15 19 25
18 22 28
17 21 27
18 23 30
17 21 27
17 22 28
17 21 27
24 30 38
14 17 22
21 26 34
18 22 29
20 24 31
20 24 31
22 27 35
18 23 29
20 24 31
14 17 22
15 19 24
19 23 29
20 24 31
14 17 22
17 21 27
16 20 27
18 22 28
13 16 20
18 23 30
20 24 31
14 17 22
20 24 32
11 13 17
15 18 24
14 17 22
15 19 24
14 17 21
13 16 21
11 14 18
19 23 30
16 19 25
14 18 23
19 23 28
16 20 26
14 17 22
16 20 26
14 17 22
14 18 23
14 17 23
15 19 24
17 21 27
19 23 29
16 19 24
15 18 24
17 21 27
15 18 24
14 18 23
16 20 24
19 23 30
17 20 25
6 8 10
13 16 21
14 17 22
15 18 23
11 14 18
8 10 14
15 18 24
13 16 20
8 10 13
11 14 18
12 14 18
11 14 17
12 15 19
9 11 13
10 12 16
9 11 15
12 15 20
11 13 16
9 11 14
11 13 16
13 15 20
11 14 18
8 10 12
14 17 22
14 17 22
123 138 161
195 219 255
195 219 255
195 219 255
195 219 255
195 219 255
195 219 255
195 219 255
195 219 255
195 219 255
195 219 255
195 219 255
195 219 255
195 219 255
195 219 255
195 219 255
195 219 255
195 219 255
195 219 255
195 219 255
195 219 255
195 219 255
195 219 255
195 219 255
195 219 255
195 219 255
195 219 255
195 219 255
195 219 255
195 219 255
195 219 255
195 219 255
195 219 255
195 219 255
195 219 255
195 219 255
195 219 255
195 219 255
195 219 255
195 219 255
195 219 255
195 219 255
195 219 255
195 219 255
195 219 255
195 219 255
195 219 255
195 219 255
195 219 255
195 219 255
195 219 255
195 219 255
195 219 255
195 219 255
195 219 255
195 219 255
195 219 255
195 219 255
195 219 255
195 219 255
195 219 255
195 219 255
195 219 255
195 219 255
194 219 255
194 219 255
194 219 255
194 219 255
194 219 255
194 219 255
194 219 255
194 219 255
194 219 255
194 219 255
194 219 255
194 219 255
194 219 255
194 219 255
194 219 255
194 219 255
194 219 255
194 219 255
194 219 255
194 219 255
194 219 255
194 219 255
194 219 255
194 219 255
194 219 255
194 219 255
194 219 255
194 219 255
194 219 255
194 219 255
194 219 255
194 219 255
194 219 255
194 219 255
194 219 255
194 219 255
194 219 255
194 219 255
194 219 255
194 219 255
194 219 255
194 219 255
194 219 255
194 219 255
194 219 255
194 219 255
194 219 255
194 219 255
194 219 255
194 219 255
194 219 255
194 219 255
194 219 255
194 219 255
194 219 255
194 219 255
194 219 255
194 219 255
194 219 255
194 219 255
194 218 255
194 219 255
194 218 255
194 218 255
194 218 255
194 218 255
194 218 255
194 218 255
194 218 255
194 218 255
194 218 255
194 218 255
194 219 255
194 219 255
194 219 255
194 219 255
194 219 255
194 219 255
194 219 255
194 219 255
194 219 255
194 219 255
194 219 255
194 219 255
194 219 255
194 219 255
194 219 255
194 219 255
194 219 255
194 219 255
194 219 255
194 219 255
194 219 255
194 219 255
194 219 255
194 219 255
194 219 255
194 219 255
194 219 255
194 219 255
194 219 255
194 219 255
194 219 255
194 219 255
194 219 255
194 219 255
194 219 255
194 219 255
194 219 255
194 219 255
194 219 255
194 219 255
194 219 255
194 219 255
194 219 255
194 219 255
194 219 255
194 219 255
195 219 255
195 219 255
195 219 255
195 219 255
195 219 255
195 219 255
195 219 255
195 219 255
195 219 255
195 219 255
195 219 255
195 219 255
195 219 255
195 219 255
195 219 255
195 219 255
195 219 255
195 219 255
195 219 255
195 219 255
195 219 255
195 219 255
195 219 255
195 219 255
195 219 255
195 219 255
195 219 255
195 219 255
195 219 255
195 219 255
195 219 255
195 219 255
195 219 255
195 219 255
195 219 255
195 219 255
195 219 255
195 219 255
195 219 255
195 219 255
195 219 255
195 219 255
195 219 255
195 219 255
195 219 255
195 219 255
195 219 255
195 219 255
195 219 255
195 219 255
195 219 255
195 219 255
195 219 255
195 219 255
195 219 255
195 219 255
195 219 255
195 219 255
195 219 255
195 219 255
195 219 255
195 219 255
195 219 255
196 220 255
195 219 255
196 220 255
196 220 255
196 220 255
196 220 255
196 220 255
196 220 255
196 220 255
196 220 255
196 220 255
196 220 255
196 220 255
196 220 255
196 220 255
196 220 255
196 220 255
196 220 255
196 220 255
196 220 255
196 220 255
196 220 255
196 220 255
196 220 255
196 220 255
196 220 255
139 156 182
11 13 18
8 10 13
13 16 20
11 13 17
9 12 15
11 14 18
8 10 13
14 17 21
9 12 15
10 12 16
13 16 21
14 17 23
14 18 23
9 12 15
7 9 12
8 10 14
13 16 21
10 12 15
17 21 26
16 21 27
16 19 24
10 12 16
12 15 19
14 18 24
18 23 29
15 18 23
15 18 23
15 19 24
10 12 16
17 22 28
13 16 21
19 23 30
15 19 25
17 20 25
15 19 24
21 26 33
13 16 21
16 20 26
15 19 24
16 20 25
15 19 24
25 31 39
12 16 20
9 12 15
17 20 26
22 27 34
16 20 25
18 22 28
20 24 31
14 17 22
18 22 28
17 21 26
15 18 23
13 16 20
16 20 26
19 23 30
12 16 21
14 17 21
16 20 25
17 21 26
17 21 26
20 25 32
18 21 27
17 21 27
15 19 25
21 26 32
18 23 30
13 16 21
20 25 32
12 14 18
13 16 20
18 22 28
16 20 25
13 17 22
19 23 30
19 24 30
10 12 16
11 14 18
18 22 27
18 22 28
13 15 19
18 22 29
14 18 23
23 29 36
11 14 18
14 17 22
14 17 22
16 19 25
13 16 20
20 25 32
16 19 25
13 17 22
18 22 28
13 16 21
18 22 29
13 16 22
15 18 23
18 21 27
11 14 18
15 19 24
13 16 21
10 13 17
15 18 24
12 15 20
13 17 22
14 17 22
18 22 29
8 10 13
18 21 27
10 13 16
14 17 22
9 11 14
12 15 19
14 17 22
13 16 20
17 21 27
15 18 24
12 15 20
13 17 22
6 7 8
15 20 26
11 13 17
12 15 19
11 14 18
7 8 11
11 13 17
15 19 24
13 16 21
144 162 189
196 220 255
196 220 255
196 220 255
196 220 255
196 220 255
196 220 255
196 220 255
196 220 255
196 220 255
196 220 255
196 220 255
196 220 255
196 220 255
196 220 255
196 220 255
196 220 255
196 220 255
196 220 255
196 220 255
196 220 255
196 220 255
196 220 255
196 220 255
196 220 255
195 219 255
195 219 255
195 219 255
195 219 255
195 219 255
195 219 255
195 219 255
195 219 255
195 219 255
195 219 255
195 219 255
195 219 255
195 219 255
195 219 255
195 219 255
195 219 255
195 219 255
195 219 255
195 219 255
195 219 255
195 219 255
195 219 255
195 219 255
195 219 255
195 219 255
195 219 255
195 219 255
195 219 255
195 219 255
195 219 255
195 219 255
195 219 255
195 219 255
195 219 255
195 219 255
195 219 255
195 219 255
195 219 255
195 219 255
195 219 255
195 219 255
195 219 255
195 219 255
195 219 255
195 219 255
195 219 255
195 219 255
195 219 255
195 219 255
195 219 255
195 219 255
195 219 255
195 219 255
195 219 255
195 219 255
195 219 255
195 219 255
195 219 255
195 219 255
195 219 255
195 219 255
195 219 255
195 219 255
195 219 255
195 219 255
195 219 255
194 219 255
194 219 255
194 219 255
194 219 255
194 219 255
194 219 255
194 219 255
194 219 255
194 219 255
194 219 255
194 219 255
194 219 255
194 219 255
194 219 255
194 219 255
194 219 255
194 219 255
194 219 255
194 219 255
194 219 255
194 219 255
194 219 255
194 219 255
194 219 255
194 219 255
194 219 255
194 219 255
194 219 255
194 219 255
194 219 255
194 219 255
194 219 255
194 219 255
194 219 255
194 219 255
194 219 255
194 219 255
194 219 255
194 219 255
194 219 255
194 219 255
194 219 255
194 219 255
194 219 255
194 219 255
194 219 255
194 219 255
194 219 255
194 219 255
194 219 255
194 219 255
194 219 255
194 219 255
194 219 255
194 219 255
194 219 255
194 219 255
194 219 255
194 219 255
194 219 255
194 219 255
194 219 255
194 219 255
195 219 255
195 219 255
195 219 255
195 219 255
195 219 255
195 219 255
195 219 255
195 219 255
195 219 255
195 219 255
195 219 255
195 219 255
195 219 255
195 219 255
195 219 255
195 219 255
195 219 255
195 219 255
195 219 255
195 219 255
195 219 255
195 219 255
195 219 255
195 219 255
195 219 255
195 219 255
195 219 255
195 219 255
195 219 255
195 219 255
195 219 255
195 219 255
195 219 255
195 219 255
195 219 255
195 219 255
195 219 255
195 219 255
195 219 255
195 219 255
195 219 255
195 219 255
195 219 255
195 219 255
195 219 255
195 219 255
195 219 255
195 219 255
195 219 255
195 219 255
195 219 255
195 219 255
195 219 255
195 219 255
195 219 255
195 219 255
195 219 255
195 219 255
195 219 255
195 219 255
195 219 255
195 219 255
195 219 255
195 219 255
195 219 255
195 219 255
195 219 255
195 219 255
196 220 255
196 220 255
196 220 255
196 220 255
196 220 255
196 220 255
196 220 255
196 220 255
196 220 255
196 220 255
196 220 255
196 220 255
196 220 255
196 220 255
196 220 255
196 220 255
196 220 255
196 220 255
196 220 255
196 220 255
196 220 255
196 220 255
196 220 255
196 220 255
196 220 255
196 220 255
196 220 255
196 220 255
196 220 255
196 220 255
196 220 255
196 220 255
196 220 255
196 220 255
196 220 255
196 220 255
196 220 255
196 220 255
196 220 255
196 220 255
196 220 255
196 220 255
196 220 255
196 220 255
196 220 255
196 220 255
196 220 255
196 220 255
196 220 255
171 193 225
16 20 26
16 19 24
11 13 16
13 16 21
11 13 17
15 19 25
13 16 20
11 14 18
14 18 23
13 16 21
15 18 23
10 12 15
16 20 25
11 13 17
11 14 18
10 12 15
11 14 18
16 19 24
14 17 22
17 21 27
16 20 25
15 18 23
14 17 22
14 18 23
13 16 21
13 17 21
15 18 22
18 22 28
17 21 27
10 13 17
18 22 29
15 18 24
16 20 26
13 16 20
18 22 28
17 21 27
10 12 16
13 16 20
21 26 33
15 18 23
19 24 31
19 23 30
16 19 24
17 20 26
14 17 21
15 18 22
16 19 25
16 20 26
13 16 21
17 21 27
18 21 27
20 25 32
16 20 26
22 27 35
13 16 21
15 18 24
19 24 31
20 24 31
17 21 26
15 18 23
9 11 14
13 16 21
13 16 20
16 20 26
18 22 29
12 16 21
21 26 34
16 20 26
10 12 16
12 16 20
14 18 23
17 21 26
16 20 26
9 11 14
14 17 22
15 19 24
13 15 20
17 21 26
13 16 20
12 15 19
16 20 25
18 23 30
20 24 30
16 19 25
20 25 32
17 21 27
19 23 29
19 24 30
12 15 19
13 16 20
13 17 22
15 19 24
14 18 23
18 21 27
19 24 31
19 24 30
13 16 20
14 18 23
15 19 25
19 23 29
17 21 26
18 22 29
15 19 24
8 10 13
17 20 25
12 15 19
19 23 29
15 19 24
18 22 28
10 13 17
17 21 27
11 14 18
13 16 21
9 10 13
13 16 20
8 10 13
14 17 22
11 14 18
13 17 22
10 12 16
18 23 29
4 6 7
12 14 18
14 17 22
9 11 14
14 17 21
15 18 24
13 16 20
165 185 215
196 220 255
196 220 255
196 220 255
196 220 255
196 220 255
196 220 255
196 220 255
196 220 255
196 220 255
196 220 255
196 220 255
196 220 255
196 220 255
196 220 255
196 220 255
196 220 255
196 220 255
196 220 255
196 220 255
196 220 255
196 220 255
196 220 255
196 220 255
196 220 255
196 220 255
196 220 255
196 220 255
196 220 255
196 220 255
196 220 255
196 220 255
196 220 255
196 220 255
196 220 255
196 220 255
196 220 255
196 220 255
196 220 255
196 220 255
196 220 255
196 220 255
196 220 255
196 220 255
196 220 255
196 220 255
196 220 255
196 220 255
196 220 255
196 220 255
195 219 255
195 219 255
195 219 255
195 219 255
195 219 255
195 219 255
195 219 255
195 219 255
195 219 255
195 219 255
195 219 255
195 219 255
195 219 255
195 219 255
195 219 255
195 219 255
195 219 255
195 219 255
195 219 255
195 219 255
195 219 255
195 219 255
195 219 255
195 219 255
195 219 255
195 219 255
195 219 255
195 219 255
195 219 255
195 219 255
195 219 255
195 219 255
195 219 255
195 219 255
195 219 255
195 219 255
195 219 255
195 219 255
195 219 255
195 219 255
195 219 255
195 219 255
195 219 255
195 219 255
195 219 255
195 219 255
195 219 255
195 219 255
195 219 255
195 219 255
195 219 255
195 219 255
195 219 255
195 219 255
195 219 255
195 219 255
195 219 255
195 219 255
195 219 255
195 219 255
195 219 255
195 219 255
195 219 255
195 219 255
195 219 255
195 219 255
195 219 255
194 219 255
194 219 255
194 219 255
194 219 255
194 219 255
194 219 255
194 219 255
194 219 255
194 219 255
194 219 255
194 219 255
194 219 255
194 219 255
194 219 255
194 219 255
194 219 255
194 219 255
194 219 255
194 219 255
195 219 255
195 219 255
195 219 255
195 219 255
195 219 255
195 219 255
195 219 255
195 219 255
195 219 255
195 219 255
195 219 255
195 219 255
195 219 255
195 219 255
195 219 255
195 219 255
195 219 255
195 219 255
195 219 255
195 219 255
195 219 255
195 219 255
195 219 255
195 219 255
195 219 255
195 219 255
195 219 255
195 219 255
195 219 255
195 219 255
195 219 255
195 219 255
195 219 255
195 219 255
195 219 255
195 219 255
195 219 255
195 219 255
195 219 255
195 219 255
195 219 255
195 219 255
195 219 255
195 219 255
195 219 255
195 219 255
195 219 255
195 219 255
195 219 255
195 219 255
195 219 255
195 219 255
195 219 255
195 219 255
195 219 255
195 219 255
195 219 255
195 219 255
195 219 255
195 219 255
195 219 255
195 219 255
195 219 255
195 219 255
195 219 255
195 219 255
196 220 255
196 220 255
196 220 255
196 220 255
196 220 255
196 220 255
196 220 255
196 220 255
196 220 255
196 220 255
196 220 255
196 220 255
196 220 255
196 220 255
196 220 255
196 220 255
196 220 255
196 220 255
196 220 255
196 220 255
196 220 255
196 220 255
196 220 255
196 220 255
196 220 255
196 220 255
196 220 255
196 220 255
196 220 255
196 220 255
196 220 255
196 220 255
196 220 255
196 220 255
196 220 255
196 220 255
196 220 255
196 220 255
196 220 255
196 220 255
196 220 255
196 220 255
196 220 255
196 220 255
196 220 255
196 220 255
196 220 255
196 220 255
196 220 255
196 220 255
197 220 255
197 220 255
197 220 255
197 220 255
197 220 255
197 220 255
197 220 255
197 220 255
197 220 255
197 220 255
197 220 255
197 220 255
197 220 255
197 220 255
197 220 255
197 220 255
197 220 255
197 220 255
197 220 255
187 209 243
19 23 29
12 15 20
16 19 24
6 7 9
16 20 26
12 15 19
9 12 15
12 15 20
9 11 14
13 17 21
12 14 18
10 12 16
9 11 14
14 18 23
11 14 17
13 16 21
16 20 26
14 18 23
10 13 16
15 18 22
14 17 22
10 13 16
10 12 16
7 9 12
13 16 20
13 16 20
12 15 20
8 9 12
15 19 25
13 16 21
15 18 24
12 14 18
13 16 20
13 16 20
17 21 27
13 16 21
13 16 20
12 15 20
15 19 24
18 23 29
16 20 25
19 23 30
12 15 19
13 16 20
10 12 16
13 16 22
18 22 29
12 15 19
21 26 34
21 26 34
14 18 23
13 16 21
18 22 28
15 18 23
15 18 23
20 24 31
18 21 27
14 18 23
12 15 20
14 17 22
17 21 26
15 19 25
13 16 20
22 27 34
20 24 30
17 22 28
16 20 26
14 18 23
18 22 28
12 14 18
20 25 31
21 26 33
21 26 33
20 26 35
17 21 27
13 16 21
14 17 22
18 21 27
13 17 22
19 23 29
23 28 35
15 19 25
13 17 22
17 21 28
14 17 22
19 23 30
16 20 26
16 20 26
17 21 28
12 15 19
21 25 32
12 15 20
16 19 24
13 16 21
21 25 32
17 20 25
13 16 21
13 16 21
13 16 20
18 21 27
13 17 22
17 21 28
9 11 14
17 21 26
10 13 16
15 19 24
16 19 24
10 13 17
13 15 20
15 19 24
8 10 14
11 13 17
11 13 17
11 14 18
9 11 14
7 9 12
11 14 17
12 14 18
6 8 11
10 13 17
13 16 20
15 19 24
8 10 13
13 15 20
7 9 12
12 15 19
12 15 20
22 26 32
189 212 245
197 220 255
197 220 255
197 220 255
197 220 255
197 220 255
197 220 255
197 220 255
197 220 255
197 220 255
197 220 255
197 220 255
197 220 255
197 220 255
197 220 255
197 220 255
197 220 255
197 220 255
197 220 255
196 220 255
196 220 255
196 220 255
196 220 255
196 220 255
196 220 255
196 220 255
196 220 255
196 220 255
196 220 255
196 220 255
196 220 255
196 220 255
196 220 255
196 220 255
196 220 255
196 220 255
196 220 255
196 220 255
196 220 255
196 220 255
196 220 255
196 220 255
196 220 255
196 220 255
196 220 255
196 220 255
196 220 255
196 220 255
196 220 255
196 220 255
196 220 255
196 220 255
196 220 255
196 220 255
196 220 255
196 220 255
196 220 255
196 220 255
196 220 255
196 220 255
196 220 255
196 220 255
196 220 255
196 220 255
196 220 255
196 220 255
196 220 255
196 220 255
196 220 255
196 220 255
195 219 255
195 219 255
195 219 255
195 219 255
195 219 255
195 219 255
195 219 255
195 219 255
195 219 255
195 219 255
195 219 255
195 219 255
195 219 255
195 219 255
195 219 255
195 219 255
195 219 255
195 219 255
195 219 255
195 219 255
195 219 255
195 219 255
195 219 255
195 219 255
195 219 255
195 219 255
195 219 255
195 219 255
195 219 255
195 219 255
195 219 255
195 219 255
195 219 255
195 219 255
195 219 255
195 219 255
195 219 255
195 219 255
195 219 255
195 219 255
195 219 255
195 219 255
195 219 255
195 219 255
195 219 255
195 219 255
195 219 255
195 219 255
195 219 255
195 219 255
195 219 255
195 219 255
195 219 255
195 219 255
195 219 255
195 219 255
195 219 255
195 219 255
195 219 255
195 219 255
195 219 255
195 219 255
195 219 255
195 219 255
195 219 255
195 219 255
195 219 255
195 219 255
195 219 255
195 219 255
195 219 255
195 219 255
195 219 255
195 219 255
195 219 255
195 219 255
195 219 255
195 219 255
195 219 255
195 219 255
195 219 255
195 219 255
195 219 255
195 219 255
195 219 255
195 219 255
195 219 255
195 219 255
195 219 255
195 219 255
195 219 255
195 219 255
195 219 255
195 219 255
195 219 255
195 219 255
195 219 255
195 219 255
195 219 255
195 219 255
195 219 255
195 219 255
195 219 255
195 219 255
195 219 255
195 219 255
195 219 255
195 219 255
195 219 255
195 219 255
195 219 255
196 220 255
196 220 255
196 220 255
196 220 255
196 220 255
196 220 255
196 220 255
196 220 255
196 220 255
196 220 255
196 220 255
196 220 255
196 220 255
196 220 255
196 220 255
196 220 255
196 220 255
196 220 255
196 220 255
196 220 255
196 220 255
196 220 255
196 220 255
196 220 255
196 220 255
196 220 255
196 220 255
196 220 255
196 220 255
196 220 255
196 220 255
196 220 255
196 220 255
196 220 255
196 220 255
196 220 255
196 220 255
196 220 255
196 220 255
196 220 255
196 220 255
196 220 255
196 220 255
196 220 255
196 220 255
196 220 255
196 220 255
196 220 255
196 220 255
196 220 255
196 220 255
196 220 255
197 220 255
197 220 255
197 220 255
197 220 255
197 220 255
197 220 255
197 220 255
197 220 255
197 220 255
197 220 255
197 220 255
197 220 255
197 220 255
197 220 255
197 220 255
197 220 255
197 220 255
197 220 255
197 220 255
197 220 255
197 220 255
197 220 255
197 220 255
197 220 255
197 220 255
197 220 255
197 220 255
197 220 255
197 220 255
176 197 229
180 201 234
162 182 211
146 164 191
115 129 151
111 125 146
112 126 147
112 126 147
84 95 111
87 100 118
14 17 21
11 14 18
9 11 14
9 11 14
12 15 18
11 13 16
9 12 15
7 9 12
12 14 19
9 11 15
17 21 27
10 13 16
15 19 24
14 17 22
16 20 25
7 8 10
11 14 17
9 11 15
14 18 23
11 14 18
13 16 20
14 18 23
13 15 20
9 11 15
14 18 23
12 15 19
15 19 25
12 15 20
19 24 31
16 19 24
18 23 30
18 23 30
19 23 29
15 18 22
11 14 19
12 14 18
15 19 24
15 19 25
12 15 20
18 22 28
16 20 26
11 13 17
17 21 28
11 14 18
9 11 15
15 18 24
15 19 24
22 27 35
10 13 16
15 18 24
17 20 26
15 18 23
13 15 19
22 28 36
18 22 28
14 18 23
17 20 26
23 28 36
22 28 35
16 19 25
18 22 28
15 19 24
14 17 21
14 17 22
17 21 28
18 22 29
17 21 27
13 17 22
18 22 28
15 19 24
8 10 14
17 21 26
16 19 24
10 12 16
16 19 24
20 24 30
11 13 17
10 12 16
14 18 22
15 19 24
20 24 30
17 20 25
14 18 23
19 23 29
17 21 27
15 19 23
16 20 26
15 18 22
17 20 25
14 17 22
13 16 21
16 20 27
14 17 22
15 19 25
13 16 20
15 19 24
17 21 27
15 18 24
16 19 24
10 12 16
15 18 23
11 14 18
10 12 15
10 13 17
15 18 23
11 13 17
15 18 24
13 16 21
12 15 19
13 15 20
9 11 14
13 16 20
13 17 21
11 14 18
13 17 22
12 14 18
12 14 18
14 17 22
10 13 18
12 14 18
9 12 15
8 10 12
5 6 8
10 12 15
5 7 9
11 13 17
11 14 18
16 19 23
92 105 123
94 106 123
114 129 150
121 137 160
147 164 191
134 151 175
134 150 175
154 173 200
181 203 235
177 198 230
193 216 250
195 218 253
197 220 255
197 220 255
197 220 255
197 220 255
197 220 255
197 220 255
197 220 255
197 220 255
197 220 255
197 220 255
197 220 255
197 220 255
197 220 255
197 220 255
197 220 255
197 220 255
197 220 255
197 220 255
197 220 255
197 220 255
197 220 255
197 220 255
197 220 255
197 220 255
197 220 255
197 220 255
197 220 255
197 220 255
196 220 255
196 220 255
196 220 255
196 220 255
196 220 255
196 220 255
196 220 255
196 220 255
196 220 255
196 220 255
196 220 255
196 220 255
196 220 255
196 220 255
196 220 255
196 220 255
196 220 255
196 220 255
196 220 255
196 220 255
196 220 255
196 220 255
196 220 255
196 220 255
196 220 255
196 220 255
196 220 255
196 220 255
196 220 255
196 220 255
196 220 255
196 220 255
196 220 255
196 220 255
196 220 255
196 220 255
196 220 255
196 220 255
196 220 255
196 220 255
196 220 255
196 220 255
196 220 255
196 220 255
196 220 255
196 220 255
196 220 255
196 220 255
196 220 255
196 220 255
196 220 255
195 219 255
195 219 255
195 219 255
195 219 255
195 219 255
195 219 255
195 219 255
195 219 255
195 219 255
195 219 255
195 219 255
195 219 255
195 219 255
195 219 255
195 219 255
195 219 255
195 219 255
195 219 255
195 219 255
195 219 255
195 219 255
195 219 255
195 219 255
195 219 255
195 219 255
195 219 255
195 219 255
195 219 255
195 219 255
195 219 255
195 219 255
195 219 255
195 219 255
195 219 255
195 219 255
195 219 255
195 219 255
195 219 255
195 219 255
195 219 255
195 219 255
195 219 255
195 219 255
195 219 255
195 219 255
195 219 255
195 219 255
195 219 255
195 219 255
195 219 255
195 219 255
195 219 255
195 219 255
195 219 255
195 219 255
195 219 255
195 219 255
195 219 255
195 219 255
195 219 255
195 219 255
195 219 255
195 219 255
195 219 255
195 219 255
195 219 255
195 219 255
195 219 255
195 219 255
195 219 255
195 219 255
196 220 255
196 220 255
196 220 255
196 220 255
196 220 255
196 220 255
196 220 255
196 220 255
196 220 255
196 220 255
196 220 255
196 220 255
196 220 255
196 220 255
196 220 255
196 220 255
196 220 255
196 220 255
196 220 255
196 220 255
196 220 255
196 220 255
196 220 255
196 220 255
196 220 255
196 220 255
196 220 255
196 220 255
196 220 255
196 220 255
196 220 255
196 220 255
196 220 255
196 220 255
196 220 255
196 220 255
196 220 255
196 220 255
196 220 255
196 220 255
196 220 255
196 220 255
196 220 255
196 220 255
196 220 255
196 220 255
196 220 255
196 220 255
196 220 255
196 220 255
196 220 255
196 220 255
197 220 255
197 220 255
197 220 255
197 220 255
197 220 255
197 220 255
197 220 255
197 220 255
197 220 255
197 220 255
197 220 255
197 220 255
197 220 255
197 220 255
197 220 255
197 220 255
197 220 255
197 220 255
197 220 255
197 220 255
197 220 255
197 220 255
197 220 255
197 220 255
197 220 255
197 220 255
197 220 255
197 220 255
197 221 255
197 221 255
194 217 252
177 199 231
175 196 228
142 159 185
144 162 189
138 155 180
134 152 178
118 132 154
98 111 131
84 96 113
79 89 105
70 79 92
54 62 75
53 61 72
37 44 55
13 15 19
13 17 23
18 22 29
24 29 38
23 28 36
16 20 26
18 23 30
26 32 40
14 17 22
16 21 27
9 12 16
14 17 22
16 19 25
19 23 30
10 13 17
15 18 23
7 9 11
7 9 12
13 16 21
15 19 25
11 13 16
13 16 22
7 8 11
12 14 18
10 13 17
8 10 13
14 17 21
16 20 25
12 15 20
11 13 17
11 13 16
14 18 23
11 13 17
11 13 17
7 9 12
13 16 20
9 11 14
18 22 28
14 17 23
21 25 32
12 15 19
16 20 25
16 20 26
16 19 25
17 21 26
19 24 31
14 17 21
12 15 19
16 19 25
11 13 17
15 19 24
12 14 18
19 23 30
17 20 26
8 10 13
18 21 27
17 21 27
22 27 34
16 20 26
20 24 31
11 13 16
17 20 26
12 14 19
17 21 27
17 20 26
16 19 24
13 16 20
12 15 19
13 16 21
17 20 25
9 11 15
15 18 23
16 19 23
25 31 39
17 21 27
22 26 33
13 16 20
15 18 23
20 24 31
15 19 25
16 19 25
10 13 17
15 18 24
16 19 24
13 17 22
13 16 20
13 17 22
13 16 20
20 25 32
15 18 23
10 12 16
18 22 28
15 18 23
17 20 26
16 19 24
21 26 33
15 19 24
12 15 20
16 19 24
13 16 20
11 13 17
15 18 22
9 11 14
14 18 23
12 15 19
17 21 27
20 25 31
16 19 25
6 8 10
14 17 22
22 26 33
14 18 23
16 19 25
14 17 22
16 21 27
10 13 16
8 10 13
10 13 17
16 20 26
10 12 16
17 21 27
14 17 22
13 16 20
8 10 13
13 16 21
10 12 16
16 19 25
15 19 24
8 10 13
8 11 14
16 19 24
15 18 23
8 10 13
13 15 20
9 12 15
9 11 15
10 13 17
10 13 16
16 19 25
10 13 17
12 15 19
18 23 30
21 27 35
20 25 33
17 22 29
16 19 25
15 19 25
17 21 28
23 28 36
18 22 29
13 16 21
18 22 29
23 28 36
34 41 50
41 48 57
49 57 68
60 68 81
70 79 93
69 79 95
86 97 113
112 127 148
120 135 157
122 137 160
140 157 183
148 166 193
165 185 216
182 203 236
182 204 236
190 213 247
197 221 255
197 221 255
197 220 255
197 220 255
197 220 255
197 220 255
197 220 255
197 220 255
197 220 255
197 220 255
197 220 255
197 220 255
197 220 255
197 220 255
197 220 255
197 220 255
197 220 255
197 220 255
197 220 255
197 220 255
197 220 255
197 220 255
197 220 255
197 220 255
197 220 255
197 220 255
197 220 255
197 220 255
197 220 255
197 220 255
196 220 255
196 220 255
196 220 255
196 220 255
196 220 255
196 220 255
196 220 255
196 220 255
196 220 255
196 220 255
196 220 255
196 220 255
196 220 255
196 220 255
196 220 255
196 220 255
196 220 255
196 220 255
196 220 255
196 220 255
196 220 255
196 220 255
196 220 255
196 220 255
196 220 255
196 220 255
196 220 255
196 220 255
196 220 255
196 220 255
196 220 255
196 220 255
196 220 255
196 220 255
196 220 255
196 220 255
196 220 255
196 220 255
196 220 255
196 220 255
196 220 255
196 220 255
196 220 255
196 220 255
196 220 255
196 220 255
196 220 255
196 220 255
196 220 255
196 220 255
196 220 255
196 220 255
195 219 255
195 219 255
195 219 255
195 219 255
195 219 255
195 219 255
195 219 255
195 219 255
195 219 255
195 219 255
195 219 255
195 219 255
195 219 255
195 219 255
195 219 255
195 219 255
195 219 255
195 219 255
195 219 255
195 219 255
195 219 255
195 219 255
195 219 255
195 219 255
195 219 255
195 219 255
195 219 255
195 219 255
195 219 255
195 219 255
195 219 255
195 219 255
195 219 255
196 220 255
196 220 255
196 220 255
196 220 255
196 220 255
196 220 255
196 220 255
196 220 255
196 220 255
196 220 255
196 220 255
196 220 255
196 220 255
196 220 255
196 220 255
196 220 255
196 220 255
196 220 255
196 220 255
196 220 255
196 220 255
196 220 255
196 220 255
196 220 255
196 220 255
196 220 255
196 220 255
196 220 255
196 220 255
196 220 255
196 220 255
196 220 255
196 220 255
196 220 255
196 220 255
196 220 255
196 220 255
196 220 255
196 220 255
196 220 255
196 220 255
196 220 255
196 220 255
196 220 255
196 220 255
196 220 255
196 220 255
196 220 255
196 220 255
196 220 255
196 220 255
196 220 255
196 220 255
196 220 255
197 220 255
197 220 255
197 220 255
197 220 255
197 220 255
197 220 255
197 220 255
197 220 255
197 220 255
197 220 255
197 220 255
197 220 255
197 220 255
197 220 255
197 220 255
197 220 255
197 220 255
197 220 255
197 220 255
197 220 255
197 220 255
197 220 255
197 220 255
197 220 255
197 220 255
197 220 255
197 220 255
197 220 255
197 220 255
197 221 255
197 221 255
197 221 255
195 218 253
168 188 218
168 188 217
152 171 199
127 143 167
127 143 167
116 131 152
107 120 141
85 97 116
68 79 94
56 64 76
54 62 75
41 47 56
26 31 39
23 28 35
17 21 27
19 23 30
19 24 32
17 21 26
14 17 22
20 25 32
15 20 26
20 25 32
18 22 29
17 21 28
11 14 19
15 19 24
15 19 24
12 15 19
19 23 30
17 20 26
24 29 37
13 16 22
19 24 30
13 16 21
14 18 23
11 14 19
22 27 36
14 18 23
19 24 31
19 23 29
16 21 27
13 16 20
16 19 25
13 15 19
6 8 11
11 13 17
8 11 14
7 9 12
12 15 20
14 18 23
11 13 17
11 14 18
9 11 14
6 7 9
12 15 19
16 19 25
11 13 16
15 19 24
11 14 17
13 16 20
10 13 16
8 9 12
11 14 19
20 24 31
11 13 17
20 24 30
13 16 21
14 17 22
12 14 19
11 14 18
12 14 18
14 17 21
14 18 22
12 15 20
14 17 22
17 22 29
10 12 15
16 19 25
15 18 24
18 22 28
18 23 29
14 18 23
15 19 24
14 18 24
11 14 19
13 17 22
15 19 24
16 20 26
20 24 31
14 17 22
11 14 18
14 17 22
12 16 20
18 21 27
15 18 23
12 14 18
18 23 30
15 18 24
14 17 22
13 16 21
17 21 27
14 17 23
14 17 21
16 19 25
16 20 26
15 18 22
18 22 28
15 19 24
14 17 22
18 21 26
18 22 28
14 18 23
15 18 22
19 24 30
16 20 25
13 17 22
15 18 24
17 21 27
14 18 23
18 21 27
9 12 15
20 24 31
17 21 27
18 21 27
12 15 20
19 23 30
14 18 24
15 18 23
13 17 22
19 24 31
16 19 25
15 18 23
14 17 22
9 11 15
11 13 17
14 17 22
14 18 23
12 15 19
21 25 32
12 14 18
18 23 31
15 18 23
12 15 19
14 18 23
12 15 19
13 16 20
11 13 17
10 13 16
13 16 21
9 10 13
11 14 18
17 21 26
11 13 17
10 13 17
16 20 26
12 15 20
7 8 11
11 14 18
10 12 16
11 14 18
9 11 14
17 21 26
9 11 14
6 7 9
15 18 23
9 11 14
11 13 16
5 6 7
10 13 16
13 16 21
19 23 30
20 24 31
21 27 35
25 32 41
20 25 33
7 9 12
22 28 36
15 18 23
15 19 25
17 21 27
14 17 22
20 26 33
17 21 27
18 22 28
16 21 28
17 21 27
19 23 30
20 25 33
16 20 25
20 24 30
15 19 25
18 22 29
20 25 32
19 24 32
21 26 33
12 15 20
14 17 22
22 27 35
25 30 38
48 55 66
57 65 78
58 66 78
77 87 103
87 99 117
89 100 117
114 129 150
120 135 158
130 146 169
155 174 203
155 175 203
169 189 220
181 203 235
195 218 253
197 221 255
197 221 255
197 221 255
197 220 255
197 220 255
197 220 255
197 220 255
197 220 255
197 220 255
197 220 255
197 220 255
197 220 255
197 220 255
197 220 255
197 220 255
197 220 255
197 220 255
197 220 255
197 220 255
197 220 255
197 220 255
197 220 255
197 220 255
197 220 255
197 220 255
197 220 255
197 220 255
197 220 255
197 220 255
197 220 255
197 220 255
197 220 255
196 220 255
196 220 255
196 220 255
196 220 255
196 220 255
196 220 255
196 220 255
196 220 255
196 220 255
196 220 255
196 220 255
196 220 255
196 220 255
196 220 255
196 220 255
196 220 255
196 220 255
196 220 255
196 220 255
196 220 255
196 220 255
196 220 255
196 220 255
196 220 255
196 220 255
196 220 255
196 220 255
196 220 255
196 220 255
196 220 255
196 220 255
196 220 255
196 220 255
196 220 255
196 220 255
196 220 255
196 220 255
196 220 255
196 220 255
196 220 255
196 220 255
196 220 255
196 220 255
196 220 255
196 220 255
196 220 255
196 220 255
196 220 255
196 220 255
196 220 255
196 220 255
196 220 255
196 220 255
196 220 255
195 219 255
195 219 255
195 219 255
195 219 255
195 219 255
195 219 255
195 219 255
196 220 255
196 220 255
196 220 255
196 220 255
196 220 255
196 220 255
196 220 255
196 220 255
196 220 255
196 220 255
196 220 255
196 220 255
196 220 255
196 220 255
196 220 255
196 220 255
196 220 255
196 220 255
196 220 255
196 220 255
196 220 255
196 220 255
196 220 255
196 220 255
196 220 255
196 220 255
196 220 255
196 220 255
196 220 255
196 220 255
196 220 255
196 220 255
196 220 255
196 220 255
196 220 255
196 220 255
196 220 255
196 220 255
196 220 255
196 220 255
196 220 255
196 220 255
196 220 255
196 220 255
196 220 255
197 220 255
197 220 255
197 220 255
197 220 255
197 220 255
197 220 255
197 220 255
197 220 255
197 220 255
197 220 255
197 220 255
197 220 255
197 220 255
197 220 255
197 220 255
197 220 255
197 220 255
197 220 255
197 220 255
197 220 255
197 220 255
197 220 255
197 220 255
197 220 255
197 220 255
197 220 255
197 220 255
197 220 255
197 220 255
197 221 255
197 221 255
197 221 255
197 221 255
197 221 255
194 217 252
193 216 250
169 189 220
153 172 200
129 145 169
116 130 152
109 122 142
94 106 124
82 93 110
69 79 94
60 68 80
37 43 52
29 35 43
26 32 42
19 24 32
19 24 31
19 23 30
19 24 31
24 29 37
18 23 30
21 26 35
19 25 33
21 25 32
12 14 18
16 20 25
22 27 35
23 28 37
16 20 26
21 26 33
20 24 31
15 19 26
21 26 33
15 19 25
15 19 25
16 19 25
20 24 31
18 23 29
18 23 29
18 23 30
16 20 26
20 26 34
15 18 24
16 20 27
20 25 32
10 13 16
15 18 24
13 16 21
16 20 27
15 19 25
18 23 30
16 20 26
18 22 29
13 16 20
16 20 26
22 27 35
21 26 33
18 22 29
14 18 24
15 19 24
11 13 17
10 12 15
15 18 23
10 12 16
8 10 12
12 15 19
13 16 20
13 16 20
11 14 19
11 14 19
10 13 17
8 10 12
11 13 16
11 14 17
10 12 16
10 12 15
17 20 25
12 14 18
16 20 25
12 15 20
11 14 18
16 20 25
18 22 28
7 9 12
14 17 22
13 16 21
11 13 17
13 17 21
15 19 25
11 14 18
10 12 16
15 17 22
17 21 27
16 19 25
17 21 28
14 17 21
18 22 27
18 22 27
17 21 27
10 12 15
13 16 21
15 18 23
9 11 14
17 21 28
16 20 26
14 18 23
11 14 17
16 20 26
16 20 26
16 20 26
14 17 21
11 13 17
14 18 23
20 24 30
13 15 19
19 24 30
15 18 23
20 24 30
12 14 19
10 13 16
17 21 27
10 12 15
11 13 17
16 19 24
19 24 31
21 26 33
11 13 17
16 20 26
17 22 28
15 18 24
19 24 31
14 17 23
15 19 24
16 19 25
17 21 27
16 20 25
18 22 28
15 19 24
15 18 22
19 23 30
11 14 18
18 22 28
10 12 15
14 17 22
20 24 32
15 19 24
21 26 33
13 16 20
11 14 18
16 19 25
17 21 26
14 17 22
20 24 32
15 19 24
15 18 23
10 11 14
13 17 21
9 12 15
11 14 18
17 21 27
14 17 22
11 13 17
10 12 16
15 19 24
17 20 26
18 22 28
15 19 24
11 14 18
18 21 27
17 21 27
9 11 15
14 17 21
11 14 18
12 15 18
9 10 13
12 14 18
9 11 15
7 9 12
10 13 17
12 14 18
9 10 13
9 12 16
12 15 19
12 14 18
14 17 22
18 22 28
15 19 25
13 17 22
21 26 34
18 22 29
18 22 29
21 26 33
25 31 40
12 15 19
17 21 26
24 30 38
20 24 31
20 25 32
18 23 29
16 20 26
17 22 28
17 22 29
20 24 32
19 24 30
18 22 28
13 17 22
15 18 24
15 19 24
17 21 27
15 18 24
18 22 30
22 28 36
15 18 24
23 29 37
20 25 33
16 20 26
15 19 25
18 22 28
20 25 32
15 19 25
22 27 35
22 27 35
19 24 30
14 17 21
18 23 30
16 20 25
15 18 23
17 22 28
22 26 34
22 26 33
28 33 41
40 47 58
68 77 92
68 78 92
76 86 102
95 107 126
123 138 162
122 138 161
151 170 199
150 169 197
167 187 216
191 214 248
187 209 243
197 221 255
197 221 255
197 221 255
197 221 255
197 220 255
197 220 255
197 220 255
197 220 255
197 220 255
197 220 255
197 220 255
197 220 255
197 220 255
197 220 255
197 220 255
197 220 255
197 220 255
197 220 255
197 220 255
197 220 255
197 220 255
197 220 255
197 220 255
197 220 255
197 220 255
197 220 255
197 220 255
197 220 255
197 220 255
197 220 255
197 220 255
197 220 255
197 220 255
197 220 255
197 220 255
196 220 255
196 220 255
196 220 255
196 220 255
196 220 255
196 220 255
196 220 255
196 220 255
196 220 255
196 220 255
196 220 255
196 220 255
196 220 255
196 220 255
196 220 255
196 220 255
196 220 255
196 220 255
196 220 255
196 220 255
196 220 255
196 220 255
196 220 255
196 220 255
196 220 255
196 220 255
196 220 255
196 220 255
196 220 255
196 220 255
196 220 255
196 220 255
196 220 255
196 220 255
196 220 255
196 220 255
196 220 255
196 220 255
196 220 255
196 220 255
196 220 255
196 220 255
196 220 255
196 220 255
196 220 255
196 220 255
196 220 255
196 220 255
196 220 255
196 220 255
196 220 255
196 220 255
196 220 255
196 220 255
196 220 255
196 220 255
196 220 255
196 220 255
196 220 255
196 220 255
196 220 255
196 220 255
196 220 255
196 220 255
196 220 255
196 220 255
196 220 255
196 220 255
196 220 255
196 220 255
196 220 255
196 220 255
196 220 255
196 220 255
197 220 255
197 220 255
197 220 255
197 220 255
197 220 255
197 220 255
197 220 255
197 220 255
197 220 255
197 220 255
197 220 255
197 220 255
197 220 255
197 220 255
197 220 255
197 220 255
197 220 255
197 220 255
197 220 255
197 220 255
197 220 255
197 220 255
197 220 255
197 220 255
197 220 255
197 220 255
197 220 255
197 220 255
197 220 255
197 220 255
197 221 255
197 221 255
197 221 255
197 221 255
197 221 255
197 221 255
186 208 241
174 195 226
157 176 204
153 171 199
145 163 189
121 136 159
99 112 131
87 99 117
85 96 113
68 78 92
49 57 69
45 53 64
24 30 38
11 14 19
16 20 26
20 25 32
13 17 22
26 32 41
15 19 24
21 26 35
21 25 33
23 28 37
17 22 28
14 17 22
15 19 25
19 23 30
17 21 27
16 20 26
17 21 27
18 22 29
20 26 34
20 26 33
15 18 23
12 15 20
18 23 30
15 19 25
11 14 17
21 26 34
14 18 23
21 26 33
20 25 32
19 23 31
17 21 27
22 27 35
15 19 25
23 28 37
18 23 30
14 18 23
11 14 19
15 19 24
19 24 31
14 17 23
17 21 27
12 15 20
19 24 30
17 21 28
18 22 29
17 21 27
19 23 30
17 21 28
14 18 24
16 20 26
18 22 28
19 23 30
22 27 35
15 19 25
16 20 26
18 23 30
20 25 32
25 31 39
18 22 29
8 10 13
14 18 24
13 16 21
13 16 21
12 14 18
10 13 16
13 16 21
11 13 17
6 7 10
14 17 22
14 16 21
15 18 22
11 13 16
11 14 18
8 10 13
13 16 21
13 16 21
12 15 19
15 18 23
13 16 20
10 13 16
11 13 16
14 17 23
13 16 19
16 19 25
13 16 20
14 17 22
15 18 24
10 13 17
15 19 24
10 12 14
17 21 26
10 12 16
12 15 19
16 20 26
21 25 32
11 14 18
20 24 30
17 21 26
15 18 23
17 21 26
12 15 19
15 18 23
15 19 25
18 22 28
14 17 23
17 21 27
15 19 24
11 13 17
11 13 17
13 16 20
17 20 26
22 27 34
11 13 17
20 24 31
21 26 33
14 17 21
14 17 22
16 20 26
17 21 27
16 20 25
16 19 24
12 15 19
17 20 26
17 20 26
15 18 24
11 13 17
16 20 26
19 24 31
13 17 21
12 15 19
23 27 34
15 19 24
17 20 25
15 18 23
15 18 23
21 26 33
12 15 19
17 21 27
13 16 20
15 18 24
10 12 16
13 16 20
14 17 22
19 23 30
15 18 24
17 21 26
14 18 23
14 17 21
12 15 19
12 15 20
17 21 27
15 19 24
15 18 23
19 23 29
14 17 22
13 16 21
8 10 13
10 13 17
9 12 15
9 12 15
15 18 23
15 18 23
14 17 21
20 25 32
14 18 24
14 17 22
12 15 19
13 17 21
9 11 15
15 19 25
9 11 14
16 20 24
9 11 14
10 12 16
9 11 15
10 12 16
13 15 19
8 9 12
6 8 10
9 11 14
11 13 17
13 16 21
7 9 11
13 16 20
10 12 14
13 16 21
20 25 33
22 27 34
17 21 27
17 22 28
21 25 32
13 16 21
12 14 18
19 24 31
19 24 31
18 23 29
11 13 17
14 18 23
25 30 39
16 20 27
12 15 20
20 24 31
19 23 30
11 14 18
13 16 21
20 25 32
24 31 40
12 15 20
19 24 31
21 26 34
18 23 30
22 27 35
12 15 20
17 22 28
26 32 41
19 23 30
26 32 42
21 27 35
17 21 27
13 16 20
21 26 32
14 18 24
18 22 28
17 21 28
22 26 34
16 20 26
17 21 28
13 16 20
17 21 26
21 27 35
24 30 39
16 20 26
25 31 40
13 17 22
20 24 31
19 23 29
11 13 18
16 20 26
18 23 30
26 32 42
17 21 28
16 20 26
14 18 24
29 35 45
42 50 61
46 53 64
65 74 88
87 98 116
83 94 110
116 131 153
114 128 150
124 139 162
149 167 194
154 173 201
178 200 232
190 213 247
197 221 255
197 221 255
197 221 255
197 221 255
197 221 255
197 221 255
197 221 255
197 220 255
197 220 255
197 220 255
197 220 255
197 220 255
197 220 255
197 220 255
197 220 255
197 220 255
197 220 255
197 220 255
197 220 255
197 220 255
197 220 255
197 220 255
197 220 255
197 220 255
197 220 255
197 220 255
197 220 255
197 220 255
197 220 255
197 220 255
197 220 255
197 220 255
197 220 255
197 220 255
197 220 255
197 220 255
197 220 255
196 220 255
196 220 255
196 220 255
196 220 255
196 220 255
196 220 255
196 220 255
196 220 255
196 220 255
196 220 255
196 220 255
196 220 255
196 220 255
196 220 255
196 220 255
196 220 255
196 220 255
196 220 255
196 220 255
196 220 255
196 220 255
196 220 255
196 220 255
196 220 255
196 220 255
196 220 255
196 220 255
196 220 255
196 220 255
196 220 255
196 220 255
196 220 255
196 220 255
196 220 255
196 220 255
196 220 255
196 220 255
196 220 255
196 220 255
196 220 255
196 220 255
196 220 255
196 220 255
197 220 255
197 220 255
197 220 255
197 220 255
197 220 255
197 220 255
197 220 255
197 220 255
197 220 255
197 220 255
197 220 255
197 220 255
197 220 255
197 220 255
197 220 255
197 220 255
197 220 255
197 220 255
197 220 255
197 220 255
197 220 255
197 220 255
197 220 255
197 220 255
197 220 255
197 220 255
197 220 255
197 220 255
197 220 255
197 220 255
197 220 255
197 220 255
197 221 255
197 221 255
197 221 255
197 221 255
197 221 255
197 221 255
197 221 255
189 212 245
177 198 230
171 191 221
143 161 187
128 144 167
131 148 172
100 113 132
87 99 115
81 92 108
56 64 76
45 52 62
43 50 61
20 24 31
20 24 31
21 26 33
20 25 33
16 19 25
22 28 36
16 19 24
16 19 25
21 26 35
22 27 36
14 18 23
22 27 36
17 21 27
16 20 26
16 20 25
16 20 25
15 18 23
17 21 27
13 16 21
20 25 33
15 19 24
21 26 34
15 19 25
21 26 34
14 18 23
11 14 19
19 23 29
18 22 29
15 19 25
17 21 28
13 17 22
20 25 33
22 28 36
21 26 34
18 23 30
15 18 23
24 30 39
15 18 23
14 18 23
20 25 32
19 23 31
11 14 18
22 27 34
12 14 18
19 23 30
20 25 33
15 19 26
20 25 32
14 17 22
17 21 27
18 22 28
17 22 28
19 24 31
19 24 31
22 27 35
13 16 21
18 22 29
15 19 24
16 20 26
13 17 22
19 24 31
18 21 27
20 26 34
16 19 25
15 19 25
17 21 27
13 17 22
19 24 30
15 19 24
21 26 35
18 22 29
15 18 23
9 12 15
15 18 23
10 12 16
8 10 14
12 15 20
12 15 19
12 15 19
17 20 26
7 8 11
6 7 9
12 15 19
12 15 18
7 9 12
13 15 20
10 11 14
11 14 18
12 15 19
9 11 14
12 15 19
14 17 22
13 16 21
10 13 17
15 18 23
18 21 27
9 11 14
9 11 14
12 15 19
16 20 25
14 17 22
12 15 20
8 10 13
14 17 22
14 18 24
10 13 16
10 12 16
12 15 20
13 17 22
12 15 20
18 22 28
14 17 22
16 20 25
15 19 24
10 12 16
21 26 34
18 22 29
17 21 27
16 19 24
19 23 28
20 25 32
9 12 15
18 22 28
16 19 25
14 17 22
17 21 27
16 20 25
19 23 29
15 19 24
16 19 25
12 15 19
19 23 29
22 27 34
16 20 26
14 17 22
20 24 31
11 13 17
14 17 22
19 24 31
14 17 22
13 16 21
13 15 19
10 13 16
13 16 20
14 17 22
21 25 32
14 18 23
17 21 27
14 17 22
15 18 23
12 15 19
17 21 26
9 12 15
17 20 26
15 18 24
15 19 25
13 17 22
12 15 19
16 20 25
13 16 21
9 12 16
15 18 23
13 16 21
15 18 23
12 15 19
21 25 32
14 18 23
10 12 16
12 16 20
15 19 25
15 18 22
12 14 18
13 16 21
18 22 28
12 15 19
11 14 18
10 12 15
13 16 20
14 18 23
12 15 20
14 17 22
9 11 14
7 9 11
7 8 10
11 13 16
4 6 8
9 12 15
7 9 12
10 13 17
8 9 12
9 11 14
15 18 23
10 13 16
8 10 14
9 11 14
15 18 23
8 11 14
9 12 15
20 24 31
15 19 24
18 22 29
25 30 39
21 26 33
15 19 25
20 25 32
17 20 26
15 19 24
20 25 33
20 25 32
17 21 27
19 23 29
23 30 39
18 22 28
14 17 23
11 14 18
11 14 18
18 22 29
15 18 23
22 27 34
16 19 25
18 23 29
15 19 24
15 19 25
22 27 35
17 21 28
23 29 37
17 20 26
18 23 30
20 25 32
20 25 33
15 18 23
20 24 31
17 21 27
17 21 27
16 20 26
26 33 42
19 24 31
16 20 26
20 25 33
16 19 25
17 22 28
28 35 46
18 22 28
16 20 26
19 24 31
18 23 30
18 23 30
14 18 24
12 15 20
20 25 32
19 23 29
20 24 31
18 22 29
21 26 35
12 15 20
17 21 27
18 23 30
15 19 26
17 21 28
20 24 31
14 18 23
21 25 32
14 18 23
17 21 27
16 20 26
25 31 41
19 23 30
19 23 30
19 23 30
11 14 19
38 45 56
50 57 69
55 63 75
68 77 92
75 86 102
133 150 174
133 150 176
132 148 172
145 162 188
146 163 189
183 205 238
189 212 245
197 221 255
197 221 255
197 221 255
197 221 255
197 221 255
197 221 255
197 221 255
197 221 255
197 220 255
197 220 255
197 220 255
197 220 255
197 220 255
197 220 255
197 220 255
197 220 255
197 220 255
197 220 255
197 220 255
197 220 255
197 220 255
197 220 255
197 220 255
197 220 255
197 220 255
197 220 255
197 220 255
197 220 255
197 220 255
197 220 255
197 220 255
197 220 255
197 220 255
197 220 255
197 220 255
197 220 255
197 220 255
197 220 255
197 220 255
196 220 255
196 220 255
196 220 255
196 220 255
196 220 255
196 220 255
196 220 255
196 220 255
196 220 255
196 220 255
196 220 255
196 220 255
196 220 255
196 220 255
197 220 255
197 220 255
197 220 255
197 220 255
197 220 255
197 220 255
197 220 255
197 220 255
197 220 255
197 220 255
197 220 255
197 220 255
197 220 255
197 220 255
197 220 255
197 220 255
197 220 255
197 220 255
197 220 255
197 220 255
197 220 255
197 220 255
197 220 255
197 220 255
197 220 255
197 220 255
197 220 255
197 220 255
197 220 255
197 220 255
197 220 255
197 220 255
197 221 255
197 221 255
197 221 255
197 221 255
197 221 255
197 221 255
197 221 255
197 221 255
195 218 253
181 203 235
176 197 229
169 189 220
126 142 166
131 147 171
112 126 147
88 101 119
96 108 127
67 77 91
41 47 56
28 33 41
23 28 34
16 20 26
18 22 28
19 23 30
19 24 31
14 17 22
17 21 27
25 31 40
15 19 24
17 21 28
17 22 29
18 21 27
18 23 30
20 24 31
14 18 23
17 21 28
20 25 32
15 20 27
13 17 22
15 19 24
17 22 28
20 25 32
19 24 32
18 22 28
16 20 26
13 16 20
15 18 23
17 22 28
20 25 32
17 20 26
21 26 33
15 19 25
20 25 33
18 22 28
16 20 26
12 16 21
18 22 28
19 24 31
21 27 36
14 17 22
21 27 35
18 22 28
23 28 36
16 21 28
20 25 32
25 31 41
17 22 28
17 21 27
12 15 19
21 26 33
20 24 31
14 18 23
18 22 29
15 19 25
9 12 15
15 18 24
18 22 29
19 24 32
19 24 31
18 22 29
19 24 31
21 26 34
16 21 27
23 29 37
19 24 30
20 25 32
12 15 20
12 15 20
25 30 39
12 15 20
11 14 18
12 15 20
16 20 26
20 24 32
18 22 29
20 25 32
16 21 27
17 21 27
21 26 32
15 19 25
21 27 36
17 22 28
17 21 27
17 21 27
20 25 32
19 23 29
11 14 17
11 13 17
14 17 22
10 12 15
9 11 15
12 15 20
13 16 21
10 13 17
7 8 11
11 14 18
10 12 16
7 9 12
13 16 19
11 14 18
9 11 14
8 10 12
10 12 15
12 15 19
13 15 19
9 11 14
11 13 17
15 18 22
17 20 25
10 12 16
16 20 25
11 13 17
16 19 24
8 10 13
12 14 18
11 13 17
14 18 24
15 17 22
16 20 25
18 23 29
13 16 20
22 28 36
14 18 24
13 16 20
13 17 21
17 21 27
11 14 17
14 17 21
17 21 26
15 18 23
16 20 25
19 24 30
16 20 26
16 19 25
14 17 22
14 17 21
16 20 25
14 18 23
14 17 22
14 18 23
13 16 20
17 21 27
13 16 20
12 15 19
18 22 28
15 18 23
13 17 21
13 16 21
18 22 29
10 12 16
17 21 27
14 17 22
12 15 19
12 15 18
18 21 27
17 21 27
17 22 28
18 22 28
12 14 18
17 21 27
15 18 24
14 18 22
15 18 24
15 18 24
19 23 29
14 17 21
15 19 24
17 21 27
11 13 18
10 13 17
20 25 32
11 14 17
19 24 31
16 19 25
12 15 19
14 17 22
17 20 26
12 15 19
10 12 16
14 17 21
17 20 25
15 18 23
14 18 23
18 22 29
11 14 18
13 16 21
11 13 17
16 20 25
12 16 20
11 13 17
13 16 21
12 15 19
15 18 24
10 12 16
9 11 15
11 14 18
11 14 18
8 10 13
10 13 16
12 15 20
18 22 28
5 7 8
9 12 15
12 14 17
8 10 13
8 9 12
7 9 12
7 9 12
12 15 20
18 23 29
15 19 24
17 21 27
24 29 38
15 18 24
18 22 28
17 21 27
16 20 26
17 21 27
17 22 28
13 16 21
14 18 24
17 22 29
22 28 36
13 16 20
18 22 28
16 19 25
19 23 30
20 26 34
18 22 28
12 15 19
15 18 23
18 23 30
17 21 28
10 13 16
16 20 26
17 22 28
16 19 25
16 20 26
14 18 23
16 19 25
13 17 22
19 24 32
17 21 27
17 21 26
19 23 30
16 20 25
20 25 33
18 22 29
16 20 25
20 25 32
15 19 24
17 22 29
14 18 24
19 23 30
16 21 28
18 23 30
16 20 25
15 19 24
17 22 29
15 19 25
20 26 34
15 19 24
19 23 29
19 23 30
13 16 20
18 22 29
13 17 22
14 18 23
13 17 22
19 23 30
16 20 27
18 22 28
15 18 24
13 16 21
17 21 28
19 24 30
15 18 23
16 20 26
15 19 24
17 21 27
17 21 28
20 24 32
15 18 24
16 20 26
13 16 21
23 28 36
18 22 29
12 16 20
16 19 25
18 23 29
20 25 33
17 21 27
18 22 29
21 26 34
16 20 25
23 28 36
50 58 70
50 58 70
66 75 89
86 97 114
96 109 127
96 109 128
131 147 171
148 166 194
142 159 184
176 197 229
179 200 232
197 221 255
197 221 255
197 221 255
197 221 255
197 221 255
197 221 255
197 221 255
197 221 255
197 221 255
197 221 255
197 220 255
197 220 255
197 220 255
197 220 255
197 220 255
197 220 255
197 220 255
197 220 255
197 220 255
197 220 255
197 220 255
197 220 255
197 220 255
197 220 255
197 220 255
197 220 255
197 220 255
197 220 255
197 220 255
197 220 255
197 220 255
197 220 255
197 220 255
197 220 255
197 220 255
197 220 255
197 220 255
197 220 255
197 220 255
197 220 255
197 220 255
197 220 255
197 220 255
197 220 255
197 220 255
197 220 255
197 220 255
197 220 255
197 220 255
197 220 255
197 220 255
197 220 255
197 220 255
197 220 255
197 220 255
197 220 255
197 220 255
197 220 255
197 220 255
197 221 255
197 221 255
197 221 255
197 221 255
197 221 255
197 221 255
197 221 255
197 221 255
197 221 255
197 221 255
195 218 253
185 207 240
167 187 217
151 169 197
125 140 163
121 137 160
99 112 130
79 90 106
70 80 96
73 83 98
53 62 75
31 36 44
23 28 35
20 25 32
21 26 34
17 21 28
23 29 37
19 23 30
16 19 25
12 15 20
14 17 22
14 17 22
17 21 27
21 25 33
18 23 30
14 18 23
23 28 35
17 21 26
15 19 24
22 28 35
16 19 25
19 23 30
22 27 35
18 23 29
22 28 36
15 19 24
16 19 25
14 17 22
26 32 42
15 18 23
18 23 30
14 17 23
18 22 29
20 24 31
15 19 25
20 26 35
17 22 28
13 15 20
23 29 37
20 25 32
9 12 16
17 22 28
17 21 28
16 21 27
16 19 25
14 17 22
19 23 31
19 24 31
16 20 26
10 12 16
14 18 22
16 20 26
21 26 34
13 16 21
19 24 32
15 19 26
14 18 24
19 23 30
17 21 27
16 20 26
17 21 27
14 18 23
15 19 24
16 20 26
20 25 33
17 21 27
15 19 24
22 28 36
15 18 23
17 21 27
13 17 22
17 22 28
21 27 35
22 27 36
15 19 24
19 24 31
16 20 25
21 26 34
18 22 29
13 16 21
19 23 30
7 8 11
17 21 27
18 22 28
14 18 23
19 24 30
20 25 32
14 18 24
19 24 30
14 18 23
20 26 34
18 22 29
15 20 26
20 24 32
22 28 36
20 26 34
17 21 27
12 15 19
18 22 29
16 20 26
7 9 12
18 22 28
13 16 21
10 13 16
13 16 20
20 24 31
10 12 15
7 9 12
11 13 17
9 11 14
11 13 17
12 14 18
11 13 17
11 13 17
14 17 22
10 12 16
13 16 21
9 11 14
11 14 18
13 15 20
17 20 26
11 14 19
14 18 23
12 16 20
7 9 12
12 15 19
10 12 15
17 21 27
13 16 21
14 16 21
14 18 23
14 17 22
17 20 26
10 12 16
18 21 27
10 12 15
14 17 22
15 18 23
17 21 27
7 9 13
11 14 18
20 24 30
15 18 23
18 21 27
12 15 19
15 19 24
23 29 37
18 23 31
14 17 23
19 23 29
16 20 26
20 24 31
23 28 36
16 20 25
17 21 26
10 13 16
17 21 27
15 18 24
14 17 22
18 22 28
17 21 27
14 17 21
18 22 27
17 21 28
25 30 39
13 16 21
15 18 23
23 28 36
14 17 21
19 23 29
17 21 27
11 13 17
10 12 16
14 18 23
15 18 23
18 22 28
14 17 22
17 21 26
22 26 32
13 17 22
14 17 21
16 19 24
16 20 25
12 15 19
13 16 21
18 22 28
10 13 16
19 23 29
17 22 28
18 22 28
17 21 27
19 23 29
16 19 24
18 22 29
14 17 22
13 16 20
10 12 16
11 14 18
9 11 15
16 20 26
16 20 26
20 25 32
13 16 20
15 19 24
12 14 18
15 18 23
14 17 22
16 19 25
6 8 10
14 17 22
6 7 9
15 18 23
11 14 18
14 17 22
13 15 20
7 9 12
7 8 11
11 14 18
12 14 18
11 13 17
14 17 21
11 14 19
13 16 20
9 11 14
19 24 31
11 14 18
13 16 22
17 22 29
14 18 23
21 26 34
17 22 28
17 21 27
16 20 25
15 18 24
20 25 32
20 25 33
20 25 32
17 22 28
19 23 29
18 22 29
20 25 32
13 16 21
14 17 22
17 22 29
20 24 30
14 18 24
17 21 27
13 16 21
24 29 38
14 18 23
19 23 30
20 25 32
19 23 30
11 14 18
9 11 15
20 25 33
20 25 32
17 21 27
12 16 21
21 26 32
16 20 25
18 22 28
21 26 33
19 24 30
18 23 29
16 19 25
17 21 28
19 24 30
17 21 26
15 19 24
20 25 32
13 16 20
17 20 26
19 24 31
16 20 26
15 20 26
9 11 15
19 23 30
17 21 28
12 15 19
16 19 25
24 30 39
19 24 31
20 25 32
19 24 31
20 24 31
10 13 17
20 24 32
20 25 31
16 20 26
14 17 23
17 21 28
23 28 36
18 23 29
16 20 26
22 28 36
22 27 36
16 19 24
22 28 36
17 22 28
13 17 23
18 22 29
16 19 25
17 21 27
21 26 35
17 22 29
18 22 28
22 27 35
18 23 29
18 22 29
20 24 31
15 18 23
21 25 32
19 23 30
20 25 34
13 17 23
21 27 35
21 26 33
20 25 33
17 21 27
18 22 28
21 25 33
35 41 50
53 62 76
62 71 84
80 91 108
111 126 148
109 123 143
145 163 191
142 160 185
126 141 165
175 196 228
190 212 245
197 221 255
197 221 255
197 221 255
197 221 255
197 221 255
197 221 255
197 221 255
197 221 255
197 221 255
197 221 255
197 221 255
197 220 255
197 220 255
197 220 255
197 220 255
197 220 255
197 220 255
197 220 255
197 220 255
197 220 255
197 220 255
197 220 255
197 220 255
197 220 255
197 220 255
197 220 255
197 220 255
197 220 255
197 220 255
197 220 255
197 220 255
197 220 255
197 220 255
197 220 255
197 221 255
197 221 255
197 221 255
197 221 255
197 221 255
197 221 255
197 221 255
197 221 255
197 221 255
197 221 255
197 221 255
197 221 255
186 208 241
175 195 226
138 156 182
121 135 157
118 133 155
123 139 162
86 97 114
88 99 117
61 70 83
41 48 58
38 45 55
21 25 32
20 25 33
18 22 29
11 14 19
20 25 32
15 19 24
18 23 30
17 21 28
19 24 31
16 20 26
16 20 26
14 17 22
16 20 27
21 26 33
17 21 28
16 21 27
19 24 31
17 22 28
15 18 24
17 22 29
14 17 23
20 25 33
14 17 22
19 24 30
16 20 26
18 23 30
19 24 31
30 37 47
15 18 23
12 15 20
17 21 26
21 26 33
11 13 17
21 27 35
17 21 26
19 24 31
19 23 29
18 23 31
15 19 25
16 19 25
18 23 30
23 29 37
23 28 37
15 19 25
18 23 30
12 15 19
17 21 27
20 25 33
19 23 30
14 17 22
17 21 28
20 25 32
14 17 22
22 28 36
17 21 27
16 19 25
20 25 32
15 19 24
15 19 25
15 19 25
17 21 28
18 23 30
15 18 23
16 19 24
20 25 32
16 20 26
20 24 31
15 18 23
24 29 38
15 19 25
14 17 22
20 24 31
14 18 22
9 12 16
15 18 24
14 17 22
15 19 25
10 13 16
21 26 33
11 14 18
16 19 25
21 25 32
16 19 25
13 16 21
18 22 28
10 13 17
15 18 24
15 19 25
15 19 25
20 24 31
22 27 35
17 21 27
15 19 25
24 30 38
25 31 40
22 28 37
17 21 26
18 22 27
20 25 32
18 22 29
14 17 22
18 22 28
15 19 26
15 18 24
13 17 22
19 23 30
13 16 21
28 34 44
9 12 16
17 21 28
13 16 21
11 14 17
7 8 11
9 11 14
13 16 21
12 14 18
9 11 15
10 12 15
10 13 16
11 13 17
9 11 14
8 10 13
13 15 19
12 14 18
8 10 13
8 10 12
11 14 17
14 17 22
16 19 25
10 12 16
13 16 21
15 18 23
9 11 14
18 22 29
13 16 20
14 17 21
12 15 19
12 15 20
9 10 13
9 11 14
11 13 17
16 20 25
17 21 27
18 23 29
14 17 23
13 16 20
18 23 29
17 22 28
13 16 20
19 24 31
18 22 28
11 14 17
14 17 22
17 21 27
20 24 30
12 14 19
15 18 23
16 20 25
12 14 19
11 13 17
20 25 32
12 14 17
17 21 28
15 18 23
16 20 25
15 18 23
19 24 32
16 19 24
14 18 23
12 14 18
20 24 31
18 22 29
20 25 31
11 14 17
15 19 24
17 20 25
12 14 17
19 23 29
16 19 25
19 24 30
14 18 23
18 23 30
16 19 23
17 20 25
13 17 21
19 23 29
12 15 19
18 22 29
12 15 20
12 15 19
14 17 22
12 15 19
14 17 22
15 18 23
17 21 26
11 13 18
12 15 19
13 16 21
11 14 19
12 14 17
13 16 21
13 16 21
13 16 21
12 15 19
16 20 26
15 18 23
13 16 20
14 17 22
8 10 13
11 13 17
11 14 17
7 9 13
12 15 19
11 14 18
18 22 27
16 20 25
10 12 16
14 18 23
9 11 14
9 11 13
15 18 22
8 9 12
10 12 16
8 9 12
9 11 15
14 17 21
9 12 15
10 13 17
10 13 16
9 11 14
11 13 17
8 10 13
13 16 20
10 12 15
16 21 27
20 25 32
17 21 27
18 22 29
20 25 32
23 29 37
16 20 25
18 23 30
15 19 25
19 23 30
21 26 34
16 20 26
12 15 20
14 17 22
17 21 27
18 22 29
21 25 32
16 20 26
20 25 32
18 22 28
16 20 26
19 23 30
14 17 22
10 13 17
18 22 29
15 18 23
13 17 23
20 25 32
19 23 30
15 18 23
19 23 30
18 23 29
18 23 30
20 25 33
16 21 27
21 26 33
23 29 38
12 15 19
17 21 27
15 19 24
15 19 25
17 21 27
23 28 36
18 23 30
23 29 38
17 21 28
17 21 28
22 28 37
16 20 26
17 21 27
14 18 24
19 24 31
17 21 27
20 25 33
19 24 31
14 17 23
20 25 32
13 16 21
22 27 35
20 25 34
13 16 21
23 28 35
15 19 25
18 22 28
18 22 28
20 25 32
16 20 26
19 23 31
17 22 28
15 19 25
22 27 35
24 30 39
18 22 29
16 20 26
17 21 28
14 17 21
20 25 32
16 19 25
21 25 33
19 24 30
19 24 31
16 19 25
22 27 35
14 18 23
18 22 28
16 20 25
17 21 26
21 27 35
15 19 25
17 21 28
13 17 22
18 22 28
25 32 41
16 21 27
20 24 32
18 22 28
19 24 31
15 19 24
20 25 32
21 26 34
17 22 28
14 18 23
14 17 23
13 17 22
13 16 21
23 29 37
18 23 30
20 24 31
16 19 25
20 25 32
26 30 36
47 54 65
66 76 91
80 90 106
90 102 121
120 135 157
111 125 146
128 144 167
171 191 222
176 196 227
191 214 248
197 221 255
197 221 255
197 221 255
197 221 255
197 221 255
197 221 255
197 221 255
197 221 255
197 221 255
197 221 255
197 221 255
197 221 255
197 220 255
197 220 255
197 220 255
197 220 255
197 220 255
197 221 255
197 221 255
197 221 255
197 221 255
197 221 255
190 212 246
183 205 238
163 182 212
155 174 203
137 154 179
126 142 166
115 129 151
89 100 118
89 102 121
55 63 76
44 50 59
25 30 38
17 21 27
17 21 27
24 30 39
16 20 25
13 16 21
16 21 27
22 27 35
16 20 26
14 18 23
18 23 29
20 24 31
15 18 23
15 18 24
16 21 27
24 29 37
18 23 29
18 22 29
13 16 20
16 19 25
14 17 21
22 27 35
20 25 32
18 23 29
13 17 23
19 23 30
17 21 27
17 21 28
19 23 30
21 25 32
16 19 24
18 22 28
25 30 38
24 29 38
19 24 32
16 19 25
14 17 22
12 15 19
16 20 27
17 21 27
19 24 31
24 29 37
18 23 29
18 22 28
17 22 28
15 19 25
22 27 34
14 17 22
24 30 39
17 22 28
19 23 30
19 23 29
24 30 39
21 26 34
20 25 32
20 25 32
22 27 36
13 17 23
24 30 40
27 34 43
18 22 29
23 28 35
16 20 25
18 23 29
19 24 31
16 20 26
16 20 25
15 19 25
17 21 28
15 18 24
10 13 17
17 21 28
22 27 34
11 14 19
16 20 26
23 29 37
23 28 36
22 27 35
21 27 35
22 27 35
15 18 23
17 21 27
21 25 32
15 19 24
17 21 28
20 25 32
14 18 23
16 20 25
22 27 35
11 13 17
19 24 31
18 23 29
22 28 36
15 19 25
20 24 31
14 17 22
16 20 26
19 23 30
13 16 21
19 25 32
18 22 29
14 18 24
23 28 36
22 27 35
15 18 24
19 23 29
18 22 29
18 22 29
18 23 29
17 22 30
20 25 32
18 23 30
20 25 32
16 20 26
24 30 39
21 26 34
14 18 24
14 18 24
13 16 21
25 31 40
19 23 30
15 19 24
16 20 25
8 10 12
11 14 17
12 14 18
8 10 13
13 16 20
9 11 15
8 9 12
16 20 25
10 13 16
12 14 18
11 13 16
8 9 12
11 14 18
8 10 12
12 15 18
10 12 15
9 11 14
12 15 19
17 21 27
9 11 14
13 16 20
12 15 19
13 16 21
12 15 20
12 14 18
18 23 29
14 17 22
17 21 28
13 15 19
10 13 16
15 18 23
12 15 19
17 20 26
13 16 20
20 25 32
13 16 20
16 19 25
13 15 19
13 17 22
14 17 22
16 20 26
16 21 27
17 21 26
14 17 23
12 15 19
15 18 24
17 21 28
16 21 27
11 14 18
12 15 19
11 13 17
13 16 21
9 11 15
16 20 26
19 23 30
13 15 19
10 13 16
13 15 19
14 17 21
17 21 27
13 16 21
16 20 26
12 15 18
15 19 25
13 15 20
12 15 19
17 20 26
17 20 26
12 15 19
18 23 29
14 16 21
21 25 32
14 18 23
13 16 21
14 18 23
22 27 34
19 23 30
11 14 18
12 15 19
12 15 19
13 15 19
14 17 22
20 24 30
15 18 23
18 22 29
12 15 19
12 14 17
17 20 26
12 15 19
9 11 15
13 16 20
17 21 28
10 12 16
9 11 14
20 24 32
6 7 9
11 14 17
15 18 24
14 17 22
7 8 11
13 16 20
19 23 29
9 11 14
14 17 21
11 14 17
11 13 16
12 14 18
11 13 17
13 16 20
14 17 21
12 14 18
13 16 20
13 16 21
11 14 18
9 11 14
7 8 10
11 14 18
8 9 12
14 17 23
11 14 17
11 14 18
10 13 16
15 18 23
16 20 25
19 23 29
17 21 27
13 16 21
18 22 29
15 19 26
15 19 24
20 25 33
17 20 26
24 30 38
17 22 29
16 21 27
11 14 19
18 22 29
19 24 31
17 21 27
21 26 34
14 18 23
17 22 28
21 26 34
15 19 25
19 23 29
13 16 21
17 21 27
12 15 19
20 24 31
19 23 30
19 23 29
18 23 29
18 22 29
21 27 35
19 24 31
16 20 25
12 15 20
18 22 29
14 17 21
19 23 30
16 20 26
12 15 19
17 22 28
20 25 33
17 22 28
20 25 31
14 18 23
19 24 31
13 16 21
17 21 26
20 25 33
21 26 33
16 21 27
17 21 28
19 24 30
27 33 42
15 18 24
24 29 38
25 31 40
16 20 26
16 20 25
21 26 33
19 24 30
21 26 34
15 18 23
21 26 34
17 21 28
17 21 27
17 21 27
23 28 37
14 18 24
17 21 27
18 22 29
20 25 33
13 17 22
18 22 29
13 16 20
16 19 25
18 22 28
17 22 28
21 26 34
20 24 31
23 28 36
11 14 19
19 24 31
18 22 29
11 14 18
21 26 34
22 28 36
19 24 32
18 22 28
15 19 24
15 18 24
20 26 34
17 21 27
23 29 37
21 26 34
18 22 28
17 21 28
18 22 29
19 23 29
17 22 29
20 24 32
23 28 36
19 25 32
15 19 24
19 23 30
17 20 26
21 26 33
20 25 32
19 24 31
13 17 22
20 24 32
19 23 30
18 22 29
12 15 20
16 20 26
18 22 29
25 30 38
17 21 28
19 23 30
14 17 22
15 19 24
15 20 26
21 25 31
33 39 47
57 66 78
66 76 90
103 116 136
94 106 124
107 121 141
112 126 146
158 176 205
173 194 225
170 191 221
192 215 249
197 221 255
197 221 255
197 221 255
197 221 255
197 221 255
109 123 144
84 95 113
64 72 85
49 57 68
33 39 48
16 19 25
12 16 20
21 27 35
18 22 28
24 29 36
18 23 29
15 19 24
17 22 28
10 13 17
18 23 30
20 25 32
23 29 37
21 26 34
15 19 25
16 20 26
22 27 35
13 16 20
17 21 26
15 19 24
18 23 29
15 19 25
16 20 26
16 19 25
15 19 24
18 22 28
20 25 32
15 19 24
20 25 32
20 25 33
19 23 31
22 27 35
15 18 24
12 15 20
17 21 26
19 24 30
11 15 20
9 12 16
24 30 38
18 22 29
16 20 25
17 21 26
21 26 33
19 23 30
12 15 19
17 21 27
19 23 30
18 22 28
27 33 43
17 21 27
19 24 30
20 24 31
13 17 23
18 23 30
17 21 27
17 21 28
23 29 38
26 32 42
13 16 21
22 27 34
17 21 28
20 24 31
14 18 23
15 18 24
15 19 26
15 19 24
22 27 34
16 20 26
18 23 30
15 19 24
19 23 31
15 18 23
16 20 25
18 22 28
18 23 30
26 32 40
18 22 29
21 26 34
20 25 33
14 17 23
24 31 40
17 21 27
16 20 27
14 17 22
15 18 24
13 17 23
18 23 30
9 11 14
17 21 27
16 20 26
24 30 38
17 21 28
13 16 21
19 24 31
21 27 35
21 27 35
19 23 29
17 21 26
13 16 21
16 20 26
17 22 28
21 26 34
17 21 27
10 12 16
23 29 37
13 17 22
18 23 29
21 26 33
19 24 32
16 20 26
22 27 35
20 24 31
18 22 29
16 21 27
21 25 32
19 23 30
22 27 34
24 30 38
13 16 21
17 21 28
16 20 26
18 23 30
23 29 38
15 18 23
19 23 29
16 20 25
21 26 34
19 23 31
22 28 36
24 29 38
14 18 24
26 32 41
15 19 25
14 17 23
16 20 25
8 10 13
8 10 13
8 10 13
10 13 16
16 19 24
8 10 13
9 11 14
12 14 18
11 13 17
9 11 15
11 14 17
8 9 12
11 14 18
9 11 14
11 14 17
10 12 16
10 13 17
10 13 17
8 11 14
15 18 23
16 19 24
12 15 19
12 14 18
16 20 25
11 14 18
13 16 21
13 17 22
12 16 21
11 14 18
14 17 21
8 10 13
14 17 22
15 19 24
12 15 19
13 16 20
17 21 27
12 15 18
18 22 29
8 11 14
11 14 18
15 18 23
19 23 29
13 16 21
12 15 19
13 16 21
13 16 21
14 17 22
18 23 30
12 14 18
20 25 33
14 17 23
18 22 28
10 13 16
13 16 21
11 14 18
12 15 19
14 17 22
16 19 24
13 17 22
15 18 23
13 16 21
19 23 29
13 16 21
16 19 24
17 21 26
11 14 18
18 22 27
16 19 24
15 19 24
16 21 27
19 23 30
12 15 19
14 16 21
13 16 20
13 15 20
12 14 18
19 23 29
12 15 20
22 27 34
11 14 18
10 12 15
19 23 30
15 19 24
18 22 28
10 13 17
12 15 18
18 22 28
14 17 22
8 10 12
21 25 32
16 20 26
10 13 17
18 22 28
13 15 20
17 20 26
7 9 12
13 16 21
8 10 13
13 16 21
10 12 16
12 14 18
14 17 22
15 18 23
16 19 24
10 13 16
8 10 13
9 10 13
12 15 19
14 17 22
14 17 21
16 20 26
9 11 14
7 9 12
5 7 9
13 16 21
16 20 26
6 7 10
8 11 14
14 17 22
12 14 19
10 12 16
8 9 12
12 14 17
18 23 30
15 19 25
18 22 28
16 21 27
15 18 23
19 23 30
13 17 22
12 15 19
18 23 30
12 15 20
16 20 26
12 15 20
20 26 34
19 24 31
19 24 32
13 16 20
16 20 26
18 22 28
17 22 29
11 14 18
19 24 31
18 22 29
23 29 38
20 24 31
20 24 31
13 16 21
22 27 35
13 17 22
23 28 36
18 23 30
19 23 30
14 18 23
16 20 26
18 23 29
13 17 22
18 23 29
21 26 33
19 25 32
16 19 25
18 22 29
20 24 31
16 21 27
19 24 32
17 21 27
17 21 27
24 30 40
15 19 25
22 27 35
17 21 27
18 23 29
15 19 24
19 24 31
14 18 23
19 24 31
13 16 20
21 26 33
17 22 29
16 20 26
12 14 19
18 23 29
9 11 14
16 20 26
18 22 28
21 27 35
23 29 37
18 22 30
20 25 32
16 20 26
16 21 27
10 13 17
12 15 20
24 30 39
23 29 37
23 29 37
13 15 19
23 29 37
16 20 25
19 23 29
18 23 30
18 22 28
17 21 27
28 35 45
16 20 26
16 20 26
21 25 33
18 23 29
22 27 35
17 22 28
15 19 24
18 22 29
13 16 21
17 21 28
17 21 27
17 21 27
17 21 27
21 25 33
15 18 22
24 29 38
14 17 22
13 17 22
16 20 26
15 18 24
12 14 18
21 27 35
20 25 33
18 23 29
17 22 28
17 21 28
22 28 36
22 27 34
18 22 29
21 26 34
21 26 34
13 16 20
17 22 28
20 25 33
22 28 36
21 26 33
18 23 29
19 24 31
12 16 21
13 17 22
21 25 33
17 22 28
15 19 24
15 19 24
19 23 30
18 23 30
13 16 20
15 19 26
22 27 35
12 16 20
17 20 26
26 31 38
43 50 59
78 89 105
71 80 95
81 92 107
17 21 27
16 20 25
15 19 25
18 22 29
15 19 25
15 18 23
16 20 25
15 18 24
21 26 34
18 22 28
18 24 31
14 18 23
19 24 31
13 15 19
17 21 27
17 21 27
16 20 26
14 18 23
16 20 25
14 17 22
15 19 25
13 17 22
18 23 29
18 23 30
16 20 25
15 18 24
17 21 26
24 29 38
17 21 27
16 21 27
15 19 24
18 22 28
20 25 32
18 22 28
26 32 42
21 26 34
19 24 31
22 28 35
14 18 23
14 17 22
18 22 28
23 28 36
21 26 34
18 23 29
21 26 34
20 24 32
21 27 35
14 17 21
16 20 25
18 22 27
14 17 22
17 21 26
12 15 20
12 15 19
18 22 28
16 20 26
16 20 25
14 18 22
15 19 25
15 19 25
16 21 27
19 23 29
25 31 40
12 15 20
14 18 23
22 27 35
15 19 25
19 23 28
20 25 32
25 31 41
15 19 24
14 18 23
17 21 29
17 21 27
15 19 25
19 24 32
18 22 29
20 25 32
20 24 32
16 21 28
16 20 26
11 14 18
18 23 29
12 15 19
14 17 22
16 19 25
21 27 35
20 25 32
19 23 30
20 24 31
17 21 28
18 22 29
14 17 23
16 20 26
17 21 27
19 23 30
13 16 21
17 22 28
16 19 25
17 22 29
16 19 25
15 19 25
19 24 30
22 27 34
19 23 29
16 21 27
17 22 29
14 17 22
16 20 26
13 17 22
13 16 21
14 17 22
20 25 32
18 23 29
19 24 31
18 23 30
16 19 25
21 26 35
14 18 23
15 19 24
15 19 24
14 18 23
18 22 28
21 26 34
17 21 27
21 27 35
14 18 23
16 20 26
22 27 35
15 19 25
13 16 21
15 19 26
18 22 29
17 21 28
23 28 36
18 23 29
22 28 36
11 14 18
16 20 26
19 23 29
15 18 23
9 11 14
13 16 20
6 7 10
5 6 8
11 13 18
6 7 9
11 14 18
10 13 16
10 12 16
6 7 9
12 15 19
10 13 16
11 13 17
13 16 20
7 8 11
11 13 16
13 16 20
9 12 15
20 24 30
11 14 19
6 8 10
15 18 22
9 11 14
15 18 22
13 16 20
16 19 24
12 15 19
14 16 21
9 12 16
12 16 20
17 21 27
16 20 25
15 19 24
15 18 23
15 19 24
18 22 29
13 15 19
17 20 26
14 17 22
15 19 24
7 9 13
17 21 27
13 16 20
15 19 25
12 15 19
14 17 21
13 16 21
16 20 25
12 15 19
17 21 26
11 14 18
14 17 21
14 18 24
20 24 30
17 21 27
19 23 29
14 17 22
14 18 23
9 11 14
15 18 23
15 19 24
18 22 28
20 24 31
13 16 21
10 13 16
19 23 30
10 12 16
15 19 24
16 19 25
6 8 10
12 14 18
12 14 18
14 17 21
24 30 38
11 14 18
12 15 19
12 15 20
9 11 15
11 14 18
11 13 16
14 17 22
17 20 26
11 13 17
12 15 19
15 18 23
17 21 26
15 19 24
10 12 16
9 11 14
13 15 20
12 15 19
14 18 23
9 11 15
15 18 22
9 11 15
14 17 22
14 17 22
14 17 22
18 21 27
7 9 11
13 16 21
12 14 18
16 20 25
8 9 11
10 12 15
11 13 17
12 14 18
8 10 14
8 10 12
13 15 19
10 12 16
9 11 14
4 5 6
13 15 20
13 15 20
7 8 10
10 13 17
10 13 16
7 8 10
8 10 13
17 21 27
12 16 21
18 22 28
16 20 26
15 19 25
18 22 28
24 30 39
19 24 30
15 19 24
14 18 23
18 23 30
19 23 30
21 26 34
21 26 34
16 20 26
17 21 27
18 22 29
20 25 33
15 20 26
17 22 28
11 14 18
19 23 29
26 32 41
17 22 28
17 22 28
15 20 26
20 26 34
23 29 37
15 18 23
15 19 25
23 29 38
20 25 32
15 20 26
24 30 38
11 13 17
13 17 22
15 19 24
17 22 28
15 19 26
14 17 23
15 19 24
14 18 24
20 25 32
20 24 30
16 20 26
21 26 33
20 24 31
16 20 26
14 18 23
16 20 25
15 19 25
22 27 36
18 22 29
17 22 28
20 25 32
23 28 36
16 20 26
15 20 26
16 20 26
17 21 27
17 20 25
19 23 30
12 15 19
20 25 32
19 24 31
21 26 34
11 14 18
17 22 28
16 20 26
18 22 30
21 25 33
13 16 21
18 22 28
20 25 33
20 25 32
23 28 36
19 23 30
15 18 24
17 21 27
15 20 26
22 27 35
21 26 34
17 21 27
13 16 21
20 24 31
14 18 23
16 20 26
20 25 32
18 22 28
15 18 23
16 19 25
15 19 26
19 24 32
17 21 28
15 19 25
21 25 32
22 27 36
12 15 20
20 25 32
22 28 35
11 13 17
16 19 25
18 22 29
15 18 24
19 23 30
19 23 30
14 17 23
14 18 23
19 24 30
18 22 28
20 25 33
17 22 28
13 16 21
20 25 32
21 25 32
17 22 29
18 22 29
18 22 28
17 20 25
18 23 30
19 24 31
16 20 25
16 20 26
20 25 31
20 25 32
23 29 37
19 24 30
22 28 36
24 29 38
15 20 26
18 22 28
22 28 36
23 29 36
17 21 27
15 19 25
13 17 22
18 22 28
21 26 34
12 15 20
19 24 31
20 24 31
15 19 25
20 25 32
19 23 29
13 16 20
18 22 28
15 19 24
17 21 26
17 22 28
20 25 32
16 20 26
13 16 20
17 21 27
15 19 24
14 18 23
13 16 21
20 24 30
18 22 29
19 24 31
17 21 28
21 26 34
20 25 32
19 25 32
16 20 26
13 16 21
16 20 26
20 25 32
11 13 18
14 18 23
16 20 27
24 29 38
16 19 25
20 25 32
23 29 37
25 31 40
15 18 23
16 20 25
21 26 34
20 25 34
19 23 29
14 17 23
21 26 33
18 23 29
24 29 38
19 23 30
18 23 29
19 24 30
16 20 26
18 22 29
16 20 27
19 24 30
20 24 32
11 14 18
18 23 30
18 23 29
13 16 21
20 25 32
15 19 24
16 20 27
17 21 28
14 18 23
13 16 21
19 24 31
13 16 21
25 30 39
18 23 29
16 21 27
16 20 26
16 20 25
19 24 31
11 13 17
12 15 19
26 32 41
20 25 32
18 22 28
17 20 26
20 25 32
18 22 28
21 25 32
18 22 29
21 26 33
12 15 20
19 23 30
18 22 29
12 16 21
16 20 27
16 21 27
16 20 26
18 22 28
14 17 22
17 21 27
18 22 30
20 25 32
15 19 25
15 19 26
14 18 23
15 18 24
19 23 30
21 27 35
20 24 31
20 25 31
17 21 27
10 13 18
17 22 29
18 23 30
16 20 26
13 17 22
12 15 19
16 20 27
17 21 28
17 21 27
23 28 36
16 20 26
17 21 27
17 22 29
16 19 25
19 23 30
15 18 23
14 17 22
19 24 31
16 20 27
17 21 28
8 11 14
21 27 35
21 26 34
18 23 29
19 24 30
10 13 17
24 30 39
17 21 28
19 23 30
21 27 35
16 20 26
23 29 38
12 15 20
16 20 25
18 22 29
17 21 26
17 20 25
11 14 18
9 11 14
13 17 22
5 7 8
14 17 21
13 15 19
5 6 8
11 14 18
9 11 15
13 16 20
9 11 14
8 10 13
11 14 18
12 15 20
9 11 14
10 12 16
10 12 16
13 15 19
16 20 25
13 16 21
12 15 19
14 18 23
19 23 29
20 24 30
14 17 22
12 15 19
12 15 19
9 12 16
10 12 16
11 14 17
12 14 18
10 12 15
13 16 21
12 15 19
15 19 25
14 17 22
15 18 23
12 15 20
16 19 25
7 9 12
12 14 18
15 18 23
8 10 13
12 14 17
13 16 20
11 13 17
14 17 22
16 20 25
20 25 32
16 19 24
13 17 21
12 16 21
20 24 30
12 15 19
19 23 29
13 16 20
14 18 23
9 12 15
13 16 21
12 15 20
9 11 14
12 16 21
22 27 34
16 19 25
15 18 24
12 15 19
16 20 26
17 22 28
15 18 23
11 14 17
18 22 28
15 18 24
20 25 31
21 25 32
13 15 19
14 17 22
10 12 15
14 17 21
15 19 25
21 25 32
13 16 21
18 22 28
16 20 25
10 12 16
11 14 18
16 20 26
11 14 17
19 24 30
16 19 23
11 13 16
16 20 25
12 15 20
9 11 14
20 24 30
14 18 24
12 14 18
12 15 18
16 20 25
18 22 28
18 22 28
12 14 18
9 11 14
17 21 27
13 16 20
10 12 16
12 14 18
10 12 16
9 12 15
14 16 21
8 10 13
10 12 15
12 14 18
7 9 12
7 9 11
10 12 15
9 11 15
7 8 11
12 15 19
9 12 15
11 13 16
11 14 18
15 19 26
18 22 28
16 21 27
16 20 26
15 19 24
14 17 22
22 28 36
20 25 32
22 27 35
19 24 31
14 18 23
21 26 34
20 25 33
18 22 29
16 21 27
15 19 25
21 26 34
24 29 37
18 23 30
14 17 22
17 21 28
18 23 29
15 19 24
19 23 30
18 22 28
15 18 24
15 18 24
21 26 34
16 19 25
15 19 25
18 22 28
13 17 22
13 16 21
16 20 25
18 22 29
11 13 17
21 26 34
20 25 33
22 28 37
14 18 24
13 16 21
20 24 30
21 26 34
13 16 21
17 21 28
17 22 28
16 19 25
20 25 33
15 18 23
16 20 26
20 25 32
17 21 27
15 19 24
16 20 25
23 28 37
25 31 40
14 17 22
17 21 28
9 12 16
21 25 32
17 21 28
22 28 36
18 22 29
18 23 29
18 23 30
16 19 25
19 23 30
22 27 35
16 20 26
11 13 17
11 14 18
20 25 32
19 23 31
16 20 25
13 17 22
16 21 27
21 26 33
19 23 31
17 22 28
22 27 35
17 22 28
15 19 25
13 16 21
14 18 23
18 22 28
20 25 33
25 30 38
17 21 28
16 19 25
26 32 40
16 20 27
18 23 30
21 26 33
15 18 23
15 19 24
16 19 25
23 29 38
20 24 31
19 24 31
17 21 27
20 26 34
19 24 30
12 15 20
17 20 26
16 20 26
18 22 29
26 32 41
12 15 19
15 19 24
13 16 21
20 26 33
18 22 29
17 22 29
12 16 21
23 28 36
11 14 18
17 22 28
12 16 21
16 20 26
14 17 21
17 21 26
14 17 21
13 16 21
26 32 41
17 20 26
8 10 13
14 17 23
13 17 21
19 24 31
17 21 27
18 23 29
16 20 26
17 22 28
13 16 21
21 26 34
17 22 28
21 26 34
9 12 15
18 22 28
16 20 26
13 17 22
19 23 30
20 24 31
18 22 29
16 20 25
17 21 28
24 30 38
18 23 30
15 19 25
18 23 29
15 19 25
14 17 22
19 24 31
15 19 25
26 32 42
19 24 31
13 16 21
18 22 28
15 18 24
18 22 28
22 27 34
17 21 28
23 28 37
17 21 27
15 19 24
17 21 28
14 17 23
21 26 33
14 17 22
21 26 34
22 26 34
19 24 31
23 28 36
17 21 27
14 17 23
18 23 30
15 18 23
18 22 28
19 23 30
22 27 34
22 27 35
25 30 39
16 21 27
18 23 30
16 20 26
17 21 27
14 18 22
18 23 29
16 19 24
21 26 35
20 25 32
20 25 31
15 19 26
21 26 33
14 17 23
20 25 33
19 23 30
15 19 25
20 25 32
15 19 24
15 19 24
21 26 33
14 17 23
22 27 36
16 20 26
9 11 15
13 16 20
20 24 31
17 21 28
22 27 35
20 25 32
23 28 37
15 19 25
12 15 20
11 14 18
19 24 32
19 24 31
21 27 36
15 19 25
17 22 28
13 16 21
16 20 26
14 18 24
20 25 33
19 23 30
20 25 32
16 20 26
14 17 22
19 23 30
16 20 25
16 21 27
15 19 26
18 22 29
24 30 38
20 24 31
15 18 24
13 17 22
19 24 31
22 27 36
19 23 29
16 20 25
14 17 23
11 13 17
17 22 29
15 19 25
21 26 34
19 23 29
11 14 18
15 18 23
16 21 27
15 19 24
16 20 27
19 25 33
14 17 23
16 20 27
21 26 34
18 23 30
19 23 30
22 27 36
16 19 25
16 20 25
11 14 18
15 19 24
21 26 33
12 15 20
13 16 21
12 14 18
17 21 28
15 19 25
20 25 33
21 26 33
20 24 31
19 23 30
14 17 22
20 25 33
21 27 35
15 19 25
15 19 24
17 21 27
11 14 18
10 12 16
11 14 18
8 10 13
10 13 16
10 12 15
11 13 16
8 10 12
8 10 12
13 16 20
12 15 19
8 10 12
10 13 16
4 5 7
8 10 13
8 10 13
8 10 13
8 10 13
6 8 10
14 17 21
9 11 15
14 17 21
13 15 20
12 14 18
14 17 22
8 11 14
9 11 14
8 10 12
12 15 20
10 12 16
12 14 19
13 16 20
10 13 16
13 15 19
13 16 20
12 15 18
13 16 20
11 14 19
17 20 26
11 13 17
19 23 29
15 18 23
17 20 25
15 19 24
15 19 25
18 21 27
17 21 27
20 25 33
15 18 23
11 13 17
16 20 26
18 22 29
14 17 22
11 14 18
16 19 25
19 24 31
11 13 17
17 20 25
15 17 21
15 19 24
18 22 28
12 14 18
18 23 29
15 19 24
19 23 29
13 15 19
15 18 24
11 14 18
13 17 21
17 20 26
17 21 27
13 16 20
17 20 25
12 15 19
19 23 29
10 13 16
17 21 27
19 23 30
16 20 26
11 13 17
14 18 22
15 19 25
13 16 20
12 14 18
18 23 29
17 21 27
11 14 18
12 15 20
12 15 19
13 15 20
11 13 17
14 17 22
12 15 19
16 19 24
16 19 25
9 12 16
18 22 29
9 11 14
13 16 20
12 16 20
8 10 12
10 13 17
12 14 17
12 14 19
8 10 13
9 11 15
10 12 16
10 12 16
13 15 19
9 12 15
6 8 10
9 11 15
10 13 16
7 9 11
7 9 11
3 3 5
11 13 17
12 14 18
10 13 16
11 14 18
19 24 31
16 20 25
14 18 23
14 18 23
20 25 32
18 22 29
18 23 29
15 20 26
10 13 17
19 24 31
15 19 25
24 29 38
16 19 25
24 30 39
16 19 25
18 23 30
21 26 34
16 19 25
20 25 33
17 21 27
18 22 28
20 25 32
16 20 27
17 21 28
24 30 38
23 29 38
13 17 22
22 28 36
15 18 22
14 18 23
20 25 33
21 26 33
19 24 30
19 23 31
18 22 29
23 29 37
17 21 26
15 18 24
19 24 31
23 28 37
15 19 24
19 24 31
19 23 30
16 19 24
22 27 35
20 25 32
17 21 27
18 23 29
20 24 31
14 18 24
22 28 36
19 24 31
18 23 30
11 15 19
17 22 28
14 18 23
16 19 25
16 21 27
15 19 24
14 18 23
21 25 32
19 23 30
21 27 35
18 23 30
14 18 24
19 23 31
18 22 28
19 23 30
22 28 37
14 17 23
16 20 26
14 17 21
13 16 20
15 19 25
18 22 29
19 24 31
14 17 22
18 22 28
23 29 37
16 19 25
13 16 21
18 23 29
17 22 29
16 20 25
16 20 27
19 24 32
13 16 20
20 25 32
15 19 25
17 21 28
14 17 22
19 24 30
21 25 32
17 21 27
12 15 20
18 23 30
17 21 27
14 17 22
17 21 27
15 19 24
15 19 25
22 28 36
18 23 30
21 25 32
15 19 24
18 22 28
15 18 24
14 17 22
20 25 32
19 23 30
14 17 22
18 22 28
10 13 17
19 24 31
15 19 25
21 26 33
19 24 31
20 25 32
17 22 28
17 22 28
12 15 19
11 14 18
21 26 34
16 21 28
18 22 29
14 18 23
11 14 18
20 25 32
16 21 28
26 33 42
17 21 27
14 17 22
17 21 27
14 17 23
16 20 25
17 22 28
19 24 31
17 21 27
14 18 23
18 23 31
20 25 32
23 29 38
14 17 23
18 22 28
17 21 27
16 20 26
22 28 35
20 25 33
18 23 30
14 18 24
19 24 30
16 20 26
25 32 42
18 23 30
14 18 23
19 23 29
15 19 25
13 16 20
15 19 26
16 20 26
20 25 32
15 19 25
16 20 25
17 22 29
17 21 28
15 18 24
15 19 25
11 13 17
11 13 18
18 22 28
16 21 28
19 24 32
23 28 37
18 22 29
13 17 22
12 15 19
19 24 31
20 24 31
15 19 25
16 20 25
14 16 21
25 30 39
18 22 28
15 19 26
18 22 28
19 23 29
15 18 23
13 16 20
14 18 23
17 21 27
17 20 26
20 25 33
15 19 25
18 22 30
19 24 30
12 16 21
15 19 25
10 13 17
19 23 29
22 27 35
16 20 25
20 24 31
19 23 30
12 15 19
17 22 29
16 20 26
11 14 18
20 25 32
21 26 34
18 23 30
18 22 29
13 17 23
17 21 27
19 23 29
12 14 19
18 23 30
24 29 38
16 21 27
18 22 29
18 22 29
18 22 29
14 18 23
28 35 45
13 16 21
23 28 36
18 22 29
16 20 26
20 26 34
21 26 33
18 23 29
16 19 25
13 16 20
18 22 29
22 27 35
15 19 26
22 26 33
18 23 29
13 16 22
17 21 28
18 22 29
24 30 38
15 18 24
22 27 35
24 30 39
20 24 31
14 17 23
11 14 18
22 27 35
17 21 27
17 22 28
19 24 31
13 16 21
19 24 31
19 25 33
13 16 20
19 23 30
16 20 26
23 28 37
15 18 23
21 26 34
11 14 19
23 28 36
16 19 25
18 23 30
22 27 35
20 25 32
15 20 26
22 27 36
16 20 27
17 22 29
17 22 29
16 20 25
14 18 23
15 18 24
19 24 31
15 19 25
15 19 24
15 19 26
15 18 23
16 20 27
13 17 21
18 21 27
9 11 14
11 14 18
9 11 14
9 11 14
10 12 16
13 16 20
9 11 14
8 10 13
4 5 6
9 11 15
9 11 15
15 18 23
17 20 25
14 17 21
8 10 14
10 12 15
14 18 23
13 16 20
9 11 14
11 13 17
10 12 16
12 15 20
10 13 17
8 11 14
10 12 16
11 14 17
10 12 15
11 14 18
7 8 10
9 12 15
13 16 20
12 14 18
9 11 14
16 20 25
5 7 9
13 16 21
10 12 16
17 20 25
16 20 25
10 12 16
12 14 18
11 14 19
13 16 21
13 17 22
18 22 28
15 19 24
11 14 18
14 17 22
10 12 16
17 21 27
11 14 18
17 20 25
15 19 24
17 21 27
14 17 21
17 20 26
14 17 21
16 20 26
13 15 19
23 27 34
12 15 19
8 10 13
19 23 30
14 18 23
17 21 28
13 16 20
13 16 21
13 16 20
14 17 21
12 14 18
14 17 21
10 12 16
19 24 30
18 21 27
11 13 17
13 17 22
19 23 29
15 19 24
11 14 18
11 13 17
10 13 17
12 14 18
14 18 23
18 21 27
15 18 23
14 17 22
10 13 17
8 10 13
15 18 23
7 8 11
11 13 16
8 9 12
10 12 15
14 17 22
13 16 20
7 8 11
12 15 20
8 10 13
12 14 18
20 24 31
11 13 17
7 9 12
8 10 12
7 8 11
12 14 18
11 13 17
8 10 13
9 11 14
12 14 18
10 12 15
9 10 13
8 10 12
10 12 16
10 12 15
14 17 23
10 12 16
7 9 12
11 13 16
19 24 32
11 14 18
21 26 34
17 21 28
12 15 19
18 24 31
18 22 28
15 18 24
10 12 16
15 19 25
11 14 18
14 17 23
23 28 37
14 17 23
13 17 22
19 24 31
18 23 30
14 17 21
15 18 24
18 23 29
15 19 24
17 22 29
19 24 31
14 17 23
22 28 36
16 20 25
19 24 31
15 19 24
13 17 22
24 30 39
23 29 37
18 22 28
17 21 28
15 19 24
21 27 35
18 22 28
17 21 27
12 15 19
17 21 27
19 24 32
12 15 19
17 21 27
15 19 25
18 22 29
8 10 14
16 20 26
12 15 19
13 16 21
19 23 30
17 21 27
15 19 26
14 17 22
15 19 25
18 22 29
19 24 31
13 17 22
14 17 23
15 19 24
19 24 32
17 21 27
12 16 21
16 20 26
16 20 27
15 19 24
19 23 30
21 26 33
19 24 31
11 13 17
22 28 36
20 25 33
12 16 21
16 20 26
25 30 39
15 19 24
21 26 34
23 28 37
15 18 23
19 23 29
16 20 26
23 29 38
17 22 28
17 21 26
14 17 23
23 28 36
21 26 33
16 20 25
16 19 25
15 19 24
16 20 26
16 20 26
14 18 24
12 15 19
14 18 23
10 13 16
15 19 25
15 19 24
16 20 26
17 21 27
16 20 26
21 26 34
19 24 31
17 20 26
11 13 17
18 22 29
19 23 30
16 21 27
16 20 26
17 21 26
19 23 29
22 27 35
17 22 28
16 21 27
15 18 24
16 20 26
20 25 33
17 22 29
19 23 29
15 19 25
17 21 27
22 27 35
16 20 25
18 22 28
18 22 28
21 25 32
17 21 28
20 25 32
18 23 30
15 19 25
22 27 35
15 18 24
15 18 24
13 16 21
15 19 25
18 22 29
14 17 22
20 25 33
17 21 27
16 20 27
15 19 25
21 26 35
17 21 28
13 17 22
11 14 19
22 27 35
17 22 29
12 15 19
16 20 26
20 25 32
16 19 24
15 19 25
20 25 33
21 27 35
12 15 19
13 17 22
17 21 27
15 19 24
20 25 33
18 22 28
13 17 22
21 26 34
18 22 29
13 17 22
14 18 24
12 14 18
21 26 33
17 21 27
15 19 26
14 17 21
17 21 27
18 23 29
16 20 27
16 20 26
10 13 17
19 24 31
23 29 37
18 22 29
22 27 35
19 23 30
16 21 27
22 27 35
13 17 23
15 18 23
16 19 25
13 16 21
13 17 22
17 21 28
16 20 26
20 25 32
10 13 17
15 19 24
18 22 28
21 26 34
21 26 34
18 22 29
20 25 31
15 19 25
14 18 23
18 23 30
18 22 28
21 25 32
19 23 30
14 18 23
14 18 23
14 17 22
21 26 34
21 26 34
16 20 26
18 23 29
13 16 21
22 28 36
16 20 26
19 23 31
22 27 36
20 25 33
16 20 27
20 25 34
18 23 29
26 33 43
19 24 31
18 22 29
17 21 27
21 26 34
11 13 17
23 29 38
18 22 29
16 20 26
18 22 29
13 15 20
18 22 29
17 21 27
19 23 30
13 17 22
14 17 21
13 16 21
12 15 19
12 16 20
18 22 29
21 26 33
14 17 23
24 30 38
22 27 34
20 24 31
11 14 18
14 18 23
14 17 23
16 20 26
14 18 24
15 19 25
9 12 15
12 15 20
18 21 27
26 32 41
19 23 30
18 21 27
16 19 25
17 22 29
20 25 32
17 21 27
16 20 25
17 21 27
17 21 27
23 29 38
18 22 29
15 19 24
14 18 23
20 25 32
10 13 17
16 19 24
18 23 30
14 18 23
19 24 32
14 18 25
21 26 33
15 18 24
17 22 28
10 13 17
14 17 23
19 24 31
15 18 24
8 10 13
20 24 31
9 11 15
7 9 12
8 10 14
15 18 22
11 14 18
10 12 16
9 12 15
9 11 15
11 13 17
8 10 13
12 15 20
10 12 16
9 11 15
13 16 20
8 10 12
4 5 7
14 17 22
10 13 17
15 17 22
10 12 15
12 14 18
9 11 15
11 14 18
10 12 15
11 14 18
13 16 21
7 9 11
10 12 15
11 13 18
10 12 15
14 17 21
11 14 17
14 17 22
11 13 16
12 15 20
10 13 16
11 14 18
8 10 14
14 17 22
21 25 32
12 15 20
15 18 24
13 16 21
17 21 27
11 14 17
16 20 25
14 18 23
8 10 13
14 17 22
12 15 19
11 13 17
15 19 24
13 16 20
18 22 27
17 20 25
17 21 26
16 19 24
10 12 15
13 17 22
17 20 26
10 12 15
16 19 25
12 15 20
14 17 22
15 18 23
13 16 21
13 16 20
18 22 29
18 22 27
16 20 26
12 15 20
8 11 14
11 14 17
16 20 26
11 13 17
9 11 14
14 18 23
22 27 34
10 13 17
12 14 19
8 10 12
12 15 19
9 12 15
14 17 23
18 22 28
13 15 20
9 11 14
16 19 24
10 12 16
11 14 18
14 17 22
9 12 15
8 10 12
16 20 25
13 17 21
14 17 22
14 17 21
5 6 8
12 15 19
10 12 15
9 11 14
12 15 18
8 10 13
11 13 16
10 12 16
7 9 12
6 7 9
9 11 14
10 12 16
11 13 16
11 14 17
9 11 14
6 7 10
6 8 10
16 20 25
7 9 11
12 15 20
10 12 15
16 20 27
11 14 18
19 23 30
15 19 25
14 17 22
23 29 38
20 25 33
17 20 26
18 23 30
18 22 29
12 15 19
17 21 28
16 20 25
22 28 35
18 22 28
15 18 24
15 18 24
15 19 25
15 19 25
16 19 25
18 23 30
18 22 29
21 26 34
15 19 25
12 15 20
19 24 30
16 21 27
17 22 28
20 24 30
18 23 30
20 24 31
21 26 34
14 18 23
17 21 27
14 18 24
12 15 19
17 21 28
19 24 31
21 26 34
22 28 36
17 22 28
18 22 29
14 18 24
18 22 28
18 22 29
16 20 25
19 23 30
17 22 28
20 25 33
16 20 26
17 22 28
13 16 20
14 18 23
22 27 35
20 24 31
13 17 22
18 22 29
18 23 30
20 25 32
16 20 26
11 14 18
23 28 37
14 18 23
19 24 30
24 29 38
19 23 30
19 24 32
17 21 28
16 20 25
20 25 32
18 22 28
17 22 29
20 25 32
16 20 27
16 20 26
16 20 26
10 13 16
17 21 27
16 21 27
18 22 29
20 24 31
20 24 31
13 16 20
14 18 23
20 25 33
18 23 30
21 27 34
20 25 32
22 27 35
20 25 33
20 25 32
20 25 32
20 25 33
17 21 27
12 15 20
15 19 24
16 20 26
12 15 20
21 26 33
17 21 26
18 22 28
16 20 26
23 28 36
21 26 33
15 18 24
18 23 30
18 22 29
18 23 30
16 19 25
16 20 26
16 20 26
22 27 35
16 20 26
19 24 31
22 26 34
16 21 28
13 17 21
12 15 19
11 13 17
8 11 14
18 23 30
19 24 30
19 24 31
19 23 30
20 25 33
24 30 39
18 22 30
16 20 26
19 23 31
16 19 25
17 21 26
19 24 32
25 31 41
18 22 29
19 24 32
14 17 22
13 17 22
12 15 19
17 21 27
14 18 24
20 25 32
17 22 28
19 24 32
15 18 24
16 20 27
10 12 16
21 26 33
22 28 37
17 21 27
17 22 28
27 33 42
18 22 29
17 21 27
10 13 17
15 19 25
16 20 26
16 20 25
19 23 30
18 22 28
21 26 34
19 24 30
17 21 27
16 20 26
18 23 29
13 16 21
18 21 27
20 25 33
18 22 29
15 19 24
16 20 26
15 19 25
13 17 21
21 26 34
16 20 25
9 11 15
18 22 29
16 21 27
19 24 31
13 17 22
16 20 26
17 21 28
16 21 27
24 30 39
17 21 27
14 18 24
17 21 27
15 18 24
19 24 30
10 13 17
19 23 30
13 17 22
19 24 31
13 16 21
16 20 26
24 30 39
15 18 23
14 17 22
16 20 26
18 22 29
16 19 25
21 26 34
17 21 28
16 20 25
22 27 35
17 21 27
19 24 32
16 19 24
20 24 31
15 19 24
18 23 29
19 23 29
17 21 28
18 22 29
15 19 24
17 20 26
23 29 38
20 25 32
24 31 40
19 24 31
15 19 24
12 15 19
12 15 20
15 19 24
16 20 25
14 18 23
12 14 18
11 15 19
14 17 23
15 19 25
17 21 26
11 14 19
14 18 23
20 24 31
15 19 24
17 21 27
17 21 27
13 17 22
17 22 28
22 27 35
16 20 26
19 24 30
21 26 34
17 21 27
22 28 37
13 16 22
15 19 25
18 23 29
19 24 31
16 20 26
15 18 24
14 18 24
16 20 26
22 27 35
14 17 22
19 23 29
23 29 38
12 15 20
20 25 32
13 16 21
16 19 25
20 24 31
17 22 28
20 25 33
14 17 22
14 17 22
19 24 31
12 15 20
25 32 42
16 20 26
21 27 35
20 25 32
12 15 19
17 21 27
14 18 24
15 18 24
10 13 18
16 20 25
16 20 26
11 14 18
14 17 22
18 22 28
21 27 35
13 15 19
11 14 19
14 17 22
16 20 25
7 9 11
8 10 13
6 8 10
9 11 15
9 11 14
16 20 25
10 12 16
12 14 18
9 11 14
10 13 16
9 12 15
12 14 19
13 16 21
6 8 10
10 13 16
10 12 15
7 9 11
8 10 14
11 13 17
12 14 18
11 14 18
14 17 22
13 16 21
16 19 24
8 10 13
15 19 24
7 8 10
9 11 14
11 14 17
11 14 18
18 22 27
20 25 32
12 15 18
16 20 25
10 12 15
16 20 25
13 15 20
18 22 28
11 13 17
14 17 21
11 14 18
14 17 22
15 19 24
13 15 20
12 14 18
19 24 31
14 17 21
10 13 18
14 17 21
16 20 26
17 21 26
17 21 27
13 17 21
14 17 22
14 17 22
16 20 26
15 18 23
17 21 27
15 18 23
12 15 19
13 15 19
15 18 24
12 15 18
9 12 15
11 13 17
13 16 21
11 13 17
12 15 19
17 21 27
20 24 31
16 19 25
12 14 18
14 17 22
15 18 23
12 15 19
14 17 22
14 17 22
9 11 14
12 14 18
18 22 28
16 20 25
13 15 20
19 22 28
11 13 16
9 11 14
10 13 17
13 16 21
13 16 21
15 18 24
8 10 13
11 13 17
10 12 16
11 14 18
7 8 11
9 11 15
9 11 14
8 10 12
7 9 11
8 11 14
9 11 14
11 13 17
6 7 9
10 12 16
8 9 11
11 13 16
5 6 7
12 14 18
11 13 16
8 9 11
12 15 19
8 10 13
10 13 16
9 10 13
9 11 14
15 19 24
17 22 28
15 19 24
13 16 22
15 19 25
14 17 21
20 26 34
14 17 23
19 24 32
15 18 23
14 18 23
15 19 24
17 20 26
21 26 34
19 24 32
16 19 25
14 18 22
21 25 33
17 21 27
14 17 22
14 17 23
16 19 24
16 20 26
14 18 24
20 25 33
20 25 32
16 20 27
14 18 22
17 21 28
17 21 28
15 18 24
14 18 23
16 20 26
11 14 18
16 20 25
15 19 25
15 18 24
16 19 25
15 19 24
14 18 24
22 28 37
16 20 26
11 14 19
16 19 24
14 18 24
20 25 32
12 15 20
15 19 25
19 23 30
23 28 37
16 19 24
13 17 22
19 24 31
16 20 27
15 19 24
13 16 21
16 20 25
17 21 26
19 23 30
18 22 28
12 15 20
18 23 29
20 25 32
16 20 26
13 17 22
17 22 28
18 22 29
20 25 32
17 21 27
17 20 26
14 17 22
9 11 15
21 26 34
18 22 29
15 19 24
15 19 25
15 18 24
20 25 32
10 12 16
17 21 27
14 18 23
15 18 23
19 23 30
17 21 28
14 18 24
21 26 34
15 18 24
19 24 31
17 21 27
16 21 27
18 23 31
21 25 33
20 25 33
23 28 36
22 28 36
16 20 26
15 19 25
14 16 21
13 15 20
21 26 33
16 19 24
19 23 30
24 30 39
20 25 33
11 13 17
19 24 31
17 22 28
23 28 36
17 22 29
20 24 31
20 25 33
15 19 25
25 31 40
20 25 33
17 21 28
15 19 24
18 22 29
18 22 28
18 22 29
18 22 29
23 28 35
20 24 31
12 16 21
18 22 29
18 23 30
14 18 23
16 20 26
18 22 29
15 19 24
21 26 34
17 21 27
15 20 26
14 17 22
19 24 31
21 26 34
19 23 29
21 26 33
18 22 29
20 24 31
15 19 25
18 23 29
13 17 22
19 24 31
15 19 25
15 19 24
14 17 21
19 24 31
19 24 30
17 21 27
16 20 26
16 19 25
18 23 29
14 17 21
16 20 26
18 23 29
18 23 30
17 21 28
20 26 34
18 23 30
22 27 35
15 19 25
20 25 33
18 22 29
15 19 25
17 21 27
17 21 28
18 22 28
11 13 17
17 22 28
18 22 28
21 27 34
16 20 25
12 15 19
12 16 21
21 26 33
17 22 29
18 23 30
17 20 26
18 23 31
16 19 25
22 27 35
18 23 29
16 21 27
17 21 26
18 22 28
16 21 27
16 20 26
22 28 37
19 23 30
14 18 23
18 23 30
16 21 27
17 21 27
13 16 21
12 15 20
13 16 21
16 21 28
15 18 23
16 19 25
15 18 23
22 27 35
19 24 31
12 15 20
18 22 29
19 23 30
12 16 21
25 31 41
16 21 27
21 27 35
10 12 15
16 19 24
17 22 28
17 22 29
13 17 22
14 18 23
18 22 29
16 19 25
21 25 32
15 19 24
15 19 25
15 19 25
18 22 29
19 24 31
18 23 30
20 25 32
17 22 28
18 23 29
22 28 36
12 15 20
13 16 22
17 21 27
23 29 37
14 18 24
16 20 25
13 16 21
16 20 25
16 20 26
19 23 30
15 19 25
18 22 29
21 26 34
16 19 25
17 21 28
18 22 28
19 24 31
19 23 30
16 19 24
20 25 32
19 24 31
18 22 28
15 18 23
19 24 32
18 22 28
14 18 23
17 21 28
12 16 21
17 21 28
21 26 33
17 22 28
19 24 31
14 18 24
18 22 29
21 26 33
13 16 21
16 20 26
18 23 29
15 19 25
13 16 22
18 22 29
18 22 29
14 17 21
14 17 21
14 18 24
12 16 21
14 17 22
24 29 38
21 26 35
16 20 26
16 20 26
16 20 26
17 21 27
16 20 26
19 23 30
14 17 22
15 18 23
3 4 5
12 15 19
13 16 20
10 13 17
9 11 14
6 8 10
13 16 20
6 8 11
12 15 19
8 10 13
7 9 11
7 9 11
11 13 17
11 13 15
6 8 10
15 19 24
10 12 16
16 19 24
9 12 15
15 17 22
13 16 21
14 17 22
13 15 19
10 13 17
7 9 12
17 21 27
13 16 20
9 11 15
14 17 23
12 15 19
15 19 24
17 21 27
12 15 20
8 10 13
11 13 17
11 13 17
6 7 9
11 14 18
13 16 21
10 12 15
13 16 21
9 11 14
18 22 28
11 13 16
15 18 22
14 17 21
12 15 20
13 16 19
18 21 27
16 20 25
15 18 23
9 11 14
14 18 23
12 15 19
11 14 18
15 18 23
14 18 23
16 20 25
10 12 16
13 16 21
12 15 20
11 13 17
11 14 18
16 20 25
9 11 14
16 20 25
13 16 20
21 25 32
13 16 21
14 17 21
13 15 20
14 17 21
10 13 17
13 17 22
14 17 22
17 20 25
13 15 20
11 14 18
9 11 14
16 20 26
11 14 18
10 13 17
13 16 21
15 18 24
8 10 12
10 13 18
9 11 14
11 14 17
9 12 15
12 15 19
13 17 22
11 14 18
15 18 22
11 14 18
12 15 19
9 10 13
10 12 16
13 15 20
9 12 15
10 13 16
9 11 15
9 11 14
12 14 18
9 11 13
6 7 9
7 8 10
11 14 17
8 10 12
6 7 9
14 17 22
7 9 12
12 15 20
8 9 12
13 16 21
17 21 28
19 24 31
22 28 36
20 25 33
21 27 35
20 25 32
19 24 32
13 16 21
20 25 32
21 26 34
17 21 27
18 22 28
16 21 27
15 18 24
16 20 27
19 24 31
16 20 25
16 20 25
15 19 25
17 21 27
17 21 27
21 26 33
21 26 33
13 17 22
18 23 31
16 21 27
16 20 26
13 17 22
15 19 25
16 20 26
18 23 30
11 14 19
17 21 27
16 20 26
12 14 18
21 26 34
17 21 28
13 16 20
13 16 20
17 21 27
19 23 30
21 26 34
14 17 23
14 17 22
13 17 22
19 23 30
19 24 31
20 25 33
13 17 22
21 26 34
16 20 26
11 14 18
13 16 20
14 17 22
21 27 35
15 18 24
16 20 27
17 21 27
15 19 23
13 16 21
20 25 33
14 18 23
17 22 28
16 20 27
16 19 24
17 22 28
25 32 42
15 18 24
17 21 28
20 25 33
15 20 26
14 18 24
19 23 31
14 17 22
17 21 28
21 26 33
17 21 27
14 17 22
17 21 27
20 25 32
15 19 25
24 29 36
14 17 22
21 26 34
19 23 31
23 29 37
15 19 25
10 13 17
17 21 28
22 28 36
20 25 33
17 22 29
13 16 20
26 32 41
31 38 48
18 22 28
17 21 28
20 25 32
14 18 23
22 27 34
21 26 34
20 25 32
15 19 25
20 25 32
16 20 26
17 21 28
15 18 24
14 18 23
16 20 25
13 17 22
18 23 29
20 25 33
14 16 21
24 30 39
14 18 23
14 18 23
19 24 31
9 12 15
15 18 24
19 24 31
14 18 24
19 23 30
13 16 21
20 25 33
19 24 31
14 18 23
18 23 30
19 24 30
16 20 26
12 15 20
13 16 20
20 25 33
19 24 31
19 24 31
17 21 27
14 18 24
17 21 27
19 23 30
24 30 38
18 22 29
18 22 29
17 21 26
19 23 30
17 21 28
13 17 23
19 24 32
20 25 32
16 20 26
24 30 39
19 24 30
15 18 23
18 22 29
17 21 28
18 22 28
18 22 29
13 17 22
18 23 30
15 18 23
17 21 27
14 18 24
17 22 29
20 24 31
16 20 25
18 22 28
15 19 26
16 20 27
16 20 26
16 20 26
20 25 33
17 21 28
20 25 34
18 22 28
16 19 25
20 25 32
13 16 21
25 30 38
14 18 25
19 24 31
20 24 31
17 21 28
12 15 20
24 30 39
19 24 30
20 25 32
18 22 28
15 19 25
10 12 16
17 21 27
21 26 34
20 25 33
19 25 33
16 20 26
19 24 30
20 24 31
24 30 39
20 25 32
14 17 23
21 26 35
16 20 27
19 23 30
17 21 26
12 15 20
14 18 23
18 22 28
17 21 29
22 28 36
17 21 27
19 24 31
10 12 16
18 23 29
15 18 23
21 27 35
13 16 21
19 23 29
12 16 21
14 18 24
11 14 19
15 19 25
12 15 19
14 18 22
18 23 30
21 27 35
16 21 27
17 22 29
14 18 23
21 25 32
11 14 18
11 14 19
17 21 28
17 21 28
23 28 35
14 17 22
16 20 26
14 17 22
11 14 18
17 21 27
14 17 22
15 18 23
12 15 20
13 17 22
23 29 37
15 18 24
20 26 34
17 21 27
17 22 28
10 13 17
13 17 22
17 21 27
18 22 29
16 20 26
15 19 25
19 24 31
14 17 22
15 19 24
17 21 28
14 17 22
15 19 25
15 19 24
20 25 33
21 27 34
18 23 29
16 20 26
16 20 26
16 21 27
20 25 33
18 22 28
15 18 24
17 21 28
23 28 37
15 18 24
19 23 29
14 17 23
19 23 30
13 16 21
9 12 15
16 20 26
11 14 19
15 18 24
16 19 25
19 25 32
12 15 20
21 27 34
12 15 19
16 20 26
10 13 17
9 11 14
11 13 16
19 23 29
9 11 14
12 14 18
10 13 17
7 9 12
13 15 20
13 16 20
8 9 12
9 11 14
9 11 14
7 9 11
9 11 14
7 8 11
12 15 18
10 13 16
5 6 8
9 11 14
11 13 17
18 21 27
18 21 27
15 19 24
15 19 24
13 15 19
17 21 27
7 8 10
14 17 21
11 13 17
14 17 22
12 15 20
8 11 14
12 14 18
18 21 26
12 14 18
11 14 17
13 16 21
18 21 26
10 13 16
10 13 16
21 26 34
17 20 26
14 18 23
10 13 16
12 15 20
11 14 18
13 16 19
12 15 19
17 21 27
16 20 26
15 19 23
11 14 18
13 16 21
14 18 23
10 13 17
16 19 25
15 19 24
11 14 18
14 17 22
11 14 18
19 23 29
17 21 27
13 16 20
15 18 23
15 18 23
16 20 26
10 12 16
10 12 16
14 17 22
14 17 21
14 17 23
11 13 18
12 15 20
14 18 23
12 15 19
11 13 16
13 16 21
12 14 18
19 23 29
13 16 20
13 16 20
15 18 24
14 17 21
9 10 13
9 11 14
13 16 20
14 17 21
11 14 18
11 13 17
14 18 22
15 18 22
12 15 19
13 16 21
11 14 18
11 14 18
13 16 21
12 15 19
6 7 9
8 10 13
7 9 12
13 16 20
9 11 15
9 11 14
9 12 15
7 9 11
7 9 12
8 10 12
8 10 12
9 11 14
9 11 13
7 9 12
12 14 18
12 15 18
13 16 20
17 21 27
14 17 23
20 25 32
18 23 30
18 22 28
16 19 25
17 21 27
11 14 18
14 17 23
18 23 29
14 17 22
12 15 20
11 14 19
19 24 31
19 24 31
13 17 22
15 18 24
19 24 31
15 19 25
17 21 28
20 25 33
15 19 24
14 17 22
17 21 27
13 16 21
14 18 24
22 27 35
16 20 25
20 24 31
24 30 39
15 19 25
15 19 25
16 20 25
19 23 30
22 27 35
9 12 15
13 17 22
17 21 27
15 18 24
15 18 23
18 22 29
13 16 21
17 21 27
20 24 31
15 19 24
11 14 19
22 28 37
16 20 26
22 27 35
17 21 28
18 22 29
13 16 21
15 19 26
16 20 26
23 29 38
16 20 26
19 23 30
14 18 23
22 27 35
14 18 23
18 23 30
19 24 30
19 24 31
14 18 24
13 16 22
14 17 23
16 20 26
28 34 43
17 22 29
13 16 21
17 21 28
23 28 36
17 21 27
17 22 29
18 23 30
10 12 16
13 16 22
12 16 20
15 19 25
17 21 28
17 22 28
17 22 28
20 25 31
19 24 32
9 12 15
25 31 41
24 30 38
15 19 25
22 28 36
20 24 31
21 27 35
17 21 27
18 22 29
14 18 23
17 21 27
19 24 31
15 18 24
17 22 28
18 22 28
15 19 25
14 18 23
19 24 31
19 23 30
20 25 32
15 19 25
17 22 28
17 21 27
15 19 24
18 23 31
16 20 26
15 19 25
16 19 24
16 19 25
17 21 26
18 22 28
18 22 28
12 14 19
13 16 21
15 19 26
16 20 26
19 24 31
15 18 23
19 24 30
20 25 33
19 24 31
14 18 24
15 19 25
19 24 31
16 20 26
16 20 25
19 23 30
18 23 29
12 15 20
16 20 26
15 19 25
18 22 29
14 17 22
17 21 28
17 20 26
13 16 21
16 20 26
13 16 21
15 18 24
16 20 26
18 23 30
16 20 26
14 17 22
24 30 39
17 22 28
21 26 33
16 20 26
13 16 21
11 14 18
19 23 30
16 20 26
18 22 28
17 21 28
14 18 24
14 18 23
12 16 20
15 19 24
14 17 22
13 16 21
19 24 31
24 30 38
22 27 35
14 18 23
17 21 26
18 22 29
21 26 34
20 25 32
14 17 22
20 25 31
13 17 22
18 23 30
13 16 20
21 26 34
17 21 28
22 27 35
15 19 24
16 20 26
23 29 37
16 20 26
19 23 30
11 14 19
18 23 30
17 21 27
17 21 28
22 27 35
21 26 34
18 23 29
15 18 23
18 23 30
15 19 24
17 21 28
22 28 35
19 23 30
25 30 39
17 21 27
21 26 33
15 19 25
19 24 32
12 15 20
22 27 35
22 27 34
14 18 23
16 19 25
14 17 22
19 23 30
16 20 26
21 26 33
18 22 28
17 21 27
21 25 32
20 24 31
13 16 20
12 15 19
16 19 25
15 19 25
17 22 28
18 22 29
20 25 33
19 24 30
20 25 32
19 23 29
14 17 21
19 23 30
22 27 36
19 23 29
18 22 27
19 23 29
21 26 33
17 21 28
16 20 25
17 21 28
14 17 22
17 21 28
18 22 28
16 19 24
17 21 27
17 22 28
15 19 24
14 18 23
16 20 27
14 18 22
17 21 28
18 23 29
23 28 36
11 14 18
14 18 23
18 22 28
12 15 20
17 21 27
15 19 25
20 25 33
22 27 35
17 21 26
17 21 27
17 21 27
20 25 32
17 21 27
18 22 29
15 18 23
13 17 22
16 20 27
17 22 28
14 17 22
17 20 26
15 19 25
15 19 26
17 21 28
13 16 21
13 16 21
10 12 16
19 23 30
11 13 17
17 21 27
18 23 30
16 20 26
15 19 24
12 15 20
10 12 15
16 20 26
20 24 31
22 27 35
14 17 22
8 10 12
9 10 13
9 11 13
7 8 10
7 9 11
8 10 13
4 5 7
7 9 11
4 6 7
9 11 14
8 10 13
7 9 12
11 14 17
12 15 20
7 9 11
10 13 17
11 14 18
8 10 14
11 13 16
10 12 16
11 13 17
9 11 14
9 11 15
8 10 13
12 15 19
10 12 16
10 12 16
8 9 12
13 15 20
12 15 18
13 17 22
9 12 15
12 15 19
18 22 28
12 14 18
13 16 20
18 23 29
14 17 22
14 18 23
12 15 20
10 12 16
13 16 20
13 16 20
9 11 15
15 18 23
15 18 23
14 17 22
13 16 20
15 18 23
14 17 22
11 14 18
14 17 21
10 13 16
13 16 20
9 11 15
11 13 17
14 17 22
12 15 19
11 14 18
12 14 18
10 12 16
11 13 17
11 14 17
15 18 23
22 27 34
11 13 17
15 18 23
10 13 16
9 12 15
12 15 18
10 12 15
14 18 22
13 15 20
17 20 26
9 11 14
11 13 16
13 16 20
20 25 32
12 15 20
14 17 21
12 14 17
11 13 17
13 16 20
11 14 17
14 17 21
10 12 15
14 17 22
10 12 16
10 13 17
14 17 22
7 9 11
10 13 16
16 20 24
9 11 14
8 10 13
19 23 29
8 10 12
11 14 17
12 15 20
14 18 22
14 16 20
10 12 15
8 10 13
8 10 12
14 17 21
9 11 14
8 10 13
8 9 11
8 9 12
10 13 17
12 14 18
8 10 13
15 18 24
10 13 16
19 24 32
18 23 30
12 16 20
14 17 22
17 21 27
11 14 19
16 20 25
20 25 32
20 24 31
14 18 22
20 24 31
16 20 25
12 14 19
20 24 32
14 17 22
17 21 27
12 15 19
13 16 21
17 22 30
17 21 27
16 20 27
18 22 28
23 29 38
19 24 31
16 20 26
24 29 38
16 20 26
25 31 39
15 19 25
15 18 24
22 28 36
19 23 30
11 14 18
19 24 31
18 21 27
17 21 26
18 22 28
15 19 24
8 10 14
15 18 22
19 24 32
18 22 29
16 19 24
22 27 36
17 22 28
18 22 28
17 20 26
24 29 38
17 21 27
19 24 31
16 19 25
13 16 20
19 24 30
13 17 21
21 27 35
21 26 33
15 19 25
19 24 31
24 30 39
17 21 27
16 21 27
18 22 28
14 17 22
17 21 28
17 21 27
17 22 28
17 21 27
14 18 23
17 22 29
18 23 29
13 16 21
21 26 33
17 21 28
14 17 23
16 20 26
21 27 34
15 19 24
11 14 18
19 23 29
13 17 22
20 26 34
15 19 24
15 19 25
17 21 27
13 17 22
14 17 22
15 19 25
14 18 25
18 22 28
20 24 31
21 26 34
15 19 25
16 20 25
14 18 23
22 27 35
17 21 28
16 20 25
15 19 25
19 23 31
16 21 28
21 26 34
17 20 25
19 23 30
14 17 22
20 25 32
16 20 26
17 21 26
21 26 34
18 22 29
18 23 30
19 23 30
10 13 17
19 24 31
13 16 21
21 26 33
24 30 38
16 20 26
12 15 19
16 20 26
21 26 32
16 20 26
24 29 37
14 18 23
15 19 24
17 22 28
21 26 33
14 17 23
17 20 26
20 25 33
15 19 25
17 22 29
11 14 18
16 20 26
20 25 32
19 24 31
20 24 32
16 20 26
14 18 23
18 22 28
13 17 22
22 27 34
21 26 34
20 24 32
16 20 26
17 21 27
14 17 22
21 26 34
18 22 29
24 29 37
20 25 32
21 26 33
18 22 29
21 26 33
24 29 38
15 19 24
18 23 29
16 20 26
14 17 21
15 19 24
24 29 38
16 20 26
12 15 20
14 17 22
20 25 32
23 29 38
15 19 25
15 19 24
14 18 24
17 22 28
18 23 29
13 16 21
21 26 33
17 20 26
17 21 28
20 25 32
20 25 32
13 17 22
11 14 18
18 22 29
20 24 31
18 22 29
22 28 36
20 26 34
13 16 20
15 19 24
22 27 36
15 19 24
26 32 42
14 18 23
14 18 23
20 25 33
21 26 34
16 20 26
15 18 23
18 23 30
18 22 28
20 25 33
16 20 26
16 20 26
17 21 27
20 26 34
17 20 26
15 19 24
21 27 35
14 17 23
17 21 27
13 16 21
14 18 23
17 22 28
17 22 28
18 22 29
15 19 25
14 18 23
18 22 29
21 27 35
19 24 31
10 13 17
20 25 34
14 18 23
16 20 26
15 18 24
15 19 25
16 20 27
14 17 23
22 27 36
16 20 26
20 24 31
14 17 23
21 26 33
21 25 32
14 17 22
21 25 32
18 24 31
10 12 16
21 26 35
17 22 28
12 14 18
16 20 25
22 29 38
14 17 22
17 21 27
18 23 29
12 15 19
16 20 26
15 18 24
13 16 21
12 15 19
20 25 33
21 26 33
17 21 28
17 20 26
16 20 26
19 23 30
13 17 22
15 19 24
13 17 22
12 15 20
15 18 24
19 24 31
19 24 31
20 25 33
17 22 29
19 23 30
23 29 38
10 13 17
18 23 30
20 24 32
20 24 32
16 19 25
10 13 17
14 17 22
14 17 23
17 21 28
17 21 27
11 14 18
19 23 30
13 16 21
13 16 21
22 28 35
16 20 25
15 19 24
12 15 20
18 23 29
13 16 21
22 27 34
17 21 28
16 19 24
4 6 7
9 11 14
14 16 21
7 9 11
8 10 12
5 6 8
9 11 14
9 11 14
10 12 16
15 18 22
9 11 14
14 16 21
11 13 17
12 14 17
8 9 11
7 8 9
7 9 12
15 18 22
9 11 14
6 8 10
13 16 21
7 8 11
12 14 18
10 12 16
13 16 20
10 12 16
10 13 16
12 14 18
7 9 12
7 8 11
10 12 15
14 17 21
13 16 21
7 9 11
13 16 21
15 19 24
11 13 16
18 21 27
13 16 21
16 19 24
18 21 26
13 15 20
11 14 18
11 13 16
13 16 21
9 11 14
9 11 14
10 12 15
15 18 23
10 12 15
12 15 19
14 17 22
15 19 24
18 22 28
16 20 25
15 18 23
14 17 22
13 17 21
14 16 21
15 18 24
15 18 23
17 21 26
12 15 18
13 16 21
13 15 20
9 11 13
10 12 15
16 20 25
17 21 26
16 20 25
10 12 16
12 15 19
17 21 26
13 16 21
14 17 21
13 17 21
14 17 21
11 14 18
15 19 24
15 18 23
10 12 16
7 8 11
11 14 18
15 18 24
8 10 13
10 13 16
7 9 12
9 12 15
3 4 6
10 12 16
7 10 13
12 14 18
13 16 20
10 13 16
5 6 9
12 14 18
6 7 9
13 16 20
9 11 13
10 13 16
6 8 10
8 10 13
7 8 10
8 10 12
16 19 24
9 11 14
11 13 17
3 4 5
10 12 16
14 17 21
8 10 13
9 11 14
12 15 20
15 18 24
12 15 19
18 23 30
21 26 34
22 28 36
19 23 30
18 22 29
13 16 21
22 28 37
18 23 29
18 23 29
11 14 19
12 14 18
18 22 28
17 21 27
19 23 31
13 15 19
17 21 28
16 20 26
14 18 23
16 19 25
19 24 31
13 17 22
16 20 26
15 20 26
21 26 34
15 19 24
22 28 37
12 16 21
18 23 29
13 16 22
15 19 24
18 23 30
19 24 31
18 22 28
19 23 30
13 16 21
21 26 34
12 16 21
17 21 27
10 12 16
21 26 34
15 19 24
15 19 25
17 22 28
14 18 23
15 19 24
18 22 28
14 17 23
12 14 18
14 18 24
17 22 29
17 22 28
14 18 24
15 18 24
21 26 33
23 29 37
17 22 28
15 19 24
17 21 27
12 15 20
17 21 27
16 19 25
15 18 24
16 20 26
18 23 29
11 14 18
18 22 29
19 24 31
19 24 31
14 17 22
15 18 24
19 24 31
19 24 32
16 20 26
23 28 36
18 22 28
15 19 24
17 22 28
15 18 23
11 14 18
22 27 35
13 16 22
13 16 21
17 21 27
15 19 25
20 25 33
18 23 30
16 20 27
15 20 26
19 24 31
21 27 36
17 21 27
17 22 28
20 24 31
22 28 36
18 23 30
20 25 33
16 20 26
21 26 34
18 23 30
12 15 19
22 27 34
20 25 33
14 17 23
19 23 30
17 20 26
12 14 19
21 26 33
19 24 31
19 24 31
14 17 22
14 17 22
19 24 31
18 23 30
18 22 29
18 22 28
16 19 25
25 32 41
18 22 29
15 19 25
14 18 23
19 22 28
23 28 36
13 16 21
12 15 19
17 22 29
12 15 20
12 15 19
20 25 33
17 21 27
14 18 23
15 19 24
14 18 23
18 23 30
16 19 25
20 24 32
23 29 39
15 18 23
17 21 27
16 20 26
13 16 22
18 22 29
16 20 26
12 15 20
16 20 26
16 20 26
19 25 32
21 26 34
15 19 25
16 20 26
16 20 26
14 18 23
20 25 31
29 35 45
20 26 34
24 30 39
17 22 28
16 20 25
18 23 30
16 19 25
23 28 37
18 22 28
17 22 28
13 16 21
14 17 22
15 19 24
18 22 29
25 31 40
23 28 36
14 18 23
14 17 23
15 19 24
20 25 32
9 11 14
20 25 31
17 21 28
22 27 34
19 23 31
19 23 30
18 22 29
19 24 31
12 15 19
21 26 33
20 24 32
17 21 27
13 17 22
10 13 17
20 25 33
14 17 22
17 21 28
22 27 34
21 26 33
21 26 34
9 12 16
18 23 30
20 25 33
18 22 29
13 16 21
21 26 34
18 23 30
21 26 33
16 21 27
15 18 23
16 21 27
17 21 27
18 23 30
18 22 29
17 21 28
18 23 30
15 19 24
9 11 14
13 16 20
13 16 21
17 22 28
16 20 26
16 20 26
17 21 28
16 20 25
15 18 23
21 26 33
13 16 21
17 21 28
18 22 29
12 15 19
21 26 34
15 19 25
16 20 26
20 24 31
16 20 26
16 19 24
19 24 31
15 19 25
19 24 31
20 25 33
19 24 32
20 25 33
20 24 31
25 31 40
13 16 20
17 21 27
15 19 24
17 21 27
19 23 29
15 18 24
15 19 25
14 17 21
23 28 36
12 15 19
16 20 25
17 21 27
21 26 34
17 21 27
16 19 25
13 16 21
23 28 36
14 18 23
20 25 32
22 28 36
16 20 26
18 22 28
19 23 31
19 24 31
17 22 28
13 16 22
26 33 42
16 20 26
15 18 23
17 21 28
14 18 23
18 22 29
17 22 28
12 15 20
20 24 32
13 17 21
17 20 26
16 20 26
16 20 26
15 18 24
19 24 30
13 16 21
14 17 22
14 18 23
17 22 28
15 19 25
15 19 25
16 20 27
10 13 16
12 15 20
7 9 11
8 10 14
13 17 21
7 9 12
12 15 20
5 7 9
11 13 16
15 18 23
7 9 12
11 13 17
10 13 16
5 6 8
15 18 22
14 18 23
9 11 15
8 10 12
12 15 19
11 13 17
12 15 19
11 14 18
14 17 21
11 14 18
6 8 10
9 11 14
19 23 29
14 17 21
10 12 16
13 16 20
10 12 16
11 13 16
15 18 23
12 15 19
19 23 29
12 14 18
9 11 14
15 18 23
14 18 23
13 16 20
15 19 26
13 16 20
11 14 18
14 17 22
16 19 24
12 14 18
17 21 26
11 14 18
15 18 22
22 27 35
16 19 25
8 10 13
15 19 24
17 21 26
16 19 25
12 15 19
11 14 18
13 16 20
16 19 25
12 15 19
17 20 26
11 14 18
14 17 21
15 18 23
15 18 23
21 25 32
9 11 14
13 16 20
15 19 24
15 19 25
10 13 16
14 17 22
16 19 24
14 17 23
12 14 17
10 12 16
9 12 15
14 17 22
17 20 26
14 17 21
12 14 18
11 13 16
10 12 15
8 10 13
8 10 13
9 11 14
15 19 24
11 14 17
12 15 19
17 21 26
8 10 13
6 7 9
13 15 19
9 11 14
12 15 20
9 11 14
9 11 14
11 14 18
11 14 18
9 11 14
12 14 18
13 16 21
7 9 12
13 16 20
6 8 10
5 7 9
10 12 16
10 12 16
7 8 11
12 15 18
10 12 15
5 6 8
21 26 34
16 19 25
14 17 23
15 19 25
13 17 22
20 25 32
19 24 32
17 21 29
13 16 20
14 18 23
16 21 27
21 26 34
21 26 33
19 23 29
19 23 29
18 23 30
17 21 28
19 24 31
17 22 29
14 18 23
13 16 20
24 29 37
24 30 39
22 27 35
16 20 27
11 14 18
15 19 25
21 27 35
19 24 31
17 20 25
19 24 31
17 21 28
15 18 24
13 16 20
17 21 28
15 18 24
21 26 33
24 30 39
17 21 27
14 18 23
11 14 18
18 22 28
23 29 37
12 15 19
19 24 31
21 26 34
14 17 23
16 20 27
16 21 27
15 19 26
21 26 33
18 22 29
16 20 26
19 23 28
13 17 22
20 25 33
13 16 20
18 22 28
13 16 20
13 17 22
17 21 28
15 18 24
9 12 15
22 28 37
14 17 21
23 29 37
18 22 29
17 21 27
14 17 22
16 20 25
18 22 28
17 22 28
17 22 28
18 22 29
14 17 22
16 20 26
18 22 29
18 23 30
20 24 31
17 21 27
17 22 28
19 24 31
17 21 28
19 23 30
18 23 30
18 22 28
14 18 23
19 23 30
23 29 37
20 25 33
10 12 16
19 24 32
16 20 26
14 17 22
20 25 31
17 21 28
20 24 31
20 25 33
17 21 27
22 27 34
21 26 35
18 22 28
20 24 31
14 18 23
14 18 23
24 30 39
15 18 23
18 22 30
18 23 30
17 21 28
17 21 28
19 23 29
24 30 39
16 20 26
18 23 30
15 18 23
21 26 34
20 25 32
10 12 16
21 26 34
15 19 24
13 16 21
13 16 20
10 12 16
18 23 30
14 17 22
14 17 22
19 24 32
18 23 30
18 22 28
21 26 34
18 22 29
14 18 23
20 24 31
18 23 30
18 22 28
17 21 27
24 30 38
19 23 30
21 26 34
19 24 31
20 25 32
13 16 20
18 22 30
20 24 31
20 24 32
20 25 32
12 15 19
19 23 30
14 18 23
17 22 28
18 22 28
14 18 23
20 24 31
13 16 21
19 23 30
12 15 21
17 20 26
17 21 27
18 23 30
14 18 24
18 22 29
11 14 18
17 22 28
16 20 26
15 19 25
21 26 34
16 20 27
14 17 23
15 19 24
14 18 24
23 28 36
16 20 26
17 21 27
21 27 36
22 28 36
17 21 28
17 20 26
21 26 33
21 26 34
20 25 33
19 23 30
21 26 34
20 25 33
16 19 25
16 20 26
17 21 27
19 24 30
15 19 24
18 23 30
16 20 26
17 21 27
15 19 25
20 25 32
12 16 21
23 28 37
13 17 21
18 23 30
13 16 21
17 21 27
15 19 25
16 20 27
12 15 19
21 26 32
18 23 30
17 21 28
18 22 28
13 16 21
14 17 22
16 20 26
23 28 37
14 18 22
26 32 41
22 27 36
14 18 23
21 26 33
17 21 27
18 23 29
16 20 27
18 23 31
19 24 31
14 17 23
12 15 19
17 22 28
19 24 31
16 19 25
18 23 29
13 16 21
17 21 27
13 17 22
15 19 24
23 28 37
19 23 30
15 19 24
20 24 31
17 22 28
18 23 30
22 27 34
15 18 24
23 28 36
20 24 32
21 26 33
15 19 24
18 23 30
14 18 23
16 19 25
14 18 24
17 21 27
16 20 26
15 19 25
15 19 25
14 18 23
22 27 34
16 20 26
15 18 24
20 24 31
17 21 28
12 15 20
13 16 21
18 23 29
20 24 32
17 21 28
14 18 24
17 21 27
15 19 25
20 25 32
13 17 23
16 20 26
17 21 27
21 26 34
14 17 21
18 21 27
17 22 28
11 14 18
18 22 29
20 25 33
12 15 20
14 18 24
17 22 29
13 17 22
14 17 23
16 20 25
17 21 26
16 20 26
17 22 28
19 24 31
14 19 25
12 15 19
18 22 29
10 12 14
6 8 10
8 9 11
12 14 18
9 11 14
10 12 14
12 14 17
5 6 8
12 15 18
8 10 12
9 12 15
7 8 10
8 10 12
6 7 9
8 10 13
9 11 14
9 11 15
9 11 14
8 10 13
4 6 7
11 14 17
14 17 22
12 14 18
15 19 23
13 16 20
10 12 16
10 12 16
13 16 20
10 12 16
9 11 15
6 7 9
16 19 24
5 6 8
12 15 19
9 11 15
7 9 11
9 11 14
13 15 19
15 18 23
9 11 14
12 14 18
16 19 24
16 19 25
13 16 20
13 16 20
14 17 22
17 21 26
18 22 28
16 19 25
13 16 20
14 17 21
15 18 23
14 17 22
11 13 17
10 12 15
11 14 18
14 17 22
13 16 20
14 17 22
17 21 27
18 22 28
17 21 27
14 17 21
11 13 17
10 13 16
11 14 18
5 6 9
8 9 12
19 23 29
14 17 22
10 12 16
14 17 22
12 14 18
14 17 21
14 17 22
15 19 25
11 13 17
10 12 15
7 8 11
11 13 17
12 15 20
9 12 15
11 13 16
11 13 17
10 12 15
5 6 8
7 9 12
15 19 24
12 14 18
12 14 18
10 12 16
10 13 16
5 6 8
11 13 16
11 13 16
11 14 17
8 9 12
4 5 6
6 8 10
4 5 6
7 9 11
9 11 15
9 11 14
10 12 16
4 5 6
9 10 13
12 15 19
11 13 16
7 8 10
13 15 19
16 19 25
9 12 15
13 17 22
20 25 33
21 26 33
10 13 17
16 20 26
16 20 26
18 23 29
20 25 32
22 28 36
22 26 33
15 19 24
15 19 24
21 25 32
15 19 25
16 21 28
15 19 25
14 17 22
12 15 20
15 19 25
26 32 41
18 23 29
16 19 25
8 10 13
17 21 27
16 20 26
19 24 30
14 18 24
18 22 28
22 28 36
18 23 30
13 16 20
17 20 26
16 19 25
18 23 31
12 16 20
13 16 21
14 17 23
16 20 27
12 16 20
7 9 12
12 15 20
14 17 23
17 21 27
18 22 29
22 28 37
16 20 26
19 23 31
17 22 29
14 17 23
22 27 35
22 27 34
23 29 39
14 17 22
19 24 31
18 23 30
17 22 28
18 22 29
19 24 32
18 22 29
15 19 24
20 25 33
20 24 30
18 22 29
18 22 28
19 23 30
11 14 18
12 15 20
14 17 22
14 17 22
15 18 24
19 23 30
19 24 31
20 24 31
16 20 26
11 14 18
22 27 35
19 24 31
19 24 31
13 16 21
13 16 21
13 16 21
7 9 11
17 21 28
15 19 25
16 20 25
20 26 34
15 19 24
12 15 20
14 17 22
14 18 24
15 18 24
22 27 36
18 23 30
15 18 22
19 24 32
21 25 32
21 26 34
18 22 29
15 18 24
14 18 24
18 22 29
19 23 30
21 26 33
16 20 26
19 24 30
14 17 23
15 19 24
16 20 25
15 19 24
15 19 24
17 22 28
14 18 24
17 22 29
24 30 38
24 30 39
14 17 22
15 19 24
17 22 28
18 22 29
25 31 40
16 19 24
14 18 23
22 28 36
20 25 32
17 21 27
21 26 34
24 30 38
19 24 31
15 19 25
18 22 29
13 17 22
18 22 28
19 24 31
17 22 28
26 33 42
15 18 24
11 14 19
21 26 34
15 19 25
20 24 31
18 23 30
17 22 28
13 17 23
15 19 25
13 17 23
18 23 30
25 32 41
20 25 32
17 21 27
15 19 24
20 24 31
20 25 33
14 17 22
17 21 27
19 24 30
19 24 31
16 21 27
16 20 26
16 20 27
16 19 25
20 25 32
18 23 30
10 13 17
13 16 21
14 17 23
17 22 29
19 24 32
16 20 26
22 28 36
16 20 26
16 20 26
23 28 36
16 21 27
16 21 27
15 18 24
23 29 37
16 21 27
20 24 31
24 29 38
16 20 25
18 23 30
16 20 25
16 20 26
19 24 31
26 32 42
19 24 31
21 27 35
23 29 37
15 18 24
17 21 28
11 14 19
23 29 38
10 12 17
12 15 20
22 27 35
18 22 28
14 17 22
22 27 34
16 21 27
12 15 20
14 17 21
20 24 32
17 21 27
19 24 31
20 25 33
17 21 27
18 22 28
16 20 26
12 15 19
18 22 29
19 24 31
10 12 16
20 24 31
18 22 29
19 24 31
19 23 30
18 22 30
23 29 38
22 27 35
17 22 28
16 20 26
18 22 29
18 22 28
19 23 30
19 23 31
20 26 34
14 18 23
13 17 22
20 25 32
12 16 21
15 18 23
10 13 18
16 21 27
15 19 24
14 18 24
17 22 29
21 26 34
19 24 32
13 16 21
16 20 25
20 26 34
15 18 24
20 25 32
14 18 23
10 13 16
21 26 33
12 15 19
15 19 25
13 17 22
18 23 30
22 27 35
23 28 37
13 17 22
15 19 25
14 18 24
12 15 21
17 21 27
10 13 18
14 17 22
19 24 31
15 18 24
19 23 29
20 24 31
19 24 32
16 20 26
20 25 33
12 16 20
19 23 29
16 20 26
11 14 18
13 16 21
16 19 25
19 25 32
14 18 23
13 16 21
15 18 23
17 21 27
16 19 25
16 20 27
12 15 20
20 24 31
7 8 11
20 24 31
15 19 25
17 21 27
18 23 30
16 20 26
19 24 30
11 13 17
10 12 15
13 16 20
10 13 16
11 13 16
10 12 16
10 13 16
12 15 20
7 9 11
13 15 19
11 13 17
4 5 6
9 12 15
7 9 12
9 11 14
9 11 14
9 11 14
11 13 17
10 12 14
7 9 11
10 12 16
11 13 17
9 11 14
10 12 16
11 13 17
12 15 20
14 17 22
13 16 21
8 10 12
15 18 23
18 21 27
10 13 16
5 7 10
11 14 17
13 15 19
9 12 16
8 9 12
12 15 20
12 14 18
10 12 16
13 15 19
11 14 18
14 17 22
14 17 21
7 9 11
10 12 16
12 14 18
13 15 20
13 16 21
9 11 13
15 19 25
15 18 23
15 18 24
13 16 21
15 18 23
16 20 25
14 17 22
10 13 17
18 22 29
12 15 20
10 13 16
16 20 25
11 14 18
17 21 26
13 16 20
15 18 24
16 19 24
9 11 15
13 16 20
12 15 20
11 13 17
14 17 22
8 10 12
10 13 16
13 15 20
12 15 19
16 21 27
13 15 20
12 15 20
14 17 21
13 16 20
11 13 15
11 14 18
10 12 16
9 11 14
7 9 11
10 12 14
7 9 12
10 12 15
11 14 18
16 20 25
11 13 17
9 12 15
7 9 12
12 14 17
9 11 15
7 8 11
7 9 11
9 11 15
9 11 14
10 13 16
12 15 19
10 12 15
7 8 10
6 7 9
18 22 29
7 8 11
9 12 15
4 5 6
9 11 14
17 21 27
13 17 22
13 16 21
20 25 32
19 23 30
12 15 19
19 24 31
23 28 35
20 25 31
17 21 28
15 18 24
12 15 19
13 17 22
13 16 21
14 17 22
19 24 32
14 18 23
19 24 31
12 15 20
21 26 33
12 15 19
12 15 19
20 25 33
16 20 26
15 19 23
19 23 29
13 17 22
21 26 34
18 22 28
21 26 33
18 22 29
20 25 33
17 20 26
15 19 24
20 24 31
17 21 27
16 21 28
9 12 16
15 19 25
16 20 27
22 28 36
21 27 35
14 17 21
19 23 30
12 15 19
13 16 21
19 23 31
16 20 27
19 23 31
16 20 25
13 17 23
11 14 19
18 22 29
19 23 29
13 17 21
16 20 26
19 23 30
18 22 28
16 21 28
21 26 34
20 25 33
18 22 29
18 22 28
18 23 29
19 24 30
21 26 34
13 17 22
13 17 21
16 20 27
16 21 27
16 20 27
19 23 30
17 22 28
17 22 30
14 17 23
19 24 30
11 14 18
23 28 36
21 26 34
15 19 23
12 16 20
16 19 25
18 22 29
15 19 25
12 15 19
19 23 30
17 22 28
14 17 22
15 19 24
9 12 16
18 23 29
13 16 21
19 24 31
20 25 32
24 30 40
21 26 33
15 19 25
13 16 20
15 19 25
18 23 30
16 19 25
15 19 24
16 20 26
15 19 24
11 14 18
13 17 21
18 23 29
22 27 35
19 24 31
22 28 36
20 25 32
13 16 20
16 20 26
19 24 31
19 23 30
27 33 43
20 26 33
14 17 22
18 23 29
16 20 25
13 17 22
15 18 23
20 25 31
18 22 29
19 23 30
23 28 37
14 17 22
19 24 31
15 19 25
20 25 32
20 25 32
20 24 31
17 21 27
15 18 23
23 29 37
20 26 35
17 21 27
18 22 28
18 22 28
16 20 26
22 28 36
14 17 22
15 19 25
13 16 21
14 17 22
17 20 25
13 16 20
20 25 32
12 15 19
26 32 42
15 19 25
19 23 28
14 17 22
17 21 27
17 22 28
11 14 18
14 17 22
21 26 33
16 20 26
21 26 34
23 28 35
15 18 24
27 33 43
22 28 36
21 25 32
19 24 31
13 17 22
22 27 35
19 23 30
16 20 26
22 28 36
16 20 25
23 29 38
12 16 20
13 16 22
18 23 30
23 28 37
16 20 26
19 24 31
14 18 24
13 16 21
15 18 24
18 22 29
14 18 24
16 20 26
12 15 20
18 22 29
16 20 26
15 18 24
12 15 20
15 18 24
21 26 33
13 17 22
22 27 35
15 19 25
19 24 31
17 22 29
12 15 20
18 22 28
17 22 29
17 22 28
18 22 29
17 21 27
16 20 25
18 22 29
14 17 22
18 22 29
17 22 29
18 22 28
12 16 21
19 24 31
15 19 25
18 22 28
20 25 32
17 21 27
18 22 29
21 26 34
13 16 20
21 25 32
20 25 34
18 23 29
21 26 34
22 27 35
15 19 25
17 22 28
18 23 30
24 29 37
16 20 26
11 13 17
14 17 23
13 17 21
19 23 30
17 22 28
22 27 34
14 18 24
17 21 27
20 25 32
16 20 26
19 23 30
17 21 28
16 20 26
24 30 39
19 24 32
12 15 19
17 21 28
18 22 29
18 22 29
18 23 29
15 19 24
18 23 29
23 29 37
15 19 25
24 31 41
16 20 27
16 20 25
17 21 28
18 22 29
19 24 32
20 24 31
16 20 26
24 30 39
16 19 25
13 16 21
14 17 22
16 20 26
21 26 35
13 16 22
12 16 20
16 20 26
12 15 20
14 17 22
13 16 20
15 18 24
16 20 26
21 26 34
20 25 33
15 19 25
15 19 24
16 20 27
15 19 25
18 22 29
10 13 17
14 17 22
11 14 18
16 20 25
16 20 25
17 21 27
18 22 29
9 12 16
16 19 25
13 16 20
13 15 20
9 11 14
12 15 18
12 15 19
7 9 11
7 8 10
10 12 15
7 9 11
6 8 10
13 16 21
12 15 19
11 13 17
8 10 13
7 9 12
8 10 13
5 6 7
8 10 13
8 10 13
11 14 18
8 10 13
9 11 13
10 12 15
8 10 13
12 15 19
12 14 19
12 15 19
9 11 13
9 12 15
12 14 18
11 14 18
13 16 21
5 6 8
12 15 19
10 12 15
12 15 19
12 15 20
12 14 17
11 13 17
9 11 14
12 14 18
10 11 14
12 14 18
15 18 23
11 14 18
12 15 19
15 18 23
12 14 18
9 11 14
14 17 23
16 20 25
13 16 21
12 15 19
21 25 32
16 19 25
10 13 16
12 15 18
14 18 22
12 14 18
15 17 22
12 14 18
16 20 25
12 14 18
14 17 22
7 9 12
12 14 18
22 26 32
5 6 8
12 15 19
14 17 22
10 13 16
11 14 19
8 10 13
11 14 18
13 15 19
11 13 17
12 15 19
13 16 20
14 18 23
14 17 22
13 15 19
12 15 19
14 17 21
15 18 23
12 15 19
6 7 10
12 14 18
7 9 11
14 17 22
5 7 9
11 14 18
7 9 11
6 8 10
9 11 14
11 14 18
10 13 17
9 11 14
7 8 10
11 14 17
10 12 16
8 9 12
8 10 12
12 15 19
4 5 6
10 12 16
7 8 11
12 14 18
11 13 16
15 18 22
17 21 27
18 22 29
11 13 17
11 14 19
24 30 39
14 17 22
16 20 26
14 17 23
20 26 34
17 22 29
13 17 22
16 20 27
18 22 29
20 25 32
17 21 27
14 18 23
17 21 27
19 23 30
14 17 22
10 13 17
13 16 21
13 16 21
21 27 36
21 26 34
19 23 30
20 24 32
15 18 23
17 21 27
10 13 17
19 24 31
19 24 31
11 15 19
17 21 28
10 12 16
17 21 28
17 21 28
16 20 27
15 19 25
16 20 25
16 20 26
17 22 28
18 21 27
7 9 13
15 19 24
10 14 18
15 18 24
14 17 22
20 24 31
18 23 30
21 26 34
17 22 30
17 21 27
20 24 31
15 19 24
20 26 33
19 23 30
15 18 24
21 26 33
19 24 31
20 25 32
18 23 31
21 27 35
16 20 26
21 26 34
16 20 25
17 21 27
21 27 35
16 20 25
12 15 20
19 24 31
14 18 23
20 24 31
15 19 24
15 19 24
18 23 31
18 22 29
14 18 24
24 30 39
21 26 34
16 20 25
20 25 32
11 14 19
15 19 24
26 32 41
20 25 33
18 22 28
14 18 24
14 18 24
14 17 21
14 18 23
21 26 33
18 22 29
12 15 19
15 19 24
14 17 23
19 24 31
18 22 29
16 20 26
16 21 27
25 31 41
15 18 24
17 21 27
22 27 35
22 27 35
15 19 25
17 21 27
24 31 40
17 22 28
21 26 34
18 22 29
12 15 19
18 22 29
15 19 25
10 13 17
21 27 35
16 20 25
13 17 22
19 23 30
19 24 32
15 18 23
16 21 27
17 21 28
16 20 26
15 18 23
15 18 24
19 23 30
12 15 19
15 19 25
17 21 27
17 21 27
14 17 22
21 26 33
12 15 20
22 28 36
22 27 35
17 21 27
19 23 30
19 24 31
18 23 29
17 21 28
13 17 23
16 20 27
13 16 21
13 16 21
18 22 30
15 19 25
16 20 26
20 25 32
19 23 30
15 19 25
12 15 19
16 20 26
18 23 30
19 24 30
17 21 28
20 25 32
21 26 33
17 21 28
16 20 26
15 18 23
18 22 29
15 19 25
22 27 35
15 19 25
20 25 32
16 20 26
16 20 26
18 22 29
14 18 23
17 22 28
18 22 29
17 21 27
15 19 24
15 20 26
13 15 19
17 21 26
24 30 38
19 24 31
18 23 29
21 25 32
18 22 27
17 21 27
16 21 27
19 24 31
19 23 30
20 25 32
17 21 27
17 21 26
13 17 23
14 17 22
20 24 31
19 23 29
16 20 27
16 19 25
19 24 31
13 16 20
14 17 22
19 24 31
14 18 24
16 20 26
24 30 38
15 19 25
19 23 30
17 21 28
23 28 37
19 23 29
16 20 26
23 29 37
16 20 26
21 26 34
12 15 19
20 25 32
14 18 23
19 24 32
14 18 22
17 22 28
19 24 32
20 25 32
11 14 19
24 30 39
22 27 35
19 23 30
23 28 36
18 22 29
19 24 30
14 17 23
16 19 24
19 24 32
12 16 21
14 17 22
13 17 22
17 20 26
14 18 24
17 21 27
18 22 28
23 28 37
14 17 21
15 19 25
20 26 33
17 21 27
18 22 28
21 26 34
12 15 20
16 20 27
17 22 29
20 24 30
20 25 32
17 21 28
14 18 23
18 23 30
20 25 32
17 21 27
19 24 31
17 21 28
15 20 26
17 21 28
22 27 35
16 20 26
11 13 17
20 24 32
14 18 23
19 24 31
17 22 28
16 21 27
17 22 29
14 18 23
12 15 20
21 26 34
14 17 22
14 18 23
16 20 25
12 15 19
16 19 25
17 21 27
10 12 16
26 32 41
18 23 29
12 15 19
15 19 25
7 9 12
18 22 28
17 21 28
15 18 23
20 25 32
16 19 25
15 19 25
10 13 18
19 24 32
17 21 27
14 18 23
12 15 20
17 22 28
11 14 19
9 11 14
10 12 15
10 13 16
12 15 18
9 11 14
8 10 12
11 13 16
7 9 12
10 13 16
6 7 9
5 6 8
7 9 11
11 13 17
4 5 7
8 10 14
9 11 14
4 5 6
10 12 15
9 11 14
7 8 11
4 5 6
7 8 10
11 13 16
16 19 25
10 12 16
12 14 18
14 17 21
16 20 25
10 13 17
14 17 21
9 12 15
11 14 18
10 13 16
12 15 19
9 11 13
9 11 14
12 15 19
13 16 21
14 17 21
9 11 14
10 13 16
12 14 18
17 21 27
14 18 23
10 12 16
8 10 14
14 17 21
13 16 20
10 12 16
11 13 17
11 13 17
17 20 24
12 15 19
13 16 21
13 16 20
15 19 24
13 16 20
7 9 13
7 9 11
11 13 17
11 13 17
7 9 11
20 25 32
8 11 14
11 13 17
13 16 21
14 17 22
13 16 20
10 12 15
11 13 17
14 17 21
14 17 22
12 14 18
10 13 16
13 15 19
8 10 13
16 20 26
15 18 23
9 11 14
12 15 19
9 11 14
8 10 12
14 18 23
8 9 12
13 15 20
10 12 15
4 5 6
5 6 7
10 12 15
7 8 11
8 10 13
10 12 16
5 6 7
9 11 14
7 8 11
8 10 13
7 9 11
9 11 14
9 12 15
8 10 13
6 7 9
12 14 18
11 14 17
13 15 19
13 16 20
13 15 20
7 9 12
17 21 26
19 23 30
13 16 21
22 27 35
15 19 25
12 15 19
15 19 24
12 15 20
15 19 26
19 23 30
17 22 28
21 26 35
13 16 22
17 21 27
16 20 25
21 26 33
11 14 18
17 21 27
15 19 25
18 22 29
18 23 30
13 16 21
17 22 29
11 13 17
17 22 28
15 18 23
19 24 30
17 21 26
19 23 31
15 19 24
13 17 22
13 16 21
16 20 26
18 23 29
17 21 27
15 19 25
19 24 31
23 29 36
19 24 32
12 15 20
14 17 22
20 26 34
13 16 21
19 23 30
23 28 35
16 21 27
8 11 14
15 18 23
14 17 23
16 19 25
11 14 18
18 22 28
15 18 23
18 23 30
15 18 24
14 18 23
22 28 36
18 22 28
13 17 22
17 21 28
17 21 28
17 21 28
13 16 21
13 16 20
19 24 31
18 22 29
19 24 31
19 23 29
20 25 33
19 25 33
12 15 20
12 15 20
20 25 32
14 17 23
19 24 31
17 22 28
20 25 32
13 16 21
14 18 24
22 27 35
19 23 30
18 23 30
15 18 23
14 18 23
15 19 25
14 18 23
19 24 32
17 21 27
22 28 36
20 25 32
19 23 29
20 25 32
16 21 28
14 18 24
15 19 25
14 17 22
17 21 27
19 23 30
16 20 26
10 13 17
23 28 36
9 11 14
17 22 29
9 11 15
20 25 33
18 22 29
13 16 21
16 20 25
15 19 24
24 29 37
22 28 37
18 23 30
24 29 37
16 20 26
21 26 34
18 21 27
15 19 25
14 18 23
17 21 27
19 24 30
18 23 30
18 23 30
15 19 25
17 21 26
17 21 27
18 22 29
13 16 21
20 24 30
23 29 37
21 26 33
17 22 28
20 25 32
15 19 25
17 22 28
21 27 35
15 19 24
14 17 22
18 22 28
21 27 35
17 20 26
13 16 21
17 22 28
25 30 39
20 25 32
18 21 27
22 27 35
16 20 27
18 23 29
19 24 31
13 16 21
20 25 32
19 24 30
18 22 27
17 21 27
20 25 32
19 24 31
14 17 22
16 19 24
16 20 25
21 26 34
13 16 20
17 22 29
18 22 27
18 22 28
17 21 28
18 22 28
23 29 37
21 26 33
19 23 31
18 22 28
14 18 24
19 23 30
14 18 24
20 25 32
17 21 26
15 19 24
19 23 31
20 25 32
17 21 28
13 16 21
20 25 32
22 28 36
18 23 29
16 20 26
16 20 26
16 20 27
26 33 42
11 14 18
17 21 28
20 25 32
20 25 33
15 19 25
16 21 27
17 21 27
19 24 31
17 21 28
14 17 22
17 20 25
19 24 32
19 24 31
11 13 17
16 19 25
16 20 26
23 28 36
15 19 25
19 24 31
16 19 25
17 22 28
15 18 24
13 15 19
15 19 25
14 18 23
23 29 38
18 23 29
15 18 24
18 22 29
16 20 26
18 23 30
18 23 30
20 25 32
16 20 26
14 17 22
18 22 29
17 21 27
19 24 32
17 22 28
13 17 22
15 19 24
19 23 30
15 18 23
11 14 19
16 20 26
20 25 32
18 22 29
14 18 24
15 19 25
21 26 34
14 18 23
18 22 29
22 27 35
20 24 32
16 21 27
19 23 30
17 21 27
18 22 29
18 23 30
16 21 27
20 25 32
16 20 26
14 17 22
17 21 28
16 20 27
18 22 29
17 22 28
17 21 27
9 11 14
22 27 34
19 24 30
12 15 20
21 26 33
10 13 17
19 24 31
14 17 23
9 11 15
16 20 26
15 19 24
17 21 28
16 19 25
14 18 23
20 25 32
17 21 27
14 17 22
16 19 25
15 19 25
19 24 31
16 20 26
17 21 27
19 24 31
14 18 23
14 18 22
15 18 24
13 16 21
14 17 23
14 17 22
14 17 22
16 20 26
19 24 31
11 15 19
14 17 22
16 20 27
17 21 26
12 15 20
20 25 32
9 11 13
10 12 15
6 7 9
10 12 15
12 15 19
9 11 14
10 12 15
7 9 11
11 13 17
6 7 9
5 7 9
6 8 10
6 8 11
9 11 15
11 13 16
9 11 14
9 11 14
6 7 9
11 13 17
9 11 14
9 11 14
9 11 14
12 15 19
16 19 25
9 11 14
11 14 18
9 10 13
20 24 30
14 17 22
10 12 15
7 9 12
11 13 17
12 15 19
11 14 18
11 13 16
11 13 16
15 19 23
7 9 11
13 16 21
8 10 14
8 10 12
15 19 24
11 14 17
11 13 16
9 11 14
12 14 18
13 16 21
8 9 12
13 16 20
17 21 27
12 14 18
9 12 15
11 14 17
15 19 24
12 15 19
13 15 20
10 13 16
12 15 19
9 12 15
15 19 24
14 18 22
17 21 27
14 17 21
7 8 10
8 9 12
13 15 19
6 7 10
14 18 23
19 23 30
9 11 14
6 7 9
10 12 15
15 18 24
10 12 14
14 17 21
7 9 12
11 14 18
10 12 16
12 14 18
9 11 14
10 12 16
11 14 17
7 8 10
10 12 15
19 23 28
12 15 19
6 8 10
8 9 12
9 11 14
11 13 17
7 8 10
7 9 11
9 10 13
9 11 13
13 16 20
11 13 16
7 9 11
9 11 14
11 13 16
7 9 11
7 9 11
7 9 12
6 7 9
12 14 18
10 12 15
17 21 26
15 19 24
11 13 17
15 19 24
13 16 21
15 19 25
19 24 31
12 15 20
10 12 16
15 18 24
15 19 25
13 16 21
15 19 25
19 24 31
17 21 28
14 17 22
18 22 28
17 22 28
15 18 24
16 19 25
20 24 31
11 14 19
19 24 30
15 19 24
13 16 21
9 11 15
16 20 27
22 27 36
14 18 23
15 18 24
16 20 26
20 25 31
20 25 33
17 21 28
20 24 31
15 19 25
17 21 28
22 28 36
19 23 30
17 21 27
20 24 31
16 19 25
14 17 23
22 27 35
11 14 18
14 17 22
23 29 37
14 18 23
20 24 30
16 19 25
10 13 17
21 26 34
18 23 29
18 23 30
20 25 32
15 18 24
15 18 22
10 12 16
18 23 29
16 20 26
13 17 22
18 23 31
14 17 22
15 18 24
13 16 21
15 19 25
20 25 32
17 21 28
15 19 24
21 27 35
15 19 24
20 26 33
22 28 36
14 17 21
20 25 33
17 22 29
10 13 17
19 24 30
17 21 28
15 19 26
18 22 28
12 15 20
15 20 26
15 19 25
21 26 34
20 25 32
11 14 18
12 15 20
11 14 19
19 24 31
12 15 20
17 22 28
17 21 27
16 20 26
18 23 29
19 24 32
15 19 25
15 19 24
22 27 35
11 13 18
19 24 32
13 17 22
27 34 44
22 28 36
16 20 26
15 19 24
18 23 30
15 18 23
15 18 24
16 20 26
22 27 35
18 22 29
18 23 29
14 17 23
15 19 24
13 17 22
14 17 23
13 16 22
17 20 26
23 28 37
9 12 16
13 17 22
20 25 33
19 24 32
16 19 25
21 27 35
15 18 24
14 18 23
16 20 25
14 17 23
26 32 42
13 17 22
13 17 22
20 25 33
22 28 37
21 26 33
17 21 27
15 19 24
24 29 37
20 24 31
16 20 26
21 26 33
15 19 24
18 22 29
17 21 27
14 18 23
17 22 29
13 16 21
19 24 30
20 26 34
16 20 26
25 31 39
21 26 33
17 20 26
17 21 27
23 28 37
12 15 20
22 27 35
19 23 29
15 19 25
12 16 22
18 22 29
17 21 26
21 26 33
17 21 27
17 21 27
19 24 30
22 27 34
15 18 24
21 27 35
27 33 42
22 28 36
22 27 35
16 20 26
17 22 29
18 23 30
17 21 27
16 20 26
18 22 28
16 20 26
17 22 29
23 29 37
16 20 26
18 23 30
14 17 22
20 25 32
14 17 22
14 17 23
21 26 33
18 22 29
14 18 23
16 19 24
13 16 21
22 27 34
15 18 23
25 32 42
15 19 25
16 20 26
19 23 30
20 25 32
20 24 31
14 18 23
25 31 41
13 16 21
19 24 31
15 19 24
25 31 39
14 17 22
22 27 35
16 20 26
18 22 29
19 24 30
15 20 26
21 27 36
21 26 33
12 15 20
20 25 32
17 21 27
15 19 25
17 22 29
18 23 30
16 20 27
14 17 21
20 25 32
13 16 20
19 24 31
13 16 20
19 24 30
14 17 23
13 15 20
14 18 23
13 17 22
16 20 26
16 20 26
15 19 25
20 24 31
20 25 32
23 29 38
19 24 31
18 23 29
18 23 30
14 17 22
13 17 23
16 20 26
11 14 17
11 14 18
14 18 23
17 21 27
18 22 28
17 21 28
19 24 31
16 20 26
15 18 24
19 23 30
16 20 25
17 21 27
20 25 33
19 24 31
18 23 31
14 17 22
17 21 27
13 16 20
15 18 24
12 15 20
22 27 35
19 25 33
21 26 34
18 22 28
15 18 23
18 23 30
20 24 31
15 19 24
21 27 35
16 20 26
13 16 20
16 19 25
22 28 36
15 19 25
12 15 20
11 14 19
17 21 27
15 19 24
18 22 29
11 14 18
20 24 31
15 19 25
11 13 18
14 18 24
14 17 22
18 23 30
9 11 14
23 29 38
16 20 26
17 22 29
16 20 26
14 18 23
9 11 15
8 10 14
11 13 16
12 14 17
9 12 15
7 8 11
8 10 12
9 10 13
10 11 14
12 14 17
9 11 14
14 16 21
9 11 14
11 13 16
7 9 11
6 7 9
6 8 10
8 10 13
10 13 16
13 16 20
8 9 12
9 11 14
5 6 8
10 12 15
10 12 15
15 18 23
12 15 18
17 21 26
13 16 20
12 14 18
11 14 17
17 21 26
17 20 26
15 19 23
8 10 13
14 16 20
15 18 23
15 18 23
10 13 16
10 12 15
11 14 17
10 13 17
17 21 27
10 12 15
16 19 24
14 17 22
11 14 18
13 16 20
9 12 15
15 18 23
10 12 16
9 10 13
15 19 24
13 16 20
9 12 15
19 23 29
12 15 19
13 17 21
15 19 24
11 14 18
15 18 22
13 16 21
9 11 14
9 11 15
12 15 19
11 13 17
13 16 21
12 15 18
6 8 10
12 14 18
9 11 14
12 15 20
15 18 22
7 9 11
14 17 22
19 23 29
16 19 24
10 12 15
7 9 11
5 6 7
12 14 18
10 12 15
6 8 10
5 6 8
4 5 6
9 11 14
8 10 13
10 11 14
10 13 17
6 7 9
5 6 7
16 19 24
9 11 15
4 5 7
8 10 13
12 14 18
5 7 8
8 10 13
12 14 18
5 7 8
10 12 16
10 13 16
11 13 16
13 15 20
14 17 23
20 24 30
15 18 24
18 23 29
23 28 36
17 21 27
15 18 23
15 19 25
13 17 23
8 10 14
19 24 31
9 11 14
18 23 30
12 15 19
18 23 29
10 13 17
13 16 21
15 19 25
13 16 21
12 15 19
13 17 22
10 13 17
16 20 26
13 15 19
15 19 25
20 25 33
12 15 19
21 27 35
15 19 25
19 24 32
19 23 30
20 25 31
14 17 22
10 12 16
15 19 25
23 29 37
17 22 28
13 17 22
17 22 28
10 13 17
23 29 37
15 18 24
20 25 33
11 14 19
19 24 31
20 25 32
23 29 37
23 28 36
13 17 22
18 23 30
14 18 23
12 15 20
25 32 41
16 20 27
17 21 27
17 21 28
15 19 26
22 28 36
18 23 29
20 25 33
19 24 32
22 27 35
16 20 25
16 19 25
17 21 28
21 26 34
22 27 35
11 13 17
21 26 34
18 23 29
16 20 26
19 23 30
14 18 24
19 23 30
15 19 24
15 19 24
19 24 31
15 18 24
18 23 30
11 13 17
15 19 24
14 17 21
15 19 24
17 22 28
21 26 33
19 23 30
13 17 21
17 21 27
16 19 25
11 13 17
18 23 30
15 19 24
16 20 26
15 19 25
14 18 23
19 23 30
19 23 30
20 24 31
16 21 27
16 20 26
18 22 28
21 27 35
20 24 31
21 27 35
18 23 31
16 19 25
15 20 26
23 28 36
18 23 30
15 19 25
14 18 23
17 22 28
15 18 24
14 17 22
20 25 32
17 21 27
19 24 32
22 27 36
14 18 23
20 25 33
14 17 21
22 28 37
22 27 35
17 22 29
13 17 21
13 17 22
15 18 24
18 22 29
17 21 28
16 21 28
20 25 33
15 18 23
23 28 37
18 22 28
11 14 18
18 22 28
23 28 36
16 21 28
20 26 34
19 23 30
23 29 37
25 31 39
19 24 31
15 19 25
17 21 28
19 23 30
22 27 34
9 11 14
18 23 30
22 27 35
14 18 22
22 27 35
13 16 21
14 18 23
12 14 19
11 13 18
17 21 27
13 16 21
17 22 29
11 13 17
24 30 39
16 20 26
23 28 36
17 21 26
20 24 31
20 24 31
16 20 26
16 20 26
16 21 27
13 16 21
19 24 31
17 22 29
20 25 32
14 17 21
17 21 27
15 18 24
18 22 29
16 20 26
22 27 35
19 24 30
20 24 30
20 25 31
16 20 27
15 19 25
12 15 20
22 28 36
13 16 21
18 23 30
20 25 33
23 28 37
18 22 28
15 19 25
18 23 29
17 22 28
19 24 31
16 20 26
19 23 30
20 25 33
17 22 28
17 21 27
22 27 35
15 19 24
22 27 35
28 35 45
18 22 28
22 27 35
19 23 30
11 13 18
18 22 28
14 17 22
17 21 26
14 18 24
17 21 26
12 15 20
15 19 25
22 27 36
17 22 28
16 20 27
12 15 20
16 19 25
18 23 29
17 21 27
19 24 31
19 23 30
14 18 23
16 20 27
15 20 26
19 23 30
13 16 20
13 16 22
21 26 34
17 21 28
18 23 29
14 17 22
15 19 24
16 20 25
17 22 29
11 14 18
16 20 25
11 14 18
16 20 26
17 21 27
12 15 19
22 28 36
12 15 19
13 16 21
11 14 19
20 24 31
15 19 25
20 25 33
20 25 34
12 16 20
17 21 27
20 25 32
15 19 25
19 23 30
14 18 23
20 24 31
16 20 25
17 22 29
17 21 27
20 25 32
22 27 35
16 20 26
18 22 28
18 22 28
19 23 29
18 23 30
12 15 20
14 17 23
15 18 23
20 25 33
23 29 37
16 20 25
8 11 14
17 21 26
16 20 26
20 24 31
12 16 21
18 22 28
16 20 26
11 14 18
12 15 20
17 21 28
14 18 23
13 16 21
17 22 28
15 19 25
13 17 22
15 19 25
15 19 25
18 22 27
13 16 21
15 19 24
16 21 27
25 31 39
19 24 30
13 16 20
7 9 11
13 16 20
11 13 17
10 12 16
7 9 12
7 9 11
9 11 14
8 9 12
7 8 10
9 10 13
8 9 12
7 9 11
9 11 14
8 10 13
9 10 13
11 13 16
12 14 18
11 13 16
10 12 16
8 11 14
5 6 8
14 17 21
14 17 22
13 16 21
8 9 12
12 15 19
19 23 29
11 14 18
10 12 14
14 16 20
14 18 23
12 15 19
7 9 11
13 16 20
13 15 19
7 9 12
12 14 18
8 10 13
8 10 12
8 10 13
5 6 8
14 17 22
11 13 17
17 21 26
14 17 21
13 16 20
13 16 21
13 16 20
9 11 14
10 12 15
16 19 24
9 11 14
9 11 15
16 19 24
9 11 14
7 9 12
8 10 13
8 10 13
9 12 16
13 15 20
13 15 19
12 14 19
10 12 15
10 12 16
9 12 15
14 17 22
15 18 23
19 23 30
9 11 13
12 14 18
11 13 17
11 13 16
11 13 16
12 15 19
12 15 18
15 18 23
9 11 14
8 11 14
12 14 19
9 10 13
10 13 17
13 16 20
11 13 17
7 8 10
8 10 13
6 7 10
10 13 16
6 8 10
8 10 12
10 12 16
17 20 25
10 12 16
10 13 16
9 11 14
8 10 12
8 10 12
8 10 12
8 11 14
8 10 12
10 13 16
10 12 15
12 16 21
12 15 19
16 20 26
14 17 23
17 22 28
15 19 25
24 31 40
18 22 28
7 9 12
15 18 23
13 16 22
16 20 27
13 16 20
16 20 26
13 16 21
22 27 35
22 27 35
21 26 33
10 13 17
15 19 24
10 13 17
16 20 26
11 14 19
14 17 22
16 20 26
24 30 38
14 17 23
19 24 31
18 23 30
20 25 31
17 21 28
15 19 25
24 30 39
10 13 18
14 17 22
14 18 24
19 24 32
18 22 29
16 19 25
18 23 29
15 18 24
15 19 25
21 26 33
10 12 16
20 25 32
19 24 30
10 12 15
12 15 20
21 26 34
19 23 30
21 25 33
16 19 25
19 23 30
20 24 31
16 19 24
19 24 31
21 25 32
19 24 32
14 17 22
16 20 26
15 18 23
21 26 34
20 25 32
17 22 28
14 18 24
18 22 28
22 27 35
14 17 22
20 24 31
18 22 28
13 17 22
16 20 26
15 18 23
20 26 34
16 20 26
17 21 27
20 24 31
16 20 26
21 25 33
22 27 34
22 27 35
26 33 42
12 15 20
13 17 22
18 22 28
18 22 29
19 24 31
15 18 23
17 22 28
16 20 26
11 14 19
17 21 27
18 23 30
13 16 21
16 20 27
20 25 33
13 15 19
17 21 28
13 16 21
15 20 26
18 23 30
15 19 24
16 20 26
16 20 26
18 22 28
21 26 34
21 26 33
10 12 16
20 24 31
19 24 32
16 20 25
10 12 16
17 22 29
18 22 28
17 21 27
22 28 36
16 20 25
16 20 26
13 16 21
16 19 25
15 18 23
13 16 21
17 20 26
17 21 27
23 28 36
22 27 35
19 23 30
16 20 26
16 20 25
19 24 31
20 26 33
20 25 32
22 27 35
16 20 26
15 18 24
16 20 27
10 13 17
16 20 25
14 17 22
20 24 32
14 17 23
12 14 19
14 17 23
23 29 37
13 16 21
25 31 41
19 24 31
16 21 27
18 23 29
17 22 28
19 24 31
17 21 27
19 24 32
18 23 30
21 26 34
13 17 22
16 19 25
21 26 34
21 26 34
11 14 18
19 24 31
19 24 30
18 23 30
14 18 23
11 13 17
20 26 34
13 17 22
18 23 29
15 19 24
14 17 23
24 29 37
19 24 31
15 19 24
19 24 31
18 22 29
14 17 21
14 18 23
18 22 29
15 18 23
17 21 28
14 17 21
24 29 38
21 26 34
16 21 27
16 20 27
15 18 24
14 17 23
19 23 30
16 19 25
20 25 33
16 20 26
17 21 27
11 14 18
9 11 15
15 19 25
14 18 23
18 23 29
19 24 31
19 24 31
9 11 14
16 20 27
18 23 30
19 23 30
22 26 34
23 29 38
14 17 23
15 19 25
20 24 32
20 25 33
15 18 23
16 20 26
15 18 24
20 25 33
13 17 22
18 23 30
22 27 35
19 24 31
18 22 28
17 21 27
15 19 25
12 15 19
10 12 16
17 21 27
17 21 26
25 31 39
16 20 26
15 19 24
16 20 25
19 24 31
19 25 32
19 24 31
14 18 24
19 23 30
16 20 26
15 19 24
14 18 23
19 23 30
20 24 31
14 18 24
14 18 23
21 26 35
18 23 29
11 14 18
18 23 30
23 28 37
13 16 21
12 15 20
12 15 20
14 18 23
11 14 19
12 15 19
21 26 33
14 17 23
18 22 29
12 15 19
15 19 25
18 22 29
16 20 26
17 21 27
17 21 27
21 26 33
13 16 20
18 23 30
20 25 33
18 22 30
17 20 26
17 21 27
17 21 28
13 17 22
15 19 24
16 19 24
15 19 25
17 22 28
18 23 29
18 23 29
19 24 30
14 17 22
15 19 24
20 25 32
9 12 15
13 17 22
15 19 25
16 20 26
13 16 21
19 24 30
13 16 21
16 19 25
12 15 20
18 22 27
11 15 19
16 21 28
19 24 31
19 24 31
15 19 25
17 21 27
15 19 25
9 12 16
19 23 29
9 12 16
6 8 10
11 14 17
15 18 23
8 11 14
9 11 14
12 15 18
2 3 4
5 6 7
9 11 14
10 12 15
6 7 9
7 9 11
9 11 14
11 14 17
3 4 5
7 9 11
9 11 14
9 11 14
10 12 16
11 13 17
10 13 17
3 4 5
13 15 19
9 11 14
12 14 18
6 7 9
7 9 11
12 15 20
16 19 24
11 14 18
7 9 12
10 12 15
9 11 14
13 15 19
10 12 15
9 10 13
11 13 16
14 17 22
17 20 26
13 16 20
8 10 12
13 16 20
11 14 18
10 12 15
11 14 18
14 16 20
15 18 23
13 16 20
8 10 13
9 11 14
10 12 15
13 15 19
12 15 19
11 13 17
15 19 24
12 14 18
10 12 16
13 15 19
16 20 25
9 11 14
19 23 29
13 16 20
9 11 14
14 17 23
12 15 19
17 20 25
10 13 17
14 16 20
16 19 23
5 6 8
9 12 15
16 19 24
16 20 25
12 15 19
11 13 17
8 9 12
9 10 13
10 12 15
10 12 16
9 11 14
8 10 13
12 15 18
6 7 9
8 9 12
11 13 17
11 13 16
7 9 12
11 14 17
8 10 13
3 4 5
9 12 15
9 11 14
9 11 15
4 5 7
10 12 15
7 9 11
14 17 21
6 8 10
12 15 19
13 16 20
19 24 32
19 24 31
10 12 15
16 20 25
19 24 31
17 22 28
11 14 17
12 15 19
17 21 28
14 18 23
16 20 26
14 17 22
14 18 23
15 19 24
18 23 29
19 24 31
16 20 26
22 27 34
11 14 18
15 19 25
13 17 22
14 17 21
20 25 32
15 19 25
12 15 20
11 14 18
15 19 24
17 21 26
20 25 33
17 22 28
15 19 25
19 23 30
11 13 16
16 20 25
20 25 33
19 23 30
16 20 27
16 20 26
7 9 12
14 18 23
18 22 29
17 21 27
18 22 29
14 17 22
17 21 27
20 25 33
11 13 18
22 28 36
15 18 24
19 23 29
14 17 22
17 21 27
17 22 28
17 22 28
17 21 28
20 25 32
17 21 27
22 27 34
16 20 27
15 20 26
18 23 31
14 17 22
16 19 24
13 16 21
23 28 36
15 19 25
23 29 39
21 26 33
16 20 26
18 23 30
20 24 32
21 26 34
26 32 41
16 20 26
16 19 25
12 15 19
17 22 28
15 19 24
23 28 36
15 19 25
16 20 26
17 21 27
21 26 34
15 19 24
16 20 26
20 26 33
20 25 32
20 25 33
18 23 29
16 20 26
13 16 21
16 21 27
15 19 25
18 22 29
17 21 27
20 25 33
18 22 29
22 27 35
14 17 23
24 30 40
15 18 24
15 19 25
14 18 23
16 20 26
22 27 35
9 12 16
19 24 31
16 21 27
18 22 29
20 25 32
17 20 26
16 20 25
19 23 31
16 20 26
15 18 24
16 21 27
13 16 22
10 12 16
19 23 30
16 19 25
15 18 24
17 21 28
18 22 28
17 21 28
12 15 20
18 22 29
18 22 28
15 18 24
13 16 21
32 40 52
18 22 28
20 25 32
14 18 24
16 19 25
16 20 26
19 24 30
21 26 34
18 23 30
14 17 22
11 13 17
17 22 29
14 17 22
15 18 24
17 21 27
19 23 30
12 16 20
14 17 23
17 21 26
22 27 35
21 27 35
19 24 32
12 15 19
17 21 27
14 17 22
13 15 19
20 25 32
18 22 28
16 20 26
16 20 26
21 26 34
13 16 20
20 25 33
14 18 23
21 26 34
15 19 25
17 22 28
18 23 30
14 17 21
22 27 35
15 19 25
22 27 34
19 24 31
16 20 26
20 25 32
18 23 30
15 20 26
19 24 30
22 27 35
17 21 27
15 18 24
17 21 27
15 19 25
22 29 38
17 21 28
13 16 21
18 22 28
17 22 29
20 25 32
20 25 32
17 21 29
16 20 25
12 15 20
14 18 23
17 21 27
15 19 24
21 26 34
18 23 30
16 20 26
17 21 27
19 23 29
21 26 34
17 22 28
13 16 21
16 21 28
16 20 26
17 22 28
18 22 29
15 20 26
19 24 32
24 30 39
17 21 28
18 23 29
13 17 22
10 13 17
19 24 30
18 23 29
8 10 13
15 19 26
16 20 26
22 28 36
17 21 27
22 27 35
15 18 24
16 20 25
19 23 31
14 18 23
14 17 22
16 20 26
15 20 26
22 27 35
18 22 28
17 21 26
16 20 25
24 30 38
21 26 33
16 20 26
17 20 26
14 17 23
15 18 24
13 16 22
22 27 35
15 19 25
22 28 36
20 25 33
20 24 31
14 17 22
19 24 31
15 19 24
22 27 35
16 20 25
14 17 22
12 14 18
18 22 29
10 12 16
15 19 24
13 17 22
16 20 25
18 22 28
18 22 29
16 20 25
13 17 22
15 19 24
14 18 23
16 20 25
16 19 25
21 26 33
15 19 24
19 24 32
11 14 18
11 13 17
13 16 21
18 22 28
16 21 27
15 19 25
17 21 28
13 16 20
8 10 13
18 22 29
14 17 23
19 25 32
18 22 27
19 24 31
16 20 26
20 24 31
21 27 35
9 11 15
12 15 20
13 16 21
18 22 28
13 17 21
18 22 28
11 14 17
16 20 26
19 24 30
13 17 21
15 18 23
9 11 15
18 23 30
17 22 28
15 18 23
11 13 17
13 16 20
14 17 22
10 12 15
12 14 17
4 5 7
10 12 16
9 11 14
11 13 16
7 8 11
9 11 13
8 9 12
8 9 12
7 8 11
13 16 20
7 9 11
7 9 11
8 10 13
5 5 7
10 12 16
16 19 24
8 10 12
13 15 19
10 12 15
7 9 11
13 16 20
12 14 18
8 10 13
14 17 22
12 15 19
8 10 13
8 9 12
9 11 15
10 13 17
10 12 15
7 8 10
11 13 17
9 11 13
15 18 23
6 8 10
10 12 15
10 12 15
15 18 22
14 17 22
12 14 18
12 15 18
21 26 33
17 21 27
8 11 14
11 13 17
12 14 18
12 15 20
14 17 21
15 19 24
14 17 21
12 14 18
9 11 13
15 18 22
10 12 15
9 11 14
12 15 19
9 11 14
18 22 29
11 14 18
12 15 19
8 10 12
15 18 23
10 12 15
9 12 15
9 12 15
12 14 18
8 10 13
11 14 18
14 17 22
11 14 17
8 10 13
13 15 19
9 11 13
10 12 15
15 19 24
11 14 18
8 10 13
9 10 13
12 14 18
5 6 8
6 8 10
7 9 12
8 10 13
6 7 9
8 10 13
8 10 13
7 9 12
8 10 13
2 3 4
7 9 12
11 13 17
12 15 19
7 8 10
13 15 19
11 13 17
12 15 20
16 20 26
12 15 20
10 13 17
19 23 29
11 13 17
14 17 22
16 20 26
14 17 22
17 21 27
16 20 27
20 25 33
11 14 19
13 16 20
17 21 26
16 20 26
21 26 34
17 22 29
10 13 17
15 18 24
15 18 24
17 21 26
14 18 24
16 20 26
18 23 29
10 12 16
18 22 29
16 19 25
15 19 25
15 19 25
10 13 17
9 12 15
12 15 20
13 17 23
14 17 22
12 15 19
21 26 33
17 21 27
18 22 28
18 23 30
18 23 29
11 14 18
18 22 29
14 18 23
18 22 29
16 20 26
14 18 23
21 27 35
19 23 30
23 28 35
18 23 29
20 25 33
19 24 31
13 16 20
19 24 31
17 22 30
15 18 24
16 20 27
13 15 20
18 22 29
17 22 29
19 24 32
19 24 32
19 25 32
14 17 21
19 23 30
17 20 26
15 19 24
18 22 29
14 18 23
22 27 34
16 21 28
22 28 36
20 25 33
17 22 29
22 27 35
20 25 32
13 16 20
14 18 24
17 21 28
14 18 23
18 23 31
19 24 31
16 20 26
18 22 29
16 20 26
11 14 18
17 22 28
17 22 28
14 18 23
17 21 26
15 19 25
17 21 28
17 21 28
13 17 22
22 27 35
22 27 36
17 20 26
16 20 27
11 15 19
22 27 34
18 22 28
21 26 34
20 24 31
11 13 18
10 12 16
21 26 33
18 21 27
14 18 24
17 21 27
18 22 29
17 21 27
15 20 26
17 21 27
16 20 26
15 18 24
13 16 21
13 16 21
17 21 28
16 20 26
17 21 27
13 17 22
18 22 29
16 20 26
16 20 26
23 28 35
18 22 29
11 13 16
20 24 30
21 25 32
11 14 18
18 22 29
22 28 36
24 29 37
18 23 30
19 23 30
16 20 26
20 25 32
19 23 31
13 17 22
22 27 35
17 21 27
23 28 36
21 26 34
15 19 25
12 15 20
14 17 23
22 28 36
22 27 34
18 23 29
23 29 37
18 22 29
18 23 30
12 15 20
22 27 35
19 24 31
14 18 23
18 21 27
18 22 29
16 20 26
18 22 28
13 16 21
19 24 31
20 25 32
21 26 34
12 15 20
18 22 30
21 26 34
15 18 24
13 16 21
22 27 34
11 14 19
20 25 33
17 21 27
21 27 35
19 24 31
17 22 29
13 17 22
20 25 32
17 21 28
13 16 21
12 15 20
18 22 29
18 23 30
20 25 31
19 23 30
16 20 26
18 22 28
18 23 30
17 21 28
16 20 26
21 26 33
17 21 28
16 20 25
19 23 31
17 22 28
12 15 20
16 19 24
18 22 28
9 11 14
13 16 21
17 22 28
22 27 34
16 20 25
20 25 33
10 13 17
17 21 28
19 24 31
15 18 24
16 20 27
19 23 29
20 25 33
17 21 27
21 26 34
15 20 26
20 25 32
17 22 28
15 19 25
13 16 21
21 26 34
15 19 24
14 17 23
18 22 29
13 16 21
17 21 28
20 24 31
20 25 32
16 20 25
17 21 27
24 30 40
22 27 35
16 20 26
15 18 24
15 19 25
16 20 25
17 21 27
19 23 30
16 20 27
16 19 25
19 24 30
19 24 31
10 12 15
16 20 27
18 22 28
16 20 26
24 29 37
19 23 30
19 24 32
21 27 34
15 18 24
17 22 28
22 27 35
17 22 28
19 24 31
13 16 21
12 15 20
17 22 28
15 18 24
17 21 27
16 19 24
17 21 27
13 17 22
14 17 22
19 24 30
20 25 32
15 19 25
11 14 18
16 20 26
18 23 29
12 15 19
14 17 22
14 17 22
12 15 20
16 20 26
18 23 30
17 21 28
15 19 24
13 16 22
17 20 26
12 15 20
15 19 25
14 17 22
16 21 27
14 17 22
13 16 20
11 14 19
16 21 27
15 19 25
13 16 21
12 16 21
18 22 28
16 19 25
11 14 18
13 17 22
16 19 25
14 18 23
11 14 19
14 17 23
18 22 29
18 21 27
13 16 20
8 10 12
7 9 12
9 10 13
8 9 12
8 9 12
11 14 17
8 10 12
10 12 15
7 9 12
5 7 9
14 17 21
10 12 15
9 11 14
9 11 15
6 8 10
10 12 14
11 13 16
10 13 16
11 13 17
14 17 22
5 6 8
11 14 17
7 8 10
6 7 10
5 6 8
6 8 11
11 14 18
7 8 11
10 12 16
19 24 30
12 15 19
13 15 20
9 11 14
9 11 14
10 12 16
8 9 12
12 15 19
14 17 21
14 17 21
9 11 14
7 9 11
14 16 21
12 15 19
13 16 20
10 12 15
6 7 9
10 13 16
11 13 17
9 11 13
14 16 21
14 17 21
10 12 16
12 15 18
10 13 16
9 11 14
7 8 11
9 11 15
7 8 11
9 11 14
9 11 15
12 15 18
12 14 18
14 17 22
11 14 18
9 11 14
11 13 17
11 13 17
12 14 18
14 17 22
4 5 7
9 11 14
8 9 12
10 12 16
12 15 19
8 10 13
7 9 11
7 9 11
11 13 17
6 8 10
10 12 16
7 9 11
6 8 10
8 9 12
10 12 16
11 13 16
8 10 13
8 9 12
6 8 10
3 4 5
4 5 6
7 8 11
7 9 11
11 14 17
8 10 12
12 15 18
7 9 12
12 14 18
13 16 20
14 18 23
14 18 23
15 18 23
18 22 28
11 14 18
11 13 17
12 15 19
17 20 26
17 22 28
19 24 31
18 23 30
16 20 26
18 22 29
18 22 29
19 23 29
16 20 25
12 16 21
16 20 26
14 18 24
16 20 26
19 24 31
18 23 30
19 24 32
10 12 15
17 22 28
16 20 26
13 15 19
10 12 16
10 13 17
22 27 35
16 21 27
18 22 29
16 20 26
14 18 23
12 15 19
9 11 15
15 19 25
11 14 18
13 16 22
18 22 29
8 10 12
16 20 26
12 15 20
21 27 34
19 23 29
19 24 31
16 20 27
26 33 42
16 20 26
15 18 24
12 15 20
18 23 30
13 16 21
16 19 25
13 17 23
17 21 27
19 23 30
16 19 25
20 25 32
16 20 26
16 20 26
13 16 21
17 22 29
18 23 30
13 16 21
17 22 28
12 16 20
23 28 36
18 22 28
15 19 24
17 22 29
17 22 29
14 18 24
17 22 28
17 22 28
13 16 21
19 24 31
11 14 19
14 18 23
14 17 23
14 18 23
14 18 23
17 21 26
15 19 24
13 16 21
17 22 28
15 20 26
21 26 33
21 26 34
19 24 31
12 15 19
16 20 26
20 26 33
11 14 18
15 19 25
18 22 28
19 24 31
18 22 28
16 19 25
17 22 28
21 26 34
13 16 21
18 23 29
18 23 30
18 22 28
23 29 38
24 29 36
15 19 25
25 31 40
16 20 25
18 22 28
15 19 24
20 25 33
16 21 27
18 22 29
18 22 30
15 18 24
19 24 32
18 23 30
15 18 23
21 26 33
16 21 27
18 22 29
18 23 30
21 26 33
19 23 30
19 23 30
12 15 20
16 20 26
16 20 25
20 24 31
20 24 31
18 23 30
20 24 31
21 25 33
15 19 26
22 27 34
15 19 26
18 23 29
13 16 20
12 16 21
24 29 38
21 26 33
15 19 24
23 28 37
16 20 25
18 22 28
19 24 30
19 23 30
19 23 30
18 23 30
22 27 36
14 17 22
16 20 26
16 21 27
14 18 23
18 22 28
24 30 38
19 23 30
16 20 25
15 18 23
17 21 27
18 22 29
16 19 24
17 22 28
10 14 18
14 18 23
18 22 28
13 16 21
15 18 23
15 19 25
12 15 19
14 17 22
13 16 21
20 24 31
20 25 32
17 21 28
17 22 29
20 25 31
15 18 24
14 17 22
22 28 36
18 22 28
20 26 34
10 12 16
18 23 29
15 18 23
18 23 30
17 22 28
19 24 31
18 23 31
22 28 37
21 27 35
20 24 31
14 18 23
16 20 26
13 17 22
22 28 36
15 19 24
12 15 19
19 24 31
22 27 36
18 23 30
17 22 28
22 27 35
12 15 20
21 26 33
17 21 27
18 23 30
12 15 19
18 23 29
20 25 32
16 20 26
13 16 22
19 24 31
12 14 19
17 21 27
15 18 23
20 24 31
14 18 23
14 19 25
14 17 23
17 21 26
21 27 35
15 19 24
17 20 26
16 20 26
13 16 20
23 28 36
19 23 30
13 16 21
13 17 22
14 18 23
14 17 22
16 20 26
15 19 25
19 24 31
22 27 35
21 26 34
17 21 27
19 24 30
17 21 27
19 23 30
21 26 34
19 24 31
20 24 31
22 27 34
15 18 24
21 26 33
21 27 35
19 24 31
15 19 25
15 19 25
13 17 22
21 26 34
11 14 18
15 18 23
20 25 32
14 17 22
11 14 19
12 16 21
14 17 22
19 24 30
16 20 26
17 21 27
15 19 25
11 14 19
11 13 17
18 22 29
17 22 29
21 27 35
16 20 26
18 23 30
13 16 20
14 17 22
12 14 19
22 27 35
10 13 17
19 23 28
13 16 21
15 18 24
13 16 21
16 20 25
13 16 20
13 16 21
13 16 20
21 26 33
23 28 36
15 19 25
17 21 27
14 18 23
11 14 19
12 14 18
7 8 11
17 21 27
14 18 23
8 10 13
10 12 15
12 14 18
13 16 20
9 11 15
13 15 20
10 12 16
10 12 16
4 5 7
8 10 12
11 13 16
5 6 8
9 11 14
9 11 14
11 13 17
10 13 16
7 8 10
10 12 15
10 12 15
8 10 12
9 11 15
7 8 10
7 8 10
10 12 15
7 9 11
7 9 11
10 12 16
8 10 14
10 13 16
11 13 16
7 8 10
9 11 14
13 16 20
10 12 16
9 11 14
14 18 23
9 11 14
9 11 14
8 10 12
11 14 17
7 9 11
13 16 20
11 13 17
10 12 15
12 15 18
13 16 21
9 11 14
15 19 24
5 7 9
11 13 16
9 11 14
4 6 7
11 13 17
11 13 17
8 10 12
9 11 14
14 17 21
17 21 26
9 11 14
11 13 17
17 20 26
10 12 16
16 20 25
9 11 14
11 14 17
12 14 19
16 19 24
6 7 10
17 20 26
9 11 14
12 14 18
5 6 7
16 19 25
8 10 13
13 16 21
12 15 19
10 12 15
11 14 17
11 13 16
11 13 16
8 10 13
8 10 13
7 9 12
12 14 18
10 12 15
9 11 13
10 13 16
6 7 9
9 12 15
6 8 10
9 11 14
4 5 6
4 5 7
8 10 13
11 13 17
7 8 10
7 8 10
12 15 18
4 5 7
12 15 19
13 16 20
5 6 8
11 14 18
18 23 29
16 20 26
10 12 16
15 19 24
21 26 34
14 17 22
8 10 14
18 23 30
18 22 28
19 23 30
15 19 24
15 18 24
13 16 21
13 16 20
17 21 27
16 20 25
16 20 25
18 23 30
12 15 19
14 18 22
10 13 17
10 13 18
16 19 25
11 14 18
14 17 22
15 18 23
13 17 22
12 15 19
18 22 29
14 18 24
14 18 23
15 18 22
17 21 27
10 13 17
13 17 22
23 29 37
17 22 28
12 16 20
15 19 25
11 14 18
19 23 30
14 18 22
21 26 34
20 25 32
17 21 27
12 14 18
18 23 30
17 21 28
13 16 20
16 20 27
9 12 15
18 22 29
19 24 30
23 29 37
12 16 21
12 15 20
13 16 20
15 19 25
18 22 29
15 18 24
19 23 30
19 24 31
16 20 25
16 20 26
12 15 20
17 21 28
13 15 20
22 27 34
13 16 21
14 18 24
12 15 20
17 22 29
16 20 26
20 24 31
19 24 31
22 27 34
17 21 27
14 16 20
15 19 25
16 20 26
16 20 25
14 17 21
15 19 26
18 23 30
16 19 25
19 23 29
19 23 30
21 27 35
19 23 30
17 22 28
18 23 30
17 21 27
20 26 33
22 27 34
15 19 26
17 21 27
13 16 20
15 18 24
20 25 32
17 22 28
22 27 35
16 20 27
14 18 23
11 14 18
19 23 29
12 15 20
18 22 29
13 17 22
12 16 20
22 28 36
17 21 28
20 25 32
18 22 28
13 16 20
19 24 31
14 18 23
16 20 27
17 21 27
11 13 18
18 22 29
11 13 17
18 22 28
19 24 31
15 19 24
18 22 28
21 26 34
12 15 21
21 26 33
16 20 25
15 20 26
13 16 21
18 22 29
20 25 32
13 17 22
16 20 26
11 13 18
11 14 18
17 21 28
18 21 27
16 20 25
18 22 28
17 20 26
11 15 19
18 22 28
12 15 19
14 18 24
14 18 23
21 26 33
16 19 24
19 23 29
17 21 28
15 19 24
16 20 26
17 20 25
16 20 26
13 17 21
15 19 24
19 24 31
19 23 30
19 23 30
16 20 26
13 16 21
15 19 24
15 19 25
18 23 29
18 23 31
13 16 20
20 26 34
18 23 30
18 23 30
14 18 23
17 21 27
17 21 27
16 19 25
19 24 31
17 21 28
19 23 30
21 27 36
17 21 27
14 17 23
16 19 25
15 18 23
17 21 27
21 26 34
14 17 23
16 20 26
21 25 33
19 22 28
17 21 27
21 26 34
22 27 35
20 24 31
16 20 25
17 21 28
14 17 22
15 19 24
21 27 35
17 21 27
22 28 37
14 18 23
16 20 26
19 23 29
10 12 15
11 14 18
12 15 19
19 23 31
15 19 25
11 15 20
15 18 24
16 20 26
16 20 26
14 17 22
20 24 31
12 16 21
16 20 27
22 28 37
16 20 26
13 17 22
14 18 23
17 21 28
18 23 30
21 26 33
21 26 33
19 23 30
14 18 22
20 25 32
16 20 26
15 19 24
18 23 29
15 19 25
12 15 20
14 18 24
13 17 22
14 18 23
17 21 28
19 23 30
15 18 24
19 24 31
17 21 28
18 23 29
20 25 32
21 27 35
17 22 28
19 23 31
18 23 29
21 25 32
15 19 25
15 19 25
13 16 21
18 22 28
19 23 29
17 22 28
18 23 30
14 17 23
11 14 18
19 24 31
12 16 20
15 18 24
15 19 25
19 25 33
15 19 24
17 21 27
18 22 28
16 20 26
15 18 24
14 17 23
19 24 31
18 22 30
16 20 26
13 16 21
17 21 27
15 19 25
8 11 15
11 13 17
10 13 18
21 26 33
15 19 24
16 20 26
18 22 29
12 15 19
17 21 27
12 15 19
13 16 20
17 22 28
14 17 22
9 11 14
20 24 31
24 29 38
15 19 25
14 18 24
14 17 22
18 22 28
18 22 30
16 20 26
13 16 21
16 20 25
8 10 13
11 14 19
11 14 18
15 18 23
19 23 29
17 20 26
7 9 11
13 16 21
11 14 19
8 10 13
6 8 10
7 9 12
8 10 12
7 9 11
6 7 9
9 11 15
7 8 11
8 10 13
6 8 10
6 8 10
7 8 10
7 8 10
2 3 4
5 6 7
11 13 17
6 8 10
9 12 16
8 11 14
7 8 10
8 9 12
11 13 17
11 13 16
10 12 16
6 8 10
9 11 14
12 15 18
9 11 13
12 15 19
11 13 16
9 11 14
11 14 17
11 13 16
8 10 13
8 9 12
9 11 14
7 9 11
9 12 15
3 4 5
10 12 15
12 14 18
11 14 17
9 11 14
14 17 22
9 11 14
12 15 19
12 15 18
12 14 18
10 12 15
9 11 13
8 10 12
14 17 22
12 15 19
12 15 18
11 14 17
11 13 16
14 17 21
14 17 22
13 16 21
15 17 22
12 14 17
10 13 16
9 11 15
10 12 15
11 13 17
14 17 21
10 12 15
12 15 19
7 9 12
7 9 11
11 13 17
12 15 18
3 4 6
16 19 23
9 11 15
9 11 15
13 15 19
8 10 13
11 13 17
11 14 17
5 6 8
12 14 18
10 12 15
8 9 11
6 7 8
9 11 14
7 8 10
7 9 11
12 14 18
6 7 9
10 13 17
8 10 12
10 13 16
10 12 16
11 14 18
15 19 24
14 18 23
15 18 23
10 12 16
13 16 21
15 19 24
21 26 34
13 17 22
14 18 23
12 16 20
15 18 23
15 19 25
12 15 20
17 21 28
16 20 25
18 22 29
11 15 19
17 21 28
19 23 30
13 16 21
13 16 21
16 21 27
18 23 29
16 19 24
14 18 23
24 31 40
14 17 22
14 18 24
14 18 23
18 22 29
16 20 26
12 16 21
10 13 17
18 22 29
15 18 23
13 17 22
12 14 18
17 22 29
8 11 14
10 13 16
21 26 34
15 19 25
21 26 35
17 21 28
16 20 26
21 26 33
16 19 24
16 20 26
14 17 22
18 23 30
14 18 23
15 18 24
16 21 27
18 23 30
9 11 15
10 13 17
16 20 25
16 19 25
12 15 19
14 17 23
15 19 25
13 16 20
14 18 24
16 20 26
20 25 33
17 21 27
19 24 31
17 21 26
20 24 31
18 22 28
19 23 31
15 20 26
17 21 27
18 22 29
15 19 24
26 31 40
15 19 25
8 10 13
16 21 27
23 28 35
15 18 24
24 29 38
16 20 26
20 25 32
21 26 34
9 12 15
12 15 20
19 23 29
19 23 29
22 27 35
18 23 29
17 21 27
20 25 32
12 15 20
17 22 29
14 17 22
19 23 30
21 26 34
16 20 26
16 20 26
14 18 23
13 17 23
16 19 24
17 21 27
12 15 20
22 26 33
8 10 13
22 27 35
16 20 25
16 20 25
14 17 22
16 20 26
24 29 38
17 21 28
16 20 25
20 25 32
11 14 18
14 18 24
22 27 35
19 24 32
15 18 23
16 20 27
13 17 22
25 32 41
15 19 24
13 17 21
18 22 29
18 22 28
15 19 25
20 25 32
19 24 31
24 30 38
19 24 31
21 27 34
13 16 21
16 20 26
15 19 24
18 22 28
20 25 32
19 24 31
22 28 36
16 20 26
25 32 42
19 23 29
13 17 23
16 20 25
19 23 30
20 25 32
15 19 26
22 28 37
19 23 30
19 24 32
14 18 23
13 17 22
18 23 30
17 22 28
19 23 30
19 24 31
20 24 31
18 22 29
16 21 27
18 23 29
16 20 26
18 22 28
15 19 25
18 23 31
22 28 36
16 20 27
12 16 21
13 17 22
14 18 24
10 12 16
25 31 40
15 18 24
17 21 27
13 17 21
23 29 38
20 25 32
14 18 23
19 23 30
12 15 20
17 21 28
23 28 35
16 21 27
18 23 30
25 31 39
20 24 31
19 23 30
20 25 32
13 16 22
17 21 27
21 26 34
21 26 33
17 22 29
16 20 26
16 20 26
17 21 27
16 21 27
19 24 32
20 25 33
12 15 20
16 20 25
21 26 34
22 27 34
16 20 27
16 20 26
15 18 24
15 18 24
21 27 35
19 23 30
17 22 29
13 17 22
19 24 31
20 25 33
15 19 24
19 24 32
15 19 24
15 19 25
22 27 35
15 18 24
20 24 31
17 22 28
13 16 20
17 21 27
15 18 24
15 19 25
20 25 32
20 25 32
8 10 13
12 14 18
19 24 32
16 20 25
15 19 24
17 21 27
18 22 29
17 21 27
12 15 20
20 24 31
20 24 31
17 21 28
16 19 23
18 22 28
19 24 32
20 24 31
14 18 24
16 20 26
19 23 29
21 26 34
17 22 28
14 18 23
17 21 28
12 15 19
17 21 26
12 15 19
14 17 22
17 21 27
15 19 24
12 16 21
16 21 27
9 11 16
13 16 21
14 18 23
17 21 27
15 18 24
17 22 28
21 26 33
13 16 21
14 17 22
17 21 27
19 24 30
16 20 26
11 13 17
13 16 20
15 18 24
12 15 19
16 20 26
12 15 19
13 16 21
15 19 24
19 23 29
16 20 26
16 19 25
16 20 26
14 18 23
16 21 27
16 20 26
16 20 26
14 17 22
20 24 32
19 25 32
13 15 20
13 16 22
11 14 18
18 22 28
18 22 29
13 16 21
11 14 18
18 22 28
13 16 21
17 21 27
6 8 10
14 17 21
19 23 29
17 21 26
19 23 30
18 22 28
11 13 17
13 16 20
14 16 20
10 13 16
9 11 14
9 10 13
11 13 16
10 12 16
8 10 12
8 10 13
8 9 12
7 8 10
3 3 5
11 13 16
9 11 14
3 4 6
5 6 8
6 7 9
4 5 6
12 14 18
4 5 7
8 10 12
8 10 12
10 12 15
4 5 6
14 18 23
9 11 14
8 10 12
11 14 18
10 12 15
10 13 17
10 12 15
14 17 21
10 12 15
12 14 18
12 14 18
13 15 19
12 15 19
5 6 8
7 9 12
13 15 19
12 15 19
7 8 10
11 14 19
11 13 17
12 15 19
16 19 24
9 11 15
17 20 25
9 11 14
11 14 17
10 12 15
13 16 20
13 16 20
15 18 22
14 17 22
14 17 21
10 12 16
10 12 15
13 16 20
11 13 17
10 12 15
8 10 12
11 13 16
10 12 16
9 11 14
10 13 16
11 13 17
3 4 6
10 12 15
4 5 7
9 11 15
8 9 12
8 9 12
9 12 15
12 14 18
13 15 19
8 10 12
5 6 8
10 13 16
6 8 10
9 11 13
8 10 12
7 9 11
5 7 9
8 10 14
8 10 12
8 10 13
7 8 10
10 13 16
7 9 12
9 11 14
16 20 26
9 11 14
10 13 17
7 9 11
12 15 19
13 16 21
14 17 22
15 19 24
16 20 26
13 17 22
14 18 22
16 20 26
14 18 23
17 21 27
10 13 18
13 16 21
17 21 27
15 19 24
12 15 19
17 22 28
9 12 16
16 20 26
17 21 27
16 20 25
11 14 18
18 23 29
14 18 24
14 18 25
15 19 24
17 21 28
12 15 20
13 17 22
12 15 20
21 26 34
16 20 25
12 15 20
14 18 23
22 27 34
17 20 26
16 19 25
19 23 29
11 13 17
11 14 18
19 24 30
18 22 28
12 15 19
14 18 23
17 21 27
10 12 16
17 21 26
17 21 27
20 25 33
22 28 36
22 27 35
17 21 27
12 16 20
19 24 31
13 17 22
16 20 26
12 15 20
13 16 20
16 21 28
15 20 26
12 15 19
14 17 22
13 16 20
19 24 31
14 18 24
15 19 25
13 16 21
17 21 26
14 17 23
17 21 26
15 19 24
13 16 21
19 23 31
15 19 24
16 20 26
14 17 22
21 26 33
13 16 21
14 17 22
15 19 24
18 22 30
12 15 19
13 16 21
15 18 24
15 18 24
20 24 30
13 17 22
18 23 30
19 24 31
18 22 29
17 21 27
17 21 27
14 18 23
9 12 16
16 20 26
22 26 33
16 20 26
10 13 17
20 25 32
13 15 20
20 25 32
22 27 35
28 35 46
20 25 32
20 25 32
18 22 29
18 22 28
19 24 30
20 26 34
19 24 31
11 14 18
20 25 32
20 25 32
23 29 37
8 10 13
17 21 27
18 22 29
17 21 28
17 21 28
16 21 27
16 20 26
16 19 25
19 24 31
22 28 36
16 19 25
17 22 29
12 15 20
16 19 25
15 19 24
21 26 33
17 21 28
22 27 34
15 19 24
15 19 25
13 16 21
16 20 26
14 17 22
17 20 26
15 19 24
15 18 23
16 20 26
13 17 21
22 27 35
24 29 38
17 21 26
15 19 25
18 22 28
15 19 24
15 19 24
15 19 25
18 22 29
17 22 28
22 27 35
15 20 26
24 30 39
18 22 29
18 22 28
14 18 23
20 24 32
25 31 39
15 19 24
21 27 35
22 28 37
15 19 24
16 20 25
14 17 22
21 26 32
15 19 24
12 15 20
14 18 24
14 17 22
22 27 35
14 18 23
22 28 36
18 22 29
13 16 21
18 22 29
16 20 26
11 13 16
16 20 25
14 18 23
16 20 26
19 24 30
9 11 15
13 16 21
17 22 29
13 16 20
12 14 19
19 24 31
17 21 27
18 22 29
17 21 27
22 28 37
16 20 26
13 15 20
16 20 27
20 24 32
14 18 23
18 22 28
13 17 22
20 24 31
17 22 28
15 19 24
19 24 31
15 19 24
18 22 28
16 20 26
20 25 32
12 16 21
18 22 28
23 28 36
16 19 25
16 20 25
21 26 34
20 24 31
18 22 29
20 26 33
11 15 20
21 27 35
17 22 28
17 20 26
18 22 29
20 25 33
18 21 27
11 14 18
15 19 24
19 23 30
18 22 29
11 14 18
18 23 30
21 27 36
17 21 28
13 16 21
16 20 27
22 27 36
22 27 36
20 25 32
17 21 27
17 21 26
14 17 23
12 15 19
14 17 23
18 22 29
11 14 18
25 31 40
16 20 26
16 20 25
13 16 21
15 20 26
14 17 21
18 23 31
15 19 25
14 17 22
21 26 34
12 16 21
13 17 22
17 22 29
19 23 29
18 23 30
15 19 24
14 18 23
18 22 29
11 13 17
15 19 26
10 13 17
16 19 25
16 21 28
19 23 30
14 17 23
12 15 20
17 22 28
17 21 27
10 13 16
12 15 20
17 21 27
12 15 19
15 18 24
12 15 19
13 16 21
17 21 27
17 21 28
15 19 24
22 28 37
14 17 22
16 20 27
16 20 25
13 17 22
19 23 29
16 20 25
19 23 30
11 14 18
18 22 28
9 11 14
19 23 29
12 15 20
21 25 33
13 16 21
13 16 20
17 21 27
17 21 27
17 21 26
13 16 20
11 13 17
16 20 25
14 17 23
13 16 20
7 9 11
8 10 12
8 10 13
9 11 14
7 9 11
5 6 8
8 10 13
7 9 12
5 6 8
7 8 11
6 7 9
6 7 9
9 10 13
9 12 15
6 8 10
10 12 15
6 8 10
6 7 9
11 13 16
11 14 17
7 8 10
13 16 20
9 11 15
9 11 14
13 16 21
7 9 11
10 13 16
10 12 15
11 13 16
10 12 15
14 17 22
9 11 14
9 11 15
15 18 23
10 13 16
16 19 24
9 12 15
10 13 16
8 9 11
12 15 19
12 15 19
18 22 27
11 14 17
9 12 15
13 16 21
16 19 24
10 12 15
12 15 19
10 12 14
11 13 17
11 13 17
13 15 19
11 13 16
12 15 19
10 12 16
16 19 24
7 9 11
14 17 21
14 16 21
13 15 20
9 12 15
10 12 15
11 14 17
7 9 11
4 5 7
4 5 6
10 12 15
12 14 18
9 11 14
7 8 11
11 14 17
7 8 11
11 13 16
7 8 10
11 13 16
8 10 13
6 8 10
10 13 16
7 9 11
7 9 11
6 8 10
8 10 13
11 13 16
9 11 13
11 13 16
4 5 7
9 12 15
9 10 13
14 17 22
9 11 14
9 12 15
12 16 21
12 14 18
13 15 19
11 14 17
14 17 22
19 23 30
19 23 30
18 22 29
8 10 14
13 17 21
10 13 17
17 20 26
16 20 26
12 14 18
14 18 23
11 14 18
13 15 19
16 19 25
15 18 23
12 15 20
13 16 21
17 21 27
18 23 30
13 16 21
17 21 27
10 13 17
17 21 27
16 20 26
11 14 19
16 19 25
13 16 21
9 11 15
15 19 25
15 19 25
12 15 19
23 29 37
19 24 30
14 17 22
20 25 32
21 27 34
15 19 25
17 21 27
16 19 25
12 14 19
23 27 34
14 18 23
9 12 16
15 19 26
16 21 27
15 19 25
15 19 24
16 20 26
13 17 22
20 25 32
18 22 29
17 21 27
17 22 29
17 21 27
17 20 26
20 25 33
15 19 24
10 13 17
22 27 35
12 15 19
15 18 24
20 25 32
13 16 22
18 22 29
21 26 33
18 22 29
17 20 26
14 18 24
21 27 34
20 25 33
20 25 32
20 24 32
17 21 28
17 22 28
15 18 23
13 15 20
20 24 32
19 24 32
18 22 29
16 21 27
17 22 29
15 19 25
22 27 34
10 12 16
17 21 28
14 18 23
21 26 33
21 25 32
20 24 31
13 16 21
13 16 21
12 15 19
17 21 28
19 24 31
12 15 19
18 22 29
13 16 21
14 18 24
16 20 26
17 21 27
17 22 28
20 25 32
16 21 27
19 24 31
13 16 21
11 13 17
18 22 29
16 20 26
13 16 21
15 19 25
13 16 21
14 17 22
17 22 28
13 16 20
14 17 23
16 20 25
19 23 30
18 23 30
20 25 31
18 23 30
15 19 25
13 16 20
17 21 27
15 19 25
17 21 28
19 23 30
18 22 28
13 16 21
21 26 34
15 19 24
17 21 28
10 12 16
15 19 26
12 15 20
17 22 28
15 19 24
12 15 19
17 21 27
13 16 21
17 21 27
20 25 32
17 21 27
17 21 27
20 25 33
10 13 17
18 23 30
16 21 27
17 21 28
21 26 34
18 22 29
20 25 33
18 22 29
16 21 27
17 21 27
19 24 30
16 20 26
11 14 18
19 23 31
17 21 27
18 22 28
18 22 29
15 18 24
15 18 24
13 16 21
23 28 37
16 20 26
16 20 25
22 27 35
20 25 32
18 22 29
15 19 25
11 14 19
16 20 26
19 23 30
17 21 28
16 20 26
19 24 31
17 21 28
15 19 26
13 16 21
19 24 31
13 17 21
24 30 40
14 17 22
20 25 33
21 26 34
19 24 32
15 20 26
12 15 19
29 36 47
18 22 29
12 15 20
20 25 33
17 21 27
27 34 45
20 24 32
15 18 24
17 21 28
16 20 27
17 21 27
21 26 34
18 22 29
14 17 22
13 17 23
17 20 26
18 22 28
17 20 26
20 26 34
17 21 27
13 17 22
18 22 29
26 32 41
15 19 25
15 18 24
15 19 25
21 26 34
11 14 18
14 18 23
16 20 26
19 23 30
14 18 23
20 25 32
20 24 32
27 33 43
19 23 30
19 24 31
16 20 25
14 18 23
15 18 24
14 17 22
19 23 30
17 21 28
16 20 26
11 14 18
21 26 33
10 12 16
17 21 28
16 19 25
15 18 23
20 24 32
21 26 35
15 19 25
21 25 33
16 21 27
19 23 30
18 22 29
9 11 14
20 25 32
15 19 25
13 16 21
18 23 29
16 20 27
18 22 29
12 15 20
15 19 24
18 22 29
14 17 23
14 18 24
17 21 28
15 18 24
12 15 20
17 21 26
15 19 24
22 27 35
13 16 20
11 14 19
14 17 23
19 23 31
15 18 24
14 18 24
8 9 12
17 20 26
13 17 22
15 18 24
13 16 22
18 22 28
12 15 20
12 15 19
11 13 17
10 13 17
19 23 29
14 17 23
18 22 27
15 19 25
12 15 19
16 21 28
12 15 20
16 19 25
17 20 26
11 14 18
15 19 24
15 19 24
16 20 26
16 20 25
13 16 21
15 19 24
19 23 29
11 14 18
16 20 26
13 16 21
13 17 23
13 16 21
19 24 31
18 21 27
14 17 22
7 9 11
13 16 20
6 7 9
9 10 13
11 13 17
8 10 12
8 10 13
9 11 14
6 8 10
9 10 13
11 14 17
10 12 14
7 9 11
3 4 5
10 13 16
9 12 15
7 8 11
8 9 11
7 9 11
12 15 19
8 9 11
8 10 13
10 12 15
9 10 13
6 8 10
9 11 14
14 17 21
6 8 10
7 9 11
11 13 17
8 10 13
6 8 10
7 9 11
13 16 19
12 15 18
8 10 13
6 8 10
15 19 25
14 17 20
9 11 15
21 26 34
9 11 14
10 12 16
11 13 17
10 13 16
9 11 14
11 14 17
13 16 20
11 13 17
11 14 18
10 13 16
12 15 19
12 15 19
8 10 12
4 4 6
13 16 20
13 16 20
5 6 8
4 5 6
9 11 14
8 10 13
10 12 16
7 8 10
11 14 18
7 8 11
7 8 11
9 11 14
12 14 18
7 8 10
9 10 13
9 11 14
9 11 14
8 10 13
4 5 7
6 7 9
11 14 17
7 8 10
3 3 4
10 12 15
9 11 13
8 10 12
3 4 5
6 7 9
12 14 18
9 10 12
7 9 11
9 11 14
7 8 10
10 12 16
7 8 11
14 18 23
7 9 12
15 19 25
14 18 22
9 11 15
13 16 21
15 19 24
13 16 21
17 21 27
17 21 27
15 19 24
17 21 27
11 14 18
17 22 28
16 19 25
11 13 17
16 19 24
19 24 31
18 22 28
16 20 26
11 14 17
15 18 24
13 17 22
17 20 26
12 15 19
15 18 23
15 18 23
15 19 25
14 17 22
17 21 26
19 24 31
17 21 27
17 21 26
11 13 17
14 17 22
13 16 21
22 28 37
17 22 29
18 23 30
20 25 32
17 22 29
22 26 33
15 19 26
13 16 21
13 16 21
18 22 29
19 24 30
13 16 21
16 19 25
19 24 31
17 22 28
15 18 24
16 20 26
19 23 30
14 17 22
21 26 34
17 21 28
19 24 30
19 24 31
13 16 22
11 14 18
23 29 38
21 26 32
14 18 24
14 17 22
17 22 29
13 16 20
15 19 25
16 20 25
13 16 21
20 25 33
16 20 26
18 23 30
16 20 26
12 15 20
19 25 33
14 18 23
15 20 26
16 21 28
14 18 23
11 14 18
16 19 25
19 24 32
14 18 23
19 24 31
17 21 27
18 22 28
12 15 19
12 16 20
15 19 24
14 17 22
11 14 19
15 19 25
13 16 21
16 20 26
16 20 26
18 22 27
14 17 23
16 21 27
16 19 25
13 16 20
18 22 29
12 15 20
16 20 26
17 21 28
17 21 27
17 21 27
12 15 20
18 22 29
16 20 26
11 14 19
16 20 25
13 17 21
20 24 31
19 24 32
14 18 23
12 15 20
18 22 28
16 20 26
18 22 29
20 25 33
21 25 32
11 13 17
14 18 23
21 27 34
20 24 31
18 22 28
19 24 32
22 28 37
18 22 28
21 26 33
24 30 39
18 23 29
18 23 30
16 20 26
22 27 35
12 15 20
19 23 30
18 22 29
23 28 36
17 22 29
16 20 26
19 23 30
15 18 23
14 17 22
20 25 33
21 26 34
23 28 37
11 14 19
18 23 31
13 16 21
19 24 31
16 20 26
18 23 29
21 27 35
16 21 27
15 19 24
18 23 30
19 24 31
19 23 30
17 21 27
19 24 31
19 23 29
17 21 27
14 18 23
15 18 23
20 25 32
24 30 39
15 19 24
13 17 22
19 23 30
12 15 20
18 23 30
14 18 23
14 17 23
19 24 30
17 21 27
13 16 21
25 31 40
24 30 38
20 26 34
18 22 28
17 22 28
20 25 32
17 22 28
11 14 18
19 23 31
14 18 23
16 19 25
16 20 26
18 22 28
17 22 29
17 21 27
12 15 19
18 23 30
18 22 29
16 20 26
15 19 25
14 18 24
23 28 37
17 22 28
10 13 18
18 23 31
17 22 29
19 24 31
18 23 30
15 18 24
23 28 37
14 18 24
14 18 24
16 20 26
18 22 28
18 22 28
10 13 17
12 15 19
19 24 31
19 23 30
14 16 21
17 21 28
16 20 26
14 17 22
19 23 29
20 25 33
20 25 33
20 24 32
10 12 17
15 19 25
25 32 42
16 20 25
16 19 24
18 22 28
19 23 30
11 14 18
16 20 25
24 30 39
21 26 35
14 18 23
18 22 29
16 20 26
13 16 19
17 22 28
20 25 33
16 20 26
19 24 32
16 21 27
15 19 24
12 16 21
18 22 29
18 22 28
13 16 21
11 13 18
13 17 21
15 18 24
15 19 26
16 21 27
18 22 28
21 26 33
13 16 21
20 25 33
18 22 28
16 20 26
13 16 21
14 18 23
17 21 28
17 21 27
11 14 19
17 22 28
19 24 32
16 19 25
20 24 31
13 17 22
13 16 21
18 22 29
15 19 25
12 14 18
14 17 23
16 19 25
18 23 30
16 19 25
18 23 30
14 17 22
9 11 15
18 23 30
14 17 21
16 20 26
16 20 25
14 17 22
14 18 23
9 11 14
12 15 20
19 24 31
13 16 21
21 26 33
12 15 19
11 14 18
16 20 26
13 16 20
10 12 16
19 23 30
12 16 20
13 16 21
10 13 18
16 20 27
17 21 27
15 18 24
11 15 19
11 14 18
9 11 14
17 21 27
16 20 26
12 15 19
13 16 21
12 15 19
7 9 11
8 10 12
7 8 10
13 15 19
10 12 15
4 5 6
11 13 16
8 9 12
9 11 14
10 12 15
7 9 11
6 7 9
7 8 10
7 8 10
10 12 15
10 12 16
8 9 12
7 9 12
7 9 11
10 12 15
7 9 11
6 7 9
7 9 11
7 8 10
10 12 16
10 12 16
5 7 9
8 9 12
6 8 10
12 15 19
11 14 17
8 10 12
8 10 12
9 11 14
12 15 18
14 17 21
11 13 17
6 7 9
8 10 13
8 10 12
10 13 17
14 16 20
9 10 13
8 9 12
7 8 11
8 9 12
11 14 17
10 12 16
12 15 18
11 14 18
8 10 12
11 13 16
8 9 11
11 13 16
7 9 11
8 10 13
8 9 11
10 12 16
8 9 12
10 12 15
9 11 14
8 9 12
8 10 12
13 15 19
7 9 12
8 9 12
10 12 15
3 4 5
5 6 7
6 8 10
10 12 15
11 13 16
6 7 8
9 11 13
7 8 10
5 6 7
10 12 15
12 14 17
3 3 4
10 12 15
6 7 9
4 5 6
10 12 15
8 9 11
14 17 22
16 20 25
14 17 22
10 13 17
13 16 21
12 14 19
8 10 13
18 22 28
18 22 29
14 16 20
16 19 25
15 19 25
13 16 20
12 15 19
20 25 32
15 19 25
19 24 32
12 15 20
16 19 24
16 20 25
17 21 27
12 16 20
12 15 20
14 17 22
14 17 21
14 18 24
14 18 22
18 22 30
10 13 17
11 14 17
15 18 23
20 26 34
13 17 22
18 23 31
12 16 21
11 14 19
16 21 27
17 21 28
18 23 30
15 19 24
16 20 26
16 20 26
15 18 23
15 19 25
18 22 29
12 15 20
17 21 27
19 23 30
10 12 16
12 16 21
19 24 31
20 25 33
17 21 27
19 23 30
16 21 27
17 21 27
17 21 28
17 21 27
15 18 24
16 19 25
16 20 26
19 24 31
17 21 28
18 22 29
16 20 27
19 23 30
15 19 25
17 21 28
16 20 26
14 17 23
20 25 33
17 22 29
11 14 19
21 26 32
19 23 30
18 22 29
13 16 21
20 24 31
21 27 35
20 24 32
21 27 35
19 23 30
12 15 19
14 17 22
16 19 25
18 23 29
17 21 26
17 22 29
13 17 21
17 22 29
22 27 34
23 29 38
18 22 28
18 22 29
8 11 14
15 19 24
11 15 20
17 21 27
21 27 34
18 22 29
21 26 34
12 16 21
13 16 21
22 27 35
24 31 40
17 21 27
12 15 20
15 19 26
23 29 37
16 20 26
25 30 39
22 27 35
20 25 32
20 25 32
15 19 25
12 16 21
15 19 25
16 19 25
16 20 26
18 22 28
19 24 31
16 20 25
15 19 24
22 27 35
18 23 29
13 16 21
17 21 26
14 18 23
16 19 25
15 19 26
17 21 28
10 13 17
16 20 26
19 23 30
19 23 30
9 11 15
16 20 26
22 28 37
18 23 30
23 28 37
15 19 24
14 17 23
18 22 29
9 11 14
15 18 24
22 27 35
17 21 28
15 18 23
15 19 25
19 24 30
14 16 21
20 25 32
18 22 29
19 24 31
18 22 28
20 25 32
20 25 32
12 15 20
16 20 27
30 37 48
16 21 28
25 31 40
16 20 25
20 25 33
18 22 29
18 23 30
17 21 27
17 22 28
19 23 30
15 18 24
15 19 25
18 22 29
25 31 39
19 24 30
20 25 32
12 15 20
14 18 22
18 22 29
15 18 24
14 17 23
17 22 29
22 28 36
16 20 26
23 30 39
15 19 25
19 24 31
20 25 33
20 25 33
10 13 16
18 22 29
18 23 30
14 17 22
14 17 22
19 24 32
20 25 32
15 19 25
18 22 28
17 22 28
19 24 31
20 24 32
14 17 22
12 15 19
21 27 34
22 27 35
15 18 23
16 20 26
13 16 21
23 29 39
13 17 22
14 17 22
21 26 35
17 21 28
19 24 32
14 18 23
18 23 30
21 26 34
18 23 31
18 22 29
17 22 28
18 22 28
23 29 37
14 17 22
16 20 26
17 21 28
22 27 36
17 22 30
21 26 34
17 21 27
11 14 19
16 19 25
17 21 28
14 17 22
20 24 31
18 23 29
16 20 26
11 14 18
16 21 27
15 19 24
25 31 40
16 19 24
14 18 23
19 23 29
13 17 22
16 20 26
14 18 24
18 23 29
16 20 26
17 21 28
14 18 23
13 17 22
19 23 31
17 21 26
18 22 28
14 18 24
15 18 24
16 20 28
14 18 23
16 20 26
16 20 27
22 27 36
19 24 32
22 27 35
20 24 31
15 18 22
21 26 33
17 21 27
18 22 28
16 20 25
15 19 24
11 15 20
14 17 23
9 11 15
18 22 28
18 22 28
13 16 21
16 20 26
13 17 22
13 16 22
16 20 26
18 22 27
12 15 20
18 21 27
15 18 23
17 20 26
13 16 20
18 23 30
13 16 20
9 11 14
16 19 25
8 10 12
17 21 26
13 16 21
9 12 15
16 19 25
15 18 24
11 13 18
11 14 18
16 20 26
9 12 16
14 18 23
18 23 29
10 12 16
15 18 24
13 16 20
14 18 22
18 22 28
16 19 24
14 17 22
9 12 15
10 13 17
16 20 26
8 10 12
14 18 22
13 16 20
11 14 18
18 23 29
11 14 17
8 10 13
11 13 16
7 9 11
9 11 14
10 12 15
14 17 22
11 13 17
8 9 12
6 8 10
9 11 14
5 6 8
7 9 11
6 7 8
8 10 12
11 14 17
11 13 17
11 14 17
10 13 17
8 9 12
6 7 9
11 14 18
5 6 8
7 8 10
10 12 16
6 7 9
8 10 12
9 11 14
8 9 12
14 17 22
11 14 18
10 13 17
6 8 10
9 10 13
9 10 13
9 11 14
9 11 15
9 11 14
12 14 17
7 8 10
9 11 14
5 6 8
6 8 11
6 7 10
6 7 9
13 16 20
9 11 14
9 11 14
9 12 15
9 11 14
8 10 13
10 12 15
9 11 14
8 10 12
4 5 7
6 8 10
11 13 16
5 6 8
10 12 16
9 11 14
8 9 12
13 15 19
7 9 11
9 11 13
7 9 11
13 16 20
11 13 16
6 7 8
11 14 17
5 7 9
9 10 13
4 5 6
8 10 13
9 11 14
7 9 11
7 9 11
6 7 9
9 10 13
4 5 6
2 2 3
8 10 12
11 14 17
8 9 12
10 12 16
10 13 16
6 7 9
19 24 31
12 15 19
13 16 21
14 17 22
14 17 22
13 16 20
16 20 26
9 12 15
15 19 25
12 15 19
12 14 19
12 15 19
11 14 18
12 15 20
11 13 17
12 16 21
12 14 19
16 20 26
16 21 27
16 20 25
10 13 16
16 20 25
14 17 22
14 17 23
12 15 19
11 14 18
12 15 19
14 17 21
17 21 27
12 15 19
25 31 40
14 18 23
17 21 28
16 19 25
14 17 22
11 14 19
13 16 20
15 19 24
18 23 30
17 21 27
11 14 18
15 19 24
18 23 30
16 20 26
15 19 24
13 15 20
16 20 26
19 24 30
12 15 19
16 21 27
14 18 23
22 28 36
16 20 27
18 22 28
22 28 37
18 22 29
17 21 28
13 16 21
13 16 20
17 21 27
13 17 22
18 23 29
17 22 28
9 11 15
24 29 38
13 16 21
13 16 21
15 18 24
12 15 19
15 19 23
19 23 30
22 27 35
15 18 24
17 22 29
20 25 32
16 19 25
16 20 25
13 16 21
22 27 35
21 26 35
10 13 17
17 21 27
13 17 22
15 20 26
17 21 27
14 17 22
17 21 27
17 22 28
15 18 24
18 22 29
11 13 17
17 21 28
14 17 22
16 20 26
17 22 28
18 22 28
8 10 14
19 24 31
15 18 23
19 24 30
19 24 31
15 19 24
21 26 33
18 22 28
15 19 25
16 20 25
16 19 25
20 25 32
22 27 35
18 22 28
13 17 22
15 19 25
12 15 19
12 15 19
11 13 18
14 17 22
20 24 32
21 26 33
15 19 24
20 25 32
14 18 23
18 23 29
17 21 28
12 14 19
15 19 24
11 14 19
18 23 29
23 29 37
22 27 35
15 19 25
24 29 38
16 19 25
10 12 16
15 19 25
18 22 29
15 19 25
15 19 25
21 26 33
20 25 32
17 21 27
12 15 20
14 18 23
15 19 24
16 20 25
16 19 25
22 27 35
21 26 33
13 16 21
28 35 46
16 20 25
17 21 28
19 24 31
13 17 22
15 19 25
15 18 23
12 15 20
15 19 25
18 22 29
18 23 30
19 23 30
15 18 24
18 23 30
19 23 30
15 19 25
16 19 24
15 18 23
19 24 32
19 24 31
16 20 26
15 19 24
16 20 26
18 23 30
15 18 23
20 25 32
17 22 28
11 13 17
18 23 30
15 19 26
17 21 27
14 18 23
17 21 27
16 19 25
17 22 28
16 20 26
13 16 21
11 14 18
18 22 28
19 24 31
19 24 32
18 22 28
20 25 33
19 23 30
17 21 27
13 16 21
20 26 33
19 24 31
13 17 21
17 22 28
12 15 20
12 15 19
15 19 25
18 22 29
14 17 22
15 18 23
20 25 32
16 20 26
14 18 23
21 26 33
18 22 28
18 23 29
17 21 28
13 16 21
17 21 28
23 28 36
16 20 25
16 20 26
18 23 29
18 22 28
20 25 32
16 19 25
16 19 25
19 24 31
11 14 18
17 21 27
17 21 27
15 19 25
16 20 26
9 11 15
18 23 30
15 19 25
18 22 28
17 22 28
20 25 33
18 22 28
13 17 22
15 18 24
17 21 27
15 19 25
15 18 24
15 19 25
17 21 27
13 17 23
14 18 23
20 24 31
16 19 25
16 20 27
15 19 25
12 15 20
16 20 26
11 14 19
18 22 28
21 26 35
12 15 20
16 20 25
17 21 27
15 18 24
16 20 26
16 20 26
17 21 27
14 16 21
14 18 23
15 18 23
17 22 28
12 16 20
18 23 30
9 11 15
13 17 21
22 27 34
12 15 20
9 12 16
12 14 18
20 26 33
16 20 26
11 15 19
10 12 15
17 21 27
12 15 20
18 23 30
16 20 25
12 15 20
20 24 31
15 19 25
12 15 19
15 19 25
15 18 23
20 25 33
16 20 26
13 16 20
18 22 28
12 16 20
17 22 28
10 12 16
19 23 30
11 13 16
17 21 27
16 20 25
13 17 22
11 14 18
15 18 23
11 14 19
14 17 22
10 12 16
14 17 22
14 17 21
17 21 27
13 17 22
9 11 14
15 18 24
13 16 21
14 17 22
14 17 22
7 8 11
14 18 23
11 13 17
16 19 25
11 14 17
7 8 10
12 15 19
9 11 14
9 11 13
4 5 7
8 9 11
9 11 15
7 8 11
7 8 10
9 11 14
11 13 16
4 5 7
7 8 11
14 17 21
3 4 5
7 9 12
5 6 7
8 9 12
8 10 13
6 8 10
12 14 18
11 13 17
10 13 16
7 8 11
2 3 4
8 10 13
9 10 13
10 12 16
10 12 16
9 11 14
12 14 18
10 12 15
6 8 10
6 7 9
12 14 18
10 11 14
7 9 11
7 8 11
9 11 14
7 8 10
9 11 13
6 7 9
8 10 13
8 10 13
10 12 16
7 9 11
10 13 16
7 9 12
11 13 16
5 6 7
10 12 16
9 10 13
12 14 18
12 15 18
7 8 10
11 13 17
7 9 11
10 13 16
9 10 13
10 12 16
13 16 20
8 10 12
7 9 11
6 7 9
11 13 17
4 5 7
6 7 9
8 9 12
4 5 7
8 10 12
5 7 9
7 8 11
7 9 11
10 12 15
2 3 4
9 10 13
11 13 17
13 16 20
6 8 10
8 9 12
12 14 17
5 6 8
9 11 15
9 12 15
11 13 16
13 16 21
8 10 13
8 10 13
16 20 26
15 19 25
11 13 17
13 17 21
14 17 22
16 19 25
15 18 24
12 15 19
14 16 21
11 13 17
24 30 38
19 23 30
14 17 22
9 11 15
16 20 26
18 22 29
7 9 11
10 13 17
16 19 25
22 27 35
19 24 31
19 24 31
14 17 22
10 13 17
15 19 24
15 19 24
13 16 22
13 16 21
14 18 23
13 17 22
9 11 14
17 21 28
19 23 30
17 21 28
13 16 21
15 20 26
15 18 24
11 14 18
16 20 25
15 19 25
11 14 19
13 16 21
17 22 28
17 20 25
13 17 22
15 18 23
7 9 12
11 14 19
13 16 21
17 21 27
18 22 29
15 18 24
14 18 23
16 21 27
17 22 29
10 13 16
15 18 23
13 17 22
15 19 24
20 24 31
17 21 28
13 16 21
16 19 25
10 12 16
11 14 19
20 24 32
18 22 28
15 19 25
18 23 29
21 26 34
14 17 22
16 19 25
21 26 34
15 18 24
18 22 28
16 20 26
20 25 32
16 20 27
16 20 25
14 18 23
10 12 16
19 24 31
11 14 19
15 18 24
11 14 18
20 26 33
17 21 27
14 18 24
17 22 28
15 19 24
13 17 21
14 18 23
17 20 26
13 16 20
12 15 21
14 18 23
18 23 30
16 20 26
15 19 25
15 18 24
14 17 22
18 22 28
15 19 25
17 21 28
21 25 32
19 23 31
22 27 35
13 16 21
16 20 26
17 21 27
22 27 35
19 23 30
12 15 20
13 16 21
12 15 20
22 26 33
11 14 18
20 25 31
15 19 25
13 16 22
15 19 25
19 23 30
17 21 27
17 21 28
17 20 26
16 19 25
20 25 32
14 18 24
18 22 29
9 11 15
14 18 24
14 17 22
16 20 25
16 20 25
17 21 28
22 26 34
13 16 21
13 16 21
14 17 23
20 25 32
12 15 20
19 23 31
14 17 22
22 27 35
16 19 25
15 19 24
18 22 29
12 15 19
21 26 34
15 19 25
11 14 18
15 18 23
19 24 31
18 23 30
13 16 21
17 22 28
21 26 34
15 19 25
15 19 24
18 22 28
16 20 26
17 22 28
17 21 27
13 16 21
18 22 28
16 20 26
20 25 32
14 18 23
16 20 26
13 17 23
11 14 17
13 16 22
17 21 27
18 22 28
17 22 29
19 23 30
25 30 38
19 23 30
14 17 22
13 16 21
16 20 26
17 21 27
16 20 26
20 25 31
18 23 29
16 20 27
18 22 29
20 25 32
19 24 32
13 16 22
20 25 32
17 21 28
20 25 31
11 14 18
14 18 23
19 24 32
18 22 29
16 21 27
16 20 25
16 20 26
14 17 22
17 21 28
17 22 28
14 18 23
20 25 33
13 16 21
20 25 32
20 25 33
19 23 30
13 17 23
12 15 19
21 26 34
16 20 26
24 30 39
12 15 19
18 23 29
16 20 26
14 18 24
12 15 20
17 22 28
18 22 29
17 22 29
15 19 24
12 15 19
15 18 24
15 19 24
19 24 31
16 20 27
22 27 35
10 12 16
15 18 24
17 22 28
20 25 32
16 20 25
15 19 24
16 20 26
10 13 17
15 19 25
11 13 17
19 24 31
18 23 30
18 22 29
19 24 31
23 29 38
16 19 25
19 24 32
17 22 28
18 23 29
18 23 29
11 14 19
12 15 20
15 19 24
16 19 24
17 21 28
15 18 24
19 23 30
10 12 16
16 19 25
19 24 31
13 17 22
13 16 21
15 18 24
18 22 28
15 18 23
19 24 31
19 23 30
21 27 34
9 11 15
19 24 30
24 30 39
15 19 25
11 14 19
16 20 26
21 26 33
16 20 26
14 17 23
18 22 28
15 20 26
16 21 27
13 16 20
17 22 28
15 19 25
14 17 22
9 11 14
17 20 25
12 14 18
10 13 16
11 14 18
20 25 32
14 17 21
13 16 20
16 20 26
18 23 30
14 17 21
15 18 23
13 16 21
17 21 26
18 23 29
14 17 22
15 18 24
11 14 19
16 20 26
13 16 21
9 11 14
10 13 17
18 22 28
7 9 13
11 14 18
12 15 19
13 16 20
15 18 22
9 11 14
15 18 23
9 11 14
4 5 7
13 16 19
10 12 15
11 13 16
10 12 15
8 10 12
5 6 8
4 5 6
6 8 10
10 12 15
13 16 20
9 11 14
10 12 15
10 12 15
8 10 13
9 11 14
6 7 8
12 15 19
11 13 16
8 10 13
8 10 12
14 16 21
5 6 8
10 12 15
9 11 14
13 15 19
13 16 20
9 11 14
7 9 11
8 10 13
10 12 16
7 9 11
6 7 9
7 9 11
9 11 15
10 12 15
7 9 11
7 8 11
8 10 13
8 10 12
6 7 9
6 8 10
10 12 15
8 10 12
8 9 12
10 12 15
10 12 16
12 14 18
9 11 14
9 11 14
9 11 14
10 12 16
10 12 15
10 12 15
9 11 14
7 9 11
4 5 7
12 15 19
5 6 8
6 7 10
10 13 17
5 6 7
3 4 5
4 5 7
16 19 25
9 11 14
8 10 14
6 8 9
11 13 16
7 8 10
8 9 12
4 5 6
10 13 16
9 11 14
11 13 16
9 11 14
9 11 14
14 17 22
13 16 21
10 13 16
12 15 20
18 22 29
12 15 19
12 15 19
11 14 18
15 18 23
6 8 10
9 11 14
11 13 17
12 15 19
10 13 17
20 25 31
18 22 28
16 20 25
14 17 22
16 19 24
11 14 18
15 18 24
13 17 21
16 20 25
17 21 28
11 14 18
17 21 27
16 20 26
14 18 23
12 15 20
10 12 16
15 18 24
14 17 22
16 19 25
14 18 24
15 19 25
19 24 31
15 18 24
13 16 21
20 25 32
14 17 22
14 17 22
17 22 29
15 19 24
14 17 22
14 17 23
18 23 30
13 17 22
13 16 20
10 13 18
17 22 29
14 17 22
17 21 27
20 24 32
17 21 28
14 18 23
22 28 36
16 19 25
16 20 26
17 21 27
17 21 27
19 23 30
11 13 17
15 18 23
18 23 30
20 24 31
17 21 28
15 19 25
17 21 26
12 15 19
16 20 26
15 19 24
15 19 26
16 20 26
19 23 29
15 18 24
17 21 28
14 18 23
18 23 29
17 21 28
16 21 27
19 24 32
16 19 25
17 21 28
12 15 19
18 22 29
13 16 21
12 16 20
20 25 32
11 13 17
15 18 23
17 21 27
20 25 33
18 23 30
24 29 37
16 21 28
17 21 27
18 22 29
19 24 31
13 16 21
16 20 26
13 17 22
18 22 28
22 27 36
14 18 23
18 23 29
12 15 19
20 25 32
19 24 30
18 22 28
13 16 21
13 16 20
17 22 28
17 21 27
14 18 24
19 23 29
19 24 32
17 21 28
16 19 25
23 30 39
18 22 29
17 21 27
11 14 17
14 18 24
9 11 15
14 17 23
17 21 27
17 21 26
21 27 35
13 16 21
18 23 29
15 19 25
17 21 27
16 19 25
20 24 31
21 26 33
16 20 26
18 23 29
13 16 21
15 18 24
14 17 21
12 14 19
16 20 26
19 23 30
16 20 26
15 19 25
22 27 35
14 18 23
20 25 32
11 15 20
10 13 17
17 22 29
18 22 29
10 13 17
17 21 27
15 19 24
13 16 22
19 24 31
12 16 20
18 22 28
19 23 30
15 19 25
18 22 29
13 16 22
14 17 22
18 22 29
14 17 22
15 18 24
19 24 32
14 17 22
14 18 23
17 21 27
20 25 33
17 21 28
14 18 23
16 20 27
21 26 34
17 22 29
15 18 24
20 25 31
22 28 37
20 25 33
18 22 29
18 22 29
16 20 25
20 25 32
19 24 32
17 21 27
22 27 34
15 19 25
13 17 22
19 24 31
13 16 21
20 25 32
18 23 30
12 16 21
11 13 18
15 18 24
8 10 13
13 17 22
19 24 30
17 21 28
15 19 25
15 18 24
16 20 27
13 16 21
12 15 20
16 20 26
16 21 27
15 19 25
19 23 30
21 26 34
14 18 24
14 17 22
13 16 21
12 15 20
22 27 34
18 23 31
18 23 30
18 21 27
14 18 23
20 24 31
14 17 22
19 23 30
16 19 25
18 23 31
20 25 32
14 18 23
16 20 27
15 19 24
23 28 37
18 23 30
13 16 21
15 19 25
17 21 27
12 15 19
12 15 20
17 20 26
13 16 21
12 14 19
20 24 32
14 17 22
15 19 24
12 15 20
20 24 31
15 18 24
16 20 26
17 21 27
15 18 24
15 18 24
17 22 28
16 20 25
14 17 21
18 22 29
9 11 14
21 26 33
14 17 23
14 17 23
12 15 19
16 20 26
21 26 34
12 15 19
21 25 32
14 18 24
13 17 22
7 9 12
18 22 28
15 20 26
15 18 23
18 23 29
22 27 35
17 21 27
20 24 31
15 19 24
20 26 33
14 17 23
17 20 26
14 17 22
14 18 24
21 26 33
12 15 19
17 22 28
13 16 21
15 19 26
16 21 27
19 23 29
16 20 26
23 28 37
20 25 32
12 15 18
17 21 27
16 19 25
12 15 19
16 20 26
16 20 26
18 22 28
17 20 26
10 12 15
16 20 25
10 13 16
17 20 25
11 14 18
12 15 20
13 16 20
12 15 20
14 17 22
11 14 18
11 13 18
9 11 14
17 21 26
16 20 26
10 13 16
9 11 14
10 13 16
14 17 22
13 16 21
8 10 13
11 14 17
15 18 23
8 10 13
10 12 15
11 13 17
15 18 23
12 14 18
9 11 14
7 9 11
11 13 16
10 12 15
6 7 9
6 8 10
11 13 17
12 15 18
9 11 15
6 7 9
8 10 12
11 13 16
5 6 8
6 8 10
12 14 18
9 10 13
3 4 5
13 16 20
9 11 14
8 9 12
11 13 16
6 7 10
4 5 7
8 10 12
11 13 17
13 16 21
8 10 13
10 12 15
6 8 10
6 7 9
11 13 17
5 6 7
8 10 12
12 15 19
9 11 13
11 13 17
7 8 10
15 17 22
9 11 13
5 7 9
11 13 16
5 6 7
12 14 17
10 13 16
11 14 17
7 9 11
7 8 10
10 12 15
6 8 10
6 7 9
8 10 12
8 10 12
6 8 10
8 10 13
7 8 11
11 13 16
6 7 9
5 6 8
7 9 11
6 7 9
7 9 11
9 11 14
6 8 10
5 6 8
10 12 15
6 7 9
9 11 14
6 8 10
11 13 16
7 8 10
5 6 8
7 8 10
11 13 16
11 13 16
7 8 10
10 12 15
17 21 27
10 13 17
14 17 22
12 14 19
9 12 15
7 9 12
13 16 21
8 10 12
11 13 17
10 12 15
14 17 22
14 17 21
9 12 15
10 13 16
11 14 18
8 10 13
16 20 26
13 16 21
12 15 20
7 9 12
14 18 23
10 12 15
11 14 18
17 21 27
13 16 20
18 22 28
10 13 17
15 19 25
15 19 24
19 23 30
15 18 22
19 24 31
13 16 21
17 21 27
14 17 22
15 19 25
20 24 31
17 21 27
15 19 24
16 19 24
10 12 16
17 21 28
23 28 37
16 20 25
15 19 24
17 21 27
15 19 25
13 16 21
15 19 25
20 25 32
16 19 25
22 27 34
19 24 30
12 15 19
20 25 32
18 23 30
16 19 24
15 19 24
14 18 23
12 15 20
16 20 25
18 23 29
16 20 25
20 24 31
15 20 26
13 16 21
18 22 29
16 20 26
17 21 27
17 21 28
14 18 23
16 20 26
10 12 15
23 28 35
13 17 22
16 19 25
16 20 26
22 28 36
18 22 29
15 19 25
21 26 34
21 26 34
14 17 23
19 23 30
12 15 20
20 25 33
15 18 22
15 19 24
13 17 22
23 29 37
18 22 28
21 27 35
16 20 27
18 22 29
15 19 24
14 18 24
16 21 27
16 20 27
19 24 31
17 21 28
20 25 33
21 25 33
19 24 31
14 16 21
14 17 22
21 27 35
18 23 30
18 23 31
16 20 27
11 13 17
19 24 32
17 20 26
19 23 29
22 28 36
11 14 18
12 15 20
20 25 32
19 24 31
16 21 28
16 20 26
18 22 29
20 24 31
15 18 23
14 17 22
19 24 31
13 16 20
19 24 31
14 18 23
14 18 24
23 28 37
19 24 32
16 20 27
21 27 34
14 17 22
21 26 33
21 26 33
18 23 30
18 22 30
20 25 32
18 22 29
18 23 30
16 19 24
15 18 24
17 22 28
15 19 25
20 26 33
22 28 35
15 19 25
15 19 24
20 25 33
20 25 33
22 27 34
21 26 34
19 23 30
18 22 29
14 18 23
17 21 27
18 22 28
16 19 24
16 20 27
19 24 30
17 21 27
19 24 32
15 19 25
15 19 26
13 17 22
21 26 34
20 24 31
13 17 22
10 13 17
17 20 26
19 23 29
15 18 24
17 22 28
20 24 30
21 26 34
13 17 22
19 24 31
17 21 28
21 26 35
16 20 27
19 24 30
16 19 25
18 22 28
18 22 29
14 17 23
15 18 23
16 20 25
16 20 26
18 22 28
17 22 29
15 19 25
16 20 26
14 18 23
16 20 26
14 18 23
16 19 25
16 19 25
23 28 36
15 18 24
15 19 25
20 25 32
16 20 26
20 25 32
15 19 25
17 20 26
15 18 23
22 28 37
24 31 41
19 24 31
23 29 38
15 18 24
13 16 21
18 22 28
14 17 23
19 24 30
12 15 19
15 19 24
20 24 31
16 20 26
15 19 24
20 24 31
13 16 20
19 23 30
18 22 29
14 18 24
17 22 29
18 23 29
12 15 20
17 21 28
11 14 18
18 22 28
15 19 26
16 20 26
12 15 20
19 23 30
14 18 24
16 20 26
18 22 29
15 18 23
15 18 23
14 17 22
18 22 29
16 20 26
13 17 21
19 24 31
11 13 17
16 20 25
23 29 37
11 13 17
18 23 29
16 20 25
20 25 32
16 20 27
20 24 31
13 16 20
12 15 20
20 25 32
22 27 35
11 14 18
11 14 19
20 24 30
15 19 25
15 18 23
15 19 24
16 20 26
15 18 23
22 28 36
16 20 26
18 23 30
15 20 26
15 19 24
14 17 22
15 19 25
15 19 25
14 18 24
14 17 22
11 14 18
12 15 20
18 22 29
18 22 29
12 15 19
19 24 31
15 18 24
13 16 21
14 17 22
17 21 27
12 15 20
12 14 18
12 15 20
11 13 17
16 19 25
8 10 14
14 18 23
11 14 18
10 13 17
16 20 26
11 14 18
12 15 19
13 16 21
14 17 22
18 23 29
15 18 23
12 15 19
12 15 19
13 16 20
9 12 15
15 19 25
17 21 27
14 18 22
13 16 20
13 16 21
9 11 14
13 16 20
14 17 21
9 11 14
9 11 14
13 15 20
10 12 16
11 14 18
17 21 26
13 16 20
12 14 18
8 9 12
13 16 20
9 10 13
14 16 20
5 6 8
7 8 11
9 11 14
6 8 10
8 10 13
10 12 15
7 8 10
6 8 10
7 9 11
5 6 7
5 7 9
8 10 13
4 5 6
2 3 4
11 13 16
8 10 13
13 15 19
5 6 8
4 5 7
8 10 13
4 5 7
8 10 12
6 7 8
7 8 10
6 8 9
8 10 12
6 8 10
9 11 14
7 8 10
9 11 14
10 13 16
16 19 24
10 12 14
7 8 10
3 3 4
9 11 15
12 14 18
6 8 10
5 6 8
11 13 17
10 12 15
6 8 10
7 8 11
10 13 16
9 10 13
12 14 18
5 6 8
9 11 14
5 6 8
10 12 16
3 4 5
11 13 16
9 11 15
6 7 9
9 10 13
7 9 11
9 11 14
13 15 19
7 8 11
4 5 7
11 13 16
3 4 5
3 4 6
7 8 11
6 8 10
9 11 14
6 7 9
10 12 16
11 13 16
5 6 8
7 9 11
12 15 19
10 12 16
12 15 19
12 15 19
15 19 24
15 18 23
15 18 23
9 11 14
15 18 24
10 12 16
11 13 17
12 16 21
15 19 25
13 16 21
8 10 13
8 9 12
14 17 22
11 14 18
15 19 25
13 16 20
16 20 25
12 14 18
15 19 24
13 16 21
12 15 19
15 18 24
15 18 23
6 8 10
18 22 29
17 21 27
16 19 24
14 17 22
8 10 13
13 16 21
12 15 20
15 19 24
14 18 23
14 17 22
10 12 15
20 25 32
18 22 29
12 16 20
17 20 26
19 23 30
14 18 24
11 14 19
19 23 30
12 15 20
8 10 13
10 12 15
15 19 24
15 18 22
15 19 24
18 22 28
15 19 25
13 17 22
19 24 31
24 30 38
14 17 22
12 15 20
22 27 35
14 18 23
15 19 24
14 18 23
14 18 24
17 21 28
13 16 22
16 20 26
17 21 28
18 22 28
21 26 34
18 22 29
14 18 23
18 22 29
18 23 30
18 22 28
12 15 19
19 24 31
19 23 31
11 14 18
14 18 23
17 21 27
23 29 36
19 23 29
18 22 28
19 23 30
23 29 37
13 16 21
24 31 41
18 23 30
18 22 28
22 27 34
16 20 26
22 27 36
16 20 26
25 31 40
15 19 24
19 24 30
15 19 26
16 20 26
17 22 28
18 23 30
18 23 29
15 20 26
13 16 21
14 17 22
17 21 27
19 24 31
17 21 28
15 18 24
13 16 21
11 13 17
21 26 33
23 27 35
10 12 15
22 26 34
21 26 33
18 22 28
22 27 35
17 22 29
18 22 29
23 29 37
14 18 22
12 15 19
18 22 28
15 19 24
18 23 30
18 22 28
11 14 18
16 20 26
13 17 21
19 24 31
14 17 22
17 22 28
15 19 24
11 14 18
17 21 27
19 23 30
13 16 20
15 18 23
12 15 20
14 18 23
14 17 22
22 27 36
17 21 27
17 20 26
15 19 24
12 16 21
18 23 30
22 28 36
14 18 23
23 29 37
14 18 24
16 20 26
13 17 23
12 15 20
14 18 24
19 23 30
17 21 27
17 21 26
19 24 32
17 22 29
17 21 27
16 20 26
13 15 20
10 13 17
17 21 27
14 17 22
11 14 18
15 19 25
19 24 31
18 23 30
18 23 30
20 25 33
18 22 28
19 24 31
15 19 24
19 24 31
21 26 33
19 24 31
14 17 22
11 14 19
20 25 32
13 16 21
16 20 25
24 30 38
16 20 26
19 23 30
16 20 26
20 25 32
16 19 25
17 22 28
17 22 29
22 27 35
20 25 33
13 16 21
14 17 22
21 26 34
21 26 34
14 18 24
19 23 30
18 22 29
13 17 22
18 23 30
26 32 42
17 22 29
14 17 22
20 25 33
16 20 25
17 22 29
12 15 20
18 22 29
17 21 27
9 11 14
15 19 25
15 19 25
23 28 36
17 20 26
13 17 22
19 23 29
11 14 18
13 17 22
13 17 22
16 20 26
21 27 35
12 15 20
17 21 28
21 27 35
15 19 25
17 21 27
18 23 30
15 18 24
17 21 28
14 18 23
18 22 29
18 22 29
16 20 26
16 20 26
16 19 25
11 14 19
23 29 38
18 22 29
16 20 27
11 14 18
16 20 27
19 24 31
13 17 21
13 16 22
20 25 32
17 21 27
18 22 29
19 23 30
13 16 21
12 14 18
21 26 34
20 25 32
13 16 21
15 19 25
16 20 27
17 22 28
12 16 21
15 19 24
13 17 22
23 28 36
15 19 24
18 22 29
16 19 25
15 19 25
13 16 21
16 19 25
16 20 25
18 22 28
13 16 20
17 20 26
16 20 26
21 26 34
19 23 30
13 17 21
13 16 21
15 19 24
14 18 24
16 20 26
12 15 20
18 23 29
10 12 15
14 17 22
18 22 28
14 17 22
17 21 28
12 15 20
15 19 24
13 16 21
16 20 26
15 19 25
10 12 16
18 22 28
12 14 18
17 21 28
11 14 18
13 15 19
18 22 28
21 26 33
13 16 20
11 13 17
9 12 15
13 17 22
13 15 20
12 14 19
13 17 23
13 16 21
16 19 25
4 5 6
14 16 20
13 17 21
13 15 19
12 14 18
12 15 19
12 14 18
9 11 14
7 9 11
16 19 24
13 16 20
7 8 11
12 15 20
8 10 13
16 19 23
9 12 15
13 16 21
7 9 11
8 10 13
9 10 13
8 10 13
8 9 12
8 10 12
6 7 10
8 10 12
5 7 9
5 6 8
9 11 14
10 12 16
4 5 7
6 7 8
7 8 11
6 8 10
7 8 11
6 7 9
11 13 16
10 12 15
6 8 10
10 12 15
8 9 11
9 11 14
5 6 7
7 8 11
3 4 5
7 9 11
9 11 14
8 9 12
4 5 6
15 18 22
6 7 8
11 14 18
12 14 18
7 8 11
14 16 20
12 14 17
8 10 12
13 15 19
10 12 15
4 5 7
11 13 17
12 14 18
8 9 12
5 6 8
10 12 16
9 11 14
7 9 12
5 6 8
9 11 14
8 10 13
5 7 9
5 6 8
9 11 14
9 12 15
12 15 19
7 9 11
10 12 15
7 8 10
7 8 10
8 9 12
6 7 9
7 8 10
8 9 12
7 8 10
11 13 16
9 11 14
6 7 9
7 8 11
4 5 6
8 10 13
8 10 13
13 16 20
13 16 20
15 19 25
10 12 16
15 19 24
10 12 16
13 16 20
11 14 18
14 18 22
18 22 27
17 20 25
8 10 13
11 13 17
16 20 26
16 19 25
15 18 23
13 17 22
10 13 16
11 14 18
13 16 21
18 23 29
10 13 16
15 18 24
12 15 19
14 17 21
16 19 25
18 22 28
14 17 22
14 17 22
14 18 23
14 17 22
14 17 23
18 23 29
11 13 17
13 16 21
14 17 22
15 18 23
15 18 23
15 19 25
12 15 19
14 17 22
20 24 31
6 8 11
13 16 21
14 17 22
21 26 34
14 18 23
14 18 23
14 18 23
13 16 21
11 14 19
15 19 24
13 16 21
10 12 16
11 13 16
19 23 30
24 30 39
13 17 22
18 22 29
15 18 23
19 24 31
16 20 26
16 20 25
10 13 17
14 17 22
15 19 25
21 25 33
17 22 28
15 19 25
16 20 27
16 20 26
12 15 19
11 14 18
14 18 23
13 17 23
18 23 30
15 18 24
21 26 33
10 12 16
11 14 18
16 20 25
17 22 28
15 18 24
12 15 20
18 23 30
13 16 21
15 18 23
18 23 31
9 11 15
19 23 29
17 21 27
18 23 29
20 25 32
16 20 26
15 19 25
16 20 25
20 25 34
15 19 25
16 20 26
15 19 26
15 19 24
13 17 22
18 22 28
15 19 24
15 19 25
15 19 24
12 14 18
10 13 17
16 19 25
15 18 24
15 18 23
14 18 24
13 16 21
26 32 42
19 24 32
18 23 30
15 18 23
13 16 21
17 21 28
13 17 22
12 15 20
20 25 32
15 19 25
18 22 28
8 10 13
13 16 21
20 24 31
22 28 36
19 24 31
15 18 24
15 19 24
15 19 24
17 21 27
15 19 24
16 20 25
18 23 30
13 16 20
17 20 26
21 26 34
22 27 36
15 19 24
14 17 22
14 18 24
18 22 29
23 29 37
14 18 24
17 21 28
17 20 26
18 22 29
14 18 23
18 22 30
20 24 31
12 14 19
15 19 26
21 25 33
19 23 30
14 18 23
14 17 22
17 21 28
18 21 27
14 18 23
15 18 23
12 15 20
15 18 24
17 21 27
16 20 26
12 15 20
16 20 26
17 21 27
19 24 31
14 18 23
21 27 34
18 23 30
16 20 26
13 17 23
14 18 23
22 27 35
17 21 28
17 21 27
17 21 28
15 18 24
19 24 31
23 28 36
22 27 35
19 24 31
17 21 28
15 19 25
12 15 19
17 21 27
16 20 26
21 25 33
15 18 23
20 26 33
16 20 26
16 20 26
23 29 37
20 25 32
17 21 27
19 23 30
14 17 22
19 24 31
14 17 22
19 24 31
18 22 29
21 27 36
18 22 29
14 17 22
17 21 26
19 25 33
19 23 30
18 22 28
19 24 32
12 16 20
17 22 29
12 15 20
11 14 18
21 26 33
14 18 23
11 13 17
12 15 20
11 13 18
18 22 29
19 23 29
15 19 24
19 24 30
11 13 17
13 16 20
15 18 24
18 22 28
14 18 23
14 17 23
16 19 24
15 19 26
16 20 26
15 19 24
14 18 24
7 8 11
20 24 31
18 23 29
19 25 33
15 19 25
13 16 20
15 18 23
14 17 21
17 20 26
13 16 20
18 22 29
20 25 31
11 14 18
18 22 29
16 20 25
21 26 33
16 20 26
18 22 29
22 27 34
16 20 25
19 24 31
17 21 26
14 17 23
18 22 29
17 21 26
13 17 22
15 18 24
16 20 26
14 17 23
16 20 26
13 17 22
12 14 18
19 24 31
18 23 30
17 21 26
13 16 21
13 16 21
16 20 25
21 26 34
12 15 21
13 17 22
14 17 22
11 14 18
11 14 18
15 19 25
12 16 20
18 22 28
10 13 17
13 17 22
7 8 11
17 21 27
16 20 26
17 21 26
16 20 26
14 18 23
14 17 22
16 20 26
18 22 29
17 21 27
16 19 25
8 11 14
11 14 18
12 15 19
15 18 23
13 16 21
12 15 19
11 13 17
18 22 28
18 22 28
14 18 23
13 16 20
11 14 18
12 15 19
10 12 16
11 14 18
10 13 17
16 20 25
12 15 19
12 15 20
15 18 23
16 20 25
10 13 17
12 14 18
9 11 14
7 9 12
12 14 19
16 19 24
17 20 25
11 14 18
14 17 21
16 20 25
16 19 24
9 11 14
9 11 15
13 16 20
7 8 10
13 16 19
7 9 11
6 7 9
5 6 8
10 12 15
4 5 7
7 9 12
7 9 11
7 9 11
12 14 18
7 8 11
13 16 20
4 6 7
11 13 16
10 12 16
7 8 11
9 11 14
6 8 10
3 4 6
3 4 5
11 13 16
6 7 9
3 4 5
5 7 9
8 10 12
16 19 23
12 14 17
8 10 12
10 12 16
11 13 16
9 11 14
6 7 9
6 8 10
4 5 7
6 7 9
6 7 9
12 14 17
7 9 11
11 13 16
13 16 19
9 10 13
10 12 15
12 15 18
9 11 14
6 7 9
7 9 11
7 8 10
11 13 17
9 11 14
6 8 10
7 9 11
9 11 14
12 15 18
7 9 11
9 11 14
6 7 9
3 4 5
8 10 13
10 12 15
6 7 9
3 4 5
10 12 15
12 15 18
9 11 14
9 11 14
10 12 15
7 8 10
13 15 19
9 11 15
6 8 11
6 7 9
9 11 14
11 13 17
14 16 21
13 16 20
13 17 21
12 15 19
11 14 18
12 15 20
12 15 19
13 16 21
12 15 19
8 10 12
14 17 22
16 19 25
18 22 29
16 19 25
10 13 17
17 22 28
14 17 21
14 18 23
18 22 28
13 17 22
9 11 15
15 18 22
9 11 14
15 18 23
16 20 25
15 18 24
15 19 24
15 18 24
19 23 30
15 19 25
10 13 17
15 18 23
18 23 29
18 22 29
12 15 19
10 13 16
16 20 26
10 13 17
14 17 23
15 19 24
10 13 16
16 20 26
11 14 18
15 19 25
13 16 21
11 14 18
16 20 25
11 14 18
10 12 15
13 17 22
12 15 20
12 15 19
13 16 21
13 16 21
11 14 18
17 21 27
20 25 31
8 10 13
18 22 29
16 19 25
17 22 28
21 26 34
19 24 31
8 10 14
17 22 28
19 24 31
18 23 30
19 23 30
14 17 22
16 19 25
17 21 26
18 23 29
15 19 25
12 15 20
19 23 30
16 20 27
13 16 21
22 27 35
10 13 16
11 14 18
11 14 19
18 22 28
15 19 25
18 23 31
14 18 23
20 24 31
14 17 22
14 17 22
16 20 25
12 15 18
18 23 30
18 23 30
15 19 25
21 26 34
13 15 20
15 19 25
21 26 35
11 14 18
13 16 21
22 27 35
18 23 30
20 24 31
12 15 20
11 14 18
19 24 31
15 19 24
16 20 26
16 20 26
18 23 29
14 18 23
19 24 32
15 18 24
16 19 25
18 22 29
16 20 26
15 18 22
14 17 22
16 19 25
18 22 29
20 25 32
14 18 24
20 25 33
19 23 30
13 17 22
22 27 35
16 19 25
19 24 32
17 21 28
16 20 26
18 22 29
17 21 27
13 16 20
14 17 22
13 16 21
16 20 27
19 24 31
15 19 25
23 28 37
16 19 25
16 20 26
21 26 34
11 14 19
15 19 25
17 21 28
11 14 18
21 26 34
14 18 23
16 20 25
14 18 23
18 22 29
13 17 22
14 17 23
15 19 26
20 26 34
19 24 31
16 20 26
13 17 23
22 28 36
12 15 19
17 21 27
17 21 27
16 20 26
12 15 20
21 26 34
15 19 25
18 22 29
23 28 35
23 29 38
14 18 23
15 19 25
18 23 31
13 17 21
23 28 36
15 19 24
15 18 24
15 18 24
15 19 26
19 24 32
19 24 30
22 27 35
17 21 27
22 27 35
17 21 28
17 21 28
12 15 19
15 19 24
10 13 17
17 22 29
16 19 25
19 23 30
14 17 22
16 20 26
22 27 35
34 42 54
15 19 25
21 25 32
22 27 34
16 20 26
14 18 24
11 14 18
11 14 18
15 19 24
16 21 28
15 19 24
22 26 34
19 24 30
13 16 21
18 22 29
17 21 26
17 21 27
13 17 22
17 21 27
15 19 25
17 21 27
14 17 23
19 23 29
12 15 20
9 11 14
16 20 26
20 24 31
11 15 19
23 29 37
18 23 30
18 22 29
14 17 22
8 10 14
13 18 24
23 28 36
16 20 26
14 18 24
13 17 22
20 25 33
16 20 27
14 18 24
15 19 24
15 19 26
14 17 23
18 22 28
15 19 25
18 23 31
17 21 27
13 17 22
16 19 25
22 27 36
14 17 22
18 23 30
21 26 33
18 22 28
14 17 22
19 23 30
19 23 29
18 22 29
19 23 30
14 18 23
17 21 27
18 22 28
14 17 22
13 17 22
19 23 30
17 21 27
16 20 26
18 22 29
14 18 23
16 19 25
12 15 20
9 12 15
13 16 20
18 22 29
13 16 21
17 21 27
17 21 27
14 18 23
19 24 31
11 13 17
15 19 24
17 22 29
12 15 19
13 16 20
12 15 20
21 26 33
11 14 19
11 13 17
17 20 26
12 15 20
21 26 34
12 15 20
11 14 18
17 21 27
12 15 20
20 25 33
10 13 17
16 21 27
18 23 29
17 21 28
13 15 20
16 20 26
12 15 19
15 18 24
15 19 24
11 13 17
15 19 24
12 14 18
11 14 18
14 17 22
15 19 24
10 12 16
13 17 22
9 11 14
11 13 17
7 8 11
6 8 10
15 18 23
7 9 11
12 15 20
8 9 12
7 9 11
10 13 16
12 14 18
6 8 10
13 15 19
8 10 12
9 11 14
12 14 18
12 14 18
12 14 18
13 16 19
6 8 10
8 9 12
7 8 10
8 9 12
11 13 16
3 4 5
7 8 10
4 5 6
6 7 8
6 7 9
9 11 14
8 10 13
5 7 8
10 12 14
12 15 18
10 12 15
12 14 18
6 7 9
8 10 13
6 7 9
7 9 12
6 7 9
9 11 15
13 15 19
5 6 8
8 9 11
7 8 11
12 15 18
9 10 13
9 11 14
11 13 16
9 11 14
6 8 10
6 7 9
9 11 14
9 11 14
9 11 14
5 6 8
6 7 9
8 10 12
7 9 11
9 10 12
6 7 9
7 9 11
9 11 14
7 8 10
7 8 11
6 8 11
9 11 13
7 9 11
11 13 16
9 11 14
9 10 13
9 11 13
8 10 12
11 14 17
12 15 18
7 8 11
5 6 8
8 10 13
8 10 12
11 13 16
7 9 11
8 10 13
4 5 6
12 15 19
12 14 18
13 16 20
9 11 14
13 15 19
8 10 13
13 16 20
8 9 11
13 16 20
12 15 19
7 9 12
13 16 20
10 12 15
8 10 13
9 11 14
16 19 24
10 12 16
14 18 23
13 15 19
12 15 19
6 8 10
10 12 15
13 16 21
19 23 30
15 18 23
16 20 25
14 18 22
17 21 27
13 17 22
16 19 25
12 15 20
6 7 10
10 12 16
15 18 23
12 15 19
12 15 19
12 15 19
15 19 25
17 21 28
14 17 22
11 15 19
11 13 17
9 11 14
20 24 31
10 12 16
16 20 26
13 16 21
16 20 25
14 17 22
16 21 28
16 20 25
11 14 19
15 19 24
15 18 24
18 22 27
18 23 29
11 14 18
15 18 24
16 20 27
18 22 29
16 20 26
19 23 30
15 18 23
16 20 27
11 13 18
10 13 16
14 17 22
17 21 27
14 17 22
20 25 32
13 16 21
15 20 26
13 17 22
16 20 26
15 19 24
18 23 30
23 28 36
16 20 26
11 15 20
17 21 27
16 20 27
13 16 21
15 19 24
12 16 21
16 21 27
18 22 29
17 21 28
15 19 25
15 19 24
17 22 28
19 23 31
18 23 29
17 21 28
17 21 27
20 25 33
15 18 24
9 11 14
16 20 26
18 23 30
18 23 30
18 23 30
17 21 28
15 19 25
19 24 31
11 14 18
21 25 33
17 21 28
16 20 26
18 22 29
18 23 30
16 20 26
14 18 25
17 21 27
17 21 27
15 20 26
17 21 28
14 17 22
15 19 25
18 22 29
18 23 30
12 14 18
12 15 20
12 15 20
10 13 16
20 25 32
17 21 27
21 25 33
19 24 32
14 17 23
14 18 23
16 20 26
15 18 24
20 25 33
17 21 27
18 23 30
20 26 33
19 24 31
18 22 28
18 23 29
16 20 26
20 25 32
15 19 24
17 21 28
13 17 21
21 26 33
18 22 29
12 15 20
19 24 31
15 18 23
21 26 34
16 20 25
16 20 26
13 16 21
15 18 23
15 18 23
18 23 30
16 19 24
13 16 20
19 24 30
19 23 30
13 17 22
16 19 25
12 15 20
17 20 26
21 26 34
21 26 33
23 29 38
12 15 20
13 16 21
19 23 30
21 26 34
22 27 35
15 19 24
13 16 21
14 18 24
14 18 23
17 22 28
13 16 21
16 20 26
14 18 24
15 19 26
21 26 34
20 25 32
17 21 27
24 30 38
17 21 27
16 19 25
18 22 29
14 17 22
18 23 31
15 20 26
13 16 21
19 24 32
20 25 32
20 25 32
16 20 26
18 23 29
17 21 27
21 26 32
18 23 30
19 23 30
18 23 30
15 19 25
15 18 24
15 19 25
15 18 24
15 19 25
20 24 32
22 28 37
17 21 28
17 22 28
23 28 36
20 24 31
19 24 31
13 17 22
22 27 35
17 20 26
15 19 24
19 24 30
18 22 28
19 24 30
14 17 22
16 21 27
14 17 22
12 15 19
24 30 39
11 14 18
13 16 22
18 23 30
16 20 25
13 17 23
19 24 31
20 26 33
18 22 28
14 17 22
20 25 32
19 24 31
19 23 30
18 22 28
18 22 28
16 20 26
13 17 22
21 27 35
16 20 25
10 12 16
18 22 29
20 25 32
15 18 24
14 17 23
18 22 28
17 20 26
21 26 34
15 19 25
18 22 29
16 20 26
14 17 22
18 22 29
13 17 23
16 20 26
13 16 20
14 17 22
16 20 27
14 18 23
16 20 26
12 15 20
17 22 29
15 19 25
14 17 22
14 17 22
12 14 18
17 21 27
7 9 12
16 19 25
11 14 19
13 16 21
16 20 26
15 19 24
9 12 15
14 18 23
9 11 15
18 22 28
13 16 21
9 11 15
17 22 28
14 17 22
14 17 22
11 14 18
12 14 18
10 12 15
15 18 23
22 28 35
9 11 14
20 25 32
11 14 19
16 19 25
13 16 20
18 22 28
13 16 21
15 19 24
16 20 26
14 17 21
14 18 23
14 18 23
17 21 26
18 23 29
16 20 27
11 13 17
17 20 26
12 14 18
12 15 19
11 14 19
12 14 18
15 18 24
14 17 22
10 13 16
15 18 22
15 19 23
11 13 17
11 13 17
11 14 18
9 11 15
12 15 19
13 16 21
11 13 16
11 13 17
8 10 13
8 10 12
5 6 8
7 9 11
7 8 10
12 14 18
9 11 15
12 14 18
9 11 14
6 8 10
4 4 6
11 14 17
9 11 15
8 9 11
6 7 9
10 12 16
12 15 18
7 8 11
5 6 8
8 9 12
5 6 8
6 8 10
12 15 19
9 11 13
7 8 11
9 11 14
5 7 9
10 12 14
7 9 11
9 11 14
11 13 16
10 13 16
5 6 8
11 14 17
5 6 8
7 8 10
8 10 12
9 12 15
5 6 8
12 14 17
12 14 17
15 19 24
7 8 10
9 11 13
10 12 16
6 8 10
9 11 14
6 7 9
6 7 8
5 6 7
6 8 10
6 7 9
4 4 6
4 5 6
7 9 12
6 7 9
11 13 16
8 10 13
12 15 19
5 6 7
8 10 13
11 13 16
7 8 10
7 8 11
8 9 11
8 10 12
9 11 14
7 9 12
9 11 13
10 12 15
5 5 7
6 7 10
7 8 10
10 12 15
10 12 15
11 14 18
10 12 15
12 15 19
9 10 13
10 12 15
11 14 18
7 8 11
11 14 17
16 20 25
9 11 14
9 11 13
12 14 19
14 18 23
13 15 19
8 10 13
8 10 14
10 13 16
14 18 23
14 17 22
15 18 23
14 17 22
15 19 24
11 13 16
11 13 17
13 16 21
14 18 22
9 11 14
9 11 15
11 13 18
10 12 15
19 23 30
16 19 24
10 12 16
6 8 10
14 17 21
21 26 34
14 17 23
17 21 27
19 24 31
12 15 19
15 18 23
12 16 21
14 18 24
18 22 29
12 16 21
13 17 23
11 14 19
14 17 23
17 21 27
16 20 26
13 16 20
13 16 21
14 18 24
9 12 15
15 19 24
16 20 26
18 22 29
13 17 22
15 19 25
11 14 18
15 19 25
15 19 24
17 22 29
18 22 28
12 15 20
14 18 23
13 16 21
15 18 24
16 20 26
9 11 15
10 13 17
16 19 24
14 17 23
18 22 29
14 18 22
18 22 29
14 18 24
12 16 20
18 23 31
14 17 23
14 17 22
17 21 27
15 19 25
10 12 16
18 23 30
19 24 32
16 20 26
18 22 29
13 17 22
18 22 28
13 16 21
15 19 25
17 21 27
13 17 22
20 24 32
22 27 35
18 22 29
18 22 29
10 12 16
19 24 31
11 14 18
13 16 21
14 18 23
14 17 21
14 17 21
19 23 30
19 24 31
16 19 25
10 13 17
14 17 23
19 23 29
24 30 39
20 24 31
22 27 34
16 19 25
12 15 20
14 17 22
12 16 20
9 11 15
16 20 26
22 28 36
17 21 27
15 19 25
15 19 24
12 15 19
20 25 33
16 20 26
17 22 29
15 19 24
18 23 29
19 24 32
16 20 26
15 19 24
19 24 31
21 26 33
19 23 30
21 26 34
19 24 30
18 22 29
18 22 29
20 24 31
14 18 24
13 17 22
20 25 32
17 21 27
17 21 27
15 19 25
14 18 23
18 23 30
15 18 23
19 24 31
15 19 25
14 17 23
15 18 24
16 20 26
19 24 31
15 19 25
19 24 30
9 11 15
15 20 26
7 8 11
15 19 24
17 21 27
27 33 43
17 21 28
18 23 30
10 13 16
17 21 27
16 21 27
19 24 31
14 18 24
18 22 28
22 27 34
19 23 29
20 24 31
12 15 19
15 18 23
15 19 25
18 23 29
16 20 26
20 25 32
14 18 23
15 19 25
23 28 36
9 11 15
19 23 29
12 16 21
21 26 33
16 21 27
14 18 24
12 16 21
17 22 28
15 18 23
18 23 31
15 19 24
12 15 20
21 26 33
15 19 24
12 14 19
20 25 33
18 22 27
16 20 26
15 19 25
15 19 25
20 26 34
9 12 15
15 19 25
13 17 22
23 28 36
24 30 38
16 20 25
14 18 22
20 25 32
15 19 24
16 20 26
19 24 31
9 11 15
17 21 26
15 18 24
17 21 27
20 25 32
12 15 19
18 22 28
10 13 17
23 29 37
16 21 28
18 23 30
14 17 23
15 19 26
14 17 22
22 26 34
11 14 18
12 15 19
16 20 26
23 29 38
15 18 24
15 19 25
15 18 24
13 16 20
13 16 21
16 20 26
14 18 23
15 19 25
18 23 29
13 17 22
17 21 27
14 17 23
13 16 21
14 17 22
22 27 34
20 25 33
18 22 28
14 17 22
16 19 25
20 25 31
15 19 25
19 24 31
18 22 29
14 18 23
23 28 36
16 20 26
13 17 22
14 17 22
15 19 25
17 20 26
14 18 23
18 22 29
14 18 23
17 21 27
11 14 18
12 15 20
22 27 36
15 18 23
13 17 22
15 18 24
13 16 20
14 18 24
10 13 17
15 18 23
15 19 24
12 15 19
17 21 28
12 15 19
11 13 17
15 19 24
10 12 15
15 18 23
10 12 15
12 15 19
17 21 28
12 15 20
18 22 28
12 15 20
15 18 23
10 12 17
15 19 24
14 17 21
12 15 19
14 18 22
17 21 28
20 25 32
15 19 24
9 11 14
12 15 20
13 16 20
20 25 31
16 20 26
8 10 12
11 14 18
13 16 20
11 13 16
9 11 15
14 17 22
9 11 14
15 19 24
7 9 11
10 13 16
9 11 14
14 17 22
14 17 22
17 21 26
13 16 20
12 15 19
10 12 14
9 11 14
14 17 21
6 7 9
9 11 14
10 12 15
8 10 13
5 7 9
16 20 26
6 7 9
5 6 8
8 10 12
8 9 12
6 7 9
10 11 14
4 5 6
7 9 11
8 10 12
13 16 19
7 9 11
12 14 18
5 6 7
6 7 9
12 15 18
10 12 15
4 5 6
8 9 12
12 15 18
12 15 19
3 4 5
6 8 9
10 12 14
3 3 4
6 7 9
10 12 15
3 4 5
6 8 10
5 6 7
8 9 11
9 10 13
4 5 7
9 11 14
6 7 9
8 10 12
11 13 16
4 5 7
3 4 5
9 11 13
5 6 8
8 10 13
8 10 12
6 7 9
11 14 17
5 6 7
5 6 7
7 8 11
7 9 11
5 6 7
4 5 7
8 10 12
8 9 11
6 7 9
9 11 14
9 11 14
9 11 14
8 10 12
7 9 11
5 6 7
7 8 10
6 7 9
8 9 11
5 6 8
11 13 16
7 8 10
7 9 11
9 11 14
8 9 12
8 10 13
11 14 18
16 19 24
18 22 28
13 16 21
10 12 15
13 16 20
7 8 11
7 9 12
12 14 17
10 13 16
10 12 16
5 7 9
14 17 22
13 16 19
16 20 26
11 14 19
14 17 21
10 13 17
9 12 15
14 17 21
14 17 23
14 17 22
12 14 18
14 18 23
15 19 25
13 16 21
13 16 21
17 20 26
10 12 15
15 19 24
12 15 20
16 20 25
16 19 25
16 19 24
15 19 24
17 20 26
12 15 19
16 20 26
13 17 22
12 15 20
24 30 38
16 20 27
15 18 24
12 14 19
16 19 25
13 16 21
12 15 20
12 14 18
16 19 25
19 23 29
18 22 28
15 19 24
16 20 26
19 23 30
14 17 22
14 18 23
18 22 29
17 21 28
8 10 13
14 17 22
16 20 26
9 11 15
12 15 19
19 23 30
14 18 24
14 17 22
16 19 25
12 15 20
16 19 25
18 23 30
11 14 18
17 21 27
15 19 24
15 19 25
14 17 22
17 20 26
22 27 35
12 15 19
10 13 17
24 30 39
13 17 21
16 20 26
20 24 30
19 23 29
16 20 25
14 17 23
12 15 19
21 26 34
19 24 31
14 17 23
23 29 38
17 21 28
19 24 30
19 24 30
21 26 33
17 21 27
16 20 27
21 26 34
14 18 24
14 18 23
15 18 24
18 22 28
12 16 21
23 28 36
13 16 21
18 23 29
19 24 32
22 28 36
18 22 28
13 16 21
11 14 19
15 18 23
17 21 28
21 26 33
16 20 26
19 24 31
17 21 27
12 16 21
16 20 26
18 22 29
16 20 26
20 25 32
17 22 28
16 19 25
12 15 19
22 27 36
17 22 29
19 23 30
17 22 28
14 17 22
21 25 32
13 17 23
22 27 34
16 20 27
15 19 24
20 25 33
20 25 33
11 14 18
19 23 29
17 22 28
20 25 32
20 25 33
13 16 20
19 23 30
13 17 22
21 26 35
17 21 27
15 19 24
12 15 19
21 26 33
18 23 30
15 18 23
23 29 37
18 22 28
12 15 19
13 16 21
18 22 28
19 24 30
19 24 32
10 12 15
20 25 32
15 19 24
16 20 27
20 25 32
19 23 29
18 22 28
23 27 35
18 22 28
18 23 29
13 15 20
12 15 20
20 25 32
17 21 27
12 15 20
12 15 19
15 19 26
17 20 26
18 22 29
22 28 36
19 23 29
20 25 32
16 20 26
21 26 32
16 20 26
15 19 26
18 22 29
14 17 23
23 29 38
17 21 27
18 22 29
13 16 21
19 24 31
20 25 33
16 19 25
17 22 29
13 16 21
22 27 35
17 21 27
13 16 21
16 19 25
14 18 23
20 25 32
17 20 26
13 16 21
17 21 27
18 23 30
18 22 28
20 24 32
17 22 29
18 22 28
15 19 25
18 22 29
21 26 34
19 24 31
18 22 28
15 18 24
14 17 22
19 23 29
10 13 17
14 18 24
17 21 28
24 29 37
13 16 22
19 24 31
15 19 25
19 24 32
13 16 21
17 22 29
14 17 22
16 20 26
19 23 30
13 16 20
14 18 24
18 23 30
12 15 19
16 20 26
16 20 25
14 18 23
18 23 30
16 21 28
22 27 35
16 20 27
20 25 32
11 14 18
14 18 23
14 18 24
12 15 19
15 19 24
10 12 16
19 24 32
14 18 23
17 20 26
21 27 35
14 17 23
21 26 34
18 22 29
17 21 27
13 17 22
8 10 12
13 17 21
14 17 22
14 17 22
15 19 24
13 17 22
15 19 24
14 18 23
12 15 19
18 23 31
17 20 26
12 15 20
19 23 29
14 17 22
17 21 28
11 13 17
14 17 22
12 16 20
13 15 20
14 18 25
18 23 30
14 17 22
17 21 27
16 20 26
16 19 25
9 11 14
11 14 18
11 14 19
16 20 26
16 20 26
17 20 26
15 18 24
10 13 16
19 24 30
16 20 25
15 19 25
12 14 19
16 19 25
13 16 20
12 15 19
17 21 27
15 19 24
15 18 23
15 19 24
12 15 19
9 11 15
11 14 19
8 10 13
15 18 24
12 15 20
16 20 25
17 20 26
12 14 18
11 13 16
13 15 19
11 13 18
9 11 14
9 11 14
15 18 22
9 11 14
7 9 11
8 10 13
7 9 11
11 13 16
9 11 13
16 19 25
9 11 14
9 11 13
8 10 13
8 10 13
9 11 13
5 6 7
14 17 22
16 19 24
9 11 14
10 12 16
15 18 22
6 8 10
9 10 13
3 4 5
11 14 17
12 14 18
6 8 10
6 7 9
5 6 7
11 14 17
7 9 11
8 9 12
10 12 15
10 12 15
10 12 15
6 8 10
8 10 13
6 7 8
5 6 7
5 6 8
8 10 13
7 8 11
6 7 9
9 11 14
10 12 15
4 4 6
10 12 15
7 9 11
7 8 10
4 6 7
5 6 8
12 15 18
5 7 8
9 10 12
11 14 17
7 8 11
6 7 8
8 9 11
6 7 9
7 8 10
11 13 16
4 5 6
5 6 8
8 10 12
8 10 12
8 9 12
10 12 15
5 6 7
16 19 24
6 7 9
3 4 5
5 6 7
2 3 4
6 8 9
7 8 11
9 11 14
8 9 12
7 8 10
12 14 18
10 13 16
5 6 8
12 14 18
7 9 11
10 11 14
10 12 15
11 14 18
9 11 14
6 8 10
10 12 16
10 12 15
12 14 18
10 12 16
14 17 21
13 15 19
14 17 21
15 18 23
12 14 18
14 18 23
11 13 17
12 14 18
15 19 24
11 13 17
9 11 14
12 14 18
17 21 27
11 14 18
12 15 19
13 16 21
12 15 19
15 18 24
10 12 16
14 17 22
14 17 22
16 20 25
12 15 18
14 18 23
13 17 22
11 13 17
12 15 20
10 12 15
15 18 23
17 21 27
16 19 24
13 16 20
13 16 21
10 13 17
14 17 22
12 15 20
17 21 27
13 16 21
16 19 25
17 21 28
14 18 22
12 15 19
15 19 24
14 18 23
10 13 17
11 14 18
18 23 29
8 10 14
15 18 23
20 24 31
11 15 20
17 21 28
14 18 22
24 29 37
16 20 25
17 22 28
15 18 23
16 20 26
12 15 20
15 19 24
18 23 30
9 11 14
17 21 27
19 24 31
16 20 25
15 18 24
15 19 24
12 15 19
17 21 28
10 12 16
12 16 22
18 22 30
19 24 31
17 21 28
20 25 33
13 16 21
15 19 25
13 17 22
13 16 20
18 22 29
12 15 20
20 25 32
13 17 22
12 16 21
13 16 21
14 18 24
16 20 26
11 14 18
12 16 20
17 21 28
11 14 18
19 23 30
18 23 31
13 16 20
25 31 41
17 22 28
19 23 31
14 17 22
21 26 34
16 20 26
15 19 26
16 20 26
19 24 31
14 17 22
12 15 19
18 22 29
15 18 24
17 22 28
17 21 28
16 20 26
14 18 24
15 19 24
12 14 18
13 16 20
14 17 21
9 11 15
12 15 20
12 16 21
15 19 24
16 21 28
15 19 25
19 24 31
19 24 32
12 15 20
21 27 35
14 18 24
13 17 22
15 19 25
18 22 28
18 22 29
18 23 30
18 22 29
17 21 27
20 25 32
15 18 23
15 19 26
13 16 20
19 24 31
20 24 31
16 20 26
20 24 31
22 27 35
21 26 33
18 23 30
16 21 27
22 28 37
16 21 27
17 21 27
22 27 36
17 22 29
12 15 20
14 18 23
17 21 27
10 13 18
15 19 25
17 20 26
17 20 26
12 15 20
20 25 32
17 21 27
18 23 30
20 24 32
14 17 21
18 22 29
20 25 33
11 14 18
20 25 32
15 19 24
20 25 33
19 23 29
16 20 26
14 17 22
15 18 23
17 22 29
16 20 26
18 22 28
12 15 20
15 19 25
17 21 27
13 16 20
16 20 26
17 21 28
20 24 31
15 19 25
15 18 24
17 21 26
18 22 29
17 21 27
14 17 22
14 17 22
19 23 30
14 17 22
16 20 27
16 20 25
16 21 28
12 15 20
17 21 28
13 16 20
17 21 28
20 25 32
22 27 35
16 20 26
20 25 33
15 20 26
19 24 31
17 21 28
16 20 26
16 20 26
19 24 32
20 25 32
19 23 30
17 21 26
12 16 21
13 17 22
13 16 20
13 17 22
15 19 25
15 18 23
16 20 25
19 24 31
15 20 26
10 12 16
12 15 20
13 17 22
15 18 23
13 16 21
18 23 29
16 21 27
18 23 30
13 17 22
17 21 27
13 17 22
15 19 24
12 15 19
14 18 23
16 20 26
23 29 38
12 15 20
12 16 20
16 20 26
16 20 26
10 12 16
19 24 31
21 26 33
16 19 25
12 15 19
19 25 32
11 14 18
13 16 21
18 23 29
19 23 30
17 22 28
22 27 35
18 23 30
14 17 22
13 16 21
17 22 29
10 12 15
19 24 31
17 21 26
17 22 28
14 16 21
15 18 23
16 20 26
9 11 15
15 19 25
16 20 26
17 21 27
18 22 28
10 13 17
15 19 25
20 25 32
19 24 31
14 18 23
19 24 31
14 17 22
16 20 26
15 19 25
18 23 29
12 15 20
14 17 22
15 18 24
16 19 25
11 13 17
15 19 25
13 16 21
16 20 25
14 17 22
10 12 16
13 16 20
12 15 20
7 9 12
10 12 15
12 14 18
10 13 17
15 18 23
12 15 19
12 14 18
14 18 23
21 26 33
12 15 19
11 14 17
15 18 24
12 15 19
12 15 20
11 14 18
17 21 27
12 15 20
10 13 17
15 19 24
11 14 18
13 16 21
9 10 13
10 12 16
12 15 19
10 12 16
9 12 15
7 8 11
10 13 16
10 12 16
8 10 12
12 14 18
13 16 21
4 5 7
8 9 12
10 12 15
11 13 17
6 7 9
10 12 16
9 11 14
10 12 14
9 10 13
9 10 13
5 6 8
6 7 9
12 14 17
10 12 15
8 10 12
9 11 14
2 3 3
7 8 10
7 9 11
10 12 15
6 7 8
8 10 12
8 9 11
11 14 17
4 5 6
5 6 8
7 9 12
7 8 10
5 6 8
7 9 11
7 9 11
10 12 15
13 16 20
10 12 14
10 12 16
10 12 15
5 6 8
10 12 15
9 11 14
6 7 9
6 7 9
6 7 9
5 6 7
6 8 10
11 14 17
5 7 8
13 16 21
3 3 4
11 13 16
5 5 7
8 10 12
7 9 11
7 8 10
8 9 12
8 10 12
10 11 14
8 10 12
10 12 14
6 7 9
4 4 5
5 7 8
7 9 11
5 6 7
8 10 13
10 12 15
12 15 18
10 12 14
8 9 12
3 4 5
9 11 14
8 10 13
6 7 8
13 16 20
9 11 14
9 11 14
9 11 14
6 8 10
9 11 14
13 16 20
12 14 18
16 20 25
10 12 16
16 19 25
10 12 16
9 11 14
10 12 15
16 19 25
9 12 15
7 9 12
11 14 18
12 16 21
15 18 23
16 20 25
9 11 14
12 15 19
10 13 16
14 17 22
15 19 24
15 19 24
10 12 16
14 18 23
10 12 16
14 18 23
10 12 16
13 16 21
14 17 21
13 17 22
16 20 27
19 22 28
13 16 21
14 17 22
15 19 24
11 13 17
20 24 31
14 17 22
14 17 22
15 18 24
14 17 22
19 23 29
10 13 17
12 15 19
15 19 25
16 20 25
12 15 20
13 16 21
11 14 18
14 17 22
13 16 20
15 18 23
16 20 26
10 13 17
19 24 32
12 15 20
8 10 14
19 23 30
11 14 17
14 17 22
13 17 22
15 19 25
12 15 19
13 16 21
12 16 22
18 22 28
14 17 23
13 16 21
12 15 19
11 14 18
13 17 23
12 15 19
14 17 21
13 16 22
15 19 24
17 21 27
19 23 29
19 22 28
18 22 30
14 17 23
19 23 29
14 17 22
16 20 26
17 22 28
12 15 19
21 26 34
17 21 27
15 18 23
14 18 24
16 20 26
16 20 27
12 16 20
14 18 23
11 13 17
17 20 26
12 15 20
17 21 27
16 20 26
17 21 27
17 21 27
21 26 34
15 18 24
14 18 23
16 20 27
17 21 27
13 16 20
15 19 24
15 19 25
13 16 21
13 16 21
14 18 24
14 17 23
13 16 21
18 22 29
18 22 28
12 14 18
14 17 22
19 23 30
14 18 23
17 21 27
15 19 24
22 27 35
17 21 28
15 18 23
12 15 19
15 19 25
12 15 19
15 18 24
10 12 15
14 17 21
17 22 29
17 21 27
19 24 32
12 15 19
16 19 25
19 23 30
15 19 24
14 18 23
21 26 34
11 15 19
17 22 28
17 21 27
16 20 26
15 20 26
15 18 24
16 20 26
21 26 33
17 21 27
21 26 34
19 24 31
16 19 25
19 23 30
16 19 25
15 19 24
14 18 24
17 21 28
16 20 26
16 19 25
17 22 29
19 23 31
20 25 33
14 17 21
21 26 34
13 17 23
17 21 27
16 21 27
11 13 17
20 25 32
14 18 23
16 20 27
18 23 29
15 19 25
15 18 24
18 23 31
8 10 13
15 19 24
16 20 26
20 25 32
16 20 27
19 24 32
15 20 26
21 25 32
17 21 27
17 21 28
14 17 22
22 27 36
10 12 16
16 20 26
16 20 26
18 23 30
18 22 29
23 29 37
17 21 26
15 19 25
15 19 25
19 23 31
13 17 23
17 21 27
20 25 33
21 26 34
17 21 28
15 19 26
16 20 25
16 20 27
17 21 27
13 16 20
10 13 17
15 18 24
15 19 24
14 17 23
16 20 27
14 18 23
18 22 28
19 24 30
13 16 21
12 14 18
17 21 26
20 25 32
18 22 29
20 26 34
13 17 21
20 25 32
12 15 20
17 21 27
14 18 24
16 20 25
17 21 28
22 28 36
15 19 25
8 10 13
16 21 27
17 21 26
18 23 30
15 18 23
9 12 16
17 20 26
11 14 19
12 15 19
14 18 23
9 11 15
21 26 34
13 16 21
15 19 25
20 25 32
18 23 31
13 16 22
15 19 24
15 19 24
18 22 28
11 13 17
20 25 32
14 18 23
12 15 19
15 18 24
17 21 27
14 17 22
19 24 31
14 18 23
15 19 24
15 19 25
19 24 30
10 13 17
20 24 30
19 24 31
16 20 26
16 20 26
10 13 17
18 22 28
10 12 16
16 21 27
9 12 15
15 19 24
15 19 24
12 16 21
20 24 32
20 25 32
15 19 24
11 15 19
14 18 23
12 15 20
18 22 27
7 9 12
11 14 19
11 14 17
12 15 19
15 19 24
12 14 18
15 19 24
12 15 19
13 17 22
13 16 21
16 19 25
12 15 19
13 16 20
11 14 17
6 8 9
12 14 18
11 13 16
13 16 22
10 13 16
13 15 19
11 13 17
10 12 16
12 15 19
10 12 16
8 10 13
16 20 26
14 17 21
14 18 23
14 17 22
7 9 11
13 15 19
9 11 15
11 14 18
7 9 12
7 9 12
9 11 15
9 12 15
9 11 14
14 17 21
12 15 19
8 10 13
7 8 11
10 13 17
10 12 15
10 12 16
11 13 17
10 12 15
5 6 8
14 16 20
8 10 12
8 9 11
13 15 19
8 9 12
3 4 5
9 10 13
7 9 11
3 3 4
6 8 9
9 10 13
8 9 12
5 6 7
8 10 12
10 12 15
8 9 12
6 7 9
9 11 14
7 8 10
10 12 15
10 12 15
11 13 16
6 8 10
7 9 11
7 8 10
5 6 8
8 9 12
6 7 9
6 8 9
10 12 15
3 4 5
5 6 8
10 12 16
4 4 5
8 9 12
6 7 8
4 5 7
4 4 6
9 10 13
6 7 9
8 10 12
8 10 12
10 12 15
5 6 7
4 5 6
7 8 10
8 10 12
9 11 13
8 9 11
4 5 6
7 8 10
5 6 8
5 6 7
10 12 15
5 6 7
5 6 7
6 7 9
3 3 4
6 8 10
7 8 10
8 9 12
12 15 18
12 15 19
9 10 13
9 11 14
13 16 20
10 13 16
7 9 11
11 14 18
11 13 17
6 8 10
10 12 15
14 17 22
11 14 18
11 13 17
14 18 23
10 12 16
7 9 12
11 14 17
11 13 17
11 13 16
11 13 17
14 17 22
7 9 11
15 18 23
16 19 25
18 22 28
17 21 27
16 19 24
17 21 27
17 20 26
14 18 23
7 8 11
14 17 23
7 9 12
16 19 24
11 14 19
13 17 22
10 13 16
13 16 21
18 22 29
13 16 21
13 17 22
14 17 22
12 15 20
10 13 17
17 20 26
11 14 18
13 15 20
12 15 19
12 14 18
15 19 24
17 21 28
20 24 31
5 6 8
17 22 28
18 22 29
12 15 20
13 16 21
14 17 22
13 17 22
13 16 21
16 20 26
17 21 27
16 19 25
13 16 21
17 21 27
20 25 32
19 23 29
14 17 22
11 14 19
15 18 24
14 18 23
18 22 29
18 22 28
16 21 27
17 21 28
14 17 22
17 21 27
14 17 21
21 26 34
15 18 23
21 26 34
18 23 30
20 24 31
18 22 28
20 26 34
13 16 21
20 24 31
18 22 28
23 28 37
17 21 27
16 21 27
11 13 16
19 24 32
17 21 27
17 20 26
15 19 24
16 20 26
25 31 40
23 28 37
15 18 22
17 21 26
14 17 22
12 15 19
12 14 19
17 21 27
14 17 22
17 21 28
14 18 23
12 15 20
17 21 27
16 20 26
17 22 28
13 16 21
15 19 24
24 30 39
16 20 26
18 23 29
12 16 21
22 28 36
18 22 28
14 18 23
19 24 31
17 22 29
15 18 24
13 16 20
10 13 17
12 15 19
15 19 24
18 23 29
15 19 25
15 18 23
18 22 29
17 21 27
11 14 18
20 26 33
19 23 30
17 21 28
16 21 27
16 20 26
14 18 24
13 16 21
15 19 24
18 22 27
16 20 25
14 18 22
12 16 20
16 20 27
17 21 28
19 24 31
10 12 15
12 15 20
20 26 33
18 23 29
15 19 25
20 25 32
19 24 30
22 27 35
20 25 32
15 19 25
14 18 23
18 22 28
18 22 29
22 27 35
14 17 22
13 16 21
18 23 29
15 18 23
16 20 26
17 21 27
16 20 26
19 25 33
19 23 29
12 15 20
15 19 24
15 19 24
6 8 11
20 25 32
19 24 30
22 27 35
16 21 27
15 18 24
16 20 26
14 18 23
25 31 40
17 21 27
15 19 24
17 21 27
10 12 16
19 23 30
19 23 30
17 21 27
20 26 34
11 15 19
14 17 22
24 29 38
19 24 31
17 22 28
24 29 36
16 19 24
20 25 32
20 24 31
13 17 22
13 17 22
16 20 26
13 17 22
11 14 18
12 15 19
12 14 18
16 20 25
14 17 23
14 18 23
14 18 23
12 16 21
17 21 26
17 21 27
15 19 25
17 21 28
15 19 25
24 29 37
21 26 34
14 18 23
16 20 27
19 23 29
18 22 28
18 22 28
22 27 35
9 12 16
21 26 33
16 20 25
19 24 31
16 19 25
14 18 24
16 20 26
20 25 32
19 23 30
19 24 30
17 21 28
10 13 17
24 30 39
17 21 28
14 17 22
18 22 29
17 21 27
18 22 29
20 24 31
14 17 21
14 17 22
14 18 23
15 19 24
13 16 21
11 13 17
16 20 26
19 24 31
15 19 25
16 19 24
19 24 31
11 14 19
15 19 25
19 24 31
16 19 25
16 20 26
17 20 26
11 14 19
15 19 25
13 16 21
12 16 21
15 18 24
17 21 28
10 13 17
20 25 32
22 27 35
17 21 27
16 19 25
17 21 27
14 17 22
15 19 24
13 17 22
18 23 30
13 17 23
13 16 21
8 11 14
13 16 20
17 21 27
13 16 20
14 18 23
9 11 14
20 24 31
18 22 28
12 14 18
18 21 27
14 18 23
16 20 26
13 15 20
18 22 28
12 15 19
14 18 23
10 13 17
18 23 29
13 16 21
17 21 27
17 21 26
15 18 23
11 14 18
12 15 20
10 13 17
13 16 20
17 21 27
11 14 18
15 18 24
13 16 21
18 23 29
8 11 14
13 16 21
12 14 18
7 9 13
11 14 18
7 9 12
9 12 15
21 25 32
13 15 19
11 14 18
13 16 21
10 13 16
12 15 19
13 17 21
13 16 21
8 10 12
10 13 16
8 9 12
14 17 21
13 16 21
10 12 15
15 18 23
12 15 19
14 17 21
8 10 13
12 15 19
11 13 17
10 12 15
4 5 7
8 10 12
9 11 13
7 9 11
10 12 15
4 4 5
11 13 16
4 5 6
3 3 4
5 6 8
4 4 6
6 8 10
3 4 5
7 8 9
7 8 10
12 14 18
10 12 15
7 9 11
8 10 12
8 10 13
9 10 13
7 8 11
5 6 8
6 8 10
7 8 10
7 9 11
6 7 9
9 11 14
5 6 8
6 8 10
8 9 11
14 16 20
7 8 10
10 11 14
9 11 14
9 10 13
12 14 17
6 6 8
5 7 8
12 15 19
6 7 9
4 5 6
12 14 17
6 7 9
10 12 15
5 6 8
4 5 6
11 13 16
4 5 6
11 13 16
11 13 16
9 11 13
9 11 13
7 9 11
6 7 9
6 7 9
9 11 14
11 13 16
9 10 13
9 11 14
12 14 18
10 12 15
11 13 16
8 10 12
7 9 11
14 17 21
7 8 10
9 11 13
8 10 13
17 21 26
9 11 14
12 14 18
7 9 12
13 16 21
10 12 15
10 13 17
11 14 18
13 15 20
15 19 24
7 8 10
12 14 19
8 9 12
13 16 20
7 9 12
13 16 20
9 12 15
10 12 16
12 15 19
9 11 14
11 14 18
12 15 20
12 15 20
11 14 18
15 19 24
7 8 11
12 14 18
14 17 22
12 16 21
15 19 24
11 14 17
14 17 23
14 18 23
8 10 13
13 16 21
14 17 21
18 22 28
15 18 23
20 26 33
19 23 31
17 21 27
13 16 21
13 17 22
18 21 27
16 21 27
10 13 17
13 17 22
21 25 32
12 15 20
21 26 34
15 18 24
14 17 22
9 12 15
19 23 30
17 21 27
18 23 30
15 18 23
14 18 23
10 13 17
13 17 22
13 16 21
21 26 34
13 16 21
12 16 21
16 20 26
16 20 27
10 12 16
21 27 34
10 13 18
13 16 20
17 21 27
14 18 22
18 23 30
14 17 22
19 24 31
21 26 34
15 18 24
12 15 19
13 16 21
13 16 21
16 20 26
15 18 24
15 19 24
10 13 17
22 27 34
17 20 26
18 22 29
18 22 29
18 22 28
18 22 29
18 23 29
20 25 32
15 18 23
13 16 21
20 25 32
21 26 33
20 25 33
12 16 21
15 18 24
17 21 28
14 18 24
19 23 29
19 24 31
12 16 21
18 22 28
10 13 16
13 17 22
19 24 31
18 23 30
17 21 28
20 24 32
14 17 22
20 24 32
24 30 38
20 25 32
17 21 27
20 25 31
17 21 28
11 14 18
17 21 27
16 20 26
13 16 20
11 14 18
19 23 29
14 18 24
15 19 25
17 21 28
13 16 21
17 22 29
17 21 26
15 19 25
15 18 24
16 21 27
14 18 24
19 23 29
21 25 33
11 14 18
15 19 24
23 28 37
14 18 23
12 15 19
14 18 23
13 16 21
16 20 26
13 16 20
15 19 25
20 25 32
15 19 25
21 26 33
16 21 28
21 27 35
18 22 29
17 21 27
22 28 36
19 24 32
19 23 30
14 18 23
15 20 26
19 24 31
16 20 25
19 24 30
20 25 32
17 21 26
16 20 27
22 28 36
14 17 23
20 25 33
18 22 29
22 27 35
15 19 25
18 23 30
22 27 35
12 15 20
13 16 21
19 24 32
14 17 22
13 16 21
16 21 27
17 21 27
18 22 29
18 23 29
19 24 32
20 25 32
15 19 25
15 19 24
15 18 23
15 18 23
18 23 29
18 23 30
15 19 25
14 18 24
16 20 26
16 20 26
12 15 20
17 21 27
18 22 27
12 15 20
18 22 28
21 26 34
15 19 25
19 24 32
15 18 23
16 19 25
7 8 11
14 18 23
19 24 32
22 28 36
17 22 28
19 23 30
12 15 19
10 12 16
16 20 26
20 25 32
15 19 25
15 18 24
17 22 28
11 14 19
18 23 31
10 12 16
16 19 25
11 14 18
12 15 19
13 16 21
18 22 28
17 21 26
16 20 26
12 15 20
15 19 26
14 18 23
14 18 23
13 16 21
11 14 18
20 25 32
13 16 21
15 19 25
16 20 26
18 22 29
14 17 22
18 22 29
18 22 28
12 15 20
12 15 19
14 17 22
14 17 22
17 21 27
14 17 22
16 19 25
10 13 17
15 19 24
11 14 18
16 19 25
15 19 25
22 27 35
18 22 29
17 21 27
19 23 30
15 18 23
15 18 22
15 19 24
14 17 22
17 21 28
12 15 21
17 22 28
17 21 27
14 18 24
17 20 26
16 19 25
16 20 26
11 13 17
15 18 24
11 13 18
10 13 16
12 15 20
14 17 22
13 17 21
11 14 18
10 12 16
17 21 27
15 18 24
17 21 28
11 13 17
21 27 36
15 19 24
16 19 25
18 21 27
11 14 18
13 16 20
15 19 24
7 8 11
17 21 27
11 14 18
11 14 18
10 12 16
10 12 15
15 19 26
16 19 25
9 12 16
7 9 11
13 17 22
14 17 22
11 14 18
9 12 15
12 15 19
13 16 20
10 12 15
14 17 22
10 13 16
11 14 18
15 18 23
9 11 14
22 26 34
7 9 11
16 19 23
15 18 23
8 10 12
12 15 19
12 14 18
11 14 18
12 15 19
15 18 23
11 14 18
7 9 11
15 18 22
10 12 16
11 13 17
4 5 6
9 11 15
13 15 19
7 9 12
18 22 27
10 12 16
10 12 14
4 5 6
8 10 12
3 3 4
8 10 13
11 13 16
11 13 16
12 15 19
7 8 10
7 9 11
10 12 15
5 5 7
2 3 4
8 9 12
5 6 8
10 12 15
10 12 15
6 7 9
5 6 7
9 11 13
6 7 8
7 8 10
8 10 12
6 8 9
9 10 13
5 6 8
10 12 16
6 8 10
8 9 11
9 11 13
5 6 7
5 6 8
2 2 3
4 5 6
8 9 12
7 8 11
6 7 9
5 6 7
1 1 1
7 8 10
3 3 4
2 2 3
5 6 8
4 5 6
10 12 15
8 10 13
6 8 10
6 7 9
6 7 8
9 11 15
8 9 11
6 8 10
5 6 8
4 5 7
8 9 12
4 5 7
5 7 8
9 12 15
10 12 15
7 9 12
10 12 16
7 8 10
10 11 14
11 13 16
9 11 14
13 15 19
11 14 18
9 12 15
10 12 15
11 13 17
6 8 10
8 9 12
10 12 15
12 14 18
5 6 8
12 15 19
10 12 16
12 15 20
9 11 14
17 20 26
13 15 19
6 7 10
12 15 19
17 21 26
9 11 14
17 20 26
18 22 29
11 14 18
11 14 18
15 19 25
15 19 24
12 14 19
10 13 17
10 13 17
11 14 18
19 22 28
13 16 20
9 11 14
13 16 21
16 19 23
6 8 10
12 15 19
9 11 15
10 13 16
15 19 24
17 21 28
13 16 21
15 19 25
15 19 25
18 22 28
8 10 13
18 22 29
12 15 19
11 14 17
17 21 28
14 18 23
12 15 20
18 22 28
15 19 24
13 16 20
20 25 32
12 15 19
7 9 12
13 16 21
18 23 29
12 15 19
16 20 26
14 18 23
12 15 20
17 21 27
6 8 10
18 22 28
18 21 27
17 21 27
19 24 30
19 23 30
13 17 22
20 25 32
15 19 25
11 13 17
12 15 20
16 21 27
14 17 22
11 14 18
14 17 23
11 14 19
18 22 29
11 14 18
17 22 28
15 18 23
19 23 30
18 22 28
16 21 27
21 26 34
16 19 25
14 18 23
13 16 20
17 21 28
12 15 19
12 15 20
22 28 36
16 20 26
11 13 18
19 23 30
21 26 33
15 20 26
16 21 27
23 29 38
18 23 29
18 23 29
23 28 37
19 24 31
9 12 16
15 18 23
12 15 20
12 15 20
17 21 27
17 21 27
10 13 18
15 19 25
16 20 27
18 22 28
17 21 27
18 23 30
16 20 26
21 26 33
15 19 25
15 20 26
14 17 22
21 26 34
15 19 25
19 23 31
17 21 27
16 20 25
16 20 26
18 22 28
20 25 32
20 24 31
15 18 24
16 20 26
16 21 27
12 16 21
20 24 32
18 23 29
13 16 21
16 20 26
14 17 22
10 12 16
12 15 20
21 27 35
15 19 24
17 21 28
11 14 19
19 23 30
20 25 32
12 15 20
14 17 22
21 25 32
21 26 33
8 10 14
15 19 26
11 14 18
22 28 36
21 26 33
17 21 28
19 24 31
16 20 25
10 13 16
18 22 29
14 17 21
12 14 18
24 30 38
17 21 28
20 25 32
14 17 22
13 17 21
13 16 21
9 12 15
21 26 34
16 20 26
15 18 24
16 21 27
13 17 22
16 20 25
12 16 21
16 19 25
17 21 28
16 21 27
12 15 20
14 18 23
21 26 33
15 19 24
16 20 26
16 20 26
18 22 29
17 21 27
25 31 39
19 23 30
17 21 27
16 20 26
17 22 30
17 21 28
17 21 27
18 22 29
18 22 28
19 24 32
13 17 22
16 19 24
15 18 23
14 17 22
17 21 28
19 23 30
14 18 23
20 24 31
12 15 20
23 28 35
10 13 16
15 18 23
14 17 22
16 20 26
20 24 32
10 12 16
13 16 21
16 19 25
17 22 28
14 17 21
17 22 29
27 33 42
16 19 25
15 19 25
8 10 13
18 22 29
20 25 32
11 14 17
17 20 26
18 22 29
19 24 32
19 24 31
16 20 26
15 19 25
13 16 21
20 24 31
15 18 23
16 19 25
12 15 19
19 23 30
15 19 24
16 20 25
16 20 26
16 20 25
17 21 26
15 19 24
16 19 25
15 19 24
7 8 11
16 20 27
17 21 27
22 27 35
16 19 25
15 19 25
16 20 26
13 17 22
15 18 23
18 22 28
15 19 24
17 21 27
17 21 27
17 21 27
14 18 23
19 23 30
16 20 26
19 23 29
15 19 24
15 19 25
13 16 20
17 21 28
22 28 36
14 17 22
13 17 22
16 19 24
15 19 25
16 20 26
17 21 28
15 18 24
13 16 21
8 11 14
14 17 22
11 13 17
17 21 27
14 18 23
15 19 24
15 18 24
12 15 19
17 20 26
17 22 29
16 19 25
13 16 21
17 21 28
11 14 18
13 16 21
20 25 32
18 22 28
18 22 28
13 16 21
17 21 27
13 16 21
16 20 25
16 20 26
9 11 15
12 15 20
13 17 21
9 11 15
10 13 16
16 19 24
14 18 23
10 13 17
16 19 25
7 9 11
12 15 19
11 13 16
13 16 20
16 20 25
11 13 16
15 18 23
13 16 21
12 14 18
12 15 18
7 9 11
14 17 22
11 14 18
8 11 14
11 14 18
14 17 22
12 15 19
8 10 12
6 7 9
10 12 15
8 10 13
9 11 14
9 11 13
8 9 12
6 8 10
7 8 10
9 10 13
6 7 9
6 8 10
4 5 7
11 13 16
8 10 12
7 9 11
10 12 15
11 13 16
6 8 9
7 8 10
6 7 9
2 2 3
8 9 12
3 4 5
6 7 8
8 9 11
8 10 12
4 5 7
4 4 5
6 7 9
11 13 16
2 2 3
9 11 14
5 6 7
4 5 6
3 3 4
4 5 6
4 5 6
8 9 12
7 8 10
3 4 5
4 5 6
1 2 2
5 6 8
6 7 8
6 7 9
5 6 8
8 9 11
8 9 11
4 5 6
6 7 9
7 8 10
6 7 8
4 5 6
6 7 9
10 12 15
6 7 9
7 8 10
9 11 13
4 5 6
6 7 9
7 9 11
15 18 22
8 10 13
4 5 7
10 12 16
10 12 15
12 14 17
10 13 16
12 15 19
13 15 19
7 9 11
8 9 12
14 16 20
12 15 18
8 10 12
14 17 22
10 13 16
11 13 16
18 22 27
11 14 17
6 7 10
12 14 18
9 11 14
16 19 24
11 14 18
12 14 18
12 15 19
16 20 26
12 15 20
16 19 25
14 17 21
6 7 10
13 16 21
14 17 21
9 11 14
12 15 20
13 16 21
11 14 18
14 17 22
11 13 17
12 16 20
11 14 18
11 13 17
19 23 29
17 21 27
13 16 22
13 16 21
15 19 24
19 23 30
16 19 25
12 14 18
12 15 19
17 20 26
12 15 19
11 13 17
18 22 28
13 17 21
18 23 29
21 26 34
11 14 18
14 17 23
19 23 30
14 17 22
18 22 29
17 21 27
14 18 23
13 17 22
13 16 20
12 14 18
17 21 27
13 17 21
8 11 14
12 15 20
15 19 25
14 18 23
11 13 17
17 21 27
14 18 23
14 18 23
11 14 18
24 30 38
18 22 29
15 19 25
16 20 26
17 21 27
14 17 21
18 24 31
14 18 23
16 20 26
15 18 24
12 15 20
14 17 23
15 19 25
15 19 24
16 20 27
16 20 26
14 17 23
19 23 29
19 24 31
17 22 28
19 24 31
17 21 27
15 19 25
15 19 24
18 21 27
15 19 25
16 20 25
19 24 31
14 17 22
13 17 22
13 16 20
19 24 31
21 26 33
20 25 33
17 21 28
17 20 26
18 23 29
22 27 35
21 26 34
12 15 20
14 18 23
20 25 33
17 21 26
17 22 28
19 23 29
20 25 33
11 14 18
14 17 22
12 15 20
19 23 30
21 25 32
23 28 36
17 22 29
12 15 19
15 19 24
18 23 29
22 27 34
16 19 25
19 23 31
15 18 23
16 21 28
18 22 28
18 22 28
13 16 21
16 20 27
17 21 27
13 17 22
14 18 23
18 22 29
20 25 33
19 24 31
12 15 20
15 18 24
14 17 23
22 28 36
20 26 34
15 19 25
25 30 39
20 25 32
14 18 23
18 23 30
13 16 21
18 23 30
17 21 27
15 18 24
16 20 27
15 18 23
12 15 19
17 21 26
19 24 31
17 21 27
19 24 31
10 12 15
18 22 28
14 17 22
15 19 26
15 19 25
22 28 36
13 17 23
24 30 39
23 28 37
19 23 30
20 24 32
12 16 21
13 16 21
21 27 35
15 19 25
17 21 27
20 24 31
16 19 25
13 17 22
23 28 37
16 19 25
16 20 26
18 23 30
11 13 17
19 24 31
16 19 25
17 21 27
19 24 31
16 19 25
8 11 15
16 20 25
14 17 23
17 21 28
19 23 30
17 21 28
12 15 19
11 13 17
15 19 24
22 27 36
18 23 29
14 18 22
13 15 20
21 26 34
16 19 25
14 17 22
12 15 19
21 25 32
12 15 21
15 19 25
18 22 29
14 17 21
20 25 32
14 18 24
15 19 25
14 18 23
15 19 25
21 26 34
12 16 21
16 20 26
14 17 22
16 21 27
23 29 37
13 17 22
17 21 27
13 17 22
16 19 25
12 16 20
12 16 21
16 19 25
13 16 21
19 23 29
13 17 22
14 18 24
15 19 25
18 23 30
17 21 28
17 21 27
22 27 35
17 22 28
13 16 20
9 12 16
19 24 31
12 15 19
14 18 23
14 18 23
24 30 39
13 16 21
13 16 21
13 16 22
11 14 19
20 25 32
21 26 34
22 27 36
20 25 33
15 18 23
10 13 17
13 16 21
16 19 25
14 17 22
15 19 24
19 23 30
18 22 29
16 20 25
15 19 25
16 20 25
17 21 28
19 24 31
12 15 20
17 20 26
16 20 26
16 20 25
19 24 31
18 22 29
11 14 19
15 18 24
14 17 22
14 17 22
11 14 18
13 16 21
16 20 26
11 13 17
13 16 21
10 12 16
18 23 29
18 23 30
14 18 23
16 19 25
14 17 23
12 15 20
18 22 29
13 17 22
13 16 21
12 15 19
16 20 25
20 25 32
14 17 22
15 19 24
11 13 16
12 16 20
13 17 21
15 19 25
12 15 19
8 10 12
12 15 19
15 19 24
13 16 20
13 16 20
12 15 20
11 13 17
13 16 21
10 13 16
14 18 23
10 13 16
13 15 19
14 17 21
17 20 26
12 15 19
10 13 16
12 15 19
9 10 13
9 11 14
9 10 13
12 15 19
13 15 20
10 12 15
8 9 12
7 9 11
6 7 9
9 11 14
10 12 15
12 14 18
6 8 10
6 7 9
9 11 14
10 12 15
7 8 10
8 10 12
11 13 17
6 7 9
10 11 14
7 9 11
12 15 18
6 7 9
9 11 14
5 6 7
6 7 9
6 8 10
4 4 5
4 5 7
4 5 7
5 6 7
5 6 8
5 6 7
3 4 5
2 3 4
7 8 10
9 11 13
4 5 6
5 6 8
2 3 4
5 6 7
8 9 11
6 7 9
3 4 5
5 6 8
5 6 8
10 11 14
7 8 10
4 5 6
9 10 13
6 7 9
4 5 6
6 7 9
6 8 9
6 7 9
7 9 11
6 7 9
7 8 10
6 7 9
8 9 11
9 11 14
11 14 17
9 10 13
8 9 11
5 6 7
10 12 15
8 10 12
10 12 15
7 8 11
10 12 15
7 8 10
7 8 10
10 12 16
8 9 12
12 14 18
11 13 16
11 13 15
10 12 16
10 13 16
9 11 14
11 13 17
13 16 21
9 11 14
13 16 21
15 19 24
13 16 21
4 4 6
13 16 21
11 14 18
10 11 14
15 18 23
10 12 16
13 16 20
10 13 16
17 20 26
14 17 21
15 18 23
7 9 12
14 17 21
15 18 24
12 15 19
13 16 21
15 18 23
12 15 19
16 20 25
9 11 15
15 18 23
14 17 22
18 22 29
17 21 27
15 18 24
14 18 23
14 18 23
19 24 32
11 14 18
7 9 12
15 19 24
13 16 21
15 19 24
15 18 23
10 12 15
10 13 17
13 17 22
7 9 12
11 14 19
16 20 26
14 18 23
15 18 24
12 15 20
12 15 19
14 17 21
12 15 19
11 13 17
10 12 15
15 18 23
17 21 27
16 20 27
11 14 18
22 27 35
15 18 23
15 18 24
18 22 28
10 13 17
17 21 27
16 19 25
12 15 20
13 17 21
12 14 18
12 16 20
9 11 15
18 22 28
15 19 24
16 20 26
18 23 29
11 14 18
18 22 28
18 23 30
13 15 20
13 17 22
15 19 25
21 26 35
15 18 23
14 18 23
22 27 35
13 16 21
17 21 27
19 24 30
18 23 30
14 18 22
23 28 36
18 22 28
18 21 27
16 20 26
16 20 25
12 15 20
13 16 21
16 20 25
15 19 24
13 17 22
17 21 27
18 23 30
13 16 21
19 24 31
13 16 21
14 17 23
13 16 20
11 14 18
16 19 25
15 19 24
15 19 25
16 20 26
15 19 24
17 21 27
16 20 25
16 20 26
10 13 17
13 16 21
15 19 24
16 20 26
19 23 30
14 18 24
15 19 25
18 22 29
17 21 27
5 6 9
15 19 25
16 20 26
14 17 22
14 17 23
8 10 14
18 22 30
16 20 25
15 19 24
18 22 29
15 19 25
18 22 29
19 23 30
14 18 24
17 20 26
17 22 29
16 20 25
23 29 39
21 26 34
20 24 31
16 20 26
17 21 27
19 24 30
15 19 25
18 22 28
17 21 27
10 13 17
17 21 27
16 20 26
18 23 30
19 23 29
12 16 21
19 24 30
16 20 27
16 19 25
21 27 35
13 17 22
19 23 29
15 19 25
13 17 22
16 20 26
17 21 27
16 20 26
20 25 33
23 28 36
17 22 29
19 23 30
28 35 44
11 14 18
15 18 24
16 20 25
17 21 27
11 14 19
13 16 20
16 20 26
16 20 26
18 22 29
11 13 17
16 20 27
15 18 23
15 19 25
15 18 23
12 15 19
18 23 30
15 18 23
18 22 29
16 20 26
18 23 30
16 19 25
22 28 36
19 23 30
11 14 18
11 14 18
11 14 17
15 19 25
14 17 22
13 16 20
12 15 19
19 23 30
18 23 30
16 20 26
22 27 36
19 23 30
20 25 33
12 15 20
17 21 26
16 20 26
21 27 35
12 16 21
15 18 24
15 18 24
18 23 29
15 19 25
14 17 22
6 8 10
17 21 27
18 23 31
15 19 25
12 15 19
15 18 23
11 14 17
21 26 34
14 18 24
14 18 24
14 17 23
11 14 19
18 23 31
16 20 26
11 14 18
10 12 16
19 24 30
17 21 28
16 20 26
14 18 24
18 23 31
12 15 19
19 24 32
15 19 25
20 25 32
15 19 25
17 22 29
13 16 20
18 23 30
21 25 32
11 14 18
22 28 35
13 16 21
11 13 17
13 17 21
14 18 23
9 11 15
14 18 23
17 21 28
18 23 30
13 16 21
11 14 18
19 24 31
19 23 29
14 18 23
11 13 17
10 12 16
18 22 29
11 14 19
15 19 24
15 18 24
16 20 26
16 21 27
19 24 31
10 12 15
16 19 25
13 17 22
12 15 20
18 23 29
15 19 25
12 15 19
12 15 20
16 21 27
19 23 30
12 15 20
17 20 26
13 15 20
13 16 21
16 20 26
16 20 26
10 13 17
16 21 27
19 23 30
8 10 13
13 16 21
12 15 19
17 21 28
12 15 19
21 25 32
14 17 22
16 19 25
14 17 22
10 12 16
16 20 26
13 16 20
13 16 20
12 15 18
11 13 17
12 15 19
11 13 17
12 15 19
17 20 25
13 17 22
10 12 16
15 18 23
8 9 12
19 23 30
8 10 13
11 14 18
12 14 19
13 16 21
13 15 20
13 16 20
12 14 18
9 12 15
10 13 16
11 13 17
10 12 14
6 8 10
11 13 17
6 7 9
9 11 14
11 13 16
7 9 11
8 10 12
14 17 21
15 18 23
15 18 22
9 11 14
8 10 12
9 11 14
9 10 13
9 11 14
8 10 13
9 11 14
8 9 11
9 11 14
11 13 16
2 3 4
8 10 12
7 8 10
8 10 12
5 6 8
6 7 9
6 7 9
6 7 9
3 4 5
6 7 9
7 8 10
5 6 8
8 10 12
5 6 8
5 7 8
2 3 4
5 6 7
6 7 9
5 6 7
7 8 10
4 4 5
9 10 13
5 5 6
11 13 16
4 4 5
6 7 9
10 11 14
9 10 13
4 5 6
7 8 10
5 6 7
6 7 9
10 12 15
13 15 19
2 3 3
6 7 9
4 5 6
4 5 6
7 8 10
5 6 7
1 2 2
10 11 14
11 14 17
8 9 12
13 16 19
11 13 17
4 5 7
10 12 15
4 4 6
7 8 11
10 12 16
12 14 18
7 8 10
8 9 12
8 9 12
6 8 10
13 16 20
13 16 20
15 19 24
12 15 19
10 12 16
11 14 18
10 13 17
8 10 13
6 7 10
15 18 23
12 15 19
10 12 14
9 11 14
13 16 20
19 23 29
11 13 17
9 12 15
15 18 23
11 14 18
11 13 17
16 21 27
10 13 17
11 14 19
10 13 17
14 17 22
10 12 15
13 16 20
12 15 19
12 15 20
16 20 26
11 14 18
12 15 19
23 28 35
8 10 13
15 18 22
15 18 23
15 18 23
15 18 23
16 19 25
8 10 13
16 19 25
11 14 18
15 18 23
14 17 22
15 18 23
12 15 19
9 11 14
11 13 17
16 20 25
14 18 24
20 25 32
17 21 27
14 17 23
17 21 27
15 19 25
16 20 25
17 21 27
21 26 34
15 18 23
16 19 25
21 26 34
16 20 26
17 22 28
15 19 25
10 13 17
15 18 24
15 19 25
11 14 19
13 16 21
15 19 24
15 19 24
11 14 18
13 16 21
13 16 21
13 16 21
15 19 25
10 12 16
17 21 27
18 22 28
13 17 22
18 23 30
10 13 17
17 21 27
14 18 24
18 22 29
23 29 37
20 25 33
14 18 23
13 16 21
8 11 14
15 18 23
19 24 31
16 20 26
14 18 24
17 21 28
14 17 23
20 26 33
21 26 34
17 21 27
16 20 26
15 18 23
19 24 30
21 26 33
13 17 21
19 24 31
17 21 27
19 23 29
13 16 21
15 18 24
14 17 22
13 16 20
19 23 30
23 28 37
16 20 26
12 15 20
14 17 23
20 24 31
14 17 23
20 25 32
12 16 21
19 24 32
23 28 36
9 12 15
17 20 26
18 23 30
19 24 31
23 28 37
17 21 28
22 27 35
20 25 32
14 17 23
15 18 23
14 18 23
19 24 31
21 25 33
11 14 18
15 19 25
14 18 23
22 28 36
20 24 31
12 15 19
16 20 26
20 25 32
14 17 23
17 21 27
10 12 16
16 20 26
17 20 26
19 24 32
12 16 21
14 18 24
17 22 28
17 20 26
18 22 29
17 21 27
17 21 28
17 21 28
13 16 20
17 21 27
20 25 32
11 14 18
17 21 27
15 19 24
13 16 21
22 28 36
12 15 19
18 22 29
18 23 30
13 16 20
14 17 22
16 20 26
10 12 16
21 27 35
24 29 38
25 31 40
19 24 31
14 17 22
20 25 32
19 23 30
20 24 31
22 27 35
16 21 27
14 18 23
18 22 29
9 11 15
22 27 35
16 20 25
15 18 24
17 21 28
15 19 25
11 14 18
14 18 23
17 22 28
15 19 25
13 16 21
15 19 24
11 15 20
13 16 22
19 24 31
16 20 26
14 18 24
16 20 25
15 18 24
12 16 21
17 21 27
14 17 23
18 23 30
17 21 27
13 16 22
19 23 30
16 20 26
15 19 25
15 18 24
14 18 24
19 24 31
15 20 26
12 16 21
16 20 26
17 22 29
18 22 29
20 25 31
16 21 27
21 27 35
17 21 27
16 20 25
15 19 25
18 22 28
19 23 30
11 13 17
16 19 25
18 22 28
17 21 28
19 23 29
14 18 24
16 20 26
13 17 22
14 18 23
14 18 23
18 22 28
9 12 15
15 19 24
10 12 16
19 24 30
15 18 24
14 18 23
19 23 30
16 20 25
15 18 23
17 21 26
17 22 29
9 12 16
13 17 22
17 22 29
10 13 16
23 28 36
18 22 30
13 17 22
15 18 24
16 20 26
10 13 18
12 16 21
16 19 25
13 16 20
14 18 24
16 20 25
13 17 22
15 19 24
22 27 34
13 16 21
7 9 12
14 17 21
11 13 17
13 17 22
17 20 26
12 15 19
16 19 25
15 19 24
12 15 20
14 17 22
18 22 28
12 15 19
15 19 25
12 16 20
22 27 34
13 15 19
11 14 18
14 17 23
11 13 17
11 13 17
13 16 20
12 14 19
10 12 15
15 18 24
17 22 28
9 11 13
11 14 18
13 16 20
10 12 16
16 19 24
14 17 22
12 15 20
13 16 21
15 18 24
14 17 21
16 20 26
10 13 16
10 13 16
13 16 21
13 16 21
13 16 21
12 15 20
12 14 18
16 19 25
19 24 31
14 17 22
11 13 17
13 16 20
9 11 14
4 5 7
14 18 23
11 13 17
7 9 12
11 14 18
10 12 15
6 7 9
12 14 18
9 11 14
11 13 17
14 17 22
8 10 13
9 11 14
8 10 13
8 10 12
8 9 12
9 11 14
9 11 14
6 7 9
10 12 15
10 12 15
7 8 10
8 10 13
11 13 16
4 5 6
3 4 5
7 8 10
7 8 11
11 13 16
6 7 8
9 11 13
12 14 17
6 8 10
5 6 7
13 15 19
4 5 7
10 12 15
10 12 16
10 12 15
8 10 12
4 5 6
7 8 10
10 12 15
9 10 13
8 9 12
8 10 13
7 8 10
12 15 18
9 11 14
11 13 17
7 8 10
10 11 14
7 8 10
8 9 12
7 8 10
7 8 10
11 12 15
7 9 11
8 10 13
7 8 11
4 5 6
10 12 15
9 11 14
8 10 12
7 9 11
12 14 18
6 7 9
7 8 10
5 6 7
13 16 20
5 6 7
11 13 16
8 9 12
13 16 20
9 11 13
8 10 13
9 11 14
11 14 17
10 12 15
14 17 21
13 16 20
14 17 21
10 12 16
11 14 18
9 11 14
11 13 17
12 15 18
12 15 20
6 8 10
13 16 20
12 15 19
15 18 23
13 16 21
14 18 23
12 15 19
10 13 17
11 13 17
12 15 19
18 22 28
12 15 20
13 16 21
10 13 16
10 13 16
13 16 21
13 16 21
15 18 24
16 20 25
8 11 14
14 17 22
13 16 21
12 15 20
12 16 21
17 21 26
11 14 18
13 16 20
16 20 25
12 15 19
14 18 23
15 19 24
19 23 30
15 18 22
11 14 18
9 12 15
16 20 25
18 23 29
16 19 25
15 19 24
18 22 28
8 10 14
19 23 29
13 17 22
19 23 30
16 20 26
15 18 24
15 18 23
11 13 18
12 15 20
14 17 22
14 17 22
20 24 31
15 19 25
10 13 17
11 13 18
10 12 15
14 18 23
20 25 33
13 16 21
14 18 23
19 24 31
21 25 32
16 19 25
14 18 23
16 20 26
13 16 21
18 23 30
12 15 19
15 18 24
18 22 28
14 17 23
15 20 26
12 15 19
14 17 22
16 20 27
11 13 17
13 17 21
15 18 23
11 14 18
21 25 33
14 17 21
19 24 31
21 26 34
16 21 27
15 19 25
16 20 26
14 17 22
16 20 26
13 17 23
18 22 29
16 20 27
25 30 39
17 22 29
18 22 29
16 20 26
18 23 30
25 31 40
16 20 26
14 18 23
16 19 24
18 22 29
22 26 34
12 15 19
23 29 37
19 24 31
15 19 25
18 23 30
20 26 33
18 23 30
19 25 32
11 14 18
17 22 28
16 20 26
15 19 24
17 21 28
12 15 20
19 24 31
13 16 21
16 21 27
14 17 22
13 16 21
20 24 30
13 17 22
14 18 24
20 25 32
15 19 25
16 20 26
17 21 27
17 22 28
18 22 28
16 20 26
15 19 26
24 29 37
21 27 34
15 18 23
21 27 34
22 27 35
19 24 31
16 20 27
12 15 19
21 26 34
22 27 35
19 23 30
12 15 20
10 13 17
13 16 21
20 25 32
7 9 11
14 17 23
15 18 24
17 21 27
10 12 15
14 18 24
20 25 32
16 20 27
18 23 31
19 23 31
14 18 23
20 24 31
12 16 21
18 23 30
16 20 26
17 21 28
11 14 19
16 19 25
15 19 24
19 24 31
19 23 31
20 24 30
23 28 36
19 23 30
20 25 32
17 21 27
16 21 27
17 22 28
19 24 31
18 22 29
14 17 22
13 16 21
18 23 29
16 21 27
10 12 15
20 25 32
18 22 28
12 15 20
22 28 36
13 16 20
21 27 35
18 22 29
17 21 28
16 20 27
23 28 36
18 23 30
16 20 26
11 14 18
16 20 27
13 17 22
15 19 24
13 17 22
10 13 17
20 24 31
17 21 28
16 20 26
13 16 21
16 20 25
15 19 24
11 14 18
16 19 25
17 22 28
15 19 25
14 17 23
13 16 21
16 20 27
23 28 36
16 20 26
13 16 21
16 19 25
10 13 17
17 22 29
12 15 20
15 18 24
15 19 25
10 13 17
17 21 27
18 22 29
10 13 17
11 14 17
10 13 17
17 21 27
9 11 15
18 22 29
16 20 26
12 15 19
15 19 25
13 16 21
10 13 16
18 22 29
14 17 23
22 27 36
17 22 29
14 18 24
19 23 30
18 22 28
15 19 24
15 20 26
10 13 17
11 14 19
13 16 21
8 11 15
18 22 28
17 21 27
12 16 21
16 20 25
15 19 25
15 19 24
14 18 23
13 16 21
9 12 15
7 9 12
13 16 21
18 23 29
9 12 16
11 14 18
17 21 26
10 12 16
18 22 29
17 22 28
8 10 13
17 20 25
13 16 21
15 18 24
18 23 30
8 10 13
14 18 23
12 15 20
16 20 26
15 18 24
14 17 22
15 19 24
10 12 15
15 18 24
12 15 19
12 15 20
17 21 27
12 16 21
9 12 15
12 15 18
11 15 20
14 17 22
9 12 15
9 12 16
16 19 24
9 11 13
8 10 13
14 17 22
15 18 23
12 15 19
9 11 14
11 14 18
9 11 15
6 7 10
14 17 22
10 13 16
11 14 18
16 20 25
9 11 13
12 15 19
11 13 17
11 13 17
13 16 20
13 16 20
11 14 17
13 16 20
10 13 16
16 19 23
15 18 23
10 12 15
10 12 15
10 11 14
11 13 17
10 12 15
7 8 11
7 8 10
6 7 8
7 8 10
12 14 17
11 14 18
8 10 13
11 14 18
4 5 7
9 11 15
8 10 13
11 13 16
11 13 17
6 7 9
9 11 14
11 13 16
6 7 9
8 10 13
7 8 11
8 9 11
9 11 14
8 9 11
4 5 7
6 7 9
4 5 6
4 5 6
7 9 11
10 11 14
10 12 15
4 4 5
8 9 12
6 6 8
3 4 5
5 6 8
3 4 5
9 10 13
2 3 3
10 12 15
8 9 11
6 7 9
3 4 5
6 7 9
10 11 14
3 3 4
10 12 15
5 6 8
6 7 9
7 8 11
12 14 18
7 8 10
9 10 13
3 4 5
9 11 13
8 10 12
8 10 13
9 11 13
7 9 11
12 14 18
16 19 24
6 8 10
9 11 14
11 13 16
8 10 13
9 11 14
9 10 13
12 14 18
10 13 16
5 6 8
12 15 19
12 14 18
10 12 16
13 16 20
15 18 24
10 12 15
7 8 11
9 11 14
13 16 20
7 9 12
9 11 15
17 22 28
10 12 16
11 14 18
8 10 14
14 17 22
12 14 18
10 13 16
12 16 20
8 11 14
13 16 21
21 25 32
12 15 19
16 20 26
9 11 14
14 18 22
15 18 23
11 14 17
13 17 22
19 23 30
15 19 25
12 14 18
9 11 15
13 16 21
18 21 27
19 23 29
13 16 21
17 20 26
12 15 19
11 15 20
12 15 20
12 15 19
17 21 26
15 18 23
12 15 19
8 10 13
11 14 18
16 19 25
11 14 18
17 21 28
14 17 22
17 21 27
14 17 22
19 24 32
11 14 19
17 21 27
12 15 20
16 20 26
14 17 22
12 15 19
16 19 25
16 19 25
19 24 31
19 23 30
14 17 23
14 18 23
11 14 18
16 20 26
10 13 17
15 18 24
14 17 22
15 18 23
9 12 15
14 17 22
14 17 22
17 22 29
12 15 20
16 20 26
14 18 23
18 22 28
17 21 27
14 17 22
12 15 20
16 20 26
10 13 17
14 18 23
21 26 34
13 17 22
18 23 30
16 20 25
12 16 20
13 17 22
9 11 15
21 26 34
14 18 23
14 17 22
20 25 32
18 22 28
15 19 24
15 19 24
12 16 20
15 19 25
8 9 12
12 15 20
15 18 23
18 23 29
12 15 19
15 18 24
18 23 30
15 18 24
21 26 34
17 21 28
18 23 30
12 15 20
14 17 22
16 21 28
19 24 31
12 15 19
14 18 23
13 15 20
10 13 16
20 24 31
17 21 27
17 21 28
16 20 26
14 18 23
11 13 17
11 14 18
24 30 39
13 17 22
13 16 21
17 21 28
19 24 30
19 23 31
21 26 34
12 15 20
19 24 31
17 21 27
13 17 22
13 16 21
18 22 29
13 16 21
16 20 26
18 23 30
18 24 31
19 23 29
13 17 23
16 20 25
12 16 21
23 28 36
16 20 26
18 23 30
16 20 27
16 19 25
25 32 41
16 20 26
16 20 25
15 18 24
12 14 18
12 15 20
16 20 25
15 19 26
18 22 29
18 22 28
13 16 21
21 26 34
10 13 17
16 19 25
20 25 33
13 16 20
19 24 31
23 28 35
17 21 27
25 30 38
23 28 37
19 23 31
18 22 29
16 20 26
23 28 36
12 15 20
21 26 34
14 17 22
17 20 26
15 19 24
14 18 23
17 21 28
12 15 20
16 20 27
18 23 30
10 13 16
16 20 26
17 21 26
14 17 22
14 17 22
18 23 31
17 21 27
20 25 32
13 16 21
11 14 18
17 21 28
17 22 28
25 32 41
11 13 17
19 24 31
20 26 34
22 27 35
19 24 31
24 30 38
18 23 30
13 16 21
13 16 21
17 21 27
14 17 22
13 16 20
11 14 18
14 17 22
12 15 20
19 23 30
18 22 29
15 19 24
16 20 25
15 19 25
18 22 29
16 21 27
11 13 17
16 20 25
26 32 41
17 22 28
18 23 30
14 17 22
10 13 17
18 22 29
13 17 22
9 12 15
16 19 25
19 24 30
15 19 25
10 13 17
16 20 26
12 15 20
14 18 23
17 21 28
21 25 32
13 16 20
14 18 23
12 15 20
15 19 24
20 25 32
18 22 28
13 17 21
17 21 27
18 22 29
14 17 22
17 21 27
17 22 28
13 16 21
12 15 20
14 17 21
16 20 25
17 20 26
15 18 24
18 22 29
13 17 22
16 20 25
18 23 30
16 20 26
11 14 18
12 14 18
11 14 19
19 23 30
16 20 26
16 20 25
13 17 22
18 23 30
15 19 25
16 20 25
15 19 24
17 21 28
16 20 26
16 20 25
14 17 22
13 16 21
11 14 18
9 11 14
11 14 18
15 19 25
16 19 25
12 15 19
9 11 14
14 17 22
13 16 20
10 13 16
19 23 29
9 11 15
14 18 23
11 14 18
14 17 22
10 12 16
11 13 17
17 21 27
11 13 17
13 16 20
13 16 20
14 17 22
17 21 27
18 21 27
17 21 27
10 13 16
11 13 17
13 16 21
8 10 13
11 14 17
13 16 20
16 20 25
12 15 19
11 14 17
12 15 19
19 23 29
13 16 21
10 12 15
12 15 19
12 14 18
12 15 19
8 10 12
12 15 18
15 18 23
14 17 22
17 21 27
9 11 14
11 14 18
8 10 12
3 4 5
9 11 14
8 10 12
15 18 23
15 17 22
6 8 10
5 6 8
14 17 21
10 12 15
14 16 20
10 12 16
8 10 12
6 7 9
7 9 11
3 4 5
12 14 18
7 8 11
8 9 12
7 9 11
7 9 11
9 11 14
4 5 6
8 9 12
6 7 9
13 15 19
7 9 11
7 8 10
7 8 10
8 9 12
2 3 4
8 9 11
6 8 9
7 8 10
8 10 13
5 6 8
6 7 8
6 7 9
4 5 6
7 8 10
7 9 11
3 4 5
6 7 9
10 12 15
9 11 14
16 19 24
6 7 9
6 7 8
11 13 16
10 12 15
4 5 7
6 7 8
3 3 4
3 4 5
7 8 10
8 9 12
8 10 12
6 8 9
5 6 8
6 8 10
11 13 16
7 9 11
10 12 16
11 13 17
7 8 11
10 13 17
10 12 15
6 7 9
10 13 16
13 15 20
9 10 13
9 11 13
15 18 23
10 12 15
11 13 18
6 8 10
13 17 21
6 8 10
15 18 22
10 13 17
7 9 12
16 19 24
9 11 14
19 23 29
15 18 23
10 12 16
13 16 21
6 7 9
11 14 17
15 19 24
17 21 26
14 18 23
12 15 19
17 21 27
14 18 23
17 21 27
6 8 10
12 15 19
15 19 25
12 15 19
17 21 26
19 24 32
13 15 19
12 15 20
9 12 15
14 18 23
6 8 11
6 8 10
11 13 17
14 18 23
13 17 22
13 17 21
17 21 27
10 13 16
16 20 27
12 15 19
17 21 26
14 17 22
19 23 30
14 17 22
16 20 26
17 21 27
16 20 26
10 13 18
11 14 19
14 17 22
11 13 17
11 14 18
14 18 24
16 19 25
17 21 28
14 18 23
18 23 29
14 17 22
10 12 16
14 17 22
14 18 23
17 21 28
10 13 16
15 18 23
14 18 24
16 19 25
21 26 35
14 17 22
16 20 26
18 23 30
10 12 15
11 14 18
15 18 24
16 20 25
14 17 22
13 16 21
17 21 27
14 18 24
17 22 28
16 20 26
14 18 23
22 28 36
12 15 19
18 22 29
15 18 24
26 32 41
19 24 32
15 19 25
12 15 20
18 22 28
15 19 25
13 17 22
17 21 27
25 31 40
17 21 28
14 17 22
15 18 23
11 15 19
16 19 25
18 23 30
20 24 31
14 18 23
9 11 14
21 26 34
14 17 22
12 15 19
22 27 34
15 18 24
15 19 25
13 16 21
11 14 19
17 22 28
11 14 18
14 18 24
16 21 27
13 16 21
21 26 34
15 19 24
11 14 17
18 23 29
15 19 25
15 19 25
19 24 31
16 19 25
16 19 25
19 24 31
17 22 29
13 16 21
15 19 24
19 24 31
19 23 30
15 19 24
16 20 27
15 19 25
19 24 30
14 17 22
17 21 27
20 25 33
15 19 25
14 18 23
14 17 22
21 25 32
16 20 25
17 21 27
19 23 30
15 19 24
19 23 30
16 19 25
16 19 25
13 17 22
10 13 18
17 21 27
11 14 18
21 26 32
21 26 34
20 25 31
15 19 25
10 13 17
15 19 24
16 20 26
18 22 29
17 20 26
16 20 25
22 28 35
11 13 17
14 18 23
18 23 29
14 17 23
23 29 38
14 18 24
13 16 21
15 19 24
13 17 22
16 20 26
16 19 25
18 23 30
18 22 28
13 17 22
18 23 29
14 17 21
14 17 21
14 17 22
13 16 21
13 16 21
17 21 28
18 23 30
12 15 19
12 15 19
14 17 22
12 15 19
22 27 35
16 20 26
13 16 21
17 21 28
13 16 20
16 20 26
19 23 31
16 20 26
16 19 24
14 18 23
12 15 20
17 21 27
18 23 30
11 13 17
15 19 25
15 19 24
16 20 26
11 14 19
22 28 37
17 21 27
22 27 35
18 23 30
17 21 27
14 18 24
16 20 26
12 15 19
13 16 21
15 19 24
18 23 30
16 20 26
16 20 26
18 23 29
13 16 20
23 29 37
13 17 21
16 20 26
18 22 29
18 22 28
22 27 35
16 20 26
14 18 23
17 21 27
16 20 26
16 20 27
12 15 20
14 18 23
13 16 20
22 27 35
15 19 25
8 10 13
12 15 20
15 18 23
24 29 38
11 14 18
10 12 16
13 17 22
19 24 31
12 15 20
17 21 27
16 20 26
17 20 26
18 22 29
15 18 23
19 23 29
15 18 24
14 17 21
14 18 23
11 14 18
17 21 27
13 16 21
13 16 21
16 20 26
15 18 24
23 29 37
18 22 29
13 16 20
12 15 19
17 22 28
15 18 24
17 21 27
11 13 17
10 12 16
16 20 27
10 13 18
11 14 18
17 21 27
14 17 22
13 16 20
13 16 20
13 17 22
14 18 23
14 18 24
16 20 26
11 14 18
13 16 20
15 18 23
11 13 16
17 21 27
13 16 21
15 18 24
17 21 27
11 13 16
14 17 21
20 24 31
16 20 25
17 21 27
9 12 16
12 15 20
11 14 18
12 15 19
13 16 20
10 12 16
13 16 20
18 22 29
11 14 18
15 19 24
8 10 13
8 10 14
14 17 22
16 19 24
15 18 22
11 14 18
15 18 23
12 15 19
9 11 15
7 9 12
12 15 19
14 18 23
10 12 15
9 11 14
10 12 15
10 12 15
10 12 15
12 14 17
14 17 22
11 14 18
7 9 11
11 13 17
12 15 18
15 18 23
11 14 18
8 10 13
13 15 19
5 6 8
9 10 13
8 9 12
12 15 19
15 18 23
9 11 14
5 6 7
12 14 17
12 15 18
10 12 15
10 12 16
10 12 15
8 9 12
7 8 10
8 10 12
5 7 9
4 5 7
5 6 8
10 12 15
13 15 19
6 7 9
9 11 14
6 7 9
7 8 10
9 11 14
3 4 5
7 8 11
10 12 15
8 9 12
8 10 12
9 11 14
5 6 7
3 4 5
5 6 8
6 7 8
6 7 9
6 7 9
8 9 11
9 11 14
8 9 12
10 12 15
10 12 15
6 7 9
8 10 12
8 10 12
5 6 7
8 10 13
8 10 12
11 13 16
10 12 16
8 10 13
14 17 22
7 8 11
14 18 23
7 9 11
5 7 9
7 9 11
6 7 9
9 12 15
11 13 16
8 9 12
10 12 15
10 13 16
10 13 16
13 16 20
11 13 17
7 8 11
12 14 18
10 12 16
14 17 22
9 12 15
12 14 18
15 18 24
12 14 18
12 15 19
12 15 19
12 14 19
10 13 16
11 13 17
10 13 16
13 16 21
22 27 35
14 18 23
20 25 32
14 17 22
12 14 19
9 11 15
15 18 23
11 14 18
10 12 16
14 17 22
12 15 20
15 19 24
10 12 16
11 13 17
9 11 14
12 15 19
13 16 21
6 8 10
13 16 21
10 12 16
12 15 20
15 19 24
14 17 21
14 18 23
14 17 22
12 15 19
16 19 24
12 15 19
9 11 14
11 14 18
13 17 22
15 18 22
14 17 23
15 18 23
17 21 27
12 15 19
20 25 33
13 16 21
13 16 21
12 15 19
17 21 28
14 17 22
9 11 14
14 18 23
15 19 25
17 21 28
17 22 28
15 19 24
16 20 26
8 10 14
12 15 20
10 12 15
12 15 20
16 19 24
15 19 24
11 14 18
11 14 18
10 13 17
12 15 20
16 19 25
11 14 19
20 25 32
10 13 17
17 21 28
9 11 15
18 22 29
17 21 27
17 21 27
15 19 24
15 19 24
21 26 34
20 25 32
16 20 26
18 22 28
17 21 27
14 17 22
13 16 21
16 20 26
17 21 27
10 13 17
19 24 31
19 23 30
22 28 36
10 13 16
17 21 27
15 19 25
15 18 24
15 19 24
16 20 27
16 19 23
21 27 34
15 20 26
17 22 29
16 20 26
18 21 26
10 13 17
14 17 22
13 17 22
12 15 19
16 20 26
15 19 25
19 24 31
18 22 29
11 14 19
16 20 26
12 15 19
15 19 24
22 28 36
21 26 34
13 16 21
15 19 25
17 21 27
17 22 28
14 17 21
23 29 38
11 14 18
9 11 15
15 19 25
12 16 20
18 22 28
13 16 22
14 17 23
19 24 32
13 17 22
14 17 22
10 13 18
16 21 27
13 17 22
15 19 24
9 11 15
16 20 27
20 25 33
16 19 25
17 21 26
18 22 29
17 21 27
24 29 37
17 21 27
16 20 26
19 24 30
18 22 29
19 24 31
16 21 27
18 22 28
22 27 35
13 17 21
18 23 30
15 19 24
18 22 28
14 18 23
18 22 29
18 23 30
17 21 28
17 22 29
10 13 17
14 18 24
16 20 25
15 19 24
20 25 33
16 20 26
16 20 25
13 17 22
15 19 24
14 18 23
17 21 27
15 19 25
12 16 20
19 24 30
14 17 22
20 24 30
14 17 22
12 15 20
20 25 33
17 21 28
13 16 21
16 20 26
14 17 22
15 20 26
20 25 31
20 25 33
11 13 17
17 21 28
14 17 22
19 23 30
20 25 32
21 26 33
15 18 24
18 22 29
16 20 26
16 20 27
16 20 26
18 23 30
19 24 31
15 18 24
16 19 24
18 21 27
16 19 25
12 15 20
14 17 21
16 20 26
12 14 18
16 20 26
14 18 23
22 27 34
18 23 29
19 23 29
16 21 28
20 24 31
19 24 31
16 20 26
18 23 30
20 25 33
15 19 25
13 16 21
12 15 19
18 22 28
17 21 27
20 25 32
17 21 27
10 13 17
19 23 29
17 20 26
12 15 20
12 15 19
11 14 19
13 17 22
11 14 18
17 21 26
13 16 20
18 23 30
13 17 22
8 9 12
8 10 13
20 25 32
14 18 23
15 19 25
20 24 32
17 20 26
14 17 22
13 17 23
16 19 25
10 13 17
16 19 25
17 21 27
15 19 25
16 20 26
16 21 27
16 19 25
14 18 24
12 14 18
14 17 22
16 19 25
19 24 30
15 18 24
12 16 21
11 14 18
15 19 24
18 23 29
20 25 33
11 14 18
14 18 23
16 20 25
13 15 20
13 16 20
17 21 27
10 12 16
13 16 21
10 12 16
12 15 19
12 14 18
10 12 15
16 19 24
12 15 19
12 15 20
13 16 21
12 15 20
18 22 28
13 16 21
14 17 21
14 17 22
19 24 31
17 22 28
15 19 24
10 12 16
21 25 33
10 12 16
9 12 16
13 16 20
14 17 21
17 21 27
15 18 23
10 12 15
8 10 13
12 15 19
11 13 17
11 14 17
9 11 14
10 13 17
16 20 25
14 18 23
9 11 14
9 11 14
10 12 15
10 13 17
10 12 15
12 14 18
12 15 19
14 17 21
8 10 12
12 15 20
9 11 15
10 13 17
13 16 20
14 17 22
8 9 12
9 11 14
7 8 10
11 13 16
9 11 13
6 7 9
5 6 8
7 9 11
8 10 13
10 12 15
11 13 17
10 13 16
12 14 18
11 14 17
8 10 12
11 13 17
7 9 11
4 5 6
9 11 14
11 13 16
7 9 11
12 14 18
9 11 14
12 14 18
4 5 7
12 14 17
8 10 13
8 9 12
12 14 18
4 5 6
10 12 15
9 11 14
7 9 11
10 12 15
6 7 9
10 12 15
10 12 15
8 10 12
10 12 15
14 17 21
5 6 8
11 14 17
10 12 15
5 6 8
11 13 16
7 9 11
9 11 13
8 10 12
7 9 11
8 10 13
13 16 20
9 10 13
6 8 10
6 7 9
10 11 14
12 15 18
13 16 19
12 15 19
9 11 15
12 15 19
11 14 18
13 15 20
7 8 11
11 13 17
10 12 15
4 5 7
10 13 16
15 18 22
10 12 15
13 15 20
11 13 16
17 20 25
11 14 17
8 10 13
11 14 17
7 9 11
16 19 24
11 14 19
16 19 24
12 15 19
12 15 19
15 19 24
15 19 24
9 11 14
12 15 19
10 12 16
18 23 29
10 13 16
11 14 18
13 16 21
9 12 15
8 10 13
9 11 14
11 14 18
14 18 23
11 13 17
11 14 18
14 17 22
11 13 17
14 17 22
14 18 23
12 15 19
16 20 25
11 14 17
12 15 19
12 14 17
14 17 22
16 19 24
10 12 16
15 19 25
15 18 23
13 16 21
13 16 21
14 17 22
13 17 21
15 19 25
24 29 37
13 16 21
15 19 25
17 20 26
12 15 20
8 11 14
11 13 18
18 22 28
14 18 23
11 13 17
17 21 27
20 24 31
15 18 24
9 10 13
14 17 21
15 19 24
12 16 20
12 16 21
15 19 25
13 16 21
18 22 29
18 22 29
18 22 28
13 16 21
15 19 25
14 17 22
12 15 19
21 26 33
11 14 19
14 18 23
13 17 22
12 15 19
21 26 34
17 20 25
12 15 20
15 18 24
13 16 21
18 22 29
17 21 27
17 20 25
16 20 25
15 19 25
19 24 30
19 24 31
17 21 27
11 14 17
16 20 27
12 15 20
16 20 26
18 23 31
12 15 19
15 18 23
18 22 27
17 21 27
16 20 27
16 20 25
13 17 22
10 13 17
20 24 32
19 23 29
17 21 27
18 23 29
14 18 24
14 17 22
16 20 26
20 26 34
20 25 32
17 21 27
15 19 25
10 12 15
22 28 35
12 15 20
8 10 14
19 23 30
15 19 25
15 19 25
17 22 28
17 22 28
20 26 34
15 19 25
23 28 35
17 21 28
21 26 33
14 18 23
15 18 24
14 17 23
15 19 26
12 15 19
17 21 28
20 24 31
11 13 17
20 25 31
14 17 23
16 20 26
15 19 25
18 23 29
12 16 21
18 21 27
16 20 25
16 19 24
9 11 15
15 19 24
17 22 28
21 26 34
16 21 27
20 25 31
13 16 21
16 20 25
9 11 15
16 20 27
17 21 28
11 14 18
15 19 25
18 22 29
15 19 24
20 25 32
13 15 19
14 17 22
17 21 27
14 17 22
14 17 23
17 22 28
17 22 28
14 17 22
15 19 25
16 20 25
13 17 22
18 23 30
13 16 20
11 14 18
20 25 32
12 15 20
19 23 29
12 15 20
14 17 22
18 23 30
16 20 26
16 20 25
14 18 23
20 24 32
13 17 22
16 20 26
28 34 44
16 20 26
14 18 24
14 18 23
17 20 26
13 16 21
15 19 25
21 26 34
21 25 32
16 20 25
17 21 27
15 19 25
10 13 17
15 19 24
22 27 35
21 27 36
19 25 32
22 28 36
14 17 22
17 22 29
15 18 24
17 22 28
16 21 27
17 21 27
13 16 20
20 24 32
20 25 32
13 16 20
17 21 28
14 17 22
12 16 21
15 19 25
21 26 34
18 23 29
16 20 26
13 16 21
14 17 23
17 22 29
14 17 22
17 21 27
19 23 30
13 16 21
16 20 26
11 13 17
22 28 36
15 19 24
11 14 18
18 22 29
13 16 20
19 24 31
11 14 19
22 27 35
15 19 25
14 17 22
16 21 27
15 19 25
12 15 19
15 19 24
14 16 20
14 18 23
10 13 17
12 16 21
12 15 19
8 10 13
21 25 32
13 16 21
17 21 27
14 18 23
16 19 25
15 18 24
19 24 31
14 18 24
14 17 22
12 15 19
20 24 31
12 15 19
14 18 24
14 17 22
12 15 19
15 19 25
16 19 25
21 26 33
17 21 28
17 22 29
14 18 23
15 19 24
13 17 22
18 22 28
16 20 26
18 23 30
12 15 20
17 22 28
16 20 26
14 18 23
14 17 23
18 22 29
16 20 26
9 11 14
16 21 27
20 25 32
9 11 14
19 23 29
11 13 17
17 20 26
9 11 14
8 10 14
11 13 17
11 13 17
14 17 22
19 24 30
14 18 23
18 22 27
17 20 26
12 15 19
15 19 24
12 15 19
14 18 22
11 14 18
15 18 23
14 17 22
16 19 24
12 15 19
11 13 17
11 14 18
13 16 21
12 15 20
7 9 11
8 10 13
9 11 15
12 15 19
13 16 20
10 12 15
11 13 16
8 10 13
11 14 18
9 11 14
10 12 15
19 22 28
12 15 19
12 15 20
12 15 19
9 11 13
13 16 20
13 16 21
12 15 18
14 16 20
6 7 9
6 8 10
7 9 11
7 8 10
10 12 16
13 16 20
3 3 4
9 11 14
17 20 25
10 12 15
8 10 13
7 8 10
8 10 12
13 16 20
7 9 11
8 10 12
7 8 10
8 10 13
9 11 14
8 10 13
10 12 15
9 11 14
9 10 13
10 12 14
7 9 11
3 4 5
10 12 15
8 10 12
7 9 11
9 10 13
8 10 12
6 8 10
7 9 11
9 11 14
7 8 10
6 7 9
5 6 8
14 16 20
10 12 15
11 13 16
13 16 20
10 12 15
13 16 20
9 11 13
14 17 21
11 13 17
10 13 16
10 12 15
13 15 20
10 12 15
10 12 15
10 12 16
7 8 10
6 7 9
14 17 21
7 9 12
9 11 13
17 20 25
14 17 22
11 13 16
14 17 22
15 19 23
7 9 12
15 18 24
5 6 8
11 13 17
15 19 24
11 13 17
8 10 13
10 12 15
7 9 11
16 20 26
11 13 17
15 18 23
7 8 11
10 12 16
16 20 25
11 13 17
15 18 23
12 14 18
13 17 22
11 14 18
13 15 19
11 13 17
15 19 24
12 15 19
9 11 14
18 23 29
13 16 21
18 21 27
8 10 13
12 14 19
17 20 25
5 7 9
11 13 17
8 11 14
14 18 23
12 15 20
15 19 24
18 22 27
9 12 15
10 13 17
20 25 31
18 22 28
12 15 20
18 23 29
15 18 22
13 16 21
10 12 15
18 22 28
14 18 22
12 14 18
15 19 25
17 21 27
16 19 25
17 21 27
12 15 19
12 15 19
16 21 27
14 17 22
18 23 29
12 15 19
11 14 18
12 14 18
18 22 28
23 28 37
18 22 28
20 25 32
18 23 30
14 18 23
18 22 28
9 10 13
15 18 24
13 16 21
14 17 22
14 17 22
16 20 25
14 17 22
13 17 22
17 21 27
18 22 29
12 15 19
15 19 25
15 18 24
17 21 28
13 16 22
17 21 28
18 23 30
13 16 21
11 14 18
15 18 24
11 13 17
19 24 31
16 21 28
10 12 15
19 23 30
11 13 17
18 22 29
11 14 19
14 17 22
12 15 19
19 23 29
13 17 23
11 14 18
16 20 26
17 21 28
10 13 17
19 23 29
18 23 29
18 23 30
19 23 30
16 21 28
14 18 23
15 19 24
19 24 31
17 21 27
15 19 25
18 22 29
18 23 30
19 24 30
17 22 29
17 21 27
18 23 30
20 26 33
16 20 27
14 17 22
12 15 20
17 22 29
17 21 27
18 23 31
16 20 26
18 23 30
15 19 25
23 29 38
12 15 19
20 24 31
17 22 29
18 23 30
16 20 26
17 21 26
13 17 21
14 18 24
15 20 26
24 29 38
13 16 21
13 17 22
14 18 24
18 21 27
12 15 20
17 21 27
19 24 31
20 24 32
10 12 15
16 21 27
17 21 28
16 20 26
18 22 28
16 20 25
13 17 22
18 22 28
13 16 21
17 22 28
14 18 24
22 27 36
17 21 28
13 16 20
18 22 29
18 22 28
13 17 23
23 28 37
18 22 29
17 21 27
17 22 28
14 18 24
12 15 19
15 19 25
20 25 33
15 19 25
18 23 29
17 21 27
17 21 27
19 24 31
22 27 35
19 23 29
14 18 23
18 23 30
13 16 21
12 15 19
14 17 23
18 23 30
12 15 20
18 22 28
16 21 27
12 15 19
14 18 23
13 16 21
13 17 22
14 17 21
13 16 21
16 20 26
21 27 34
14 17 22
22 27 35
11 13 17
14 17 22
19 24 30
13 16 21
20 25 32
16 20 26
16 20 26
12 15 20
16 20 26
19 24 31
19 23 30
19 24 31
13 16 21
12 16 20
18 22 27
12 15 19
19 24 32
16 20 27
15 18 24
20 25 33
15 19 24
17 21 27
8 9 12
15 19 25
18 22 28
16 20 27
14 17 22
13 16 20
14 18 22
16 20 26
16 21 28
15 19 25
17 21 27
16 20 26
13 17 22
14 17 22
18 22 28
22 28 36
19 24 31
20 24 30
16 21 27
15 19 25
17 22 28
18 22 28
16 20 25
15 19 24
18 22 28
21 27 35
11 14 18
19 24 31
16 20 26
15 19 25
12 14 19
12 15 20
19 24 30
14 17 23
23 29 37
18 22 28
9 11 14
20 25 32
9 11 14
19 23 29
15 19 24
12 15 19
14 17 22
18 22 28
12 16 21
13 17 21
11 14 18
18 22 28
13 17 22
14 17 22
11 15 19
16 20 25
13 16 20
15 19 25
16 20 27
14 18 22
15 18 24
9 12 15
18 22 29
11 14 18
17 21 27
17 21 27
17 21 27
19 24 31
14 17 22
19 23 30
15 18 23
11 13 17
8 10 14
14 18 23
12 15 19
14 17 22
8 10 13
15 18 24
15 19 24
9 11 14
12 15 19
14 17 22
12 14 19
11 14 18
14 17 23
11 14 18
11 14 18
16 19 24
13 16 20
12 15 21
13 16 21
14 17 22
6 8 10
15 19 24
14 17 21
9 11 14
17 21 27
14 17 21
16 19 24
9 11 14
13 16 21
11 14 19
12 15 19
9 11 15
11 13 17
14 16 21
13 15 19
11 14 18
8 10 13
5 7 9
14 18 23
7 8 10
15 18 23
8 9 12
11 14 18
9 11 15
7 8 11
10 12 16
13 16 20
14 17 21
12 15 19
7 8 10
7 9 11
14 17 21
10 12 15
12 14 18
11 13 17
8 9 11
11 14 18
10 12 16
12 14 18
12 15 18
7 8 11
6 8 10
11 13 16
13 15 19
5 6 7
11 13 16
9 11 13
11 13 17
7 8 10
9 11 14
6 7 9
7 8 10
6 7 9
4 4 5
3 4 5
8 10 13
1 2 2
5 6 8
3 4 5
12 14 17
13 16 19
10 12 15
10 12 15
4 5 6
13 16 20
5 6 8
9 11 14
9 11 14
6 7 9
11 13 17
10 12 15
9 10 13
12 14 17
10 12 15
10 12 15
10 12 15
6 8 10
6 7 10
11 13 16
8 9 12
13 16 21
12 14 18
15 18 23
9 11 14
11 13 17
9 11 14
11 13 17
9 11 14
12 14 17
9 11 14
11 13 16
9 11 15
10 13 16
13 16 20
16 19 24
10 12 15
14 17 21
12 15 19
12 15 19
14 17 21
10 13 16
20 24 30
14 18 22
7 9 12
10 13 16
14 18 22
14 16 20
18 21 27
12 15 19
15 19 24
14 17 21
10 12 16
8 10 13
10 12 15
11 13 18
15 18 23
14 17 22
10 13 17
16 20 26
11 13 17
15 18 23
12 14 18
16 20 27
10 13 17
15 19 25
18 22 28
14 18 23
21 25 33
14 18 24
21 25 33
13 17 22
15 17 22
21 26 34
14 17 22
16 20 25
15 19 24
19 24 30
15 18 24
16 20 26
13 15 20
10 12 16
8 10 13
16 20 27
11 14 17
19 24 31
11 13 17
15 19 24
13 16 20
15 19 25
8 10 13
21 26 33
10 12 15
15 19 24
11 14 18
16 19 25
14 18 23
19 23 29
10 13 17
18 23 31
16 19 25
16 20 26
13 16 21
13 16 20
12 15 19
14 17 23
15 19 24
13 16 21
12 15 19
23 28 37
15 18 24
19 23 29
17 21 28
13 17 21
16 19 25
17 21 27
18 23 30
14 18 24
12 15 19
16 19 25
10 13 17
14 17 22
15 19 25
17 21 27
14 18 22
16 20 26
16 19 24
16 20 26
17 21 27
14 17 21
15 19 24
11 14 19
10 12 16
12 15 20
21 25 32
16 21 27
18 22 28
18 22 29
18 22 28
17 21 26
10 13 16
20 24 32
17 22 28
14 18 24
15 18 23
13 17 22
14 18 24
10 12 16
14 18 24
12 15 20
21 25 32
10 13 17
16 20 26
11 14 19
18 23 29
14 18 23
15 18 23
15 19 24
20 25 32
17 22 28
19 24 32
17 22 28
16 20 26
19 23 30
14 18 23
12 15 20
14 18 23
11 14 18
19 24 32
17 22 28
12 15 19
14 18 24
14 17 22
15 19 24
19 23 31
13 16 21
11 14 18
17 22 28
17 22 29
17 21 27
14 17 22
16 20 26
15 19 24
24 30 39
17 21 27
25 32 41
16 20 25
19 24 31
21 26 34
16 19 25
15 19 25
11 14 18
18 22 29
16 20 27
17 21 28
14 17 22
17 22 29
15 18 24
13 16 21
15 18 24
13 16 21
14 18 24
14 17 23
18 23 29
17 22 29
19 24 31
20 26 34
11 13 18
18 23 29
15 18 24
13 17 22
15 19 24
14 17 22
16 19 24
15 18 24
22 27 35
15 20 26
18 23 30
14 17 22
19 24 32
18 23 31
9 11 15
19 23 29
19 24 31
21 25 32
20 26 33
17 21 26
12 15 20
20 25 32
19 23 29
17 22 28
22 27 35
17 21 27
21 27 35
18 22 28
16 20 25
20 24 32
12 16 20
10 13 17
14 18 23
13 16 20
21 26 33
17 21 27
15 20 26
13 16 21
15 19 25
16 20 27
11 14 18
15 19 24
13 16 21
18 22 29
18 23 30
10 12 16
17 21 27
16 19 25
14 17 22
16 20 26
16 20 27
19 24 32
16 20 26
17 21 27
17 21 27
13 17 22
19 24 30
12 15 20
14 17 22
20 26 34
10 12 16
12 15 20
16 20 26
12 15 19
17 20 26
20 24 31
11 14 18
19 25 32
16 20 26
12 15 19
14 17 22
14 18 23
16 20 26
16 20 26
12 15 19
12 14 19
19 24 30
11 14 18
12 15 19
14 17 22
18 22 28
13 16 21
14 18 22
11 13 17
16 20 27
14 18 23
16 20 26
15 18 24
10 13 17
16 21 27
8 10 13
12 15 19
18 22 28
22 28 36
8 11 14
10 12 16
16 19 25
17 21 26
16 20 25
16 19 25
16 20 26
16 19 24
14 17 22
10 13 17
16 19 25
14 17 21
8 10 12
14 17 22
14 17 22
18 22 29
13 16 21
17 20 26
14 17 22
12 15 19
13 17 22
17 21 27
13 16 20
15 19 24
14 17 22
6 8 11
16 20 26
14 17 23
12 15 19
12 15 19
7 9 12
11 14 18
17 20 26
13 16 21
15 18 23
11 14 18
13 16 21
11 14 19
12 15 19
13 16 21
13 16 20
23 28 36
12 15 20
13 16 21
20 24 31
16 20 25
15 18 23
19 23 30
12 15 19
9 12 15
10 13 16
14 17 22
13 16 20
13 17 21
17 21 27
9 11 15
12 14 18
12 14 18
10 13 16
16 19 24
10 12 15
14 17 21
8 11 14
14 17 22
12 14 18
13 16 20
14 16 20
19 23 29
9 11 15
11 14 17
11 14 17
11 14 17
12 14 18
11 13 17
10 13 16
7 9 11
5 6 8
11 13 16
7 8 10
9 11 14
8 10 12
12 14 18
9 10 13
9 11 14
8 9 11
8 9 11
13 15 19
13 15 19
10 12 15
7 9 11
7 9 11
9 11 14
10 12 15
6 8 10
6 7 9
8 10 13
9 10 13
10 12 15
7 9 11
10 12 15
13 16 19
9 11 14
11 13 16
11 13 16
12 14 18
6 8 9
6 8 10
11 13 17
9 11 14
6 7 9
9 11 14
13 15 19
9 11 13
8 10 13
8 10 13
9 12 15
12 15 19
10 12 16
13 16 20
4 5 6
9 11 13
11 13 18
16 19 24
10 12 16
11 14 17
8 10 12
10 12 15
12 14 18
11 14 17
14 17 21
12 14 18
11 13 17
7 9 12
10 12 15
12 15 19
6 8 10
10 12 15
12 15 19
6 8 10
11 13 16
13 15 20
10 12 16
11 13 17
10 12 16
16 20 25
17 20 26
9 11 14
9 11 15
20 25 32
10 13 17
12 15 19
15 19 23
11 14 18
12 15 20
15 19 24
13 16 20
11 14 18
13 16 20
12 15 20
10 13 17
11 14 18
15 18 22
11 13 17
16 20 25
15 19 24
8 10 12
12 15 19
11 13 16
11 14 18
12 15 20
13 16 21
13 16 21
10 13 17
18 22 29
20 24 31
12 15 20
17 22 29
12 15 20
14 17 22
17 21 28
10 12 16
14 17 23
12 14 18
13 16 21
14 17 22
14 18 23
15 19 25
14 17 22
11 13 18
11 14 19
13 17 21
15 18 23
11 14 18
15 18 24
13 17 22
12 15 19
16 19 24
21 26 33
17 21 27
18 22 28
15 19 24
13 17 22
19 23 29
13 16 22
13 16 21
15 19 25
14 17 22
16 20 26
16 20 25
16 20 26
18 22 29
12 15 19
11 14 18
18 23 30
10 12 16
20 25 33
9 11 14
19 24 30
14 18 23
17 20 26
13 16 21
16 19 24
16 20 27
19 24 31
14 18 23
19 23 29
11 14 18
17 22 28
14 17 22
15 19 25
19 23 30
19 24 31
14 17 22
15 18 24
14 17 22
17 21 27
12 15 20
13 17 21
18 23 29
18 23 29
15 18 24
18 22 28
17 21 27
11 14 18
19 23 31
12 15 20
20 24 31
17 21 28
17 21 28
14 18 23
20 25 32
20 25 33
16 20 26
15 18 23
18 22 28
17 21 27
21 27 35
20 25 33
21 26 34
15 18 23
14 18 24
11 14 18
17 21 28
22 27 35
18 21 27
16 21 27
14 17 21
18 23 30
27 34 43
10 12 16
18 23 30
16 20 25
14 17 22
18 23 30
16 20 26
20 25 33
17 21 27
11 13 17
9 12 16
14 17 22
10 13 16
15 19 24
10 12 16
12 15 19
15 19 24
18 23 30
18 22 29
13 16 21
23 28 37
14 17 23
18 22 29
18 23 31
11 13 18
13 16 21
13 16 22
20 26 34
13 16 21
16 20 27
19 24 32
10 13 17
20 25 33
19 24 32
15 18 22
13 16 21
17 21 27
14 18 23
13 16 21
21 26 34
17 22 28
14 17 22
13 16 20
14 18 23
21 26 34
26 32 42
18 22 29
12 15 20
14 18 23
19 23 30
17 22 28
19 24 32
14 18 23
16 20 26
19 23 30
15 19 24
13 17 22
18 23 29
19 24 31
16 20 26
16 19 25
14 17 22
17 22 29
20 25 32
17 21 26
15 19 25
17 22 30
19 23 31
12 15 20
20 25 33
17 21 27
16 20 26
14 18 24
23 29 38
18 22 28
18 22 29
15 19 24
19 24 31
14 18 23
13 16 21
12 15 20
12 15 20
13 16 21
13 16 21
17 21 27
18 22 28
16 21 27
18 22 29
15 19 25
13 16 22
14 17 21
21 26 34
21 26 33
12 14 18
17 21 26
15 19 24
14 18 23
16 20 26
15 19 25
16 20 26
15 19 24
18 22 29
15 18 22
12 15 19
21 26 33
18 22 28
12 15 19
18 23 29
16 20 26
13 16 21
17 21 27
15 19 25
12 14 18
15 19 25
17 21 28
15 19 24
17 21 27
14 17 22
17 21 28
20 25 33
15 19 25
20 24 31
15 19 25
14 18 23
13 17 22
15 19 25
15 19 25
10 13 17
12 15 20
13 17 22
12 15 20
15 18 23
22 26 33
12 16 20
17 22 28
14 17 22
13 16 20
15 20 26
14 18 23
15 18 23
19 24 30
15 18 24
16 20 25
18 23 30
10 13 17
17 21 27
13 16 20
14 18 23
15 18 24
20 25 32
8 10 13
17 21 28
17 21 26
11 14 18
13 16 21
20 24 30
15 18 23
14 18 23
16 20 26
13 17 21
15 18 23
13 16 20
10 13 17
9 11 14
15 19 24
13 16 22
12 15 19
14 17 22
14 17 22
15 19 25
13 17 21
15 18 23
16 19 24
14 17 22
11 13 16
11 14 18
10 12 15
9 12 15
7 8 10
12 15 20
14 17 21
16 19 24
15 18 22
14 17 21
13 16 20
16 19 25
12 15 19
16 20 26
12 15 19
13 16 20
13 15 20
13 15 19
8 10 13
10 12 15
11 13 17
12 14 18
5 6 8
13 16 20
10 13 16
6 8 10
15 18 22
13 15 19
15 18 23
12 14 18
12 14 18
5 7 8
11 13 17
4 5 7
10 12 16
11 13 16
12 14 17
8 9 12
13 15 20
10 12 16
8 9 12
7 9 11
11 13 17
8 9 11
9 10 13
12 15 19
10 11 14
9 11 14
10 12 15
14 16 21
14 17 21
10 12 16
8 10 13
9 10 13
9 11 14
13 16 20
7 9 11
8 9 11
8 10 13
14 16 20
6 7 9
8 10 13
12 15 19
10 12 14
7 8 10
8 9 12
9 10 13
11 13 17
10 12 14
8 10 13
5 6 8
13 16 21
6 8 10
12 14 18
8 10 12
10 12 14
17 21 27
13 15 19
11 13 16
9 11 14
12 14 18
7 8 10
8 9 11
6 7 9
12 15 19
13 16 20
9 11 15
12 15 19
11 14 18
9 11 14
12 14 18
10 12 16
9 11 14
19 23 30
16 19 24
14 17 21
11 14 18
13 16 20
10 13 16
14 17 22
10 12 15
9 11 14
5 6 8
13 17 21
14 17 21
13 15 19
17 21 26
14 17 22
12 15 19
14 17 22
11 14 18
12 14 18
8 9 12
19 22 28
11 13 16
13 16 20
11 13 17
10 13 16
15 19 25
15 19 24
13 16 21
16 20 25
16 20 25
12 15 20
23 27 35
14 18 23
12 14 18
19 23 29
13 16 20
14 17 21
13 16 20
12 15 20
9 12 15
17 22 28
12 14 18
17 20 26
14 18 23
10 13 16
13 17 22
16 20 26
12 14 19
15 19 24
17 21 27
12 15 20
14 17 22
14 17 22
16 20 26
13 17 22
10 13 18
11 14 18
20 25 32
13 16 20
18 22 28
14 18 23
14 17 23
15 19 25
17 21 27
12 15 19
20 25 32
10 13 16
15 18 23
17 22 28
13 16 20
14 17 22
16 19 25
17 21 27
16 20 26
14 17 22
14 18 23
14 17 22
19 24 31
20 25 32
20 25 33
15 19 24
14 18 23
19 24 30
18 22 29
12 15 19
17 21 27
17 21 26
16 20 27
14 17 22
14 18 23
15 18 23
12 15 20
15 19 24
17 21 28
15 19 25
17 21 27
17 22 28
15 19 25
14 18 23
17 21 27
17 21 27
15 19 25
8 11 14
11 14 18
19 24 32
17 20 26
14 17 22
12 15 19
12 15 19
18 22 28
22 27 35
15 19 24
20 24 31
16 20 27
16 20 26
17 21 28
16 20 26
15 19 24
16 20 26
19 24 31
14 17 22
15 19 24
17 22 28
15 18 24
21 26 34
26 33 43
21 27 34
16 19 25
15 18 23
14 17 22
13 16 21
17 21 27
17 21 27
15 19 25
20 25 33
21 26 34
22 27 35
14 17 22
11 14 19
15 20 26
14 18 23
13 16 21
23 29 37
17 22 28
20 25 33
16 20 25
18 23 30
14 17 22
22 27 35
15 18 24
20 25 33
19 23 30
21 26 34
15 19 25
17 21 28
20 25 33
16 20 27
18 23 29
15 18 24
12 16 21
16 20 26
12 16 21
20 25 32
21 26 33
10 12 15
17 21 27
19 23 30
13 16 21
16 19 25
15 19 25
17 21 27
17 21 28
16 21 27
22 28 37
20 25 33
24 30 39
19 24 32
11 13 17
19 24 31
12 15 20
16 20 26
11 14 18
14 18 23
18 23 29
12 15 20
17 21 28
16 20 26
21 27 34
14 18 23
12 15 19
14 17 22
17 21 27
18 22 29
12 15 20
20 25 32
19 24 31
20 25 33
16 20 26
16 20 26
12 15 20
18 22 29
16 19 25
18 22 29
20 24 32
15 18 23
20 25 33
19 23 30
16 20 26
19 23 30
13 16 21
15 19 25
14 18 23
13 16 20
18 23 30
17 21 27
16 20 26
15 19 25
14 17 22
19 23 29
18 23 29
16 20 25
21 26 35
20 25 32
18 22 28
17 21 28
15 19 24
12 16 21
14 17 22
18 23 29
18 22 29
14 17 23
15 19 25
9 11 14
15 19 25
13 17 21
15 19 25
16 20 26
19 23 30
20 25 33
12 15 19
19 24 30
17 21 28
15 19 25
13 16 21
19 24 31
12 16 20
13 17 22
17 20 26
11 14 19
15 19 24
15 18 23
21 26 33
12 14 18
13 17 22
14 18 23
17 21 27
12 15 20
6 7 10
11 13 16
17 21 28
16 19 25
21 26 33
15 19 24
11 14 19
22 27 35
13 16 21
18 22 28
14 18 22
18 23 30
19 24 32
10 13 17
16 20 27
13 17 22
14 17 22
19 23 29
8 10 13
13 16 21
13 16 21
13 16 20
12 15 20
10 12 17
15 19 24
13 16 21
13 17 22
11 14 18
18 24 32
15 18 23
9 11 14
11 14 18
17 21 27
11 14 18
15 19 24
15 18 24
11 14 18
19 24 30
11 14 19
17 21 26
17 20 25
11 14 18
12 15 19
17 21 26
13 17 22
11 13 17
8 11 14
11 13 17
18 22 27
9 11 14
10 13 16
9 12 15
11 13 17
15 19 25
14 17 21
11 13 17
12 15 19
5 7 9
14 18 22
9 11 14
13 16 21
10 12 15
12 15 19
16 19 24
13 16 21
11 13 17
10 13 17
16 19 24
9 12 15
16 20 26
6 8 10
15 19 24
11 13 17
12 15 19
12 15 19
8 10 13
11 13 17
9 11 14
10 12 15
11 14 18
11 13 16
13 16 21
7 9 11
8 10 13
9 11 14
12 14 18
11 13 16
8 10 12
12 15 18
13 15 19
15 19 23
8 10 13
11 14 18
14 17 22
9 10 13
5 5 7
8 10 12
8 9 11
15 17 22
7 9 12
16 20 25
10 12 15
11 14 18
8 10 12
12 15 19
4 5 6
7 9 11
15 17 22
9 11 14
5 6 8
6 7 10
13 16 20
9 11 14
11 13 17
7 9 11
15 18 23
12 14 18
8 10 12
5 6 8
9 11 13
6 7 9
9 11 14
13 15 20
7 9 11
7 9 12
5 6 7
14 17 21
12 14 18
15 18 23
10 12 15
14 17 21
9 11 14
12 15 19
15 18 23
12 15 19
12 15 19
13 16 20
11 13 17
18 21 27
13 15 19
12 14 18
9 12 15
8 10 14
10 13 16
16 20 25
16 19 25
15 18 24
12 15 20
10 12 16
16 20 25
9 11 14
7 10 13
8 10 13
19 23 29
9 11 14
8 9 12
11 13 17
12 15 19
10 12 16
13 16 20
12 14 18
13 17 22
14 17 22
13 15 19
13 15 20
13 17 22
11 14 18
14 18 23
12 14 18
18 22 28
12 15 20
17 20 26
12 15 20
11 14 18
13 15 20
15 18 23
12 15 19
13 16 21
15 18 24
13 16 21
18 22 29
15 18 24
13 17 21
17 21 27
12 15 19
11 14 18
12 15 19
13 16 21
18 22 28
13 17 21
14 18 23
18 22 28
13 16 21
18 22 28
15 19 25
13 16 21
17 21 27
14 17 22
16 19 25
18 22 28
13 17 23
10 13 17
10 13 17
16 21 27
13 17 22
19 23 30
13 16 21
14 17 23
10 13 17
8 10 13
17 21 27
10 12 16
16 20 26
10 12 16
13 16 20
14 17 21
21 27 35
15 19 25
20 25 31
14 17 22
10 13 17
14 17 22
13 17 22
13 17 22
22 27 35
20 25 33
15 19 24
18 23 30
22 28 36
18 22 29
16 19 24
13 16 22
12 15 20
13 17 22
21 26 33
16 19 25
14 19 25
18 22 29
9 12 16
22 27 35
16 19 25
17 21 27
16 20 26
17 21 27
15 19 25
16 20 25
17 21 27
19 23 30
15 18 24
19 23 29
16 20 26
14 17 22
12 16 21
13 16 21
13 17 22
15 19 24
17 21 28
15 19 25
19 23 30
15 18 24
13 17 22
18 22 29
19 23 30
20 26 34
16 20 26
19 24 30
13 16 21
17 21 27
13 16 21
11 14 18
15 19 25
16 20 25
19 23 29
19 24 32
19 23 30
15 19 25
16 19 25
11 14 18
22 26 33
15 19 25
14 17 22
20 25 32
15 18 23
17 21 27
19 23 30
18 21 27
20 25 33
18 23 30
15 19 25
18 23 30
18 22 27
13 16 21
14 17 22
13 16 21
17 22 29
16 19 25
23 28 36
15 19 24
16 20 26
15 19 24
21 26 33
19 23 30
16 20 26
16 20 26
17 21 28
12 15 20
19 24 32
9 12 15
19 24 32
18 23 29
16 20 26
15 18 24
18 22 28
15 19 24
16 21 27
19 24 32
25 31 40
9 12 15
13 15 20
23 28 37
17 21 27
20 25 33
17 22 28
18 22 29
18 22 29
19 24 32
19 24 32
16 20 26
15 19 25
17 21 28
16 21 28
19 24 32
15 18 23
18 22 29
15 19 24
18 22 29
12 15 19
19 24 31
14 18 23
23 28 35
17 21 28
15 19 24
20 25 32
15 19 24
13 16 22
16 20 26
23 28 36
18 22 28
13 17 23
10 13 17
17 21 28
12 15 19
20 26 34
13 17 22
14 17 22
10 12 16
23 29 38
17 22 29
11 14 18
18 22 28
12 15 19
16 20 26
12 15 19
16 20 25
16 20 26
18 22 29
12 15 20
20 25 32
15 18 24
14 17 22
14 17 22
17 21 26
24 31 41
16 20 27
20 25 32
16 20 27
25 31 40
9 12 15
13 17 22
16 19 25
19 24 32
22 28 36
19 24 31
14 18 23
16 20 26
10 12 16
20 25 32
16 20 26
19 24 31
14 17 22
15 18 23
18 22 29
13 16 21
17 21 27
19 24 31
17 21 28
12 15 20
10 13 17
18 22 29
15 18 23
13 16 21
12 15 19
23 28 36
14 17 22
20 25 32
13 16 20
16 20 25
8 10 12
15 19 25
13 17 22
16 20 25
14 17 22
20 25 33
13 17 22
9 11 14
16 20 25
15 19 24
17 21 27
20 25 33
16 19 24
14 17 22
18 23 30
12 14 18
16 19 25
13 17 22
13 16 21
15 19 25
13 17 22
11 14 18
15 19 24
13 16 20
13 16 21
10 13 17
12 15 20
11 14 18
16 20 25
16 20 26
17 21 27
11 14 18
11 14 18
12 16 21
15 19 24
16 20 24
12 15 19
12 14 18
14 17 22
14 18 23
14 17 22
13 17 23
13 17 21
9 12 15
11 13 17
8 10 13
13 16 20
16 19 24
10 13 16
15 19 24
12 14 18
14 18 22
14 17 22
13 15 20
18 21 27
9 11 15
12 15 19
12 15 19
15 19 23
16 20 25
15 19 24
11 14 18
11 14 18
12 15 19
14 17 21
11 14 17
14 17 21
11 13 17
9 12 15
9 11 14
9 11 14
8 10 14
10 12 15
11 13 17
10 12 15
11 14 18
9 11 14
12 14 18
7 9 11
6 7 9
7 9 11
13 15 19
6 8 10
9 11 13
11 13 17
14 17 21
10 12 16
11 14 17
9 11 14
7 9 11
10 12 15
10 12 15
8 9 11
13 15 20
10 12 15
11 13 16
10 12 15
6 8 10
9 11 14
12 14 18
13 16 20
12 14 18
9 11 14
8 9 12
9 11 14
11 13 16
9 11 14
11 14 18
12 15 19
6 7 9
9 12 15
12 14 18
9 11 14
9 10 13
9 11 14
8 9 12
12 14 18
8 10 13
12 14 18
7 9 11
16 19 25
9 11 14
12 14 18
10 12 16
13 16 20
13 16 20
8 9 12
10 12 16
11 13 17
16 20 25
12 15 19
10 12 16
7 9 11
13 16 20
10 12 15
11 13 17
10 12 16
15 18 23
9 11 14
14 18 23
14 17 22
5 6 8
12 14 19
13 16 21
14 17 22
12 15 20
14 17 23
9 11 14
7 9 11
19 23 30
10 13 17
10 11 14
10 12 16
15 19 24
14 16 20
12 15 20
13 17 21
12 15 19
12 15 19
17 21 26
15 19 25
15 19 24
10 13 16
18 22 28
8 10 13
10 12 16
13 16 20
12 15 19
21 25 32
12 15 20
11 14 18
11 14 17
12 15 19
14 17 22
16 19 24
10 13 16
14 17 21
19 23 30
13 16 21
14 18 23
14 17 22
12 15 19
16 20 26
14 17 21
18 22 28
16 19 24
15 18 23
9 12 15
14 18 24
12 15 19
11 14 18
14 18 24
15 18 24
7 9 12
15 18 24
18 22 28
13 16 20
11 13 17
14 17 22
14 17 23
12 15 19
15 18 23
15 19 25
14 17 22
14 17 22
15 19 24
12 14 18
19 23 30
10 13 18
14 18 23
16 19 25
13 16 21
16 20 26
14 18 25
14 17 22
18 23 30
11 13 17
14 17 23
15 19 25
14 18 23
15 19 25
13 16 20
18 23 29
20 25 32
10 12 16
14 18 22
19 23 30
11 14 18
18 23 29
19 24 32
16 20 27
12 15 20
11 14 19
12 15 20
10 13 18
24 29 37
18 22 28
13 16 21
15 19 24
14 17 23
13 17 22
12 15 20
16 19 25
13 17 21
10 12 16
18 23 29
11 14 19
16 20 26
16 19 25
19 24 31
14 17 22
14 18 23
16 20 25
16 19 25
7 9 12
20 25 33
17 21 27
14 17 22
21 26 34
17 21 27
17 21 28
11 14 19
20 25 32
17 21 27
14 17 22
11 14 19
15 19 25
19 24 31
18 22 28
18 22 29
19 24 31
20 24 31
22 28 36
17 21 27
16 20 26
14 17 22
17 22 28
15 19 24
16 20 26
18 22 29
15 19 24
14 18 23
17 22 28
13 16 21
15 18 24
17 20 26
20 25 33
20 25 33
23 28 37
11 14 19
11 14 19
20 25 32
16 20 25
14 18 24
19 23 31
15 18 23
14 18 23
16 21 27
11 14 19
19 23 30
16 20 26
11 14 18
14 18 24
21 26 34
11 13 16
17 21 28
18 22 29
12 15 20
19 23 29
12 15 20
14 18 24
14 17 22
16 20 25
25 31 40
17 21 27
16 20 25
14 17 22
19 24 31
17 21 27
17 21 27
12 15 19
13 16 20
16 19 25
16 20 27
14 17 22
17 21 27
16 20 26
17 21 28
17 22 29
21 26 34
20 25 32
16 21 27
20 25 32
16 20 26
14 17 22
18 23 30
13 16 21
9 12 15
10 13 16
19 24 32
13 16 20
19 24 31
18 23 31
20 25 32
17 21 27
12 16 20
15 19 25
14 18 23
14 18 23
18 22 29
20 25 31
14 17 22
12 15 19
23 28 35
17 22 29
12 15 20
16 20 27
12 15 19
17 23 30
17 22 28
12 15 20
18 23 29
21 26 34
13 16 21
17 21 28
16 20 25
18 22 29
11 14 18
17 21 27
9 11 14
17 22 28
18 22 28
14 17 22
18 22 28
14 17 22
13 16 21
10 13 17
22 27 34
18 23 30
19 23 30
13 17 22
14 18 23
10 13 17
17 21 27
13 16 21
15 18 23
12 14 18
15 18 23
19 24 30
17 21 28
12 15 19
10 13 17
14 17 23
16 20 25
15 19 25
15 18 23
14 17 22
19 24 31
10 13 17
13 16 21
19 24 31
11 14 18
16 19 25
12 15 20
15 18 24
19 24 31
16 20 26
14 18 23
14 18 23
18 22 27
15 19 24
14 17 22
12 15 20
22 27 34
14 18 24
18 22 29
13 16 20
17 20 26
15 19 25
18 23 29
16 20 26
10 12 15
25 31 40
13 16 20
17 21 27
14 18 23
9 11 14
22 27 33
9 12 15
22 27 35
10 13 16
12 15 19
14 17 22
13 16 21
15 18 22
15 19 23
11 14 18
13 15 19
11 14 18
11 14 18
6 8 9
10 12 15
9 11 15
8 10 13
12 14 17
12 15 19
14 17 22
12 15 19
11 14 18
10 12 16
13 16 21
11 14 18
14 18 23
11 14 18
17 21 27
14 18 23
9 11 15
10 13 16
13 16 20
12 15 20
12 14 18
9 11 14
17 21 27
14 18 23
12 14 18
9 11 14
9 11 15
9 11 14
12 15 20
10 12 15
10 12 15
13 16 20
14 16 20
15 19 24
9 12 15
18 22 28
8 10 12
7 8 10
10 12 16
10 12 15
11 13 17
15 18 23
7 8 10
11 14 18
15 19 24
9 11 14
10 12 16
6 7 8
12 14 18
8 10 13
14 17 21
12 14 18
8 10 12
7 9 11
11 13 16
5 6 8
11 13 17
13 16 20
7 8 10
10 12 15
9 11 15
13 15 19
14 17 21
10 12 15
12 14 17
12 14 19
10 12 15
12 14 17
7 9 11
10 12 15
9 11 14
11 14 18
19 22 28
11 14 17
13 16 21
9 11 15
11 13 17
9 11 14
14 17 21
13 16 20
10 12 14
8 10 13
12 14 18
6 8 10
11 14 18
8 10 13
13 16 21
12 15 18
3 4 5
11 13 17
13 16 21
17 20 26
14 17 22
11 13 17
15 18 22
13 16 20
10 12 16
10 12 14
14 18 22
9 12 15
17 20 26
9 11 14
9 11 14
8 10 13
16 19 24
15 18 23
19 23 29
18 22 28
14 17 22
12 15 19
14 17 21
15 19 24
13 16 21
16 20 25
12 15 19
19 24 30
12 15 20
10 12 15
7 9 11
9 11 14
17 21 26
10 13 17
13 15 19
14 18 23
15 19 24
20 25 32
11 14 18
14 18 23
12 15 19
12 15 20
10 12 16
11 14 18
13 16 20
10 12 16
16 20 25
11 14 18
15 18 23
11 13 17
8 10 12
11 13 16
12 15 19
15 19 25
12 15 19
15 19 24
15 19 24
9 11 14
17 21 27
11 14 18
14 17 23
13 15 20
15 19 24
13 16 20
19 23 30
11 14 18
14 17 23
14 17 22
16 20 27
13 16 20
11 14 18
18 22 29
20 25 32
12 16 21
11 13 17
13 17 22
12 15 19
13 16 20
18 22 28
15 18 23
17 21 28
17 21 28
11 13 17
10 13 17
15 19 24
19 24 31
16 20 26
14 17 22
17 22 29
12 15 19
15 19 24
17 21 28
19 24 31
19 23 29
15 19 25
17 22 28
15 18 23
21 26 33
13 17 22
19 24 31
16 20 26
18 22 28
16 20 26
14 17 22
14 17 22
9 11 14
13 17 22
12 14 18
11 14 17
15 19 24
18 22 29
8 9 12
16 20 27
14 17 23
9 12 16
15 19 25
23 28 37
12 15 19
13 17 22
18 22 29
13 16 21
12 15 19
17 20 26
16 20 27
15 20 26
14 17 22
18 23 29
5 7 9
18 23 29
16 20 26
17 22 29
16 20 26
11 13 17
13 16 21
19 23 30
12 16 21
17 21 28
17 21 28
14 17 22
13 16 20
16 20 26
18 23 30
16 21 27
16 19 25
21 26 33
18 22 28
12 14 18
17 22 28
14 17 22
17 21 27
15 18 24
12 15 20
16 20 26
14 17 22
19 24 31
17 20 26
20 25 33
17 21 28
13 16 21
16 19 25
11 14 18
11 14 18
19 23 30
15 18 23
16 20 26
16 20 26
21 26 33
14 18 24
15 18 24
16 20 26
16 20 26
13 16 20
20 25 33
19 23 29
17 20 26
19 23 29
13 16 21
19 24 31
18 23 31
20 24 31
14 18 23
18 22 29
16 20 25
14 18 23
16 20 25
13 17 22
22 28 36
20 25 33
17 21 27
15 18 23
14 18 23
15 19 25
17 22 29
14 18 23
16 20 26
11 13 17
15 19 25
21 26 33
16 21 27
13 17 22
18 22 29
19 23 29
20 25 32
16 20 25
17 22 28
10 12 15
13 17 22
21 25 32
16 20 26
17 21 27
17 21 27
14 18 24
13 16 21
11 15 20
8 11 14
17 21 27
18 23 30
19 23 30
8 10 12
15 19 24
15 19 24
17 21 28
11 14 19
9 11 13
13 17 23
16 19 25
11 14 19
14 17 22
18 22 29
22 28 36
17 21 27
18 22 29
12 15 19
9 11 14
14 18 23
12 15 21
14 17 23
14 18 23
13 16 20
17 21 28
11 14 19
16 19 24
18 23 29
18 22 29
16 21 28
9 12 16
16 21 27
10 13 17
19 24 31
10 12 16
19 23 29
19 24 30
14 18 23
15 19 24
14 17 23
12 15 21
10 12 16
16 20 26
14 17 22
16 20 26
18 22 28
20 25 33
13 16 21
17 21 28
20 25 32
20 25 33
14 18 23
22 27 34
14 18 23
17 22 28
21 26 33
15 19 24
11 13 17
12 15 19
8 10 13
12 15 20
8 9 12
18 22 29
14 17 22
16 19 24
18 22 29
13 16 20
18 22 28
10 13 17
15 18 24
14 17 22
17 21 26
9 11 14
16 20 27
11 14 18
13 17 21
11 14 18
13 16 21
11 14 18
13 15 20
12 15 20
14 18 23
17 20 26
16 19 24
14 18 23
15 19 25
9 12 15
16 19 24
14 17 22
11 14 18
12 15 19
9 12 15
9 11 14
10 13 17
12 15 19
11 13 17
14 17 22
16 20 26
15 18 22
10 12 15
13 16 21
13 16 21
10 13 17
14 18 23
7 9 11
13 16 21
17 21 27
15 18 24
8 10 12
13 16 20
14 17 22
12 14 18
13 16 20
9 11 14
11 13 16
5 7 9
6 7 9
14 17 22
7 9 11
8 10 12
10 13 16
15 18 22
14 17 22
10 12 16
14 17 21
12 15 19
13 16 20
12 15 20
7 8 11
9 12 15
10 13 16
10 12 16
8 9 12
12 15 19
8 10 13
11 13 16
8 10 13
12 15 20
13 16 20
7 8 11
10 11 14
17 20 26
7 8 11
11 14 18
14 17 22
9 11 14
11 14 17
8 10 13
7 8 10
11 14 17
10 13 16
8 9 12
11 13 17
7 9 11
6 8 10
6 7 10
14 17 22
8 10 13
12 15 18
11 13 16
11 14 18
7 9 11
13 16 20
10 12 16
11 14 18
10 13 16
5 6 8
11 14 17
10 12 15
13 16 20
7 9 11
12 15 19
9 12 15
12 15 19
7 9 11
8 9 12
10 12 16
12 15 19
17 21 27
7 8 10
15 18 22
8 9 12
12 15 19
13 16 20
10 13 16
15 18 24
7 8 11
8 10 13
13 16 20
14 17 22
10 12 16
9 11 15
11 14 18
8 10 13
14 17 22
14 17 23
15 18 23
9 11 14
11 13 17
15 19 25
12 15 19
13 16 21
18 22 27
13 16 20
13 16 21
12 15 20
8 11 14
11 13 16
13 16 21
17 22 28
15 20 26
18 21 27
9 11 14
13 16 20
18 22 29
14 17 21
14 17 22
21 26 34
16 19 24
16 20 26
15 18 23
18 22 28
14 17 22
13 16 20
12 15 19
10 13 17
13 15 19
9 12 15
11 13 18
14 17 23
13 16 20
11 13 17
10 13 17
14 18 23
10 12 16
13 15 19
17 21 26
14 18 23
16 20 26
21 26 33
11 14 18
7 9 12
17 21 27
15 18 24
13 16 21
9 11 14
17 21 27
17 21 27
16 19 25
11 13 17
15 19 25
12 15 19
16 20 26
16 20 25
21 26 34
11 13 17
15 18 23
15 19 25
18 22 28
18 23 30
10 12 15
20 25 33
15 19 25
18 22 28
12 15 20
22 28 36
12 15 20
18 22 28
16 20 26
13 16 21
11 14 18
15 19 25
15 19 25
14 17 23
17 21 27
11 14 18
17 21 26
13 16 20
13 16 20
18 22 29
14 18 23
13 16 21
11 13 17
11 14 18
13 17 22
9 12 15
12 15 20
19 24 32
18 22 28
14 18 24
15 19 24
18 22 28
20 24 31
11 14 18
12 15 20
16 20 27
13 16 20
20 25 32
22 27 35
15 18 24
9 12 15
15 18 24
15 18 24
20 25 32
16 21 27
21 27 34
17 22 28
17 22 29
15 19 25
19 25 33
22 27 34
12 15 19
19 23 31
16 20 25
18 22 28
8 10 12
19 23 30
21 26 34
15 19 24
15 19 25
12 15 20
12 14 19
16 20 26
18 22 30
14 17 22
20 25 32
20 25 33
13 17 22
15 18 24
11 15 20
14 17 23
18 23 30
18 23 30
17 22 28
16 20 26
13 16 21
16 20 26
15 19 25
19 23 30
18 22 30
10 13 18
18 22 29
25 31 40
11 14 18
10 13 17
18 22 28
17 21 27
20 24 31
16 20 26
12 15 20
23 29 37
12 15 20
14 17 22
14 18 24
14 18 23
15 19 24
15 18 23
19 24 32
14 18 23
20 25 32
18 23 29
17 21 27
16 20 26
23 29 38
14 17 22
18 22 28
18 22 28
17 21 28
17 21 27
13 17 22
19 24 31
16 20 25
24 29 38
17 21 26
16 20 27
18 22 28
20 25 32
16 20 25
19 24 31
17 22 29
15 18 22
19 23 30
18 22 29
18 23 30
13 16 21
12 15 19
18 22 28
12 15 20
17 21 27
15 18 23
26 32 42
10 13 18
17 21 28
19 24 31
14 17 22
21 26 33
17 21 26
14 19 25
15 18 24
18 23 30
16 20 27
20 24 31
17 21 27
20 24 31
12 15 19
15 18 24
19 23 29
18 22 29
19 24 32
14 18 23
17 22 28
18 23 30
16 20 25
15 19 24
16 20 26
12 15 20
14 17 22
15 18 24
15 18 23
17 21 28
15 20 26
20 26 33
20 25 33
11 14 17
14 16 21
18 22 27
14 17 23
10 12 16
17 21 27
11 14 18
17 21 27
16 20 26
21 27 36
19 23 30
13 17 23
17 21 28
17 21 26
15 19 25
21 26 34
20 25 32
15 19 25
20 24 30
17 21 28
17 21 28
16 20 25
16 20 26
14 18 24
14 17 22
19 23 30
16 20 26
17 20 26
18 22 29
22 26 33
12 15 19
15 18 23
14 18 23
14 18 23
15 19 24
19 23 30
15 19 24
18 23 30
14 18 23
15 19 24
14 17 23
18 22 29
9 11 14
9 11 14
16 21 27
13 16 20
18 22 29
18 22 29
15 18 24
7 9 11
13 16 20
15 19 24
13 17 23
10 12 16
9 11 14
17 20 25
11 14 18
7 8 10
17 21 27
14 18 22
12 15 20
15 19 24
11 14 18
15 19 25
12 14 18
11 13 17
17 21 26
9 11 15
12 14 19
11 13 17
14 17 21
13 16 21
10 13 17
8 10 12
10 12 15
11 13 17
13 17 21
10 12 16
11 13 16
13 16 21
11 14 17
9 11 14
14 17 22
13 15 19
12 15 18
15 18 23
13 16 20
7 9 12
7 9 12
15 18 24
8 10 13
15 18 23
14 17 22
14 17 21
14 16 21
13 17 22
11 14 17
13 16 21
10 12 15
12 15 19
10 13 16
12 14 18
9 11 14
11 14 17
10 12 16
14 17 22
10 13 16
10 13 17
12 15 18
8 9 12
14 18 22
13 16 21
10 13 16
10 12 16
9 11 14
11 13 16
8 10 13
16 19 24
8 10 13
8 10 13
12 15 19
12 15 19
15 18 23
11 14 17
8 10 13
14 17 21
6 7 9
13 15 20
14 16 21
16 19 24
7 8 10
14 17 22
8 9 12
8 10 13
15 19 24
12 15 19
12 15 18
11 13 16
12 14 18
9 11 13
8 10 13
8 10 13
18 22 28
8 10 13
14 17 21
11 13 17
11 14 17
14 17 22
12 15 18
11 14 18
11 13 17
12 14 18
10 13 17
14 17 22
7 9 11
9 11 13
11 13 16
12 14 19
10 12 15
12 14 18
15 19 24
16 19 24
14 17 21
9 11 15
13 15 19
14 17 22
8 9 12
14 18 23
8 10 12
13 16 20
12 15 18
15 18 23
13 16 20
12 15 19
10 12 15
14 18 23
7 9 12
14 16 21
12 15 19
6 7 9
9 11 15
11 14 17
9 11 14
15 18 24
9 12 15
16 19 24
12 15 19
13 16 21
8 11 14
14 16 20
17 20 26
12 14 18
13 17 22
14 17 22
10 13 16
12 15 19
16 20 26
15 19 24
11 14 19
14 18 23
11 14 18
12 15 19
16 20 26
12 15 19
10 12 16
20 25 33
16 20 26
16 20 26
15 18 23
18 22 28
15 18 24
8 10 13
9 11 15
14 17 22
12 15 20
18 22 29
14 17 23
19 23 29
12 15 19
17 21 26
15 19 25
19 24 31
15 19 25
11 14 18
12 14 19
10 12 16
14 17 22
9 11 15
22 27 35
12 16 21
17 21 26
18 22 29
14 18 22
15 18 23
14 17 22
13 16 22
18 23 29
14 18 24
8 11 14
16 20 26
21 26 33
21 26 33
22 27 35
12 14 18
16 20 26
11 14 18
20 25 32
13 16 21
20 24 31
14 18 24
14 18 24
18 22 29
19 23 30
17 21 26
11 14 19
20 24 31
16 20 27
15 19 24
18 21 27
15 18 24
15 19 24
19 24 32
15 18 23
16 20 26
14 17 23
17 21 27
18 23 30
16 19 25
11 14 18
18 23 29
19 23 30
13 17 21
20 25 32
18 22 29
13 17 22
16 20 26
19 23 30
15 19 25
17 21 27
10 13 17
14 18 23
9 11 15
13 16 22
19 24 30
14 17 23
14 17 22
17 21 27
12 15 19
19 25 32
14 18 23
15 18 23
16 20 26
17 21 27
13 16 22
12 15 20
12 16 20
12 15 20
12 14 18
17 21 27
12 15 19
21 26 33
15 18 24
11 14 18
17 21 27
12 15 19
14 17 23
11 14 18
21 27 34
21 26 34
15 19 25
20 25 33
12 15 19
16 19 24
16 19 25
18 23 30
21 25 33
17 21 27
18 23 31
14 17 22
11 14 19
18 23 29
14 17 22
20 24 32
21 26 33
14 17 22
16 20 27
14 18 23
12 15 19
15 18 23
19 24 31
17 21 27
19 24 31
16 20 26
12 15 19
21 27 36
19 24 31
13 17 22
12 15 21
14 17 22
12 15 20
17 21 27
19 24 31
25 31 39
19 24 31
15 18 23
16 20 25
11 13 17
19 23 29
17 21 27
13 16 21
15 19 24
21 26 34
21 25 32
11 14 18
11 14 18
17 22 28
17 21 27
19 24 31
15 18 23
11 14 19
14 18 23
17 22 29
16 20 26
23 28 35
15 19 24
17 21 27
18 22 28
13 17 22
12 14 18
16 20 26
20 25 32
24 30 38
21 26 34
15 18 24
15 18 24
16 20 26
19 24 32
16 19 25
19 23 30
11 14 18
13 17 22
17 21 28
12 16 20
12 15 20
21 26 33
11 14 18
14 18 23
19 24 32
15 19 25
10 13 18
17 21 27
12 14 18
10 12 16
12 15 20
19 24 32
19 23 29
12 16 20
13 16 22
15 19 24
21 26 34
14 17 22
11 14 18
16 20 25
21 26 33
20 25 33
25 31 39
12 15 20
20 24 32
12 15 19
14 17 23
9 11 14
16 20 26
20 24 31
12 15 20
7 10 13
13 16 22
17 21 28
19 24 31
14 18 24
15 18 23
17 22 28
14 18 24
15 19 25
12 15 20
14 17 21
15 19 24
13 16 20
15 19 25
18 22 28
16 20 26
10 13 17
15 19 25
11 14 18
13 16 21
16 20 26
14 18 23
17 21 27
13 16 20
14 18 24
13 16 21
15 19 24
15 19 24
12 15 19
15 18 24
11 13 17
12 15 19
17 21 27
14 18 23
16 20 25
16 20 25
14 17 22
11 14 18
16 20 26
10 12 16
11 14 18
9 12 15
13 15 20
15 19 24
12 15 19
12 14 18
19 23 31
18 22 28
13 16 20
18 23 29
15 18 23
10 13 17
8 10 13
16 19 25
9 12 16
20 24 31
19 24 30
20 24 31
9 11 15
10 12 15
12 14 19
11 14 18
13 16 20
14 17 23
16 20 25
10 13 17
15 18 23
18 23 29
9 12 15
13 16 21
8 10 13
11 14 18
14 18 22
13 16 21
15 18 23
12 14 18
14 17 22
11 14 18
11 14 18
15 19 23
11 13 17
14 16 20
14 16 21
9 12 15
12 14 18
11 14 17
14 17 22
12 15 19
11 13 17
11 14 17
16 19 24
12 15 19
10 12 15
13 15 20
11 13 16
9 11 14
7 9 11
11 13 16
12 14 18
9 10 13
6 8 10
10 12 16
12 15 19
8 10 13
7 8 10
11 13 17
11 14 18
15 19 24
14 17 21
11 14 17
7 8 11
12 14 18
12 15 20
11 14 18
11 13 17
10 13 16
10 12 15
7 8 11
13 16 21
13 15 19
6 7 9
14 17 22
8 10 12
12 15 20
14 17 22
9 11 15
13 16 20
8 10 13
10 12 15
12 15 18
13 17 21
10 13 16
12 14 18
9 11 14
16 19 24
13 16 21
11 13 17
10 12 16
9 10 13
10 12 15
10 12 16
10 13 17
12 15 19
11 14 18
15 19 24
16 20 25
14 17 22
12 14 18
10 12 16
14 17 21
14 17 22
13 16 20
11 14 18
10 12 15
12 15 19
15 18 23
9 11 14
9 11 14
16 19 24
12 14 18
11 14 18
8 10 13
15 19 24
12 15 19
11 13 18
13 16 21
14 17 22
15 18 24
13 16 21
11 14 18
14 17 21
10 13 16
13 16 21
16 20 26
13 16 21
17 22 28
16 20 26
11 13 17
11 14 18
16 20 25
10 12 16
15 19 25
11 14 17
13 15 20
17 21 27
10 13 16
10 13 16
10 12 16
18 22 29
17 21 27
21 26 33
11 14 18
12 16 20
16 20 25
9 11 14
9 11 14
15 18 23
18 22 27
12 15 19
14 17 23
9 11 15
13 17 21
15 19 23
12 15 19
15 19 24
17 21 27
21 26 34
15 19 24
12 16 21
16 20 26
11 14 18
12 16 20
14 17 22
14 17 21
23 29 37
15 18 24
16 19 25
12 15 19
13 16 21
12 14 19
14 17 22
18 22 29
19 24 31
15 20 26
24 29 36
17 21 26
20 25 32
9 11 14
18 22 28
11 14 18
17 21 26
10 13 17
9 10 13
15 18 24
16 20 26
16 21 27
12 15 19
9 11 14
21 27 35
12 16 21
14 17 22
14 18 24
14 17 22
19 24 32
17 21 27
15 19 25
19 24 30
19 24 32
10 13 16
21 27 35
15 19 24
14 17 22
17 21 27
10 13 17
10 12 16
8 9 12
19 24 32
15 19 25
13 16 21
17 21 28
16 21 28
21 25 32
18 23 29
14 18 23
16 20 26
13 17 21
25 30 39
17 21 28
15 18 24
19 24 30
18 23 29
19 24 31
22 27 34
19 24 32
17 21 27
16 20 26
17 21 27
18 22 28
9 11 15
18 22 29
18 22 28
14 17 23
16 20 26
20 24 30
12 16 21
17 21 27
16 20 27
18 22 29
15 18 24
11 14 18
12 14 18
14 17 22
13 16 21
15 19 24
16 20 26
25 32 41
14 18 23
13 16 20
13 17 22
19 24 31
13 16 21
15 19 25
17 21 27
22 27 35
11 13 18
16 20 25
10 13 17
13 16 21
16 20 25
17 22 28
17 21 27
18 22 28
15 18 23
16 20 26
9 11 14
15 18 23
19 24 31
18 22 29
15 19 24
19 23 30
22 27 35
20 25 32
15 18 24
15 19 24
18 23 30
11 14 19
19 23 31
23 29 37
19 24 31
19 23 29
15 18 24
19 24 31
18 22 29
14 17 22
18 22 29
18 22 27
21 27 35
13 17 22
13 17 22
17 22 29
19 24 31
19 23 29
14 18 23
19 23 29
15 18 23
24 30 39
17 22 28
11 14 17
18 22 28
17 21 26
17 21 26
10 13 17
24 30 40
19 23 31
14 18 23
20 25 33
10 12 16
22 27 35
14 17 23
17 21 28
11 14 18
17 22 29
20 24 31
17 21 28
14 18 23
11 14 19
16 20 25
12 15 19
16 20 26
15 19 25
14 17 22
23 28 36
17 21 28
17 21 28
20 24 32
12 15 19
16 20 27
20 25 31
12 15 19
11 14 18
15 19 25
19 24 31
16 19 25
22 27 35
22 27 35
14 17 23
17 21 27
17 21 27
11 14 18
17 21 27
19 24 31
15 18 24
15 19 24
21 27 35
10 12 16
15 19 25
19 23 28
17 20 26
14 17 21
12 15 19
10 13 17
14 18 24
18 23 30
12 15 19
20 24 31
16 19 25
10 13 16
16 20 26
15 19 25
19 23 29
18 22 29
15 19 24
18 22 28
17 21 26
13 17 21
16 20 25
9 11 14
11 14 19
14 18 23
14 18 23
15 19 25
17 21 26
11 13 16
15 18 24
18 23 29
16 20 25
11 14 18
14 17 23
14 18 23
19 23 29
17 20 26
15 19 24
14 18 24
15 18 23
19 24 31
19 24 31
17 21 28
7 9 12
14 18 23
15 19 24
14 18 23
14 16 21
9 11 14
15 18 23
13 16 21
12 15 19
12 14 18
11 14 18
12 15 19
10 13 17
11 13 16
13 16 20
17 21 27
12 14 18
14 17 22
14 18 23
11 14 18
12 15 19
11 14 18
14 17 21
12 14 18
18 22 28
14 17 22
15 18 24
18 22 29
9 11 15
10 12 15
7 9 11
13 16 21
10 12 16
15 18 23
13 16 21
12 14 18
17 21 28
13 16 20
17 20 26
10 12 16
12 15 18
13 15 20
8 10 12
23 28 36
14 17 22
10 12 16
12 14 17
13 16 20
18 21 26
12 14 18
7 8 11
10 12 15
13 16 21
11 13 17
9 11 14
13 16 20
13 16 20
7 9 11
12 14 17
11 14 18
7 9 11
9 11 14
12 14 18
16 20 25
10 12 15
14 17 22
11 13 17
10 12 15
15 18 23
14 16 20
11 14 17
11 14 17
10 12 16
4 5 7
12 15 19
12 14 18
11 13 17
7 9 11
5 6 7
9 11 14
9 11 14
9 11 14
8 10 12
8 10 13
6 8 10
15 18 22
12 14 18
11 14 18
13 16 20
9 11 14
6 8 10
12 15 19
11 13 16
7 9 11
11 14 18
14 17 22
9 11 14
10 12 15
9 11 14
13 16 20
7 8 10
12 15 19
11 14 18
11 13 17
8 10 12
12 15 19
10 12 15
17 21 27
11 14 18
10 12 15
8 10 13
13 15 20
8 9 12
13 16 20
12 15 19
14 17 22
15 17 22
14 17 22
8 10 12
12 14 18
14 17 22
13 16 20
10 12 16
16 20 25
12 15 19
16 20 25
8 10 13
10 13 17
15 19 24
14 17 21
12 15 18
15 19 23
13 16 20
17 21 27
14 18 25
15 19 24
11 14 18
20 25 32
19 24 30
14 17 22
16 19 25
16 20 25
11 13 17
16 20 26
15 18 24
14 18 24
16 20 25
15 18 23
15 19 24
15 18 23
16 21 27
17 20 26
13 16 21
17 21 28
16 20 25
11 14 18
14 17 21
11 14 19
12 15 19
12 15 19
19 23 30
12 16 20
15 19 25
15 18 23
16 20 25
15 18 23
18 22 29
15 19 24
13 16 20
15 19 24
18 22 29
17 22 28
12 15 20
16 20 26
14 17 22
15 19 25
17 21 27
14 17 22
12 15 18
15 18 23
12 16 20
20 25 31
18 23 29
15 19 24
14 18 24
16 19 24
13 17 22
12 15 19
12 15 20
13 17 23
9 11 15
13 17 22
20 25 32
14 17 22
9 11 14
17 21 27
14 17 22
14 18 23
19 23 30
12 15 20
19 24 32
13 16 21
18 22 28
16 20 27
15 18 24
13 16 20
19 24 31
19 24 31
17 21 27
14 18 23
21 26 35
8 10 13
23 29 37
18 23 30
14 17 22
15 19 25
9 11 15
23 28 36
13 16 20
14 18 24
8 10 13
12 15 19
13 17 22
15 18 24
14 19 26
16 20 26
13 16 21
11 14 19
12 15 20
18 23 30
16 20 26
12 15 19
13 16 22
14 17 22
17 21 27
18 22 29
16 21 27
22 28 36
19 23 29
9 12 15
17 21 28
19 23 30
20 24 32
14 18 23
14 18 24
18 22 29
16 19 25
16 19 25
13 17 22
17 21 28
10 13 17
11 13 17
16 21 27
16 20 26
25 30 38
10 13 17
13 17 22
17 21 27
17 21 27
16 20 25
18 23 31
18 23 30
19 24 30
24 29 37
16 20 26
18 23 29
18 22 29
10 13 16
14 18 23
19 24 32
14 18 23
19 23 29
15 19 26
10 13 17
20 25 33
11 13 17
9 11 14
19 23 30
13 16 21
15 19 23
17 21 28
13 16 21
16 19 25
24 30 39
14 18 24
18 22 28
17 21 27
15 19 25
16 21 27
16 20 27
22 27 35
17 21 26
11 14 19
21 26 33
13 16 21
16 19 24
15 19 25
16 20 25
16 20 26
20 24 31
12 15 19
15 19 25
17 21 27
18 23 30
15 19 25
27 34 44
16 20 26
18 23 30
15 18 23
13 17 23
13 16 21
15 18 24
15 19 24
18 23 30
13 16 21
15 19 25
13 16 21
18 22 29
14 18 23
17 21 27
15 19 24
13 17 22
13 16 21
18 22 28
17 21 27
19 24 31
15 19 24
18 22 28
17 22 28
12 15 20
15 18 24
16 19 24
8 10 13
20 25 33
14 18 23
17 22 29
18 22 28
15 18 24
9 12 16
10 13 17
15 19 25
13 17 22
15 18 24
11 14 18
10 13 17
13 16 21
21 25 32
14 18 23
18 22 28
19 23 29
19 24 31
10 13 16
20 25 32
20 25 33
17 22 28
11 14 18
18 22 29
16 19 25
16 20 27
15 18 24
13 16 21
22 28 37
21 26 34
14 17 22
15 19 25
17 20 26
12 15 19
13 16 21
12 15 19
11 14 18
13 16 20
18 22 28
10 12 16
15 18 23
13 16 21
12 15 19
13 16 20
14 17 23
16 19 25
13 16 20
21 26 33
15 18 24
13 16 21
12 15 20
8 10 14
12 15 20
10 12 16
14 18 24
13 16 21
17 21 26
12 14 19
18 23 29
18 22 29
15 18 23
11 13 17
20 24 31
17 22 28
15 18 23
17 20 26
12 15 18
9 12 15
18 22 29
10 12 16
11 14 18
14 17 22
18 22 28
10 12 16
10 12 16
13 16 20
17 22 28
15 18 23
11 14 18
11 14 18
13 16 21
11 14 19
12 15 20
18 22 28
17 20 26
13 17 21
15 18 24
14 17 22
14 17 21
13 17 22
15 18 24
17 21 26
11 14 17
11 14 18
11 14 17
10 12 15
11 14 17
13 16 20
15 19 25
13 15 19
15 18 23
15 19 24
13 16 21
9 12 15
6 8 11
13 15 20
13 16 20
12 15 19
9 11 14
15 18 23
15 18 23
11 13 17
7 9 11
10 12 15
11 13 16
6 7 9
9 11 14
10 13 17
10 12 16
6 8 10
10 12 15
10 12 15
12 15 20
12 15 19
8 10 13
11 13 16
14 17 21
11 13 17
7 8 11
14 17 21
10 13 16
9 11 14
8 10 13
11 14 18
12 15 19
13 16 20
12 15 20
16 19 24
15 18 23
4 5 7
8 10 13
9 11 14
11 14 18
10 12 15
11 13 17
11 14 19
9 11 14
11 14 17
13 16 20
14 16 20
8 10 12
9 11 14
7 9 11
7 9 13
9 11 14
10 12 16
10 12 16
10 13 16
10 13 17
12 15 18
9 11 15
11 14 17
9 11 14
14 17 22
16 19 24
10 12 16
13 15 20
10 12 15
15 18 23
15 18 23
11 14 17
7 8 11
6 8 10
15 19 24
17 21 27
12 15 19
12 15 19
9 11 14
10 12 15
12 14 17
12 15 18
14 18 23
8 9 12
11 14 18
10 12 16
14 17 23
15 19 24
12 14 18
13 16 21
8 10 13
15 18 23
17 20 25
15 19 25
12 14 18
16 20 25
15 19 25
9 11 13
15 18 23
11 14 18
13 16 21
11 14 17
13 16 21
13 16 20
15 18 23
9 11 14
11 13 17
10 12 16
15 19 24
14 17 23
17 21 27
15 19 25
17 21 27
10 12 16
13 16 21
17 21 27
13 15 20
14 17 22
14 17 21
15 18 23
13 16 20
16 20 26
13 16 20
9 12 15
16 20 26
20 25 31
21 27 34
10 12 16
9 12 15
14 17 22
13 16 20
17 21 27
19 23 30
13 17 22
12 15 19
12 15 19
15 19 25
14 17 22
17 21 28
13 16 22
17 21 26
21 26 33
12 15 20
14 18 24
13 16 21
14 17 22
20 24 31
17 20 26
13 16 21
19 23 29
14 18 24
16 20 26
19 23 29
14 17 22
11 14 17
10 13 17
15 18 24
20 24 32
17 21 27
10 13 16
17 21 27
14 17 22
11 13 17
19 24 31
13 16 20
21 26 34
13 16 22
14 18 24
18 23 30
14 18 24
18 23 29
14 17 22
18 23 30
21 26 33
12 14 18
19 24 31
10 12 16
15 18 24
15 19 24
18 22 28
17 21 27
21 26 33
25 31 40
16 20 26
13 15 20
15 18 24
18 22 28
14 18 23
14 18 23
20 24 30
13 16 21
17 21 28
20 25 33
15 19 24
17 21 26
15 18 24
18 23 29
14 18 22
18 22 28
17 21 28
9 11 15
10 12 16
19 24 31
9 11 14
23 30 39
15 19 25
17 22 28
18 22 28
13 16 21
14 17 23
12 16 21
20 25 32
16 20 26
13 16 21
18 22 29
15 19 24
14 18 23
13 17 22
11 14 18
19 24 31
12 16 21
12 14 19
19 23 29
17 21 28
17 22 29
15 19 25
13 16 21
17 22 28
12 15 19
15 18 24
22 27 35
16 20 27
16 19 25
19 24 31
13 16 20
14 17 23
12 15 20
19 23 29
16 19 24
18 22 28
15 19 25
13 16 21
22 27 36
16 20 25
20 25 33
19 24 30
21 26 33
15 20 26
15 19 25
15 18 23
21 26 33
14 18 24
18 22 29
8 10 13
20 25 32
19 23 30
16 20 27
16 20 26
15 18 23
12 15 20
17 22 29
20 24 31
13 17 22
16 20 25
21 26 33
16 19 25
14 17 23
18 22 29
18 22 30
15 18 23
15 19 25
16 20 26
8 10 13
11 14 18
11 14 18
20 24 31
15 20 26
20 25 32
25 31 41
11 14 18
15 19 25
18 22 28
11 13 17
11 14 18
13 16 20
19 23 30
13 16 21
23 29 37
14 17 22
13 16 22
12 16 21
19 24 30
13 16 21
20 25 32
16 20 26
18 23 31
12 16 21
17 21 26
15 19 25
11 14 18
19 24 31
20 24 31
14 18 23
15 19 24
16 20 26
19 24 30
12 15 20
15 19 25
15 18 24
20 26 34
14 18 23
17 21 27
13 17 22
19 23 30
17 22 28
13 17 21
14 18 24
19 24 31
24 31 41
16 20 25
15 19 25
17 21 28
19 24 32
17 21 28
23 28 35
18 22 29
14 18 23
15 18 23
10 13 17
15 18 23
14 18 24
14 18 23
18 22 29
16 19 25
13 17 22
19 23 30
13 16 21
15 18 23
15 18 24
18 23 30
19 24 31
17 21 26
15 19 26
13 16 20
14 17 22
17 21 27
9 11 15
14 18 24
20 24 31
13 16 21
8 10 14
16 20 26
19 23 30
11 14 18
17 21 27
17 21 27
15 19 25
14 17 21
16 21 27
20 25 32
19 24 31
12 16 21
13 16 21
17 22 28
12 15 20
17 22 28
13 16 21
16 19 24
13 16 20
23 28 35
16 21 27
10 12 16
16 20 26
14 18 24
19 23 30
14 17 22
13 16 20
11 14 18
14 17 21
11 14 18
14 17 21
14 18 23
15 19 25
15 18 24
18 21 27
14 18 23
14 17 22
16 20 26
12 15 20
14 18 23
17 21 27
13 16 20
13 15 20
10 13 16
14 17 22
6 8 11
12 16 20
15 18 22
14 17 23
12 15 19
11 13 17
7 8 10
9 12 15
9 12 15
9 11 14
9 12 15
13 16 20
15 18 23
12 15 20
15 18 23
15 18 23
16 20 26
17 20 26
12 14 19
8 9 12
10 12 16
14 17 22
14 17 22
15 19 24
14 17 22
13 16 20
10 13 16
15 19 24
9 11 14
5 6 8
13 16 21
13 16 20
17 21 26
5 7 9
13 16 20
4 5 7
12 15 19
15 18 23
17 21 26
11 14 18
11 13 17
8 10 12
13 16 20
14 17 22
14 17 22
8 10 13
10 12 16
14 17 22
9 12 15
15 18 22
17 21 27
15 18 22
8 10 12
10 12 15
11 14 17
6 8 10
11 13 17
12 14 18
11 14 18
10 12 16
14 18 22
9 11 14
12 14 18
10 13 17
18 21 27
13 15 19
7 9 12
10 12 16
11 13 17
8 10 12
10 12 15
12 14 18
12 15 19
14 17 21
7 8 10
13 15 19
12 14 18
8 10 13
15 17 22
10 13 16
10 12 15
13 16 19
11 14 18
12 15 20
10 13 16
9 11 14
17 21 27
14 17 22
16 19 24
14 17 22
11 13 16
10 12 16
11 14 19
15 19 24
12 14 18
13 16 20
10 13 17
10 13 16
10 12 16
19 24 30
12 15 19
9 11 15
11 13 17
10 12 17
9 12 15
17 21 27
12 15 19
9 12 15
12 15 20
15 19 24
11 14 18
13 16 21
15 19 25
17 21 27
14 17 23
15 18 23
12 15 19
21 26 33
15 19 24
12 15 19
13 16 21
17 21 27
12 15 20
13 16 19
11 13 17
15 19 24
18 21 27
10 13 17
16 20 27
22 27 36
17 21 27
14 18 23
13 16 20
18 23 30
15 19 25
16 20 26
19 24 31
15 19 25
17 21 27
14 17 22
12 15 19
11 14 18
15 18 23
12 15 20
16 20 26
16 20 26
12 15 19
10 13 17
18 23 29
14 17 22
20 25 32
13 16 20
14 18 23
12 15 19
12 15 20
14 17 22
20 25 32
11 14 17
9 11 15
16 20 27
15 19 25
13 16 21
10 13 16
16 19 25
15 19 24
12 15 20
19 23 30
17 21 28
12 16 21
19 23 30
19 23 29
17 22 28
15 19 25
12 15 20
10 13 17
18 22 29
17 22 29
19 23 30
15 19 25
17 22 29
14 18 23
20 25 31
22 27 35
15 19 25
12 15 20
26 32 41
12 15 21
14 17 22
20 25 32
13 17 22
16 20 26
16 20 26
22 27 35
14 18 24
17 22 28
12 15 19
16 20 27
13 16 21
15 19 25
15 18 24
15 19 25
23 28 36
12 15 19
16 20 25
16 19 24
15 19 25
12 16 21
17 21 28
21 26 34
13 16 21
16 20 25
22 27 35
21 26 32
17 21 27
21 27 35
14 17 22
19 24 30
16 21 28
20 25 32
17 21 27
16 20 25
14 17 22
11 14 18
13 16 20
18 23 30
14 17 23
16 20 26
16 20 26
17 21 27
19 24 31
12 15 20
14 18 24
20 26 34
21 27 36
14 17 22
20 26 34
18 23 30
19 24 31
11 14 18
19 24 32
17 21 28
19 23 30
21 26 35
14 17 22
18 23 30
12 14 18
12 15 20
16 20 26
15 19 25
16 20 25
9 12 16
9 11 15
13 17 22
23 29 37
23 29 37
23 29 38
14 18 23
14 18 23
11 14 18
21 27 35
17 21 27
24 30 39
17 21 28
23 29 37
12 16 21
19 24 31
17 21 27
18 22 28
15 18 22
14 17 22
19 24 31
18 22 28
10 13 17
17 21 27
11 13 17
19 23 30
14 17 21
15 19 25
20 25 33
13 16 20
16 20 26
19 24 31
17 21 28
12 14 18
8 10 14
9 12 16
18 22 29
19 24 31
11 13 18
19 24 31
19 23 29
16 20 26
19 24 30
17 22 28
12 15 20
22 27 35
21 26 32
17 21 26
14 17 22
17 21 28
16 20 25
9 12 16
16 20 25
15 19 25
22 27 35
9 11 15
16 19 25
16 20 26
24 30 39
17 21 28
15 19 25
15 18 24
18 22 28
16 20 26
17 22 29
16 21 27
14 18 23
15 18 24
13 16 20
18 22 28
18 22 29
14 18 23
18 22 29
17 21 28
11 14 18
12 15 20
21 26 34
17 21 27
14 18 23
11 14 19
14 18 23
17 21 27
15 19 24
9 11 15
16 20 26
13 17 22
21 27 35
12 15 19
13 17 22
13 16 21
17 20 26
12 16 21
16 20 26
11 14 18
17 21 27
16 19 25
12 15 19
10 13 17
17 21 27
16 20 26
15 19 25
16 20 26
16 21 27
13 17 22
21 25 32
15 18 23
9 11 14
17 22 28
9 10 13
17 21 26
15 18 23
15 18 23
18 22 28
10 13 17
13 17 21
15 19 24
19 23 29
14 18 23
13 15 20
14 18 23
12 15 19
16 20 26
9 10 13
20 24 31
21 26 34
15 19 24
15 18 23
14 17 21
9 12 15
24 30 38
19 24 31
14 18 23
12 16 20
13 17 22
13 16 20
15 18 24
18 22 28
12 15 20
12 15 19
7 9 12
16 19 25
17 21 26
17 21 28
16 20 26
14 17 22
10 13 16
17 21 27
10 13 17
11 13 17
13 16 21
19 23 30
11 14 18
14 17 22
19 23 28
10 13 17
12 15 19
11 13 17
13 15 19
5 6 8
9 11 14
11 14 18
12 15 20
13 15 20
13 16 20
14 17 22
16 20 27
11 14 18
12 14 19
16 19 24
11 14 17
10 12 16
9 12 16
18 22 28
8 9 12
16 19 25
15 18 23
16 20 26
14 17 22
15 19 24
10 12 15
7 8 10
13 16 21
10 13 17
14 17 21
9 11 14
13 16 20
13 16 20
10 12 16
9 11 14
4 5 7
12 15 19
15 18 23
15 18 23
12 14 18
8 10 13
12 14 18
14 16 21
14 17 22
8 10 12
13 16 20
12 15 19
14 18 23
10 13 17
8 9 12
16 20 25
9 11 15
9 11 13
9 10 13
18 21 27
11 14 17
10 13 17
10 12 16
12 14 18
12 15 20
8 10 14
12 15 19
12 14 17
13 17 21
9 11 14
8 10 13
12 15 19
8 11 14
10 12 16
12 14 18
16 20 25
17 21 26
11 14 17
11 13 17
12 14 18
16 20 26
8 10 13
12 14 18
13 16 20
9 11 15
13 16 21
6 8 11
11 14 17
13 16 20
10 13 17
10 13 16
14 18 23
13 15 19
10 12 16
9 12 15
13 16 20
9 12 15
15 19 24
9 11 14
11 14 18
14 17 21
8 11 14
11 14 18
13 16 21
18 22 28
12 15 19
16 20 26
14 17 22
14 16 21
19 23 30
9 11 15
20 25 32
10 12 15
10 12 15
12 15 19
9 10 13
8 11 14
10 12 16
11 13 17
11 14 18
15 18 24
16 20 26
15 18 23
20 24 31
18 22 28
14 17 22
11 13 17
14 18 23
19 24 30
11 14 18
12 15 20
11 14 18
20 25 32
16 20 27
14 18 23
9 11 14
16 20 25
18 22 28
23 28 37
12 14 18
17 20 26
16 20 26
19 23 30
14 17 22
14 17 22
15 18 23
14 17 22
16 20 25
12 15 20
13 16 20
10 13 17
16 20 25
19 24 31
15 17 22
7 9 12
11 13 17
14 17 22
13 16 21
16 21 27
19 24 31
16 19 25
10 12 16
14 18 24
20 25 32
12 15 18
17 21 27
18 22 29
18 23 30
12 16 20
12 15 20
18 21 27
14 17 23
16 19 25
14 18 23
14 17 23
14 18 23
16 19 24
17 21 28
18 22 28
15 18 23
18 22 29
16 20 26
14 17 23
12 15 19
15 19 25
13 16 21
17 21 27
16 20 26
19 24 31
17 21 27
17 21 27
24 30 38
17 21 28
10 13 17
14 18 24
12 16 20
12 15 20
15 19 25
18 22 29
16 20 26
13 16 21
16 20 26
13 16 21
19 24 31
16 20 25
12 16 20
18 22 29
11 14 18
15 19 25
24 30 39
17 21 27
19 24 30
15 19 24
17 21 27
12 15 20
14 18 23
19 23 29
15 19 24
21 27 34
18 22 29
18 22 29
15 18 23
23 29 37
17 21 27
20 25 32
17 21 27
19 24 32
14 18 23
11 14 18
20 25 33
12 14 18
19 23 29
12 15 20
20 25 32
15 19 24
22 27 35
15 19 25
17 21 28
19 24 30
14 17 22
16 20 26
16 19 25
21 26 34
19 24 31
12 15 20
14 17 23
15 19 25
15 18 24
21 26 35
17 21 27
22 27 35
23 29 37
14 17 22
21 27 35
16 20 26
15 18 24
16 20 25
16 20 26
18 23 30
17 21 28
11 14 18
18 22 28
15 20 26
12 15 20
19 24 31
15 20 26
19 24 31
12 15 20
14 18 23
10 12 15
17 22 29
14 18 23
16 20 26
19 24 31
13 16 21
18 22 29
12 15 19
13 16 21
14 17 22
20 25 33
19 23 30
18 23 30
15 19 24
11 14 18
16 20 25
20 25 32
17 22 29
16 20 27
14 18 23
13 17 22
13 16 21
15 18 23
14 18 23
12 16 21
13 16 20
16 20 26
16 19 25
13 16 20
17 21 27
18 23 29
13 15 20
17 21 26
16 20 25
13 17 22
13 17 22
14 18 23
24 29 38
17 21 28
20 26 35
17 21 27
14 17 22
13 16 21
13 16 21
21 26 34
15 19 25
13 17 22
18 23 30
17 21 27
13 16 21
15 19 25
16 20 26
14 17 22
11 13 17
14 18 23
15 19 25
12 15 19
13 16 21
14 17 23
11 14 19
18 22 28
16 20 26
16 20 27
21 26 34
13 16 21
12 15 19
23 29 38
18 23 30
11 13 17
19 23 29
12 15 20
13 17 22
23 28 36
18 23 29
8 10 13
13 16 21
16 20 27
14 17 22
15 18 24
19 23 30
13 15 20
16 19 24
16 19 24
20 24 31
13 16 21
20 24 31
14 18 23
18 22 29
11 14 19
17 22 28
14 17 21
17 22 28
12 15 20
14 18 23
12 15 19
14 17 22
13 16 20
9 11 15
19 23 30
10 12 16
18 23 29
12 15 19
16 20 26
17 21 27
10 13 17
11 13 17
13 17 22
8 11 14
13 16 21
10 12 16
10 13 18
22 27 35
12 15 19
15 18 24
14 18 22
12 15 19
16 20 25
11 14 19
17 22 28
14 17 22
9 12 15
12 16 21
17 20 26
15 18 24
14 18 23
13 15 20
13 16 20
12 14 18
13 17 21
13 16 21
14 17 22
8 10 13
13 16 21
11 14 18
12 14 19
13 16 20
10 13 16
10 13 17
19 24 30
14 17 21
14 17 22
9 12 15
12 15 19
13 16 21
15 19 25
11 13 16
14 16 21
13 15 19
8 10 13
12 15 18
11 14 18
9 12 15
10 13 17
13 16 20
20 24 31
18 21 27
9 11 15
12 15 18
12 15 19
10 13 17
15 18 24
10 12 16
12 14 18
11 13 16
17 21 27
10 13 16
9 11 14
10 12 16
16 19 24
10 13 16
14 16 21
17 20 26
8 10 12
11 13 17
9 11 14
10 13 16
10 13 16
16 20 25
8 10 12
15 18 22
11 13 17
8 10 12
10 12 16
12 14 18
12 14 17
13 16 21
11 14 17
11 13 16
8 10 12
16 20 25
7 9 11
10 12 15
14 17 21
12 15 20
6 8 10
10 12 15
12 15 19
8 9 12
13 16 21
8 10 13
14 17 22
12 15 20
6 7 9
22 26 33
11 13 17
11 13 17
14 18 22
10 13 17
11 13 17
16 19 25
9 11 14
14 17 21
9 11 14
10 12 15
17 21 26
15 18 23
5 7 8
9 12 15
11 13 17
11 13 17
16 19 25
15 18 23
13 16 20
15 18 24
13 16 20
17 21 27
16 20 25
12 15 19
14 16 20
12 15 19
14 17 21
14 17 22
18 23 29
11 13 17
14 17 21
10 11 14
16 19 24
14 17 22
11 14 18
13 16 20
15 18 23
13 15 19
16 20 26
13 16 21
11 14 18
15 19 24
9 11 14
13 17 21
8 9 12
16 20 25
14 17 21
13 16 21
18 23 29
12 15 20
14 18 23
12 15 19
21 26 33
15 18 24
9 12 17
12 15 19
16 19 24
14 17 22
9 12 16
14 17 22
13 17 22
13 16 20
12 14 19
19 23 29
16 19 25
13 15 19
16 20 25
19 24 30
19 23 30
17 22 28
15 18 23
12 16 20
13 17 22
14 18 22
13 16 20
15 18 23
12 15 20
14 17 22
16 20 26
15 19 25
15 19 25
13 17 21
14 18 23
21 25 32
13 16 21
16 20 25
16 20 26
14 17 21
17 20 25
16 20 25
13 17 21
13 16 21
21 25 33
14 17 22
16 20 25
12 15 19
13 17 22
21 27 34
21 26 33
19 24 31
16 20 26
16 20 25
17 21 26
18 23 30
14 17 22
11 14 18
20 24 31
13 17 22
15 19 24
11 14 17
17 22 28
16 20 26
12 15 20
19 23 30
21 26 34
23 28 36
17 22 28
17 21 27
18 22 28
16 20 25
15 19 25
17 20 25
9 11 14
15 19 24
19 24 30
20 24 31
20 25 32
13 17 22
16 19 25
17 21 26
16 19 25
15 18 23
16 20 26
22 26 34
11 14 18
13 17 22
13 16 21
16 20 26
11 14 19
20 25 32
13 16 21
13 16 20
18 23 30
14 17 22
18 22 29
17 22 28
11 14 18
18 22 28
14 17 22
12 14 18
13 16 22
15 18 24
13 17 22
16 20 25
17 21 27
9 11 15
6 8 10
19 24 31
19 23 30
10 13 17
17 21 28
18 23 29
14 17 23
15 18 23
13 16 20
20 24 31
16 20 27
13 17 22
15 19 24
17 21 27
18 22 29
12 15 20
19 25 32
17 22 28
20 25 32
16 21 27
10 13 17
21 25 33
16 20 26
12 16 20
16 20 26
19 23 30
15 19 24
16 19 25
18 22 28
26 32 41
14 17 23
13 17 23
16 20 26
15 19 25
13 16 20
11 14 18
17 22 29
13 16 21
19 24 30
15 18 23
16 20 26
20 25 33
15 19 24
14 18 23
17 21 28
9 12 15
15 20 26
16 20 26
12 15 20
18 23 30
19 24 31
18 23 31
15 19 26
21 26 33
12 15 20
12 16 21
17 22 29
17 21 27
16 20 27
22 27 35
17 21 26
16 21 27
15 18 23
24 29 37
20 25 32
14 18 23
18 22 28
16 21 27
16 20 25
13 16 20
16 20 26
18 22 29
14 18 24
16 20 25
12 14 19
18 22 29
18 22 28
14 17 22
9 11 14
14 17 23
11 14 19
22 28 36
15 19 24
17 21 27
18 22 28
16 20 26
17 21 28
17 21 27
17 21 26
16 20 27
14 18 23
8 10 13
23 29 37
18 22 29
12 15 19
13 16 21
15 19 25
15 18 24
17 21 27
13 17 22
8 10 13
16 20 25
19 23 30
17 21 27
18 22 28
9 11 14
12 15 19
13 17 22
12 15 19
12 15 19
13 16 21
14 17 23
14 17 22
18 23 29
16 20 26
12 15 20
15 19 24
13 16 21
17 22 29
9 12 16
10 13 17
14 17 23
16 21 27
15 18 24
12 14 19
15 19 24
18 22 28
12 15 19
18 23 29
15 19 24
15 18 24
11 14 19
16 20 26
14 18 22
15 19 24
16 20 26
10 13 17
16 20 26
17 21 27
19 23 30
14 17 22
10 12 16
7 10 13
15 19 25
15 18 23
15 20 26
13 16 21
10 12 16
18 22 27
9 11 14
16 20 26
14 17 21
11 13 17
8 10 13
14 17 22
18 23 29
15 18 24
7 8 11
16 20 25
14 17 22
11 14 18
15 18 23
11 14 18
14 18 23
18 23 29
12 15 19
10 12 16
12 15 19
13 16 21
13 16 20
12 15 19
13 16 21
12 14 19
19 23 29
16 20 26
17 21 26
15 19 25
16 20 26
15 19 24
15 18 24
16 19 25
13 16 21
13 16 20
15 19 25
10 12 15
12 15 19
11 13 17
14 18 23
8 10 13
15 19 25
15 18 23
13 15 20
12 14 18
9 11 14
13 16 19
8 10 12
15 18 23
12 14 17
12 15 19
13 16 21
12 15 19
13 16 20
10 12 15
7 8 11
12 15 19
12 15 19
13 16 20
8 10 14
11 14 17
14 17 21
9 11 14
10 12 16
11 13 17
9 12 15
14 17 21
10 13 17
10 13 16
12 15 19
14 17 22
14 17 21
9 10 13
9 11 15
13 16 20
15 18 24
14 17 21
9 12 15
14 17 21
20 24 30
9 11 14
14 17 21
10 13 16
13 16 21
16 20 26
11 14 18
14 17 21
15 18 23
17 20 25
9 11 14
11 13 17
12 15 19
16 20 25
9 11 15
13 16 21
13 15 19
16 20 25
18 22 28
11 13 16
17 21 27
9 11 15
14 17 23
9 11 15
6 7 9
12 15 19
8 10 13
13 16 20
14 17 21
13 17 22
14 17 22
11 13 17
12 14 18
13 16 20
14 18 23
14 17 22
7 9 12
8 10 13
10 13 17
6 7 9
20 24 30
12 15 19
10 12 16
17 21 27
14 18 24
11 14 19
19 24 31
7 8 11
12 14 19
18 22 28
14 18 23
16 21 27
15 18 23
13 16 21
14 18 23
13 16 21
20 25 32
13 16 20
16 20 26
16 20 26
11 14 18
18 23 29
11 14 19
11 14 17
12 15 20
17 21 26
12 15 18
13 17 22
15 18 23
15 18 23
16 19 24
11 14 18
10 12 16
19 23 30
22 26 33
15 18 23
17 21 27
12 15 19
17 21 27
12 15 19
13 16 21
14 17 22
18 22 28
15 18 23
15 18 24
12 16 21
16 20 26
13 16 20
12 15 19
11 14 18
12 14 18
18 23 31
15 18 22
17 20 26
14 17 22
11 14 18
13 16 21
13 17 22
19 23 29
12 16 22
22 27 34
17 21 28
9 12 15
11 14 18
7 9 13
15 18 24
13 16 21
16 20 25
14 18 24
12 15 20
13 16 21
19 24 31
17 21 28
22 27 34
12 15 20
15 19 24
16 20 26
17 21 27
17 21 27
18 22 29
15 18 23
16 20 25
11 14 18
18 23 30
15 19 24
13 17 22
11 15 19
13 16 21
12 15 19
11 14 17
13 16 21
14 17 22
11 14 18
12 15 19
13 16 21
14 17 22
17 21 26
14 18 24
22 27 35
12 15 20
12 15 19
12 15 19
18 23 29
16 20 26
19 23 30
10 13 16
16 20 27
16 20 26
12 15 20
20 24 31
15 19 26
16 21 27
15 18 23
11 13 16
15 19 24
17 21 27
16 20 26
13 16 21
10 12 16
24 29 38
15 18 24
15 19 25
19 23 30
15 19 24
19 24 31
18 23 30
20 25 32
22 27 35
21 26 34
11 14 19
17 21 28
15 19 25
17 21 27
20 26 34
15 19 25
24 30 40
21 26 33
21 26 34
16 20 25
18 22 29
13 16 20
17 21 27
23 28 36
13 16 21
18 23 29
16 20 26
21 26 34
18 22 29
20 25 33
14 18 23
16 20 26
13 17 22
15 18 24
16 21 28
16 19 25
21 25 33
12 15 20
21 26 34
14 17 23
18 23 30
20 24 31
21 27 35
18 22 29
18 23 30
19 24 32
12 15 20
14 18 23
16 19 25
17 21 27
23 28 36
18 23 30
21 26 34
16 21 27
20 24 32
16 20 26
16 20 25
13 16 21
16 20 26
15 19 24
21 26 34
16 20 26
17 21 27
16 20 25
17 21 27
20 25 33
14 18 24
20 26 34
10 13 17
13 17 22
17 21 28
14 17 22
16 20 25
21 26 34
17 21 26
15 19 25
11 14 19
15 19 25
19 23 31
20 25 31
14 18 23
16 19 25
16 20 27
13 16 21
18 22 29
24 29 38
18 22 28
22 27 36
13 16 20
11 13 18
20 24 31
13 17 22
11 14 18
14 17 22
21 27 35
17 21 27
15 19 24
15 19 25
15 19 25
21 25 32
15 19 24
20 24 31
14 18 23
15 18 23
14 17 22
19 24 31
18 22 28
12 15 19
19 23 29
12 15 20
17 21 27
9 12 16
15 19 25
14 18 23
14 17 22
17 21 27
9 11 14
11 13 17
14 17 22
18 22 28
17 21 27
14 17 22
16 20 26
14 18 23
13 16 21
18 22 29
13 17 22
11 13 17
10 13 17
17 20 26
15 19 25
13 17 22
16 21 27
17 21 28
17 21 27
11 13 16
17 21 27
15 19 25
18 22 28
18 22 29
16 21 27
14 17 23
21 25 32
15 19 24
14 18 23
17 22 28
17 21 28
10 12 16
13 16 20
13 16 21
13 17 22
13 16 21
11 14 18
10 13 17
12 15 19
10 13 17
11 14 19
10 12 16
12 14 19
13 16 21
10 12 16
16 19 25
11 13 17
17 20 26
15 19 24
12 15 19
18 22 28
14 18 22
15 19 24
11 14 18
11 15 19
15 18 23
12 15 19
14 16 21
11 14 18
9 11 15
17 21 27
12 16 21
20 25 31
10 12 15
12 15 20
11 14 18
10 12 16
15 19 24
8 10 13
9 11 15
14 18 22
19 23 29
18 22 28
9 12 15
16 20 26
14 18 23
10 12 15
6 8 10
12 15 19
10 12 16
14 18 22
10 13 16
11 13 17
12 14 18
12 14 18
12 15 19
12 14 18
7 8 10
15 18 23
14 17 22
14 17 22
9 11 14
17 21 27
11 14 17
13 16 20
9 11 15
12 14 18
6 8 10
13 17 22
10 12 15
15 18 22
7 8 11
17 21 27
7 8 11
12 15 19
11 13 17
10 13 17
9 11 14
8 10 13
8 10 13
9 11 14
13 16 21
10 13 16
9 11 14
21 25 32
14 18 23
14 17 21
13 16 20
11 13 17
9 11 15
16 19 25
8 10 13
15 18 24
10 12 15
14 17 22
11 14 18
13 16 20
10 13 17
7 9 11
13 15 19
18 22 28
15 18 22
12 15 19
15 18 23
6 7 10
14 16 21
12 14 18
13 16 20
9 11 14
10 13 17
7 9 11
13 15 20
11 13 17
10 13 16
11 14 17
11 14 17
12 15 19
8 10 13
11 14 18
18 22 28
10 12 16
16 19 25
11 13 17
9 12 15
12 14 18
11 13 17
11 13 17
15 18 24
16 19 24
13 16 21
10 12 15
8 10 12
13 17 22
14 18 24
14 16 21
17 20 26
11 13 17
9 11 14
10 13 18
12 15 19
16 20 26
15 18 23
13 16 20
15 19 24
12 14 18
13 16 20
14 17 22
11 13 17
15 19 24
14 18 23
9 11 14
8 9 11
18 22 29
22 26 33
10 13 17
11 14 18
15 18 23
13 16 21
11 14 18
8 10 13
15 18 23
13 16 21
16 19 25
10 12 15
15 18 23
12 14 18
13 16 21
10 12 16
17 20 26
14 17 21
16 20 25
21 26 34
20 26 33
18 21 27
16 20 26
14 17 22
14 18 22
16 19 25
15 19 24
15 18 23
13 16 21
19 23 29
15 18 23
13 16 22
12 16 20
15 18 22
19 24 31
14 17 22
12 15 20
13 16 21
6 7 9
21 26 33
16 20 26
12 14 18
18 22 28
15 19 24
16 20 25
20 25 33
16 20 26
11 13 17
15 19 25
13 16 21
13 16 21
13 17 22
15 19 24
9 11 14
14 17 21
12 15 20
14 18 24
18 22 28
10 13 18
13 16 21
17 21 28
15 19 24
20 25 33
14 17 22
18 23 30
20 24 32
15 18 24
20 25 32
12 16 21
15 19 24
22 27 34
19 23 30
14 17 22
16 20 26
19 24 30
15 19 26
17 21 28
22 28 36
11 14 18
15 19 24
9 12 16
12 14 19
13 16 21
16 20 26
16 20 27
13 16 21
14 18 22
14 18 23
14 17 22
19 23 31
17 21 26
15 18 24
12 15 19
12 15 20
17 22 28
20 25 32
15 19 24
18 22 28
14 18 23
12 15 19
21 26 33
12 15 21
15 18 23
19 24 31
12 15 19
15 18 24
15 19 24
14 17 22
16 20 27
20 25 32
13 16 21
13 16 21
18 22 29
19 23 30
18 23 29
15 19 25
15 19 24
13 16 21
14 17 23
17 22 29
19 24 31
14 17 23
11 14 18
19 23 29
15 19 25
17 21 28
15 19 25
18 22 29
18 22 28
14 18 23
21 26 33
23 29 38
22 27 36
16 20 26
15 18 24
15 18 24
13 16 21
17 21 27
11 14 18
12 15 20
7 9 12
15 19 24
13 17 22
10 13 16
16 20 25
18 23 30
16 20 25
18 23 31
20 25 33
11 14 18
15 20 26
14 18 24
14 17 23
17 22 28
18 22 28
20 24 31
14 18 24
16 21 27
21 25 32
22 28 36
17 21 27
10 13 17
15 19 25
21 26 34
18 23 29
15 19 25
11 14 18
15 19 24
15 19 24
18 23 30
15 19 25
17 22 28
15 18 24
10 13 17
19 24 32
16 20 25
16 20 26
18 22 28
16 20 26
13 17 22
19 23 29
12 16 20
16 20 27
16 19 25
14 17 23
23 29 37
16 19 24
19 23 30
17 22 29
13 16 21
11 13 18
12 15 19
11 14 18
12 15 20
16 19 25
17 21 28
10 13 16
16 20 26
18 23 30
9 12 16
13 16 21
22 27 34
16 20 26
16 20 25
18 23 30
14 18 23
15 19 25
15 19 25
21 25 32
14 17 22
15 18 24
14 17 22
22 27 36
14 18 23
12 15 20
14 18 24
14 17 23
15 19 25
12 16 21
15 18 23
6 7 9
12 16 21
11 14 18
13 16 21
21 26 33
12 15 19
12 15 19
17 21 27
16 19 25
14 17 22
15 18 24
14 18 23
18 22 29
16 20 26
13 16 20
13 16 21
10 13 17
23 29 38
21 26 33
20 25 32
8 10 13
15 19 25
11 13 17
14 17 22
16 21 27
16 20 26
19 24 31
15 19 26
17 22 28
10 13 17
16 20 26
11 14 19
19 23 30
17 21 27
10 13 17
19 23 30
11 14 17
11 14 18
22 27 35
13 16 21
14 18 23
10 12 16
16 20 26
19 24 32
16 20 27
10 13 17
18 23 29
18 22 28
18 22 29
21 27 34
7 9 11
10 12 16
10 12 16
10 12 15
14 17 22
11 14 18
12 15 20
14 17 21
11 14 17
10 12 15
12 14 18
14 18 23
18 22 29
9 11 14
19 24 31
18 23 29
20 25 32
14 17 23
8 10 13
13 16 21
15 18 23
14 17 22
13 16 20
15 19 24
16 20 25
19 24 30
13 16 20
14 17 22
10 13 16
11 14 18
14 17 21
8 10 13
10 12 16
12 15 19
12 15 19
9 11 14
17 21 26
11 14 17
10 12 16
18 22 29
22 26 33
22 27 34
18 22 28
14 17 21
11 14 18
6 8 10
13 17 22
13 16 20
14 17 21
13 17 22
18 21 26
12 15 20
18 22 28
16 20 26
18 21 26
12 14 18
7 9 11
12 15 19
13 16 20
12 14 18
14 17 23
11 14 18
11 14 18
9 11 14
16 20 26
12 15 19
16 19 23
7 9 11
15 18 23
16 19 24
14 17 22
11 13 17
7 9 12
12 15 19
10 13 17
11 14 17
12 14 18
16 19 24
16 20 26
13 15 19
13 16 21
11 13 17
15 18 22
8 9 12
6 7 10
9 11 14
13 15 19
12 15 19
18 22 27
10 13 17
12 15 19
8 10 13
10 13 16
11 14 18
15 19 24
14 17 22
19 23 29
14 17 22
8 11 14
14 17 22
16 20 25
13 17 21
13 16 20
12 14 18
12 14 18
12 14 19
15 19 24
14 17 22
14 17 22
12 15 19
11 14 19
14 17 22
13 16 20
11 13 16
13 16 20
15 18 23
15 19 25
12 15 20
15 18 24
18 23 29
4 5 6
10 12 15
13 16 21
19 23 30
18 23 30
12 15 19
14 17 21
15 18 23
12 16 20
16 20 25
12 15 20
15 19 24
13 16 21
18 22 28
11 14 18
18 22 28
11 13 17
17 21 26
17 21 26
15 19 24
7 9 12
15 19 24
14 17 21
17 21 26
13 16 21
18 22 28
13 17 21
17 21 27
12 14 19
16 19 24
11 13 17
18 23 30
13 16 20
17 21 27
13 17 22
17 21 27
17 21 27
14 18 23
13 16 21
11 15 19
24 29 38
16 20 26
17 21 27
21 26 33
15 18 22
13 15 20
10 13 17
18 22 29
14 17 23
15 19 25
16 20 26
16 21 27
9 12 16
12 15 19
14 17 22
12 15 20
16 20 26
13 16 21
18 22 29
8 10 13
20 24 31
14 17 23
18 22 29
11 14 18
13 16 21
16 20 25
19 24 31
13 17 22
18 22 29
18 22 28
19 24 31
12 14 19
21 26 33
15 18 24
14 18 23
15 19 25
17 21 27
18 23 29
11 14 19
11 13 17
12 15 20
16 19 25
19 24 30
25 32 41
13 16 20
15 19 25
15 18 23
15 19 24
10 13 16
13 16 21
11 14 18
16 20 27
17 21 26
16 20 27
12 15 19
16 20 26
16 20 26
13 16 21
20 24 31
19 24 32
17 21 28
15 18 23
13 17 22
15 19 25
17 21 27
20 25 33
17 22 29
16 20 25
13 17 22
15 19 25
18 22 28
17 21 27
16 21 28
14 17 21
18 21 27
17 20 25
13 16 20
19 23 30
13 16 21
11 14 18
14 17 22
16 20 26
13 15 19
20 25 32
18 22 29
12 15 20
12 15 19
14 18 24
13 17 21
12 15 20
18 22 29
10 13 17
13 16 21
18 23 30
17 21 27
19 24 31
17 21 28
15 18 23
14 17 22
11 14 19
21 26 33
20 25 32
18 22 28
15 19 24
16 19 25
15 19 25
15 19 25
20 25 33
19 24 31
14 17 23
13 17 22
16 20 27
14 18 24
16 20 26
10 13 17
18 22 28
28 34 44
17 21 27
17 21 28
20 26 34
23 29 37
16 19 25
13 16 20
16 20 25
13 17 22
13 15 20
15 18 23
15 19 24
13 17 22
13 15 20
17 21 28
17 22 29
16 20 26
21 26 34
16 21 27
18 23 29
13 16 21
12 15 20
20 25 32
19 23 30
13 17 22
13 17 22
20 25 32
15 19 24
21 26 33
10 13 16
13 16 21
19 24 31
12 15 20
15 19 24
16 20 27
16 20 26
14 17 22
10 13 17
14 18 23
19 24 31
18 23 30
11 14 18
11 14 18
17 20 26
15 19 24
16 19 25
20 25 32
15 19 24
23 28 36
16 21 27
17 20 26
16 20 26
20 25 33
16 19 25
17 21 27
15 18 24
17 20 26
22 27 34
14 17 23
15 19 24
19 23 30
18 23 29
13 16 20
13 16 20
12 15 19
21 26 33
16 20 26
15 19 24
15 19 25
18 22 28
13 16 21
14 17 23
15 19 24
12 16 20
15 18 24
16 20 26
14 18 24
17 21 27
11 14 18
9 12 15
18 22 29
15 18 24
21 26 33
10 12 16
14 17 22
15 18 23
15 18 24
18 21 27
16 21 27
15 18 23
18 22 28
12 15 19
13 16 21
12 15 19
10 13 17
15 19 24
13 16 21
10 12 16
11 14 17
15 18 23
16 19 25
15 19 25
12 16 21
17 21 28
17 21 27
17 21 27
13 16 21
15 18 23
8 10 13
10 13 17
13 16 20
16 19 25
19 23 29
8 10 13
16 20 26
13 17 23
14 17 23
16 20 25
13 16 20
13 16 20
13 17 22
12 15 19
15 18 22
12 15 19
15 19 24
16 20 25
17 21 28
8 10 13
20 24 30
14 17 22
14 17 21
16 19 24
13 16 20
8 10 14
18 22 28
14 17 22
10 12 16
7 9 12
16 19 24
9 11 15
19 23 29
10 13 16
11 14 18
16 20 26
8 10 13
8 10 12
12 15 20
14 17 21
15 18 23
10 13 16
15 19 24
17 21 27
9 11 14
17 21 27
11 14 18
15 18 23
14 18 23
11 13 18
13 16 20
11 13 17
17 20 26
8 9 12
12 15 19
14 17 22
9 11 15
13 16 21
11 14 18
11 13 17
8 10 13
11 14 18
8 10 13
8 10 12
13 15 19
13 16 20
12 15 19
19 24 31
11 14 18
16 19 25
12 15 19
10 12 15
15 19 23
13 16 20
11 13 17
14 17 22
11 14 18
17 21 26
13 15 19
12 15 19
8 10 13
8 10 13
15 18 24
7 8 10
11 13 17
8 10 13
13 16 20
10 12 15
11 14 18
8 10 13
14 17 21
15 19 25
14 17 22
9 11 14
14 17 21
9 11 14
18 21 27
13 16 20
13 16 21
7 9 11
16 19 25
11 14 18
9 11 15
11 14 18
15 19 24
13 15 19
13 16 21
10 13 17
10 12 15
14 18 22
12 15 19
11 14 18
11 13 17
19 24 31
12 15 19
12 15 19
12 15 19
15 19 24
14 17 22
9 11 14
15 18 23
12 15 19
13 16 21
13 16 20
12 15 19
15 19 25
16 20 26
16 19 25
13 17 22
17 21 27
14 17 21
13 16 20
11 14 17
11 13 16
14 17 21
12 15 19
9 11 14
10 13 17
14 18 23
16 19 24
11 13 17
15 19 24
17 21 26
16 19 24
13 16 20
9 11 13
13 17 23
17 21 26
17 22 28
9 12 15
12 15 19
13 16 20
10 12 16
7 9 13
12 15 20
15 18 23
17 21 27
12 14 19
13 17 22
11 14 18
14 18 23
15 18 24
10 13 17
12 15 20
17 22 28
9 10 13
10 12 16
13 15 20
13 16 20
13 16 21
14 18 23
15 19 25
13 16 21
13 17 22
10 12 15
12 15 19
16 20 26
15 19 24
12 14 19
18 22 29
16 20 26
12 15 19
11 14 18
12 15 19
13 16 21
12 15 19
11 14 18
14 18 23
17 21 27
19 24 31
9 12 16
20 24 31
13 17 22
11 14 18
10 13 16
16 20 25
11 14 18
13 16 21
19 23 30
21 26 34
15 18 24
10 13 17
15 18 23
13 16 21
11 14 18
15 18 24
16 19 24
13 16 21
18 23 30
18 22 29
18 23 29
18 23 30
19 23 30
12 15 19
12 15 20
19 24 31
13 16 21
12 15 20
17 21 27
15 19 25
13 16 21
22 28 36
19 24 31
8 11 14
13 15 19
17 22 29
19 24 32
14 17 22
16 20 26
18 22 27
13 16 21
12 15 20
19 23 30
10 12 16
15 19 24
14 18 24
17 21 27
16 20 26
15 18 23
14 18 23
11 14 19
11 14 19
15 19 24
14 17 22
16 20 25
18 22 28
14 18 23
15 19 24
21 26 34
19 24 31
20 25 33
13 17 21
17 21 28
14 17 22
19 24 31
17 22 28
7 9 12
17 22 28
18 23 30
22 27 35
12 15 20
15 19 25
13 15 20
10 12 16
14 17 22
14 18 23
14 17 23
18 23 30
12 15 19
18 23 30
17 21 27
17 20 26
17 21 28
22 27 35
12 15 19
13 17 22
13 16 20
13 17 22
10 13 17
13 16 21
15 19 24
20 26 33
21 26 34
18 23 30
11 14 19
13 16 20
19 23 30
11 14 18
18 23 30
18 22 29
17 21 27
15 19 25
21 26 33
23 28 36
19 23 30
17 21 28
12 15 20
14 18 23
14 17 22
21 26 34
13 17 22
16 20 27
18 22 28
18 22 29
14 17 21
16 20 26
16 20 27
16 21 27
15 19 24
16 21 27
23 29 36
21 27 35
14 17 22
18 22 28
15 19 25
15 18 23
18 22 28
16 21 27
16 20 26
21 25 32
11 13 17
16 20 25
15 18 23
18 23 30
13 15 20
16 21 27
17 21 28
12 15 19
12 15 19
14 18 25
17 21 28
17 21 27
12 15 19
15 19 25
15 18 23
13 16 21
16 20 26
14 18 23
19 24 32
15 18 24
15 19 24
19 24 31
15 19 25
15 19 24
13 16 21
16 20 26
14 17 22
17 21 26
18 23 29
18 22 28
19 23 30
14 17 22
18 22 28
12 15 20
17 22 28
16 20 26
16 20 26
19 24 30
12 15 20
13 17 22
15 18 24
14 18 23
20 25 33
13 16 20
22 27 35
16 20 25
15 19 25
19 23 30
15 18 23
11 14 18
14 17 23
12 15 20
16 20 26
13 17 22
19 23 30
17 21 28
10 12 16
11 13 17
17 21 27
14 18 24
15 19 25
18 22 29
17 22 28
15 18 24
18 22 29
14 18 24
16 20 27
19 23 30
18 23 30
19 23 29
16 20 26
18 22 28
14 17 21
15 18 24
17 21 27
20 25 32
16 19 25
21 25 33
18 22 28
13 16 21
12 16 21
13 17 22
6 7 9
17 21 27
12 14 18
13 16 21
10 12 15
12 15 19
14 17 23
13 17 23
12 15 19
11 13 16
18 22 28
14 18 22
18 23 30
13 16 20
9 12 15
15 18 23
16 19 25
7 9 12
18 22 28
13 16 20
12 14 18
11 13 17
18 22 27
15 18 23
12 15 19
14 18 23
17 21 27
16 20 26
13 17 22
9 11 14
11 14 18
14 18 22
13 16 21
16 20 26
13 16 20
14 17 21
8 10 13
12 15 20
10 13 17
11 14 18
10 13 17
20 24 30
16 20 26
13 16 20
13 16 21
9 12 15
11 14 18
18 22 28
14 18 23
12 16 20
14 17 21
13 16 20
10 12 15
15 18 23
10 13 16
15 18 23
13 16 21
12 15 19
14 17 21
10 12 16
14 17 22
16 20 26
12 14 18
13 16 20
11 13 17
13 15 19
11 13 17
11 14 18
15 18 23
15 19 24
11 14 18
15 18 22
15 18 24
7 10 13
11 14 18
17 21 27
13 16 20
11 13 17
7 9 12
9 10 13
20 23 29
10 12 16
17 20 25
16 19 24
14 17 22
11 13 17
10 12 16
9 12 15
15 19 24
10 13 16
10 12 15
13 16 20
15 18 24
15 19 25
13 16 21
4 5 7
9 11 14
12 16 20
15 19 24
8 10 13
12 14 18
14 17 23
8 10 12
11 14 18
18 23 29
12 14 18
11 14 17
17 21 26
9 11 14
10 12 16
12 14 18
14 18 23
11 14 18
11 13 17
7 9 12
13 16 22
15 18 24
9 11 15
11 14 18
11 13 17
14 17 22
15 18 23
9 12 15
16 20 26
13 15 19
12 14 18
14 17 21
18 22 28
15 19 24
16 20 26
10 12 15
14 17 22
12 14 18
14 17 21
15 19 24
14 18 23
14 17 22
14 18 23
12 15 19
12 15 19
17 20 26
11 14 19
10 13 17
15 19 25
15 18 23
13 16 21
15 20 26
9 11 14
19 23 30
11 13 17
17 21 27
17 21 26
13 16 20
18 22 29
12 15 19
14 17 21
13 17 22
11 13 17
11 13 17
14 18 23
14 18 23
14 18 24
14 17 21
16 20 26
14 17 21
13 16 21
17 21 27
15 18 23
7 9 12
16 20 25
7 9 12
17 21 27
13 16 20
12 15 19
17 21 27
16 20 26
9 11 14
14 18 23
11 14 19
8 10 13
17 22 28
20 25 32
12 16 21
10 13 16
15 19 25
23 29 38
9 11 15
18 23 30
15 18 23
10 13 16
13 17 22
14 17 22
14 17 22
14 18 23
15 19 25
15 19 24
15 19 25
15 19 24
12 15 19
13 16 21
18 21 27
17 21 27
18 22 28
11 14 18
16 20 26
17 21 27
11 14 19
13 16 20
17 21 28
13 16 21
16 20 25
15 18 24
16 19 24
11 14 19
20 24 31
14 16 21
17 20 26
15 18 24
19 23 30
12 15 20
13 16 20
17 21 27
10 12 16
12 15 20
17 21 28
16 20 26
13 16 22
14 17 22
19 23 30
13 16 20
17 20 25
15 20 26
14 18 23
18 22 28
9 12 16
18 22 28
17 21 27
16 20 26
17 21 27
15 18 24
21 25 33
18 22 29
19 24 31
14 18 23
21 26 33
16 19 25
13 16 21
14 18 23
13 16 20
14 17 22
21 26 34
13 16 21
19 23 29
18 22 29
15 18 24
16 20 25
20 25 33
13 16 21
15 19 24
20 25 32
11 14 18
13 17 22
12 15 20
16 20 25
15 19 25
17 21 28
16 20 26
22 26 33
14 18 23
16 20 27
13 17 22
12 16 20
16 21 28
18 23 29
18 22 29
21 27 36
19 24 31
13 17 22
12 15 20
14 17 22
21 27 35
25 31 39
17 21 28
23 28 37
17 21 28
17 22 28
18 22 28
12 15 19
16 21 27
19 23 30
18 23 30
13 16 21
16 20 27
17 21 26
22 28 36
14 17 22
19 23 30
15 20 26
18 22 29
16 20 25
18 22 29
19 23 29
14 17 22
12 15 19
11 14 18
15 19 25
14 18 23
18 23 30
17 21 26
19 23 30
15 19 24
16 20 26
20 25 32
17 21 27
15 19 24
19 24 31
14 17 23
11 14 17
11 14 18
12 15 19
18 22 29
19 24 31
14 17 23
16 20 25
13 17 21
12 15 19
13 16 21
18 23 30
21 26 34
16 20 26
17 21 28
14 18 24
20 25 32
12 15 19
17 21 27
17 21 26
16 20 26
14 17 22
13 16 20
14 18 23
19 24 31
16 20 26
18 22 28
23 28 36
15 19 25
14 18 23
16 21 27
12 15 20
15 19 25
16 20 25
20 25 32
24 30 39
14 18 24
13 16 20
13 17 22
13 16 20
15 19 25
15 18 23
10 13 17
12 15 19
15 19 25
21 25 32
11 13 17
14 17 22
12 15 20
18 22 28
12 15 19
13 16 21
12 16 20
15 19 24
13 16 20
21 27 35
24 30 38
17 21 27
15 19 24
17 21 27
20 24 31
23 28 35
12 14 19
14 18 23
11 13 17
11 13 16
11 14 18
14 17 22
15 19 25
19 24 31
18 23 31
17 21 27
13 16 21
15 19 25
15 19 25
9 11 14
12 15 19
12 15 20
15 18 23
15 19 23
11 13 17
16 20 26
13 15 19
20 24 31
17 21 27
18 22 27
18 23 30
13 16 21
13 17 22
15 18 23
13 16 20
12 14 19
15 19 25
17 21 27
17 21 27
10 13 17
15 19 24
9 10 13
11 14 18
18 22 30
20 25 33
13 16 21
13 16 21
8 10 14
15 18 23
14 17 22
9 12 15
12 14 18
20 25 31
10 13 16
16 20 26
12 14 19
13 17 22
16 19 25
15 19 24
14 17 21
9 12 16
7 8 11
9 11 14
14 17 21
10 12 16
14 17 22
13 16 20
12 15 18
15 18 22
13 16 20
16 20 25
14 17 23
15 18 22
12 15 19
10 12 15
10 12 16
15 18 23
7 9 11
12 15 19
9 11 15
8 9 12
8 10 13
14 18 23
7 9 11
12 15 18
8 10 13
5 7 9
19 23 29
15 18 23
14 17 21
11 13 17
10 12 15
13 16 21
22 27 35
17 21 26
14 17 22
17 21 27
14 17 22
11 14 18
12 14 18
14 17 21
9 12 15
9 12 16
14 18 23
16 19 24
11 14 18
13 15 20
14 17 22
12 15 19
11 13 16
10 13 17
12 15 19
12 15 19
14 18 24
8 10 13
13 16 20
10 13 17
9 11 14
18 22 28
11 13 17
9 11 14
6 8 9
17 20 26
12 15 19
12 14 17
14 17 22
9 12 15
6 8 11
14 17 21
11 13 16
12 14 18
13 16 21
11 13 17
10 13 16
11 14 18
15 19 24
11 14 17
11 13 16
12 14 18
15 18 23
8 9 12
14 17 23
10 12 14
19 24 31
18 22 28
15 19 24
15 18 24
12 14 18
16 19 24
10 12 16
12 15 19
14 17 21
14 17 22
7 8 11
13 16 20
10 13 17
13 16 21
13 16 21
18 22 29
11 13 17
13 16 20
13 16 21
7 9 12
11 14 19
11 14 18
12 15 19
14 17 23
15 19 24
10 13 17
8 10 13
11 13 17
12 15 18
17 22 28
10 12 16
9 11 15
20 24 30
13 16 22
14 17 22
13 16 21
13 16 21
15 18 24
14 17 22
13 16 20
14 18 23
11 14 18
15 18 23
12 15 20
19 24 30
11 14 18
18 22 28
12 15 19
18 23 30
12 15 19
21 25 32
16 20 26
20 24 31
9 12 15
15 19 25
12 15 20
11 14 18
12 15 20
16 19 25
15 19 24
17 21 27
10 13 17
19 24 31
13 16 21
14 17 22
14 18 23
12 14 19
16 20 26
11 13 16
17 21 27
10 13 17
7 10 13
26 32 41
14 18 23
12 15 20
11 13 17
9 12 15
16 20 27
15 19 25
12 15 20
15 18 23
18 22 28
14 17 22
20 25 32
15 19 25
7 9 12
13 16 21
19 23 30
10 12 16
17 21 27
18 22 27
5 7 9
12 16 21
11 14 18
12 15 20
16 20 25
16 19 25
22 28 36
19 24 31
17 20 26
16 20 25
13 17 22
17 22 28
14 17 21
17 21 27
19 24 32
12 15 20
13 16 21
19 24 30
24 30 39
18 22 29
17 22 28
17 21 27
10 13 17
18 22 28
16 20 26
16 19 25
13 16 22
21 26 34
15 19 24
12 15 20
13 16 21
20 25 32
20 25 33
10 12 16
14 17 23
17 21 27
13 17 22
18 22 27
18 22 29
14 18 23
21 26 34
16 19 25
19 23 30
17 21 28
16 20 26
17 21 26
13 16 21
11 14 18
15 18 24
18 22 29
25 31 39
10 12 15
11 14 18
16 20 26
8 10 13
23 28 36
14 18 23
15 19 24
11 14 19
23 29 37
21 26 34
18 22 29
20 24 31
17 21 28
19 24 31
20 25 33
14 18 23
14 17 23
18 22 29
13 16 21
19 24 30
20 25 33
14 18 23
16 21 27
22 27 35
18 22 29
13 16 20
21 26 33
17 21 27
16 21 27
16 20 27
26 32 41
12 16 21
16 20 26
17 21 26
19 23 29
19 24 31
11 14 18
12 14 19
13 16 21
19 23 30
18 23 29
10 13 16
16 20 25
15 19 25
11 14 18
16 19 25
18 22 29
14 17 22
13 16 22
16 20 26
20 25 33
17 20 26
19 23 30
25 30 39
18 23 30
19 23 30
22 27 35
13 16 21
12 15 19
16 20 25
17 21 27
17 21 27
12 15 20
16 21 27
19 24 31
17 21 27
17 21 26
14 18 24
10 12 15
9 11 15
14 18 22
15 19 25
18 23 30
20 24 31
18 23 30
16 20 27
13 17 22
15 19 24
17 21 27
17 21 27
26 32 41
13 16 22
13 16 20
14 18 23
18 22 29
8 10 13
15 18 24
20 24 31
11 13 17
12 15 20
14 18 24
17 21 28
15 18 22
18 23 30
12 16 20
15 19 25
12 15 19
20 24 31
18 22 28
11 13 17
15 19 25
11 14 18
17 22 29
15 18 24
15 19 24
15 19 24
17 20 26
13 16 21
18 23 30
13 16 21
11 14 18
16 20 26
15 18 24
19 23 29
9 12 15
19 23 29
14 18 23
18 23 29
11 14 19
15 18 24
9 11 15
16 20 27
15 19 24
9 11 14
14 17 22
13 16 20
11 14 18
16 19 25
12 15 20
14 18 24
13 16 20
14 17 22
13 16 20
16 19 25
11 14 18
15 18 24
10 13 16
9 11 14
13 16 20
20 24 32
14 17 23
17 21 27
13 17 22
12 15 19
12 15 20
19 24 30
19 23 30
14 17 22
17 21 27
19 23 29
17 21 26
12 15 20
15 18 23
13 17 22
14 17 21
10 12 16
14 18 23
11 14 18
14 17 21
14 17 23
14 18 23
10 12 16
15 19 24
13 16 20
19 23 30
16 20 26
18 22 28
13 16 21
16 20 25
17 21 27
15 19 24
19 23 30
12 15 19
14 18 23
14 17 22
18 22 28
11 13 17
13 16 21
10 13 16
7 9 11
11 14 17
16 19 25
11 13 16
14 17 21
9 11 14
14 17 22
12 15 19
13 16 20
8 10 14
13 16 21
12 15 19
10 13 16
15 19 24
19 23 29
16 19 25
6 8 11
14 17 22
15 18 23
7 9 11
12 15 20
14 17 22
14 17 22
20 25 31
9 11 14
14 16 21
11 14 17
9 12 15
14 17 22
13 17 21
11 14 18
19 23 30
9 11 15
20 24 30
13 15 19
18 22 28
11 14 18
16 19 24
18 23 29
11 14 18
11 13 16
14 17 21
11 14 18
15 19 24
11 13 16
14 17 21
18 23 29
16 20 25
10 12 15
11 14 18
18 22 28
10 12 15
11 14 18
10 13 17
8 10 13
17 21 26
13 17 21
10 13 16
14 17 21
14 17 22
9 11 14
12 15 19
10 12 15
11 14 17
9 11 15
10 13 16
11 13 17
13 16 21
15 18 23
11 13 17
17 20 25
13 16 21
13 15 20
19 22 28
13 16 21
13 16 20
19 23 29
12 15 19
15 18 22
15 19 24
12 15 19
13 16 20
14 17 22
13 16 20
13 16 21
11 14 17
11 13 17
19 23 29
8 10 13
16 20 26
16 19 24
14 17 22
17 21 27
10 13 17
11 14 18
16 19 23
11 13 17
14 17 21
15 19 24
12 14 17
11 13 17
15 19 24
10 13 16
13 16 20
17 21 27
16 20 26
10 13 17
11 14 18
14 17 21
17 21 28
14 18 22
12 15 19
14 17 22
11 14 18
15 19 25
8 10 13
14 18 23
10 13 17
15 19 24
13 16 20
16 19 24
8 10 14
12 15 19
19 24 30
12 15 19
12 14 18
19 23 30
16 20 26
8 11 14
13 16 21
19 23 30
10 13 17
12 15 19
13 16 21
17 20 26
13 16 21
9 11 15
14 17 22
20 24 31
11 14 18
13 17 22
15 19 24
11 13 17
17 21 27
16 20 26
14 18 23
13 17 22
10 13 17
17 21 28
14 18 23
16 20 27
11 13 17
10 13 16
15 18 23
14 18 23
13 16 20
12 14 19
12 14 19
11 14 18
12 15 20
16 20 26
16 20 26
13 16 20
14 17 23
20 24 30
12 16 20
16 21 28
12 14 18
12 15 20
24 29 37
14 17 22
11 14 18
15 19 25
17 21 27
12 15 20
18 23 29
17 21 27
15 19 25
14 17 22
15 18 24
21 26 33
16 20 26
18 23 29
16 20 26
17 21 28
20 24 31
16 20 26
16 19 25
17 20 26
14 17 23
21 26 35
16 20 25
13 16 21
18 23 30
11 14 18
16 20 25
16 19 24
19 24 30
18 22 27
19 23 30
13 16 21
14 18 23
12 16 21
19 24 31
15 19 25
13 16 20
18 21 27
19 24 31
16 20 26
18 23 30
17 21 28
18 23 29
16 20 25
17 21 27
12 16 21
12 15 20
12 15 20
15 19 25
16 19 25
16 20 26
17 20 26
19 23 30
16 19 25
17 21 28
16 20 26
23 28 36
18 23 30
22 27 35
8 10 13
18 22 28
25 30 38
18 23 29
13 16 22
19 23 30
19 24 31
16 20 26
11 14 18
29 36 47
14 17 23
11 13 17
15 19 23
16 20 26
18 22 28
12 14 18
15 19 25
20 25 33
15 18 23
22 27 35
15 19 25
24 30 39
17 21 27
16 20 25
13 16 21
20 25 33
21 27 35
14 18 24
15 19 24
17 22 29
15 19 24
15 19 26
14 17 23
14 18 23
16 21 27
16 19 25
17 22 28
15 18 24
17 21 27
17 21 28
18 23 29
18 23 29
21 27 35
19 24 30
14 17 22
21 26 33
17 21 28
19 24 32
13 17 21
20 25 32
15 18 24
10 13 17
12 15 20
16 20 25
20 25 32
16 20 26
16 21 28
21 26 34
12 15 20
15 20 26
15 19 24
20 24 31
12 15 20
15 19 24
11 14 18
20 24 32
17 22 28
16 20 26
20 24 31
14 18 24
18 23 30
16 20 25
14 18 23
13 16 20
15 18 23
15 18 23
16 21 27
11 14 17
20 24 31
13 17 22
19 23 30
16 20 27
13 16 21
16 20 26
20 25 32
17 21 28
21 26 33
21 26 34
16 20 26
14 17 22
14 18 24
17 21 26
12 16 20
13 16 21
15 18 23
16 20 27
13 17 22
19 23 31
14 18 23
16 20 26
20 25 32
13 15 20
18 23 30
16 20 25
15 18 24
16 19 25
19 24 31
14 18 24
22 27 36
12 15 19
14 17 21
17 22 28
15 19 25
15 18 24
14 17 22
15 18 24
13 16 20
13 16 21
11 14 18
21 27 34
13 16 21
13 16 21
14 18 23
18 22 29
15 19 24
14 17 22
19 23 29
15 18 23
9 11 14
15 20 26
15 19 25
11 13 17
12 15 20
15 18 23
13 16 21
12 16 21
14 17 22
14 18 23
16 20 27
17 21 27
11 14 18
14 18 23
12 15 20
13 16 20
14 17 21
13 16 21
10 13 17
12 15 20
12 14 19
15 18 23
14 17 22
12 15 19
12 14 18
14 18 23
13 17 22
17 21 27
19 23 30
7 8 10
17 20 26
18 22 27
9 11 14
11 14 17
15 19 24
15 18 23
17 21 28
17 21 26
13 17 23
11 14 18
13 17 22
17 21 28
12 15 19
8 10 13
7 9 11
12 15 19
16 19 25
11 14 18
7 9 11
13 16 21
13 16 21
11 14 18
13 16 21
14 16 21
11 13 17
17 21 27
14 17 22
17 21 27
23 28 37
15 18 23
13 16 20
12 15 19
9 11 15
6 7 10
12 15 19
13 16 21
9 11 14
7 9 12
6 7 10
14 17 22
11 14 18
11 13 16
10 13 17
11 14 17
14 17 22
9 11 14
14 16 21
12 14 18
11 14 17
12 15 19
14 18 23
16 19 24
16 20 25
13 16 21
11 14 18
14 17 21
8 10 13
11 14 18
17 21 27
13 16 21
16 20 25
15 19 24
12 14 18
14 17 22
10 12 16
7 9 12
13 16 21
12 15 19
12 15 20
12 15 19
14 18 23
9 11 14
12 15 19
13 16 20
10 12 15
14 17 22
12 15 19
8 10 12
11 13 18
7 8 10
10 13 17
10 12 16
12 14 18
11 13 17
11 13 17
12 15 19
11 14 18
12 14 18
13 16 20
11 14 18
9 11 14
7 9 12
6 7 10
13 16 21
13 16 21
18 22 28
14 17 22
12 15 19
17 21 26
12 15 18
14 17 22
10 13 16
14 17 23
11 13 17
12 15 19
16 21 27
15 19 23
10 13 17
16 20 26
19 23 30
12 15 20
14 18 23
13 16 21
16 20 25
14 18 23
11 13 17
14 17 22
13 16 21
14 18 22
15 19 24
13 16 21
11 14 18
19 23 29
13 16 20
10 12 14
11 13 17
15 18 23
14 17 22
21 26 33
11 14 18
13 16 20
19 23 30
20 24 31
12 16 21
13 16 20
11 14 18
16 20 26
15 18 24
16 19 25
22 27 34
20 25 33
18 22 28
13 16 21
13 16 21
13 17 21
12 15 20
19 23 30
14 18 23
13 17 21
12 15 19
16 19 25
15 18 23
17 21 26
18 24 31
19 24 31
10 12 16
18 22 28
17 20 26
13 15 20
16 20 26
16 20 26
17 21 27
20 25 32
18 23 30
16 20 26
12 15 19
12 15 19
13 16 21
16 19 25
13 16 21
20 25 33
14 17 22
16 20 25
15 18 23
13 16 21
17 21 28
12 15 20
9 12 16
11 14 18
12 15 19
13 16 21
18 22 28
11 14 18
13 17 21
17 21 27
14 17 22
14 17 22
16 20 26
13 15 19
18 22 29
13 17 22
16 20 27
15 19 24
11 13 17
12 14 18
18 22 29
20 25 32
17 22 28
17 22 28
17 21 27
9 11 15
15 19 24
11 14 19
10 12 16
20 25 32
15 18 24
13 17 22
13 17 22
16 20 26
20 25 33
15 19 24
14 18 23
14 18 24
9 12 15
12 15 20
18 23 29
16 20 26
16 19 25
11 14 17
14 17 23
11 14 18
20 25 32
22 27 36
11 14 18
17 21 27
14 17 22
15 19 24
16 20 26
15 19 25
21 26 33
11 15 19
18 22 29
16 19 24
17 22 28
15 19 25
16 20 26
15 19 24
18 22 29
16 20 26
17 22 28
13 16 21
16 20 27
13 16 21
19 23 30
15 19 24
17 21 28
14 17 22
13 17 22
15 19 24
16 20 26
19 23 29
14 17 22
21 26 33
16 20 26
14 17 21
10 13 17
13 16 21
22 28 37
19 24 31
19 23 29
14 18 23
16 20 26
14 17 22
18 22 29
18 22 28
14 18 23
13 16 22
12 15 19
21 26 33
16 20 26
14 17 22
18 22 29
13 17 22
13 16 21
18 22 29
13 16 21
18 22 29
18 22 28
18 22 29
13 17 22
14 18 23
16 20 26
19 24 31
20 24 31
20 25 32
18 23 30
16 20 26
11 14 18
19 24 30
13 16 21
13 16 20
15 19 25
16 20 25
18 22 28
11 14 19
16 20 27
16 20 25
19 23 31
16 20 26
19 25 32
15 19 24
15 19 25
17 21 26
13 16 20
16 21 27
13 16 21
16 20 26
16 19 25
17 21 27
17 21 28
19 23 30
14 18 23
17 22 28
17 22 29
16 20 26
19 23 29
13 16 21
16 20 26
11 14 18
13 17 21
18 23 30
16 20 26
14 17 22
15 18 24
25 31 40
18 22 28
13 16 21
16 20 25
18 22 28
17 21 27
14 18 23
13 17 21
14 17 21
18 22 29
12 15 20
15 19 25
15 19 25
15 18 23
15 19 25
23 28 36
14 18 24
15 19 25
14 17 22
14 17 23
8 10 14
14 18 24
14 18 24
15 18 23
19 24 31
18 22 28
15 19 26
15 18 24
13 16 20
12 15 20
17 22 28
9 11 14
20 25 33
19 23 30
17 21 27
12 15 19
11 14 18
12 15 19
17 21 27
14 17 21
15 19 25
10 12 15
12 15 19
14 17 22
21 26 33
13 17 22
14 18 24
18 22 29
14 17 22
11 14 18
15 19 25
16 19 24
24 29 38
10 12 16
9 11 14
10 12 16
14 18 23
13 16 21
15 19 24
18 22 28
16 20 26
12 15 19
11 13 17
19 24 31
17 21 28
14 17 23
17 21 26
16 20 26
13 16 21
17 21 28
14 17 23
15 19 24
12 15 20
8 10 13
15 19 24
13 16 20
17 20 26
12 15 19
9 12 16
11 13 17
15 18 23
14 18 22
15 19 25
20 25 32
14 17 21
12 15 19
18 22 28
16 19 24
17 21 27
7 8 10
17 21 27
17 21 27
13 15 20
14 18 23
10 12 16
12 15 19
12 14 18
13 16 20
12 14 18
11 13 17
9 11 14
14 18 23
13 16 21
11 13 17
12 15 19
13 16 21
12 14 18
13 16 21
11 13 17
14 17 22
15 18 23
13 16 21
14 17 22
13 16 21
13 16 20
10 12 16
8 10 13
15 18 23
11 13 17
12 15 19
12 15 19
11 14 18
13 16 21
11 14 17
9 12 15
17 21 26
8 10 13
14 17 22
14 17 21
10 13 16
8 10 12
12 14 18
11 14 18
8 10 13
14 17 22
17 21 27
14 17 22
16 19 25
10 12 16
9 11 14
9 12 15
14 17 21
15 18 23
9 11 15
15 18 23
15 19 24
12 15 19
15 18 23
16 19 24
13 16 20
17 21 28
16 20 25
13 16 20
9 11 15
12 15 19
11 14 18
18 23 29
9 12 15
10 13 17
12 15 18
11 13 17
15 18 24
10 13 16
11 14 17
10 13 16
14 18 22
18 22 28
15 18 23
13 16 21
9 11 15
12 14 18
12 15 19
12 15 20
14 18 23
17 21 27
15 18 23
18 22 28
15 19 24
7 9 12
12 15 20
13 16 21
14 17 22
11 13 17
12 15 20
11 13 17
16 20 25
17 21 26
16 20 26
12 15 20
17 21 27
16 20 25
10 13 17
14 18 22
17 20 26
9 11 14
13 16 20
9 12 15
13 16 20
25 31 39
10 13 16
15 19 24
18 22 28
10 12 16
13 17 22
17 20 26
11 14 18
21 26 33
14 17 22
14 17 22
12 15 20
15 19 25
19 24 30
14 17 22
12 15 20
14 17 22
14 17 22
12 15 20
11 14 17
17 20 26
13 16 22
13 16 21
11 14 18
12 15 20
13 17 21
12 15 20
12 15 20
17 21 28
16 20 25
15 19 24
18 21 27
15 18 23
13 16 21
9 11 14
13 16 21
18 22 28
19 23 29
8 10 13
12 15 19
8 10 13
15 19 26
16 19 25
19 23 29
13 17 23
9 11 14
16 19 25
24 29 36
14 17 21
20 24 30
19 23 30
15 19 24
19 24 31
19 24 31
9 11 15
15 19 23
16 20 26
20 25 32
16 19 24
12 14 17
16 20 26
15 19 24
13 16 20
16 20 26
15 19 25
21 26 35
16 20 26
21 26 33
16 21 27
15 18 23
13 16 21
14 18 23
13 16 21
18 23 30
15 19 24
24 30 38
19 23 30
17 21 27
16 20 27
13 16 21
17 22 28
20 25 32
17 21 27
6 8 10
16 20 26
16 20 26
16 20 26
20 24 31
20 25 32
19 25 33
15 19 25
8 10 13
17 21 27
18 23 29
20 24 31
14 18 24
17 21 28
12 15 20
14 18 23
15 18 24
20 25 33
17 21 28
19 24 31
19 22 28
16 20 27
15 18 24
16 20 27
19 23 31
15 19 25
18 22 28
18 22 29
19 24 31
19 23 30
21 26 34
16 20 27
16 20 26
14 18 23
19 24 32
16 20 25
16 20 26
13 17 23
20 25 33
16 20 26
16 20 26
15 19 24
19 24 31
17 20 26
19 24 31
16 21 27
11 14 18
21 26 35
13 17 23
17 21 27
19 23 30
16 19 25
21 25 31
17 20 26
16 20 25
21 25 32
15 19 24
17 22 30
15 19 24
10 13 17
18 22 30
18 23 30
12 15 19
18 23 30
14 17 22
14 17 22
19 23 29
16 20 26
16 19 24
13 17 23
15 18 23
12 15 20
16 20 27
20 25 31
14 17 22
13 16 21
15 18 24
14 18 24
20 24 31
18 23 29
16 19 25
19 24 31
14 18 23
18 22 29
15 19 26
16 20 27
14 18 24
17 21 27
16 21 27
18 22 29
17 21 27
17 21 28
13 17 23
19 24 30
14 18 23
13 17 21
18 22 29
16 20 26
13 17 22
7 9 12
15 18 24
18 22 29
14 18 23
16 20 26
16 19 25
22 27 36
11 14 18
16 20 25
20 25 33
13 16 22
11 14 18
15 19 24
24 30 39
21 25 33
16 21 27
19 23 29
9 11 14
14 17 22
15 19 25
16 20 26
14 18 24
13 16 22
15 18 23
22 27 35
14 18 24
21 26 33
13 16 21
16 20 26
16 21 27
17 21 26
13 16 21
16 20 26
14 17 22
11 13 17
17 22 28
19 24 32
18 22 28
13 16 21
15 18 24
13 16 20
16 20 26
16 19 25
16 20 25
21 26 34
10 13 17
11 13 17
16 20 25
13 17 22
12 16 20
12 15 19
12 16 21
14 17 22
7 9 11
16 19 25
17 21 28
16 20 25
17 21 28
13 16 21
12 15 20
10 12 16
10 12 16
10 12 16
15 19 26
15 18 24
8 10 13
5 7 9
19 23 30
15 18 23
16 20 25
18 22 28
16 19 25
16 19 24
11 15 20
21 26 32
14 17 22
13 15 19
14 17 22
9 11 14
15 18 24
16 19 24
11 14 18
11 13 16
11 13 17
9 11 14
18 21 27
16 20 25
16 20 25
16 20 26
11 14 17
12 15 19
17 21 27
10 13 16
11 14 18
16 20 25
10 12 16
12 15 20
9 11 15
14 18 24
14 17 22
17 21 26
19 24 31
21 25 33
13 16 21
13 16 21
15 18 24
18 23 30
12 14 18
12 15 19
14 17 22
13 16 20
13 17 22
16 20 26
10 12 16
13 16 21
9 11 14
14 18 23
12 15 19
11 14 18
17 21 27
14 18 23
11 14 18
12 15 19
13 16 21
16 19 25
10 13 16
12 15 19
13 16 20
16 20 25
13 16 21
13 15 19
11 13 17
8 10 13
11 14 18
10 12 16
10 12 15
17 22 28
13 16 21
16 20 25
13 16 20
19 23 29
23 28 36
8 11 14
13 17 22
13 16 20
11 13 17
15 18 23
12 15 19
12 15 19
12 15 18
11 13 17
11 14 18
12 14 18
11 14 18
11 14 19
16 20 26
12 15 19
15 18 23
13 15 20
11 14 18
12 14 18
11 13 17
11 14 18
12 14 18
11 14 18
11 13 17
6 8 10
15 19 24
14 17 22
15 18 23
12 15 18
12 14 18
10 12 16
10 13 16
15 19 24
12 14 18
14 17 22
13 16 20
13 17 22
11 14 18
15 19 24
12 15 20
13 17 22
11 13 16
17 21 26
17 21 27
13 16 20
11 14 18
14 18 22
14 17 22
15 18 23
14 17 21
11 13 16
16 19 25
13 15 20
19 23 30
16 20 26
11 14 18
20 25 32
15 18 24
21 25 31
12 15 19
12 15 19
14 17 22
15 19 25
17 21 27
17 21 28
13 15 19
14 17 21
12 15 20
8 10 13
14 17 22
11 14 18
21 25 33
12 15 18
15 18 23
11 14 18
15 18 24
20 24 31
15 18 24
15 19 24
16 19 25
14 18 23
18 23 30
14 18 24
12 14 18
15 18 23
15 19 24
13 16 20
17 21 27
16 20 25
11 14 18
16 20 25
23 28 37
17 21 27
14 17 21
11 14 18
12 15 19
14 17 21
12 15 20
12 15 19
9 12 16
17 21 27
13 16 20
16 19 25
16 20 26
16 20 27
24 30 39
14 17 22
19 23 29
21 26 34
10 13 17
9 11 15
13 16 21
13 16 20
12 15 19
13 16 21
11 14 18
13 16 21
14 17 22
14 17 22
9 11 15
22 27 36
16 20 26
15 18 23
19 23 30
10 12 15
18 22 28
17 21 27
14 17 21
13 17 22
17 20 25
18 22 29
16 20 25
11 14 19
9 11 14
15 19 25
16 20 26
15 19 25
21 26 34
13 16 21
14 18 23
15 18 23
16 20 25
17 20 26
15 18 23
11 14 18
20 25 32
12 16 21
18 22 28
22 27 34
13 16 21
16 20 25
12 16 20
17 21 26
15 19 25
21 26 33
12 15 21
14 18 23
19 24 31
23 29 37
16 19 25
10 13 17
16 20 26
16 20 26
19 24 30
18 22 29
16 20 26
19 23 30
11 14 18
18 23 30
13 16 21
15 19 24
11 13 18
13 17 22
17 21 27
19 24 31
14 17 22
16 20 26
16 20 25
17 21 26
21 25 33
16 20 26
17 22 28
16 20 26
14 18 23
14 17 22
19 24 31
18 22 29
14 17 22
14 18 23
12 15 20
15 19 25
18 23 29
17 21 27
12 15 19
16 21 27
17 22 28
15 19 24
25 32 42
15 18 22
14 17 23
16 21 28
17 21 28
11 14 19
21 26 33
19 23 29
12 16 20
19 23 30
15 18 22
14 18 23
20 25 33
16 20 26
14 18 23
17 21 28
14 17 22
20 25 32
10 12 16
16 19 25
25 31 39
15 18 23
15 20 26
17 21 26
19 23 30
15 18 24
13 17 22
19 24 31
18 22 29
18 23 29
22 28 36
21 26 34
15 19 26
18 23 30
22 28 36
19 24 31
12 16 20
18 22 29
18 22 28
9 11 15
19 24 32
15 19 24
18 23 30
17 21 27
17 22 28
12 14 19
15 18 23
16 20 26
15 18 24
18 23 31
17 22 28
16 20 25
18 23 29
14 17 22
19 24 31
15 18 23
9 11 15
16 19 25
15 19 24
14 18 24
16 20 26
22 28 36
13 17 22
14 17 23
9 11 15
15 19 25
24 30 39
15 18 24
20 24 31
12 15 20
14 17 22
16 20 26
18 22 29
20 24 31
17 21 27
18 22 28
16 20 27
17 21 28
9 11 14
21 25 31
19 24 32
15 18 24
14 18 23
17 22 28
11 13 18
18 22 28
15 19 25
12 16 21
16 20 27
13 16 21
12 15 20
15 19 25
15 19 25
14 17 22
14 18 23
17 20 26
21 27 35
14 18 23
14 17 22
15 19 24
17 21 27
17 21 28
16 20 26
12 16 20
14 17 22
12 15 19
13 16 21
16 20 26
11 14 19
17 21 27
12 15 19
12 14 18
12 15 20
13 17 22
14 18 23
13 16 21
11 13 17
16 19 24
13 16 21
13 16 21
13 16 21
10 13 17
16 20 27
15 19 25
13 16 21
20 24 30
15 19 25
15 18 23
18 22 29
12 15 19
15 19 25
12 16 21
10 13 17
16 19 25
20 25 33
18 22 29
12 15 20
12 15 19
19 23 30
18 22 28
13 16 21
11 13 16
18 22 28
5 7 9
13 15 20
13 16 21
11 13 16
18 22 28
12 15 19
18 22 28
14 17 23
13 16 21
14 18 23
12 15 19
13 16 20
14 17 22
12 14 18
16 20 26
15 18 23
13 17 22
14 18 23
12 15 19
11 14 18
16 20 26
11 14 18
12 15 20
11 13 17
14 18 23
9 11 14
15 18 23
11 13 17
12 14 19
16 20 25
18 22 27
13 16 20
13 17 21
16 20 26
12 15 20
15 19 25
9 11 14
11 14 17
9 11 14
11 13 16
12 14 18
16 20 25
14 17 22
15 18 22
7 9 11
12 15 20
13 16 21
14 17 22
13 16 20
7 9 12
10 12 16
15 19 24
14 17 22
11 13 17
17 21 26
11 13 17
9 10 13
11 13 18
20 24 31
17 22 28
15 18 24
9 11 14
15 19 24
12 15 18
10 13 16
10 12 16
6 7 9
13 16 21
14 17 22
10 12 16
14 17 22
15 18 23
12 15 20
17 21 28
17 21 26
17 21 27
12 14 18
11 14 18
13 16 21
10 12 16
14 17 22
14 17 22
16 21 27
13 16 20
12 14 17
10 12 15
11 13 16
12 14 18
12 15 20
15 18 22
13 15 19
14 18 23
13 15 19
14 17 21
9 11 14
9 12 15
12 15 19
12 15 19
15 18 23
10 13 16
12 15 19
16 20 25
6 8 10
13 16 21
12 15 19
12 15 18
11 13 17
13 15 20
13 16 20
15 19 24
17 21 27
12 15 20
15 19 24
10 13 16
13 16 20
11 14 18
11 14 19
16 20 25
11 14 17
14 17 23
16 20 25
20 25 32
17 22 28
18 22 29
18 24 31
17 21 26
12 15 19
10 12 16
12 15 20
11 14 18
10 12 16
13 16 21
15 19 25
13 16 21
18 22 28
11 14 18
11 14 18
15 19 25
17 21 28
17 21 27
12 15 19
10 12 17
14 18 24
12 15 19
14 18 23
9 11 14
17 21 26
17 22 28
17 20 26
11 13 17
11 14 18
13 16 21
10 13 16
17 21 27
11 14 18
12 15 19
12 15 19
17 21 27
15 19 25
14 17 21
11 14 18
10 13 16
16 20 25
19 24 31
16 19 24
18 23 31
10 12 15
11 13 17
20 25 32
16 20 26
16 20 27
13 16 21
13 16 21
13 16 20
16 20 26
15 19 24
15 18 24
17 20 26
9 12 16
12 15 18
15 19 24
13 16 20
16 20 27
17 21 27
20 24 30
12 15 20
15 18 24
18 23 30
13 17 22
19 23 30
12 15 20
11 14 18
13 17 22
16 19 25
15 19 24
12 16 20
18 22 28
15 19 24
16 20 26
18 22 29
11 14 18
17 20 26
13 17 22
12 15 20
15 19 25
12 15 20
17 21 26
18 22 29
12 15 20
16 19 25
15 19 25
17 21 28
14 17 22
20 25 32
19 23 29
10 13 17
17 21 27
15 19 25
16 19 25
20 25 31
19 24 30
15 19 25
12 15 19
13 16 21
18 22 28
11 14 18
17 21 28
21 26 33
17 21 27
13 16 21
12 15 19
19 24 31
18 23 30
15 19 24
14 18 24
11 14 19
13 16 20
21 26 34
15 19 25
15 20 26
14 17 22
11 14 19
16 20 26
16 20 26
12 16 21
18 22 29
18 22 28
14 17 23
15 19 24
16 20 26
19 24 31
9 11 15
7 9 12
11 15 19
16 19 25
11 14 18
21 25 33
16 20 26
23 29 37
18 22 28
13 15 19
16 20 26
13 17 21
15 18 24
13 16 21
16 20 27
17 20 26
12 16 20
15 19 25
12 15 21
17 21 27
15 19 25
20 25 32
18 24 31
20 25 33
23 28 36
17 21 28
16 20 27
18 22 29
12 16 21
23 28 37
15 18 23
18 23 30
13 16 21
13 16 21
21 25 33
15 19 24
23 29 37
17 21 26
14 17 22
11 14 18
22 28 36
20 25 33
11 15 19
18 23 30
8 10 13
19 23 29
18 22 28
18 23 30
19 24 31
15 19 25
15 19 24
14 18 23
17 21 27
12 14 18
16 20 26
21 26 34
14 17 22
12 15 20
17 20 26
15 19 25
21 25 33
17 21 27
12 16 21
14 18 23
22 27 35
10 13 17
12 15 19
18 23 29
16 20 26
14 17 22
12 15 20
9 11 14
15 19 25
10 12 15
13 17 21
15 19 24
17 21 27
13 17 22
14 18 23
14 18 23
14 17 23
16 20 26
15 19 24
12 15 19
11 14 18
21 26 34
17 21 28
20 25 32
13 16 21
12 15 19
14 18 23
19 23 30
15 19 24
10 13 17
15 19 25
13 16 20
16 20 26
11 14 18
19 23 30
14 17 23
17 21 28
8 10 13
11 13 17
16 19 25
16 20 26
18 22 28
14 18 24
20 25 31
17 21 28
10 13 17
14 18 25
14 17 22
14 17 22
14 17 22
15 18 24
12 15 19
14 18 24
10 13 17
12 14 18
16 20 26
12 15 20
14 18 23
13 16 21
10 13 17
15 18 23
11 14 18
13 16 21
17 22 28
19 23 29
10 12 15
16 20 26
17 22 29
16 20 26
20 24 31
15 18 24
15 18 23
11 14 18
20 24 30
12 15 20
10 12 16
18 22 28
14 17 22
14 18 24
12 15 20
10 12 15
19 24 31
15 19 24
13 16 21
16 20 26
21 26 34
13 16 20
15 18 22
12 15 20
15 19 24
16 19 25
16 20 25
18 22 27
15 19 25
18 22 29
9 11 15
12 14 18
11 14 18
13 16 20
14 17 22
15 18 23
12 15 19
9 11 14
17 21 26
11 13 18
16 20 25
12 14 18
18 22 28
6 8 10
14 17 22
16 21 27
9 11 14
10 12 16
15 18 23
15 19 25
12 14 17
14 17 22
12 15 19
10 12 16
12 14 18
14 17 22
11 14 18
12 15 20
11 13 16
19 24 30
16 20 26
13 16 21
14 17 22
15 18 24
14 17 22
11 13 17
13 16 21
15 18 23
18 21 27
7 9 12
14 18 23
8 10 12
19 23 29
19 23 30
18 23 29
16 19 24
18 22 28
13 16 21
12 14 18
15 18 22
15 18 23
17 20 26
8 10 13
10 12 16
16 19 25
13 16 21
11 14 18
15 19 24
12 16 21
18 22 28
9 11 14
12 15 19
12 15 18
15 19 24
4 5 7
9 11 14
10 13 16
18 22 28
17 20 26
9 11 14
13 16 20
7 9 13
17 20 25
12 14 18
9 12 15
13 17 22
13 16 20
9 10 13
12 15 19
18 22 28
17 20 26
16 19 25
9 11 15
13 15 20
11 14 18
16 20 26
15 18 23
12 15 19
13 16 21
13 16 20
22 27 34
12 14 19
12 14 18
11 14 18
21 25 31
11 13 17
9 11 14
14 17 22
10 13 17
9 11 14
14 17 23
11 13 17
16 19 25
14 17 22
9 11 14
15 18 24
14 18 24
11 13 18
13 16 20
20 24 31
11 14 17
15 19 25
18 21 27
9 12 16
13 16 20
13 16 20
13 16 20
11 14 19
10 13 16
13 15 19
11 13 16
26 33 42
15 19 24
13 16 21
19 24 30
14 17 21
13 15 20
8 10 13
14 17 22
13 16 21
12 15 20
13 15 19
13 15 20
14 18 23
10 12 16
13 16 20
19 24 30
17 21 28
14 18 23
10 13 17
17 21 27
14 18 23
14 17 21
13 17 22
14 18 24
10 13 16
13 17 21
16 19 24
20 24 31
16 20 26
13 16 21
18 23 30
15 19 25
18 22 29
14 18 23
9 11 15
12 15 19
13 16 21
13 17 22
20 25 32
12 15 19
9 11 14
17 21 27
14 17 23
15 19 24
15 18 23
11 14 18
15 19 24
15 19 24
22 27 34
21 26 34
22 27 35
17 21 28
17 21 27
18 22 27
12 15 20
11 14 18
21 26 33
26 32 41
14 18 23
15 19 25
16 19 25
12 15 19
16 19 25
16 21 27
13 16 21
20 24 31
19 24 30
18 23 31
17 22 28
10 13 17
18 23 30
10 12 16
15 19 24
18 22 28
16 21 28
14 17 22
14 18 23
11 13 17
13 16 21
13 16 21
16 20 25
18 22 29
11 13 18
12 14 19
15 19 24
16 20 26
17 21 27
13 16 21
21 26 34
19 24 30
16 21 27
21 25 32
13 17 21
15 19 24
21 26 34
15 18 24
16 21 27
13 17 22
23 29 37
17 21 28
15 19 24
15 18 24
19 23 30
14 18 23
14 18 23
14 17 22
17 21 26
18 23 31
14 18 23
17 21 27
13 16 21
10 12 16
16 20 27
21 26 33
16 20 26
15 19 24
11 14 18
14 18 23
16 19 24
18 23 30
18 23 29
19 24 30
14 17 22
14 18 22
17 21 28
15 19 25
17 21 27
9 12 16
17 21 27
16 20 26
15 19 24
13 16 21
10 13 16
15 18 23
18 22 29
12 15 19
21 27 35
17 21 27
15 19 26
17 22 29
18 22 29
11 13 17
13 16 20
16 19 25
16 20 26
14 18 23
26 33 43
14 18 23
12 15 19
18 23 29
18 22 30
16 20 26
14 17 22
12 15 19
16 20 26
25 31 39
17 22 28
14 18 24
12 15 19
13 15 20
18 23 29
21 26 35
16 20 27
16 20 26
16 20 26
16 20 26
18 22 29
20 25 32
19 24 32
16 20 26
15 19 25
19 23 29
17 21 27
20 25 32
18 22 28
15 19 24
15 18 23
16 19 24
18 23 30
15 19 25
20 25 32
13 16 21
11 14 18
13 16 21
15 19 25
20 25 33
12 15 20
13 16 21
11 14 19
15 19 24
13 15 20
20 25 32
16 20 26
14 18 24
12 15 19
19 24 32
17 21 27
16 20 25
14 17 22
11 14 18
12 15 20
15 19 25
18 23 30
14 18 23
14 17 23
16 20 26
14 18 23
16 20 26
11 14 18
13 16 20
18 21 27
13 16 21
16 20 27
16 19 24
19 24 30
12 15 19
14 17 22
8 10 14
14 18 24
14 17 22
12 15 19
14 18 23
19 24 31
18 22 29
17 20 26
19 24 31
12 15 20
15 18 24
11 14 18
20 25 32
14 18 23
10 13 17
9 12 15
16 20 26
13 17 22
15 19 24
15 18 24
25 30 37
11 13 17
11 13 17
15 18 23
13 17 22
16 20 25
12 15 20
14 17 22
11 13 17
20 25 33
10 12 16
21 26 33
15 19 24
17 22 28
11 14 18
17 21 28
22 27 34
16 20 27
12 15 20
21 26 34
16 20 26
16 20 25
16 19 25
14 17 22
13 17 21
14 18 23
9 12 16
14 18 22
12 15 19
21 26 34
12 15 19
11 14 18
15 18 23
14 17 22
12 15 18
12 14 18
19 23 30
12 15 19
15 19 24
13 16 20
11 14 17
16 19 25
16 20 26
16 19 25
16 20 25
15 19 24
11 13 16
12 15 19
14 17 22
14 18 23
13 17 22
16 20 26
16 20 26
17 21 27
11 14 17
17 21 28
13 15 19
5 7 8
13 16 20
15 19 24
9 11 15
11 13 17
14 17 22
12 15 19
15 18 23
9 11 15
11 14 18
13 16 21
14 18 23
5 7 9
16 20 26
10 13 16
12 15 19
11 14 17
13 16 20
11 13 17
11 14 18
14 17 21
8 10 14
19 23 29
11 13 17
15 18 24
13 16 20
13 16 20
19 24 30
18 22 28
18 22 28
18 23 29
15 19 24
15 19 24
10 12 16
16 20 25
14 17 23
14 17 22
12 15 19
8 10 13
10 12 16
14 17 22
10 13 17
13 16 20
9 11 14
12 14 19
10 12 16
13 15 19
10 12 16
12 15 19
10 12 15
15 18 24
14 17 22
17 21 26
12 14 18
13 17 21
9 12 15
8 10 13
9 12 15
13 16 21
14 18 23
17 21 27
14 18 23
15 18 24
7 9 13
15 19 24
14 18 23
10 13 17
18 23 29
13 16 21
14 17 22
11 14 17
13 16 22
16 19 24
16 20 25
13 16 21
14 17 21
11 13 17
15 18 23
10 12 15
16 20 25
18 22 28
11 14 18
10 12 15
9 11 14
12 15 19
12 14 18
15 19 24
11 13 17
13 15 19
14 17 21
7 8 11
15 19 24
12 15 20
11 13 17
14 18 23
12 15 19
14 17 22
14 18 23
15 19 24
14 17 22
10 12 16
14 17 22
13 17 22
12 15 20
14 17 22
19 23 29
16 20 25
11 13 17
15 19 25
7 8 11
12 15 19
14 17 21
10 13 16
19 23 30
11 14 18
13 16 20
12 15 19
19 23 30
9 12 15
8 11 14
17 21 27
18 22 27
18 22 29
14 18 24
17 21 27
17 20 26
12 15 19
13 16 20
15 18 23
14 17 22
17 21 28
13 17 22
15 19 24
19 23 30
15 19 25
15 19 24
10 12 16
15 19 25
18 22 28
17 21 27
10 13 17
16 21 27
15 18 24
11 14 18
10 13 17
12 15 19
19 24 30
15 19 25
12 15 20
16 21 28
18 22 28
12 15 20
14 18 24
18 22 28
16 20 25
15 18 23
13 17 21
10 13 17
15 19 25
20 24 30
16 20 25
18 22 29
16 20 26
14 18 24
13 17 22
9 11 13
15 18 23
6 7 9
17 21 27
14 18 23
10 12 15
20 24 31
14 18 23
15 19 25
13 16 21
18 22 28
12 15 19
17 21 27
18 23 31
11 14 19
15 19 25
13 16 21
19 23 29
17 22 29
13 16 21
15 18 24
17 22 29
16 20 26
15 19 24
13 16 21
16 19 25
17 21 27
17 21 27
10 13 17
17 22 29
13 16 20
20 24 31
18 23 30
14 18 23
17 21 27
13 17 22
12 15 20
21 27 34
13 16 21
22 28 38
19 24 32
18 22 28
15 18 23
10 13 17
18 22 28
15 19 25
14 18 24
14 17 22
16 20 26
24 30 39
16 20 25
14 17 22
19 23 30
14 18 23
9 12 17
17 20 26
21 26 34
15 19 25
14 18 24
10 12 16
16 19 25
18 22 28
16 20 25
19 24 32
12 15 20
15 18 23
18 23 30
16 20 26
17 22 28
14 17 22
16 19 25
19 24 31
25 30 39
16 20 26
21 26 33
16 20 26
12 14 18
13 16 20
16 20 26
13 17 23
16 20 25
13 16 21
13 16 21
13 16 21
16 21 27
19 24 30
16 19 25
11 14 18
17 21 27
16 20 26
15 19 24
13 17 21
17 22 28
17 21 28
16 21 27
11 14 19
19 24 31
19 24 31
14 18 23
15 19 24
17 20 26
24 30 38
15 19 25
17 21 27
11 13 16
14 19 25
17 21 27
15 19 24
17 21 27
18 22 28
12 15 20
14 18 23
12 15 20
16 20 26
17 22 28
16 19 25
19 24 30
14 17 22
22 27 34
20 25 32
18 22 29
16 20 25
14 17 22
9 12 15
16 21 27
20 24 31
11 13 17
16 20 25
11 14 19
17 21 27
17 21 28
16 20 26
12 16 20
18 23 30
22 27 35
22 28 36
18 22 29
19 24 31
15 19 26
15 18 24
17 21 28
13 16 20
12 15 20
12 14 19
17 21 27
14 18 22
17 21 27
17 20 26
16 20 27
19 24 30
11 13 17
11 14 18
17 21 27
11 13 17
14 17 21
15 19 25
12 15 20
9 11 14
16 19 24
13 16 21
18 23 29
15 18 24
13 17 22
14 18 23
15 19 25
14 17 22
20 25 32
13 16 21
16 19 25
12 15 19
15 18 22
12 15 20
16 20 25
12 15 19
16 19 25
7 9 12
20 25 32
15 19 24
15 19 25
21 26 32
14 18 23
16 19 25
16 20 26
14 17 22
19 24 32
16 20 25
16 20 26
11 14 18
9 11 14
16 19 25
13 16 21
17 20 26
13 17 22
23 29 37
13 16 21
9 11 14
14 18 23
15 19 25
12 15 20
14 17 21
21 26 33
15 19 24
10 12 16
13 17 22
12 15 20
8 10 14
16 20 25
21 27 35
13 16 21
14 18 23
14 17 21
17 21 27
20 24 31
13 17 21
12 15 19
17 21 26
14 17 21
15 19 25
14 17 22
19 23 30
13 17 22
15 18 23
15 18 23
14 17 21
15 18 23
20 24 31
18 22 28
11 14 18
17 21 26
17 21 27
9 11 14
12 15 20
13 17 23
12 15 20
14 17 22
11 14 18
9 11 13
12 15 19
13 16 21
15 19 24
15 19 24
16 20 24
9 11 13
11 14 19
7 8 10
11 14 18
13 17 22
13 16 21
16 19 25
8 10 13
15 18 23
16 20 27
13 16 21
13 17 22
14 18 23
11 13 17
12 15 20
16 20 25
18 22 28
8 10 13
10 13 17
15 18 24
13 16 21
20 24 30
5 6 8
15 19 24
15 19 24
15 19 25
20 24 31
17 21 26
15 17 22
17 21 27
11 13 17
13 16 20
8 10 12
13 16 21
14 17 22
11 14 19
8 10 13
16 19 24
15 18 22
14 18 23
13 16 20
13 16 21
19 23 30
13 16 21
10 12 16
12 14 18
5 7 8
13 17 21
16 19 25
10 12 15
11 13 16
12 15 19
16 20 26
18 22 28
16 19 25
9 11 13
11 14 18
12 15 19
7 8 11
18 22 27
10 12 16
17 20 25
15 18 23
16 20 25
13 16 20
22 27 35
18 22 28
10 13 16
11 13 16
14 17 22
21 26 34
15 19 25
22 27 34
10 12 15
9 12 15
14 17 22
20 25 32
13 16 21
8 10 12
20 24 31
8 10 14
13 16 21
17 21 27
17 20 26
16 20 26
13 16 21
7 8 11
11 14 18
14 17 22
16 20 25
10 12 16
13 16 22
13 17 22
14 18 22
20 24 31
15 18 23
10 13 16
11 14 18
13 16 21
13 16 21
16 19 24
12 14 19
11 14 18
14 17 23
11 14 18
15 18 23
12 15 19
12 15 19
14 18 23
15 18 23
11 14 18
14 18 23
14 17 22
17 22 28
14 18 22
17 21 27
15 18 24
16 20 25
16 20 26
10 12 16
9 11 14
14 17 23
13 16 20
13 17 22
11 14 18
16 20 25
10 12 16
14 17 22
15 18 23
17 21 26
10 12 16
15 18 23
14 18 23
20 25 33
16 20 26
11 13 17
18 22 28
22 27 35
12 16 20
13 16 21
14 18 23
14 18 23
11 13 17
14 17 22
14 18 23
18 22 29
14 17 22
17 22 28
22 26 33
14 17 23
21 26 33
16 20 26
15 19 24
16 20 26
17 20 26
19 24 31
16 19 25
21 27 34
17 20 25
16 19 25
17 21 28
16 20 26
18 22 28
11 14 18
12 14 18
13 16 22
17 21 27
20 24 31
15 19 25
13 16 21
16 19 25
9 12 16
11 13 17
14 18 23
18 22 29
13 16 21
18 23 30
11 14 19
12 15 19
13 17 23
16 20 26
13 16 20
13 16 21
15 19 25
14 18 23
14 18 23
17 21 27
14 18 25
16 19 25
14 17 22
15 18 23
11 14 18
14 17 22
22 27 34
12 15 20
18 23 30
14 18 24
19 23 30
17 21 27
13 16 21
16 20 27
15 18 23
10 13 17
22 27 34
14 18 24
16 20 26
11 14 19
14 18 23
14 17 23
22 27 35
11 14 18
17 21 27
10 12 16
14 17 22
13 16 21
18 23 30
15 20 26
13 16 21
18 22 28
12 15 20
15 18 24
9 11 14
21 26 34
11 14 17
15 19 24
21 26 34
15 19 24
17 22 28
15 19 25
15 19 25
16 21 27
19 24 31
16 20 26
18 22 28
16 20 25
18 22 29
14 17 23
16 20 26
16 19 25
9 11 15
15 19 25
14 17 21
14 18 24
14 17 23
12 15 20
23 29 39
17 21 27
21 27 35
10 12 15
19 23 29
13 16 22
14 18 23
13 16 21
12 15 19
18 21 27
11 14 18
14 18 23
19 24 31
20 25 33
16 19 25
15 19 25
12 15 19
19 24 31
16 20 26
19 24 31
17 21 28
19 24 32
18 23 29
12 15 20
12 15 19
16 20 25
17 21 28
13 16 21
17 22 29
13 16 21
12 15 19
14 18 23
12 15 19
23 28 36
21 26 34
23 28 37
15 18 23
13 17 22
12 14 18
18 22 29
16 20 26
14 18 23
19 23 30
18 23 29
17 20 26
17 21 28
13 17 21
13 16 21
15 20 26
14 18 23
14 18 23
16 20 26
16 20 26
13 16 21
10 12 16
12 15 20
15 19 25
13 17 23
10 13 17
14 17 21
21 25 33
16 20 26
10 12 16
21 26 33
21 26 33
14 17 22
16 20 26
16 21 27
17 21 28
15 18 24
10 13 16
18 21 27
18 23 30
20 25 31
14 17 22
13 16 20
14 18 23
17 22 28
11 14 19
12 16 20
20 25 32
9 12 15
15 19 24
17 21 28
16 19 25
16 19 25
17 22 28
11 14 17
16 20 27
14 18 24
13 16 21
13 16 21
18 22 29
16 19 25
17 22 28
13 16 21
12 16 20
15 19 24
16 19 25
15 19 24
13 17 22
20 24 31
12 14 18
19 24 31
16 20 26
13 16 20
15 18 24
17 21 27
17 21 28
12 15 19
13 16 21
14 18 23
18 22 29
13 15 19
19 23 29
17 21 27
20 25 31
17 21 27
19 24 31
14 18 23
15 19 24
12 15 19
18 22 29
9 11 14
10 13 17
9 11 15
11 14 18
13 16 20
9 11 15
15 18 23
9 11 14
18 22 28
17 21 27
17 22 28
13 16 21
13 16 21
14 17 22
21 26 33
18 22 28
14 18 23
7 8 10
6 8 10
14 17 21
16 19 24
14 17 23
14 17 22
10 13 16
11 13 17
23 28 36
14 17 22
17 22 28
14 17 22
15 19 25
8 10 13
15 18 24
17 21 27
12 15 19
14 17 22
10 12 16
15 19 24
12 14 17
19 24 30
19 23 29
15 19 25
15 18 23
17 21 28
11 14 17
10 12 16
13 17 22
15 19 25
19 24 30
13 17 22
13 16 21
15 18 23
17 21 27
10 12 15
15 18 24
14 17 22
9 11 15
11 14 17
11 14 19
12 15 20
18 22 28
13 16 21
16 19 25
11 14 18
9 11 14
12 15 19
11 14 18
14 17 21
9 11 14
14 17 22
16 19 24
15 17 22
8 10 13
13 16 20
11 14 18
15 18 24
17 21 26
14 17 23
15 19 24
15 18 23
14 17 22
22 28 36
14 17 22
9 12 15
15 19 24
9 11 14
18 22 27
12 14 18
13 16 20
7 9 12
11 14 18
11 14 17
16 19 25
14 17 22
12 15 19
14 18 22
12 15 19
13 16 21
14 17 22
16 20 26
12 15 20
16 20 26
16 19 24
17 20 25
13 15 20
15 19 24
10 13 16
14 18 23
11 14 18
13 16 21
10 12 16
7 8 11
12 14 18
11 14 19
15 19 25
13 16 20
18 22 29
12 15 19
19 23 30
20 25 32
17 21 26
19 23 30
14 17 22
13 16 20
12 15 19
16 19 25
19 24 30
11 13 16
15 19 25
15 19 25
17 21 27
13 16 21
16 19 25
13 16 20
16 19 25
22 28 36
13 16 20
15 18 23
20 24 31
14 17 22
11 14 18
13 16 21
20 25 32
12 15 19
12 15 19
11 14 18
19 23 29
9 11 15
13 15 20
12 15 19
12 15 19
11 14 19
17 21 28
16 19 25
21 26 33
10 13 17
16 20 25
17 21 27
18 23 29
12 15 18
18 22 28
11 13 17
13 16 20
15 18 23
17 21 28
17 22 28
10 12 15
14 17 22
6 7 10
17 22 28
14 17 23
20 25 31
15 18 24
12 14 18
14 17 22
16 20 26
10 13 16
18 22 29
15 18 24
15 18 22
13 16 21
16 20 26
13 17 22
16 19 25
18 23 30
17 21 27
20 25 32
15 19 24
17 21 27
17 21 27
15 18 23
17 21 26
16 20 26
21 26 34
16 19 24
14 16 21
16 19 25
14 18 24
18 22 28
18 23 30
15 19 24
15 19 24
16 19 25
13 16 20
16 20 26
15 18 24
15 18 24
16 19 25
16 20 27
12 15 19
10 13 17
22 28 37
17 22 29
15 18 23
18 23 29
12 15 19
18 23 30
13 16 21
16 20 27
14 18 23
16 19 24
14 17 21
19 24 31
21 26 34
14 17 22
14 18 23
12 15 19
20 25 32
14 18 24
20 25 33
16 20 25
17 22 28
15 19 24
12 15 20
12 15 19
11 13 17
13 17 22
24 29 38
13 17 22
15 18 23
12 15 20
19 23 29
16 20 26
19 24 31
14 17 22
17 22 28
17 21 28
12 15 19
15 19 24
16 19 25
19 24 31
16 21 27
16 20 25
18 22 29
19 23 30
18 22 29
15 19 24
18 22 28
14 18 24
13 16 22
18 22 28
15 20 26
17 21 27
14 18 22
12 15 19
17 20 26
19 24 31
15 19 25
18 22 28
20 24 30
17 21 27
14 18 23
18 22 28
14 17 22
21 26 33
19 24 31
16 20 26
17 21 27
23 29 37
25 31 40
15 18 24
16 20 26
14 18 23
16 20 25
14 18 24
11 13 17
13 17 21
16 20 26
23 29 37
16 20 25
14 17 23
22 26 34
17 21 28
12 15 19
18 22 29
14 17 22
16 20 27
10 13 18
22 27 34
17 21 28
19 24 32
20 25 32
11 14 19
12 15 20
19 23 30
18 23 30
14 18 23
19 23 29
17 21 27
18 22 29
18 23 30
19 23 30
14 17 23
21 27 34
17 22 29
16 20 27
21 26 34
11 14 18
21 26 33
14 18 24
11 14 19
17 21 28
12 15 20
16 20 26
14 18 23
18 22 29
21 26 34
22 27 35
14 18 23
16 20 26
15 19 25
15 18 23
12 14 19
17 22 28
14 18 24
12 15 20
12 14 18
17 21 28
17 21 28
22 27 35
13 16 21
15 19 25
14 17 22
17 22 29
14 17 21
15 19 24
13 16 21
15 19 24
15 19 24
20 25 32
14 17 22
13 16 20
23 29 38
21 26 34
10 12 16
15 19 25
13 16 21
14 18 23
18 23 29
15 18 23
22 28 35
13 17 22
24 29 37
17 21 27
17 22 28
11 14 18
20 25 32
16 19 25
14 17 21
17 21 27
15 18 24
16 20 26
13 16 21
20 25 32
12 14 18
16 19 23
8 10 13
10 12 16
12 14 18
12 15 20
11 13 18
15 19 25
18 22 29
14 17 21
11 15 20
11 13 17
16 21 27
16 20 27
20 25 33
13 16 20
12 15 20
17 21 27
17 21 26
16 19 25
16 20 25
19 23 29
15 20 26
15 18 23
15 18 24
14 17 22
15 18 24
20 24 31
12 16 20
15 19 24
15 19 24
16 19 25
14 18 22
15 18 24
12 15 20
18 22 29
13 16 21
15 19 25
14 17 22
18 22 28
12 15 19
19 23 29
7 9 12
15 19 24
12 16 21
14 18 23
15 19 24
15 19 24
13 16 21
9 11 14
14 18 23
18 23 29
14 17 22
21 26 33
17 21 27
12 15 20
14 18 24
12 15 19
16 20 26
5 6 8
14 17 22
8 10 14
10 12 16
16 20 25
14 18 23
9 11 15
17 21 26
14 18 23
19 23 29
12 15 20
10 13 17
17 20 26
13 16 21
15 19 24
13 16 21
19 23 30
16 19 24
13 16 20
17 20 26
11 13 17
11 13 17
11 14 18
11 14 18
14 17 22
9 11 14
17 21 27
17 21 27
13 16 21
15 18 23
17 21 27
18 22 27
12 14 18
7 8 11
14 18 23
11 14 19
9 11 14
11 13 18
10 12 15
12 15 19
15 18 24
13 16 20
12 15 19
14 17 22
19 24 31
13 17 22
11 14 18
12 14 18
13 16 20
13 17 21
11 14 18
15 18 23
12 14 19
18 22 29
11 13 17
15 19 26
10 12 15
11 13 17
14 17 22
14 17 21
18 21 27
11 14 17
15 19 24
11 13 17
9 11 15
15 18 24
18 22 29
8 10 14
13 16 21
15 19 25
12 15 18
12 15 19
11 13 18
18 22 28
10 12 16
11 14 18
13 16 20
15 18 23
14 18 23
15 18 24
16 19 24
12 15 20
12 15 19
11 14 18
15 18 23
12 15 19
12 15 20
13 16 21
17 21 27
10 13 17
17 21 28
12 15 20
15 18 23
16 20 26
17 22 28
22 27 36
17 21 28
12 15 19
11 13 17
16 20 27
10 12 16
17 21 27
23 28 36
17 20 26
12 15 19
10 13 16
14 17 22
14 18 25
15 18 24
10 12 16
15 18 23
18 22 28
15 19 25
13 16 20
15 18 23
15 18 22
16 20 25
16 20 26
13 16 21
18 23 29
17 21 27
14 17 21
17 21 27
18 22 28
14 17 22
10 13 17
11 14 18
16 19 25
17 21 27
14 17 23
9 11 15
13 15 20
16 20 26
18 22 28
14 17 22
12 15 19
14 17 22
15 19 25
10 12 15
13 16 21
16 20 26
16 19 25
10 12 15
14 17 22
11 13 17
18 22 28
14 17 22
10 13 17
20 26 33
15 19 25
14 17 22
19 24 30
14 17 22
15 18 23
13 17 23
9 11 14
11 14 18
11 14 18
19 24 32
18 23 29
20 24 31
17 21 27
19 23 29
12 15 20
12 14 18
13 16 20
16 20 27
14 17 22
10 12 16
18 22 28
13 17 22
17 21 26
15 19 25
14 17 22
15 18 24
12 15 20
11 13 17
17 21 27
16 19 25
15 19 25
13 16 21
20 24 31
17 21 28
19 23 29
11 14 18
21 26 33
15 19 24
14 17 22
17 21 28
19 23 30
12 16 20
16 19 25
12 15 20
18 22 28
11 14 18
15 19 25
11 13 17
14 18 24
19 23 29
10 13 17
15 19 26
13 16 21
17 21 27
23 28 36
22 27 35
16 21 27
20 25 32
19 23 30
14 18 24
17 21 27
13 17 22
12 15 20
15 19 25
11 14 19
10 13 18
13 16 20
13 16 21
15 19 25
12 15 21
15 19 24
18 22 28
17 20 26
13 17 22
19 23 30
15 19 24
16 20 25
20 25 32
13 16 21
16 20 25
19 23 29
23 28 36
14 17 23
14 17 21
18 23 29
18 23 30
19 24 31
16 20 26
18 22 28
19 23 29
15 19 24
14 18 23
19 24 32
17 20 26
16 19 25
19 24 31
13 17 21
18 22 29
22 27 35
17 21 28
12 15 20
12 15 19
19 23 30
11 14 17
13 16 21
14 17 21
16 20 26
15 18 24
17 21 28
14 17 22
11 14 19
16 19 25
21 26 33
12 15 20
9 11 14
13 17 22
19 24 32
15 19 24
22 28 37
13 16 21
15 19 24
17 21 28
22 27 36
15 20 26
15 18 23
20 25 33
15 19 24
23 28 37
15 19 25
19 24 31
11 14 18
12 14 18
19 24 31
14 17 22
14 18 23
13 16 21
15 19 25
17 21 26
16 20 27
13 17 21
13 17 22
13 17 22
17 21 27
16 20 26
14 18 23
20 25 33
16 20 25
17 21 26
18 22 28
15 19 23
12 14 18
13 16 21
15 19 25
12 15 19
20 24 31
16 20 26
22 27 35
18 23 29
18 23 29
11 14 18
15 19 24
21 25 32
19 24 31
13 15 19
12 16 21
10 13 17
17 22 29
17 21 27
15 18 24
18 23 29
15 18 23
22 27 35
17 21 27
17 21 27
21 26 33
17 21 27
16 21 27
16 20 26
15 19 25
16 21 27
12 14 18
17 21 27
12 16 21
19 24 31
10 13 16
14 17 22
13 16 20
11 13 17
16 20 26
17 22 28
9 11 14
12 15 19
9 12 15
7 9 12
13 15 20
14 17 21
17 22 29
8 10 13
14 17 23
15 19 24
13 16 20
11 13 17
12 15 19
16 19 24
9 11 15
10 12 15
18 21 26
14 17 22
13 16 21
15 19 25
12 15 19
16 19 24
22 27 34
23 28 36
12 15 19
14 18 23
17 21 28
12 15 20
11 13 17
16 20 26
20 25 32
13 16 21
15 19 25
12 15 19
13 16 20
16 20 26
13 16 21
17 20 26
11 14 17
16 20 26
16 20 26
12 15 20
12 15 19
15 19 24
15 18 23
12 14 18
16 20 25
15 18 22
17 20 26
17 21 26
16 19 25
14 18 22
10 12 16
17 21 27
18 21 27
16 21 27
12 15 20
16 20 26
12 15 19
14 18 24
16 20 26
11 13 17
17 21 27
16 20 27
16 20 27
8 10 13
11 14 18
15 19 24
15 18 23
19 23 30
20 24 30
13 16 21
8 10 13
13 15 20
14 17 22
15 18 24
12 15 19
14 17 21
15 19 25
15 18 23
11 13 17
18 22 28
14 17 22
18 22 28
12 15 19
13 16 20
13 17 22
15 18 23
9 11 14
15 18 23
14 18 23
15 18 24
18 22 28
11 13 18
9 10 13
13 16 21
9 11 14
12 15 20
11 13 18
12 15 19
12 15 19
12 15 19
10 12 16
10 12 16
12 14 18
16 19 24
11 13 16
15 18 23
14 17 22
18 22 28
16 19 24
11 13 17
17 20 26
13 16 21
14 17 22
12 14 18
10 12 15
15 18 24
16 20 26
20 25 32
13 16 20
12 14 18
13 17 22
14 17 22
12 14 18
13 15 20
15 19 24
17 20 25
11 14 18
21 25 32
17 21 28
15 18 22
14 17 23
9 11 15
13 17 22
20 24 32
12 15 20
21 26 33
11 14 18
15 18 23
14 17 22
18 22 29
17 20 26
13 15 19
13 16 20
10 12 16
13 16 20
7 9 12
13 17 22
16 20 26
16 20 25
13 16 21
17 21 28
15 19 24
14 18 23
18 21 27
16 20 26
12 16 20
21 26 34
11 13 17
9 12 15
14 17 22
18 21 27
15 18 23
16 20 25
15 19 24
12 15 19
13 17 22
11 14 17
15 19 24
12 15 19
9 11 15
13 16 20
13 16 20
10 12 15
16 20 25
13 15 20
13 17 22
12 15 20
12 14 18
13 16 21
15 19 25
15 19 25
14 17 22
14 17 22
13 16 21
9 12 16
16 20 26
10 13 16
17 21 28
12 15 20
14 17 22
18 22 29
10 12 16
13 16 21
13 17 22
12 15 19
9 11 14
18 22 28
16 20 26
11 14 18
21 26 33
14 18 23
22 27 34
11 13 18
23 28 36
11 13 17
13 16 21
18 23 30
8 11 14
14 17 22
12 15 20
15 18 23
16 19 25
17 22 28
15 19 25
15 19 25
15 18 24
14 18 23
13 16 20
16 20 25
10 12 16
16 20 25
18 23 30
20 25 33
22 26 34
15 19 24
16 20 25
9 12 15
12 15 18
16 20 25
16 21 27
14 17 22
15 19 25
18 22 29
12 15 19
15 19 25
19 23 29
16 20 26
13 16 20
18 22 28
16 19 25
14 17 22
15 18 23
17 21 27
15 18 23
23 28 37
19 24 31
13 16 21
19 25 32
18 22 28
20 25 33
16 21 27
16 20 26
14 18 23
16 19 25
18 23 30
16 20 26
17 21 27
14 18 23
15 19 24
19 24 30
16 20 25
21 27 35
17 21 27
12 15 20
15 18 24
11 15 19
9 11 15
12 14 19
20 24 31
16 19 25
16 20 26
20 25 32
12 15 20
16 19 25
17 21 26
18 23 29
15 19 24
10 13 16
18 22 29
13 16 21
17 22 28
14 18 23
18 23 30
13 17 22
16 21 27
15 19 25
18 22 28
19 24 31
10 13 17
12 15 19
16 20 26
11 14 18
17 22 28
18 22 28
13 16 20
14 17 22
18 22 29
20 25 31
24 30 39
17 21 27
18 23 30
19 24 31
15 18 23
14 18 24
23 29 38
14 17 22
19 24 31
11 14 19
16 20 27
26 32 42
20 25 33
17 22 29
19 24 31
17 22 28
13 16 21
10 13 17
18 22 29
15 19 24
17 21 28
15 18 23
12 15 20
17 20 26
17 22 28
13 17 21
13 16 21
13 16 21
9 11 14
19 24 30
14 17 23
17 22 28
13 17 22
20 24 31
14 17 21
18 23 29
20 25 32
14 17 22
12 15 19
21 27 35
12 15 19
13 17 22
18 23 29
14 18 24
16 20 26
12 16 20
17 22 28
15 19 24
15 19 24
14 17 23
19 24 31
16 20 26
17 21 27
16 20 25
16 20 26
14 17 22
18 23 30
17 21 27
17 22 29
17 22 28
15 18 23
13 16 21
17 21 26
16 20 27
18 22 27
18 22 28
19 23 29
18 22 28
19 23 29
12 15 20
19 24 31
19 23 28
13 17 22
15 18 24
14 18 24
11 14 18
14 18 23
20 24 31
17 21 28
11 13 17
21 25 33
18 22 28
12 15 19
20 24 31
13 16 21
15 19 24
22 26 34
19 24 32
25 31 41
14 18 22
10 13 18
16 21 27
19 24 31
11 14 18
17 21 27
16 20 26
17 21 27
13 16 21
14 18 23
10 12 16
16 20 25
21 26 33
14 18 23
13 16 21
9 11 14
17 21 27
15 18 23
19 24 31
20 24 31
18 22 28
15 19 25
15 19 25
10 13 17
13 17 22
16 20 26
16 20 27
12 15 19
12 14 18
10 13 17
14 18 24
14 18 23
13 16 21
13 16 21
18 22 28
18 22 29
19 23 30
15 18 23
14 17 22
12 15 20
19 23 30
18 22 28
19 23 29
12 15 20
11 14 18
13 16 20
18 22 29
17 22 28
12 15 19
14 17 22
12 15 19
22 27 33
15 19 24
15 18 24
14 17 21
15 19 24
17 21 27
13 16 20
13 16 20
14 17 21
15 19 25
16 20 26
18 22 28
12 15 19
17 21 27
14 17 21
14 18 23
12 15 18
17 20 26
15 19 23
17 20 26
15 19 25
11 13 17
6 7 9
19 24 30
13 16 21
17 21 28
16 20 25
14 17 22
18 22 29
11 14 17
21 26 34
18 23 29
10 13 16
17 20 26
12 15 19
18 22 28
13 16 20
12 15 20
13 16 20
8 10 12
17 21 26
13 17 21
11 13 17
15 19 24
16 20 26
12 15 19
10 13 17
10 12 15
16 19 25
15 19 25
16 20 26
14 16 21
13 16 21
11 13 17
17 21 27
17 20 26
12 15 19
13 16 20
14 18 23
11 13 17
14 18 23
16 19 25
15 19 24
10 13 16
16 19 25
14 17 22
16 19 25
15 19 24
16 20 26
19 23 30
15 18 23
11 14 18
14 18 23
10 12 16
17 21 27
11 14 18
14 18 23
10 13 17
10 12 16
16 19 24
12 15 19
18 23 29
18 23 30
17 20 25
12 15 19
10 12 16
14 17 21
17 21 26
18 21 27
14 17 22
10 12 16
7 8 10
14 18 24
13 16 21
9 12 15
11 13 17
16 21 27
12 14 18
13 17 21
7 8 11
16 20 26
13 17 22
13 16 21
14 17 21
14 18 23
14 18 23
11 14 19
13 16 21
11 14 18
14 17 22
12 15 19
10 13 17
15 20 26
15 19 24
15 19 25
14 18 24
12 15 20
13 16 20
11 13 17
15 19 25
14 17 22
13 16 20
16 20 25
10 13 17
15 18 23
13 16 21
12 16 20
19 23 30
11 13 17
20 25 32
14 17 22
13 15 20
9 11 14
18 22 27
10 13 17
15 18 23
9 12 15
15 19 24
20 24 31
12 15 20
11 13 18
8 11 14
10 13 17
14 17 23
7 9 11
22 28 36
13 16 20
6 8 10
14 18 23
12 16 20
13 16 20
20 25 32
17 21 27
14 17 23
19 23 29
17 21 27
21 27 35
15 18 23
9 11 15
13 16 21
14 17 22
22 26 33
13 16 20
17 21 28
17 21 27
20 25 32
14 17 22
16 21 27
17 20 26
16 20 26
15 19 25
13 16 20
13 17 21
12 15 19
10 13 17
15 18 23
16 19 25
28 34 44
18 22 28
12 15 20
14 17 23
13 17 22
16 19 25
14 18 23
17 21 27
14 17 22
16 21 27
11 14 19
16 20 26
13 16 21
13 16 21
9 11 14
17 21 27
15 18 23
13 16 22
24 29 37
17 22 29
16 19 24
16 20 26
12 16 20
20 25 32
23 28 36
16 20 26
14 18 23
16 21 27
13 16 21
11 14 18
12 16 21
9 12 15
11 14 19
14 18 23
12 15 19
19 23 29
20 24 32
15 19 24
18 22 29
12 14 19
21 27 35
15 19 25
19 23 30
20 25 32
18 23 29
14 18 23
12 16 21
16 19 24
15 19 25
17 22 28
20 25 32
14 18 23
11 14 18
18 23 29
10 13 16
20 25 33
20 26 33
11 14 18
15 19 25
11 14 19
16 20 26
15 19 24
17 21 28
16 20 25
17 21 27
13 16 21
12 15 20
16 20 26
15 19 24
14 17 23
10 13 17
13 17 23
14 18 23
17 21 28
16 19 25
12 15 20
11 14 18
17 22 28
18 22 28
15 19 24
12 15 19
18 23 29
19 23 30
19 23 30
15 19 24
14 18 24
17 21 27
19 23 30
15 18 24
13 16 21
11 13 17
15 18 24
18 21 27
14 18 23
16 20 25
14 18 24
20 24 32
21 25 32
16 20 26
19 23 29
16 21 27
14 17 22
23 29 37
18 22 29
12 15 19
19 24 31
18 23 29
11 14 17
12 15 19
15 18 23
19 24 31
18 23 30
13 16 22
17 22 29
14 16 21
18 23 30
10 13 16
21 26 33
18 22 29
8 10 13
13 16 20
14 17 22
17 21 28
16 20 27
18 23 29
9 11 15
19 25 33
19 24 31
17 21 27
22 27 35
12 15 20
14 17 21
15 19 25
17 21 28
15 19 24
10 12 16
11 14 19
12 16 20
18 22 29
18 23 30
15 18 24
13 16 21
18 22 28
11 13 17
18 23 29
13 15 19
13 17 22
21 26 33
15 19 24
18 23 29
12 16 20
14 18 23
14 17 22
14 18 24
18 22 29
17 21 26
19 24 31
16 20 26
15 18 23
12 14 18
16 20 26
15 18 23
15 19 24
11 14 19
17 22 29
13 16 21
16 20 26
11 14 18
12 15 19
18 22 29
16 21 27
14 18 22
18 22 28
13 17 22
15 19 24
9 11 14
14 18 23
13 16 21
16 20 27
15 18 24
15 19 25
17 21 27
21 25 32
17 21 28
15 19 24
17 21 28
18 23 29
16 20 26
15 19 26
16 20 25
15 18 23
15 18 24
13 17 23
15 19 25
15 19 24
17 21 28
16 19 25
9 11 13
12 15 19
14 18 23
14 18 23
17 21 27
17 20 26
15 20 26
19 23 30
17 21 26
11 14 18
10 12 16
13 15 19
18 21 27
10 13 17
17 22 29
13 16 20
14 17 22
18 22 28
19 23 29
12 15 19
16 19 24
15 19 24
12 15 20
9 12 16
14 18 23
13 16 21
13 17 22
14 17 22
12 15 20
14 17 23
14 18 23
14 17 22
13 16 21
12 14 17
12 14 19
11 13 18
16 19 24
14 17 22
15 19 24
11 14 18
14 17 21
11 14 18
19 24 31
21 26 33
11 14 17
12 15 19
10 12 15
11 13 18
9 11 15
17 21 27
12 15 19
14 17 22
19 24 30
19 23 29
13 16 19
12 14 18
18 22 29
9 11 14
15 19 25
10 13 17
8 11 14
12 15 19
9 11 14
16 20 26
9 11 15
10 12 16
13 16 20
9 11 15
14 17 21
12 14 18
12 15 20
15 19 24
16 20 25
16 21 27
18 22 28
17 22 29
13 16 21
14 17 22
12 15 19
20 24 31
17 20 25
14 18 23
13 17 22
14 18 23
15 19 25
16 20 25
18 23 29
16 20 26
11 14 19
14 17 21
11 14 18
17 20 26
6 8 10
8 9 12
19 24 30
15 19 24
9 12 15
17 21 27
15 19 24
9 11 15
11 14 19
17 20 26
9 11 13
11 14 17
14 18 23
14 17 22
14 17 22
13 16 20
16 19 24
13 16 21
14 17 21
13 15 19
14 17 22
14 17 21
16 19 25
14 17 22
13 16 21
9 12 16
11 14 18
8 10 13
13 17 22
18 22 29
14 18 23
12 15 20
8 10 13
14 17 21
15 18 23
16 20 25
14 18 24
11 14 18
12 15 19
10 12 15
9 11 13
7 9 12
14 18 23
15 19 25
17 21 27
14 18 24
18 22 29
17 21 27
21 26 34
12 14 19
11 14 18
8 10 12
17 21 27
14 18 23
11 13 17
11 14 18
12 15 19
14 17 21
16 20 26
14 18 23
16 20 26
17 22 29
17 21 28
12 15 18
14 17 22
8 11 15
13 16 21
13 16 21
10 12 15
16 20 25
13 15 20
9 11 15
12 15 19
10 13 16
17 21 27
15 19 25
6 8 11
12 15 20
16 21 27
13 16 21
17 20 25
13 17 21
15 19 25
20 25 33
11 14 18
12 14 18
12 15 19
14 18 24
20 25 32
11 14 17
18 22 28
11 13 17
16 20 26
11 14 18
16 20 26
13 16 21
12 15 20
11 14 18
16 19 24
12 15 19
14 17 22
13 16 21
17 21 26
14 18 23
15 18 23
18 22 28
9 11 14
15 19 24
13 16 21
16 20 26
18 22 29
18 22 28
15 18 23
14 18 24
25 31 40
16 20 27
15 19 24
12 16 20
9 11 14
10 13 17
18 22 29
15 19 24
18 23 30
14 17 22
19 23 29
18 23 29
12 15 19
15 19 24
16 20 27
15 18 23
14 17 23
13 15 20
17 22 29
13 16 21
14 17 21
14 18 24
13 16 21
15 18 24
17 22 29
13 17 23
12 14 19
12 15 20
13 16 20
19 24 32
18 22 28
21 26 33
16 20 25
19 24 31
18 23 30
18 22 28
15 19 24
9 11 14
16 20 26
14 17 22
13 17 21
14 17 23
17 22 28
12 15 19
15 19 26
12 15 20
17 21 27
18 23 30
14 18 23
14 18 23
15 19 25
17 22 29
15 19 25
15 19 24
13 17 21
11 13 17
9 11 14
14 18 23
21 26 33
18 22 28
16 20 25
14 17 22
13 17 21
16 20 26
19 23 30
18 22 28
17 21 27
14 17 22
16 20 26
16 21 27
15 19 24
18 22 29
14 18 23
13 16 21
17 21 27
10 13 17
16 20 25
11 14 18
11 14 19
16 21 27
18 22 28
12 15 19
20 25 33
20 26 34
23 28 35
17 21 27
14 18 24
19 23 30
13 16 20
20 25 32
17 22 29
13 16 21
11 14 18
22 27 35
20 25 32
19 23 30
19 24 32
17 22 28
20 26 34
22 27 35
20 25 33
16 19 25
13 16 21
17 21 27
12 15 20
15 18 24
10 13 17
9 11 14
22 27 34
13 17 22
18 23 30
15 19 26
19 24 30
16 20 26
15 19 24
17 21 27
16 20 26
12 16 20
17 21 27
17 21 27
12 15 19
18 22 28
17 22 28
18 22 28
13 17 22
13 16 20
20 25 32
23 28 37
21 26 34
10 12 16
15 18 24
16 20 26
12 15 20
15 19 24
18 23 30
14 18 24
15 18 23
12 15 19
17 21 27
15 19 25
12 15 19
19 24 31
17 22 28
12 15 19
14 17 22
17 21 27
15 19 24
6 8 10
15 18 24
17 22 29
12 14 19
18 23 30
9 11 14
16 20 25
11 14 18
15 19 24
19 23 30
16 20 27
12 15 19
13 16 20
14 17 22
15 19 25
15 19 25
19 24 30
15 18 24
18 23 29
22 28 37
14 17 22
12 16 20
17 22 28
13 16 21
18 22 29
9 12 16
10 12 16
13 16 21
11 14 18
16 19 25
12 16 21
14 18 24
14 17 22
14 17 21
15 19 25
15 19 24
14 17 23
18 22 29
12 15 19
15 19 24
10 13 17
14 17 22
13 17 22
19 23 28
13 16 21
13 16 20
13 16 21
12 15 19
14 17 22
19 23 30
14 17 22
9 11 14
8 10 13
17 22 28
18 22 27
18 21 26
10 12 16
11 14 19
15 19 25
17 21 27
16 20 25
12 16 21
17 21 26
13 16 21
11 14 18
17 21 27
16 20 26
10 13 17
11 14 18
19 24 31
14 18 23
12 15 19
17 21 27
17 21 28
10 12 15
15 18 23
14 17 21
13 17 21
14 17 21
15 18 23
14 18 22
16 20 25
15 18 23
15 19 24
15 19 25
18 22 27
13 16 20
12 14 18
16 20 26
7 9 12
11 13 17
12 15 20
14 17 22
13 16 21
21 25 32
15 19 24
14 17 23
12 15 19
6 8 11
14 18 23
11 13 18
12 15 19
19 22 27
16 20 26
16 19 24
16 20 25
11 13 17
11 14 18
12 15 20
14 17 22
18 22 28
15 19 24
13 16 20
18 23 29
15 19 24
11 14 18
15 18 24
14 17 22
13 16 21
13 17 21
14 17 22
14 17 22
9 10 13
18 22 28
13 16 20
19 23 28
16 20 25
14 17 22
14 17 22
19 23 30
17 21 26
11 14 18
10 12 16
16 19 24
16 19 24
18 23 29
18 22 28
8 10 13
14 18 23
14 17 22
15 18 23
13 16 20
12 14 18
9 11 14
17 22 28
13 16 21
13 17 22
15 18 23
18 22 28
12 14 18
13 16 21
18 21 27
11 14 18
13 16 20
8 10 12
9 11 14
19 24 31
18 22 27
8 10 13
16 20 26
8 10 13
16 19 25
12 15 19
19 23 28
14 18 23
14 16 21
15 18 24
8 10 12
16 20 26
15 19 25
15 18 23
16 19 25
17 21 27
6 7 9
13 16 21
15 18 24
14 18 24
16 20 25
12 14 18
15 19 24
15 19 23
12 15 19
14 18 23
14 18 23
21 25 32
8 10 13
14 18 23
11 14 18
14 17 22
13 16 20
10 12 15
13 16 21
13 16 20
14 17 22
12 15 20
18 23 29
13 17 22
18 22 29
16 20 27
12 16 21
13 16 21
18 23 29
16 20 26
18 22 29
11 14 18
21 26 33
17 21 27
11 13 17
13 15 20
12 15 19
15 18 24
13 16 21
12 15 19
20 25 32
22 27 34
21 26 34
17 22 29
16 21 27
16 20 26
14 18 23
15 18 24
17 21 27
14 18 23
15 18 23
18 23 30
12 15 19
11 14 18
14 17 22
17 22 28
18 22 29
19 23 31
14 17 22
15 19 24
15 18 23
14 18 23
17 21 28
18 23 29
20 25 33
11 14 18
16 20 26
10 13 17
17 21 27
16 20 25
16 20 25
16 19 24
17 21 27
12 15 19
16 21 27
18 22 29
13 16 20
21 26 34
17 22 28
9 12 15
13 16 20
18 23 30
17 21 28
11 14 18
8 11 14
16 19 25
17 21 27
22 27 35
17 21 28
14 17 22
14 18 23
17 20 26
8 10 14
10 13 17
12 15 19
14 17 22
11 14 18
14 17 22
12 15 19
18 23 29
15 19 25
13 16 20
16 19 25
17 21 28
12 15 20
12 15 19
15 18 23
14 17 22
16 20 26
21 26 33
21 27 35
17 21 27
15 19 25
19 24 30
20 25 34
16 20 27
15 19 25
12 15 19
19 24 32
13 16 21
11 14 19
14 18 23
16 20 27
14 18 23
15 19 25
16 20 25
12 16 20
17 21 27
14 17 22
15 18 23
17 22 28
19 24 31
18 22 29
11 14 18
13 17 21
21 26 33
13 16 21
15 19 25
22 27 35
18 23 31
10 12 16
15 19 25
21 25 32
11 13 17
15 19 24
18 22 29
21 25 32
14 17 22
16 20 25
8 10 13
14 18 24
18 23 30
18 22 30
17 20 26
14 17 21
20 25 32
18 23 29
14 17 22
12 15 19
15 19 25
18 23 30
14 18 24
19 24 32
16 20 26
15 19 24
22 28 36
18 23 29
17 22 28
22 28 36
13 17 22
17 21 27
21 26 33
11 14 19
21 26 34
13 16 20
15 20 27
13 16 20
13 17 22
12 15 19
15 18 24
20 26 34
15 19 24
12 14 18
13 16 20
12 15 19
14 18 24
12 15 20
14 18 23
16 19 25
17 20 25
13 16 21
16 20 27
16 21 27
13 16 21
20 24 32
15 19 25
18 23 30
16 19 24
17 21 28
19 24 31
19 23 30
16 20 26
21 26 33
13 16 21
18 23 30
14 18 23
19 24 31
14 17 23
19 23 31
14 17 23
13 17 22
14 17 22
17 21 27
19 24 31
18 22 28
14 17 22
14 17 23
13 17 21
13 16 21
20 25 32
13 17 22
10 13 17
11 14 18
11 14 18
13 16 21
14 17 23
21 26 34
18 22 28
13 16 22
20 26 34
11 14 18
24 30 39
17 21 27
17 21 26
13 17 22
17 20 26
13 17 22
14 17 23
14 18 22
17 22 28
16 20 27
16 20 25
22 27 35
17 22 29
14 18 23
11 15 20
12 15 19
15 19 24
17 21 27
11 14 19
14 17 22
12 15 20
15 19 24
18 23 30
6 8 10
14 17 22
11 13 17
15 19 24
13 16 20
11 13 17
15 18 23
15 19 25
13 16 20
12 15 19
13 16 20
19 24 31
12 15 20
15 18 23
16 20 26
15 19 24
12 15 20
23 29 38
15 18 24
9 12 15
15 18 24
15 19 24
15 19 25
19 24 31
14 18 23
16 19 25
13 16 21
13 15 20
14 17 22
11 13 17
15 18 22
9 11 14
13 16 21
13 17 23
13 16 20
13 16 21
23 29 38
15 19 26
13 17 21
17 21 27
14 17 22
11 14 18
18 22 29
12 16 20
21 25 32
14 17 21
10 13 17
22 27 34
19 23 29
18 22 29
17 20 25
17 21 27
13 16 20
20 25 32
13 16 21
17 21 28
10 12 16
17 21 27
13 17 22
14 18 23
14 17 22
9 11 14
19 23 30
10 13 17
18 22 28
14 17 21
17 21 27
15 19 24
14 17 22
18 22 28
7 9 12
16 19 24
13 15 20
11 13 17
14 17 22
13 16 20
14 17 23
13 17 22
19 23 30
13 15 20
18 22 28
15 18 23
19 23 30
12 15 19
14 18 23
12 15 19
21 26 33
19 24 31
11 13 17
16 20 25
13 16 21
8 10 14
15 19 24
22 26 33
14 17 21
15 18 24
8 10 13
13 16 20
16 20 26
10 12 15
16 20 26
12 14 18
16 20 26
17 21 27
16 20 25
13 16 20
10 13 17
14 17 22
15 19 25
11 13 17
7 9 11
14 18 23
11 14 19
14 18 24
12 14 18
15 18 22
13 17 22
15 18 24
17 21 27
13 16 20
12 16 20
17 21 27
14 17 22
5 7 9
12 14 17
15 19 24
14 17 22
10 13 16
7 8 10
15 18 23
11 14 17
15 18 23
8 10 13
16 20 25
14 17 22
9 12 16
9 11 15
17 21 27
14 17 21
20 25 31
13 16 21
16 20 25
9 11 15
11 14 18
9 11 15
18 23 30
11 13 16
13 16 21
16 20 26
13 16 21
14 17 22
13 16 20
14 17 22
10 12 15
16 19 24
17 21 27
17 21 27
18 22 28
17 21 27
14 17 22
18 22 29
17 21 27
16 19 25
13 16 20
15 18 22
14 17 22
14 18 24
11 14 18
16 20 26
13 16 22
15 19 24
19 24 30
18 22 29
14 17 23
18 22 28
15 19 25
12 15 19
12 14 18
17 21 27
14 17 22
17 22 28
13 16 20
16 19 25
12 15 20
8 10 13
14 17 23
10 12 16
13 16 21
13 16 20
17 21 27
17 21 27
16 20 25
15 18 23
19 23 29
14 17 21
12 15 20
16 20 26
15 19 24
12 14 18
14 18 23
15 19 25
12 16 21
13 16 21
14 18 24
9 11 15
10 13 17
18 22 29
14 18 23
19 23 29
15 18 24
18 22 28
12 15 19
12 16 20
21 25 32
8 11 14
22 27 35
12 15 20
15 19 24
13 16 20
23 28 36
11 13 17
13 16 20
22 27 34
17 20 26
17 21 28
19 23 30
16 20 26
16 20 25
17 21 26
11 14 18
13 16 20
10 13 17
14 17 22
13 17 22
14 18 23
11 14 18
19 24 31
13 16 21
13 16 21
18 22 28
16 20 26
15 18 23
17 21 28
20 25 32
11 14 19
11 14 17
22 26 34
13 16 20
18 23 30
18 22 28
21 26 34
22 27 36
17 22 29
22 28 35
16 19 25
20 24 31
12 15 20
18 22 28
15 19 25
11 14 18
13 16 21
19 23 29
16 19 25
14 18 22
16 21 28
11 14 18
20 24 30
18 22 29
16 20 25
14 19 25
17 22 28
16 20 25
15 18 24
19 23 30
15 18 24
14 18 23
15 19 24
17 22 28
13 16 20
21 26 34
13 17 22
15 19 25
13 16 20
20 25 32
17 21 26
12 15 20
17 22 28
14 18 23
14 17 22
15 19 25
9 11 15
17 21 27
16 21 28
15 19 25
17 22 28
16 20 26
17 21 27
13 16 21
15 19 25
18 22 29
15 18 24
16 20 26
19 23 30
16 19 24
20 25 32
14 18 23
9 12 15
19 24 32
17 21 28
16 20 26
12 16 20
12 16 21
16 21 27
16 20 26
18 22 29
17 21 27
15 19 25
20 25 32
19 23 29
19 23 29
18 23 30
19 24 31
13 17 22
13 17 22
10 12 16
15 19 24
14 18 24
17 21 27
16 20 27
16 20 26
17 21 27
11 15 20
16 20 25
18 23 30
14 18 24
14 17 22
14 17 22
16 20 26
18 23 30
20 24 31
20 24 31
15 19 25
15 18 24
14 18 23
16 20 25
9 11 14
11 15 19
13 16 21
14 18 23
13 17 21
19 24 32
11 14 18
14 18 23
12 14 18
15 20 26
13 16 21
11 15 19
13 16 21
13 16 21
12 16 21
23 27 34
14 18 23
22 27 35
11 13 17
15 19 24
20 24 30
12 16 21
16 20 27
15 19 24
15 19 24
21 26 33
17 21 28
16 21 27
11 15 19
12 15 20
12 15 19
10 13 17
14 17 22
15 18 24
12 15 19
15 19 24
15 19 24
12 15 19
14 17 22
21 26 33
17 20 26
15 18 24
14 17 23
11 14 19
16 20 27
13 16 21
14 17 23
18 22 29
17 21 27
15 18 23
14 18 24
16 20 26
21 27 35
10 13 16
15 19 25
23 29 37
12 16 20
19 23 30
18 22 28
16 21 27
16 20 26
15 19 25
17 21 27
13 16 20
12 15 20
16 20 26
14 17 22
21 26 32
13 17 22
11 13 16
14 17 21
10 13 17
13 17 21
23 28 36
19 24 31
20 25 32
16 20 26
17 20 26
22 27 35
11 13 17
16 19 25
15 19 25
15 19 24
13 17 22
15 19 24
13 16 20
9 11 15
21 25 33
13 16 20
14 18 25
19 23 29
15 18 23
12 14 18
17 21 27
11 14 18
15 19 24
15 18 23
13 16 20
17 21 26
16 20 26
17 21 28
10 13 16
12 14 18
14 17 22
13 16 20
14 18 23
11 13 16
18 22 29
18 23 30
12 16 21
18 22 28
15 18 24
17 21 27
14 17 22
17 21 27
11 13 17
18 22 29
11 14 18
14 17 22
13 16 20
18 22 28
11 14 18
15 18 23
16 19 24
9 11 15
13 16 20
15 18 23
11 13 17
17 21 26
17 21 27
19 23 30
15 19 25
6 8 10
13 16 21
16 19 25
15 18 23
17 20 26
10 12 16
15 19 24
17 21 27
18 22 28
14 17 22
8 10 13
14 17 22
18 23 29
19 23 29
15 18 23
12 15 19
12 15 20
12 15 19
11 14 18
17 21 27
15 19 24
12 14 18
13 17 22
12 16 20
16 19 25
18 22 28
17 21 27
17 20 26
17 21 26
19 23 30
19 24 30
12 15 19
14 18 23
15 19 25
13 16 20
17 20 26
15 19 25
13 15 20
18 23 29
11 14 18
17 21 27
21 26 33
13 16 21
19 23 29
15 19 24
10 12 16
15 18 24
11 14 17
15 18 24
13 16 21
15 18 23
11 14 17
19 23 30
10 13 17
8 10 13
16 20 26
9 11 14
16 19 24
12 15 19
17 21 27
20 24 32
17 21 27
12 15 20
13 17 22
11 14 17
14 17 21
12 15 20
14 17 22
12 14 18
11 14 18
18 22 28
19 23 30
14 18 23
16 20 27
14 17 22
10 12 16
12 14 18
17 21 26
12 16 21
13 16 21
11 14 19
11 14 18
15 19 24
10 12 15
21 25 32
16 20 26
19 24 30
14 18 23
14 18 23
17 21 26
15 18 23
15 19 24
14 17 22
17 21 27
10 13 17
18 22 29
14 18 23
17 20 25
19 23 30
14 17 21
14 17 22
10 12 16
14 18 23
13 16 21
15 18 24
18 22 28
13 16 20
15 19 25
15 18 23
12 15 19
13 16 21
10 13 16
13 16 21
12 15 20
12 15 19
19 24 31
21 25 32
15 18 24
14 17 21
9 11 14
22 27 35
15 19 24
11 13 16
13 17 22
15 19 24
17 21 27
13 17 22
14 18 23
17 20 26
18 22 28
9 11 15
21 26 33
20 24 30
13 16 21
15 19 24
14 17 22
12 15 19
10 12 15
10 13 16
16 20 26
11 14 19
20 24 31
21 26 34
17 21 28
19 23 29
15 18 24
16 20 27
13 16 20
13 16 22
15 19 25
27 33 42
15 19 24
20 24 31
14 17 21
13 16 21
16 20 26
16 20 26
14 17 21
16 20 26
15 19 25
14 18 23
13 16 21
13 16 21
18 23 29
19 24 31
19 24 31
14 17 23
15 18 23
20 25 32
16 20 26
17 21 28
14 17 22
15 18 24
17 21 27
19 24 31
10 13 16
15 19 24
13 17 22
9 12 16
23 28 35
20 25 33
13 16 21
20 24 31
13 17 22
16 21 27
22 28 36
14 17 23
13 16 21
11 14 18
18 23 31
12 15 19
14 17 22
11 13 17
13 17 23
18 23 30
10 13 17
20 25 33
12 14 19
19 23 29
13 16 21
27 33 42
13 17 22
15 18 24
18 22 29
17 22 28
15 19 25
12 15 20
21 26 33
16 20 26
16 20 26
14 18 23
16 19 25
15 20 26
14 18 23
19 24 32
10 13 17
16 19 25
17 20 26
15 18 24
16 20 25
14 17 22
17 20 26
13 16 20
13 16 20
12 15 19
16 20 26
20 25 33
13 16 21
23 28 36
18 23 30
18 22 28
15 18 23
15 19 24
17 22 28
19 24 31
13 16 20
18 22 28
11 13 17
18 22 28
21 26 34
16 20 27
19 24 31
15 18 23
17 21 27
12 16 20
12 15 19
12 15 20
22 27 35
21 26 34
15 19 24
16 20 26
17 21 27
12 15 19
9 12 15
18 24 31
16 20 27
11 14 17
16 19 25
12 15 20
16 20 25
14 18 24
15 19 25
16 19 25
18 22 28
22 27 35
15 19 25
16 19 24
14 18 23
11 13 17
12 15 20
13 17 22
13 16 21
18 22 29
14 18 23
20 25 32
10 12 15
15 19 24
16 20 26
15 19 24
14 18 23
13 16 21
14 17 22
19 23 30
19 23 29
21 27 36
19 23 30
10 13 17
18 23 30
11 14 19
17 21 28
11 14 17
24 30 38
19 24 30
14 17 22
20 25 31
15 20 26
15 18 24
18 23 30
15 19 25
18 22 28
15 18 23
12 15 19
12 15 19
21 27 35
17 21 27
12 15 20
18 23 30
16 19 24
11 14 19
14 18 23
12 15 19
16 20 25
11 14 18
12 14 18
12 15 19
15 18 22
14 17 23
17 21 27
20 25 32
17 21 27
19 23 29
20 25 33
13 16 21
20 24 31
14 17 22
14 17 22
14 18 24
12 15 19
13 16 21
15 19 24
11 13 17
16 20 26
15 19 24
10 13 16
16 20 25
15 19 24
21 26 33
17 21 28
14 17 23
15 18 24
13 17 22
18 23 29
10 13 16
10 12 15
12 16 21
15 18 23
15 19 25
14 18 24
15 18 24
11 13 17
16 20 26
17 21 26
14 18 24
18 22 28
9 12 15
13 16 20
18 22 28
20 25 32
19 23 30
12 15 19
10 12 16
18 22 28
14 18 23
16 19 24
19 23 29
14 18 23
13 16 20
16 19 25
16 20 26
18 22 28
11 13 17
6 8 10
15 18 23
14 18 24
19 23 29
10 12 16
15 19 25
12 16 20
14 18 23
14 18 23
19 24 31
14 17 22
10 13 16
19 23 30
16 20 26
9 11 15
14 17 22
13 16 21
10 12 16
18 22 28
11 14 19
16 19 25
16 20 26
16 19 23
16 20 25
12 15 19
14 18 22
17 20 26
14 17 23
14 17 21
15 19 24
9 11 14
12 15 20
11 14 18
15 18 23
15 18 23
8 11 14
12 14 18
18 22 28
11 14 18
12 14 18
11 14 19
14 18 23
12 15 19
15 18 23
18 22 28
15 18 23
16 20 26
16 20 26
11 14 18
10 12 15
21 25 32
12 15 19
17 21 27
15 19 24
11 13 16
13 16 21
16 20 25
12 15 19
15 19 24
14 17 21
17 21 26
15 19 24
14 18 24
16 19 25
13 16 21
13 15 20
21 26 33
10 13 16
14 17 21
11 14 18
13 16 21
15 18 24
12 15 20
13 16 20
15 18 23
12 15 19
11 14 18
11 14 17
12 15 20
18 22 28
16 19 24
11 14 18
21 26 34
11 14 18
15 19 24
16 20 26
18 22 29
17 21 28
10 12 15
14 18 23
9 12 15
14 18 24
10 13 16
16 20 26
11 14 18
12 15 20
14 17 22
14 17 22
18 22 29
15 18 24
15 19 24
14 18 23
13 16 20
15 19 24
20 24 30
18 22 28
12 14 18
16 20 25
13 17 22
11 14 17
13 16 20
15 19 24
7 8 11
10 12 15
18 21 27
17 21 27
16 19 25
17 20 26
10 12 16
15 18 23
10 12 15
11 14 18
21 26 34
12 15 20
16 19 24
11 13 17
15 19 25
15 19 25
18 21 27
11 14 18
19 23 31
14 17 22
16 20 26
11 14 18
13 16 21
16 20 25
11 14 17
12 15 19
12 16 20
18 22 28
11 13 17
20 24 31
10 12 15
11 13 17
13 15 20
13 16 20
8 9 12
16 20 25
13 16 21
12 15 20
18 23 29
18 22 28
17 22 28
19 24 31
10 13 17
17 21 28
17 21 27
15 19 25
15 18 23
13 16 21
15 19 25
17 21 27
19 24 31
13 16 20
14 18 23
7 9 12
15 19 24
16 19 25
10 12 16
12 15 19
13 16 21
15 19 26
17 21 27
13 16 21
12 15 20
14 18 23
11 13 18
12 15 19
11 14 19
12 15 19
13 16 21
12 15 20
13 16 21
15 18 23
24 30 38
19 24 31
9 11 15
10 12 15
16 21 28
20 25 32
11 13 17
16 19 25
17 22 28
15 19 25
12 15 20
12 15 19
7 10 13
13 16 21
19 24 31
12 15 20
19 24 30
13 16 21
19 23 29
17 21 28
16 21 27
19 24 31
17 21 27
17 21 28
12 14 19
17 20 25
9 12 16
12 15 20
19 24 30
21 26 34
19 24 32
22 27 36
15 19 24
15 18 24
13 17 22
21 26 34
14 17 21
15 19 25
10 12 16
14 18 24
13 16 21
16 20 26
17 21 27
21 26 34
13 16 21
15 18 24
11 14 19
18 23 29
23 28 36
13 16 20
20 24 31
15 18 24
20 24 31
15 18 24
15 19 25
11 15 20
16 20 26
13 17 23
18 22 29
16 20 26
19 24 31
18 22 29
20 25 33
13 15 20
14 17 22
18 23 29
19 23 30
16 20 25
17 21 27
16 20 26
16 21 27
11 14 18
10 13 16
9 12 15
24 30 38
20 25 32
14 17 22
14 18 23
16 20 26
17 21 27
19 24 31
13 16 21
16 21 27
17 21 26
10 12 16
17 21 28
11 14 18
13 16 22
20 25 32
13 16 21
14 17 22
24 29 37
19 23 31
12 15 19
13 17 22
12 15 20
18 23 30
18 22 28
12 15 20
17 21 28
15 19 24
17 20 26
15 19 25
14 17 22
17 21 28
17 21 27
17 22 28
10 13 17
12 15 20
15 18 23
16 21 27
24 30 39
18 23 30
17 22 28
14 17 22
13 17 23
21 26 33
13 16 20
17 21 28
14 17 23
13 17 22
12 15 20
4 4 6
10 12 15
19 24 31
17 21 28
15 19 25
17 21 27
15 18 23
15 19 25
18 22 29
12 15 19
20 26 34
14 17 22
11 14 17
13 17 22
18 23 30
16 20 26
12 15 19
13 16 21
15 19 25
16 20 26
17 21 27
15 19 25
20 25 33
16 20 25
9 11 14
13 16 21
9 11 15
18 23 30
8 11 14
14 18 23
20 24 31
19 24 31
16 20 26
14 18 23
16 20 26
18 22 29
12 14 18
15 19 25
22 27 34
14 18 23
10 12 16
23 29 37
12 15 20
17 21 27
13 16 20
15 18 23
17 21 27
13 16 21
13 16 21
11 14 18
15 20 26
14 17 22
18 22 29
18 23 31
12 15 19
7 8 11
16 20 26
16 21 27
11 14 18
14 17 22
18 21 27
14 17 22
13 17 21
17 21 27
12 16 21
22 27 35
21 26 33
11 14 19
11 14 19
20 24 31
14 18 23
17 21 27
13 17 22
15 18 23
12 15 20
19 23 29
18 22 29
18 22 29
15 19 25
13 17 22
21 27 35
18 22 29
12 14 18
16 20 26
16 19 24
17 21 27
14 17 22
16 19 25
16 20 26
10 13 16
11 13 17
16 19 25
13 16 21
19 23 30
14 17 22
14 17 22
18 22 28
12 15 20
10 12 17
13 16 21
14 17 22
15 19 24
13 16 20
14 17 22
13 16 20
12 15 18
13 17 22
15 18 23
22 27 35
16 19 25
14 18 23
19 24 31
12 15 19
16 20 27
14 17 21
9 11 14
12 15 19
17 21 27
17 21 27
11 14 18
14 18 24
13 16 20
16 20 26
21 26 33
23 28 36
10 12 16
8 10 13
11 14 19
23 28 35
13 16 21
16 20 25
18 22 28
13 16 20
9 11 15
15 19 24
16 20 25
17 21 27
16 20 25
12 14 18
18 22 27
15 19 25
18 23 29
16 20 27
17 21 26
13 16 21
14 17 22
18 22 27
19 23 29
14 18 22
12 14 18
15 19 25
10 13 17
11 14 18
14 17 21
10 12 15
9 12 16
11 14 18
12 15 18
14 17 22
16 20 25
15 18 24
14 17 21
16 20 25
15 18 23
14 17 21
11 14 19
13 17 22
11 13 16
11 14 18
14 17 22
14 17 22
14 18 22
13 16 21
13 17 21
14 17 22
14 17 21
15 19 24
10 13 17
16 20 26
11 13 17
17 22 28
15 19 24
11 14 19
10 12 15
19 23 30
18 23 29
10 13 17
10 12 15
21 26 33
16 20 26
13 17 22
11 13 17
12 15 19
18 22 28
16 19 25
14 18 23
8 10 13
10 13 17
15 18 23
13 16 21
17 21 26
13 16 21
14 17 21
16 20 26
19 24 31
14 17 22
16 20 26
20 24 31
12 16 21
18 22 28
15 19 24
17 21 27
15 19 24
13 16 21
13 15 19
14 17 22
15 19 24
13 16 20
10 13 16
15 18 23
15 19 24
17 21 28
10 12 16
15 19 25
19 23 29
12 14 18
21 26 33
16 21 28
20 24 31
10 13 16
13 16 21
14 18 23
13 16 21
14 17 22
12 15 19
14 17 23
12 15 19
13 16 22
17 22 28
16 19 25
17 21 27
14 17 22
13 15 20
18 22 29
13 16 20
14 18 23
11 14 18
13 16 20
17 21 27
13 16 21
20 25 32
11 14 17
18 23 29
13 17 22
12 15 19
18 22 28
17 21 27
15 18 23
13 17 22
15 18 24
19 23 31
15 19 24
13 17 22
15 18 23
19 23 29
14 18 23
14 17 22
16 20 27
16 20 26
10 13 17
13 16 22
10 13 17
13 17 22
11 14 18
16 20 25
13 17 22
17 22 28
13 17 22
13 16 20
16 20 26
15 19 24
11 14 18
16 20 26
15 18 24
24 30 39
19 23 30
10 12 15
15 19 25
11 13 17
14 17 21
21 26 34
18 22 29
15 18 24
20 24 31
16 20 27
17 21 27
16 19 25
15 19 25
19 23 30
15 19 25
12 15 20
14 17 22
16 20 25
14 17 22
8 11 14
18 22 29
9 11 14
12 15 20
10 12 16
20 25 32
14 17 22
16 20 27
19 24 30
13 16 21
20 25 32
17 21 27
15 18 23
18 22 29
13 17 22
20 25 32
11 14 18
10 13 17
15 19 25
15 19 24
19 23 30
18 22 29
12 14 19
5 7 9
16 19 25
14 18 23
16 20 27
22 27 35
14 18 23
18 22 30
16 20 25
19 24 31
17 21 27
22 27 35
17 21 28
11 14 19
17 22 28
14 18 24
18 21 27
14 18 24
16 20 25
14 18 24
12 15 19
13 17 21
16 20 27
15 19 24
17 21 27
20 25 32
22 27 35
14 18 22
16 19 25
18 22 28
11 14 18
17 22 28
18 23 30
15 18 24
15 19 24
10 13 17
26 32 41
12 15 20
15 19 25
15 18 24
22 28 36
17 22 29
18 23 29
10 13 17
12 16 21
22 27 36
15 18 23
14 17 23
14 18 24
13 17 22
16 19 24
18 22 29
16 20 26
9 12 16
21 26 34
16 20 25
14 18 23
14 18 24
17 21 27
16 20 26
21 25 32
12 15 19
15 19 24
18 23 30
10 13 17
14 17 22
17 21 27
14 18 22
16 20 25
15 19 25
13 16 22
15 19 24
18 21 27
18 22 29
20 25 31
17 22 28
14 17 22
20 24 31
13 17 22
14 17 23
11 14 18
22 27 34
17 21 27
15 20 26
15 19 24
18 22 28
18 22 28
12 15 19
17 22 28
17 22 29
13 15 19
13 16 21
18 22 29
17 22 28
17 21 27
15 18 24
13 17 22
11 13 17
15 19 25
19 23 30
20 24 31
17 21 28
17 21 26
15 18 24
14 18 24
15 19 24
11 14 18
12 15 19
16 19 25
16 20 26
15 18 23
12 16 21
15 18 23
15 18 23
14 17 22
17 20 26
12 15 19
18 22 30
21 26 34
13 15 20
16 20 26
12 14 18
14 18 23
14 17 22
10 13 16
16 21 27
18 22 28
16 20 25
16 19 25
11 14 18
14 18 23
14 18 23
13 16 21
13 15 20
13 17 22
15 18 24
16 19 25
17 21 27
15 19 25
15 19 23
16 20 26
17 21 27
15 18 23
19 23 29
19 23 30
15 18 23
18 22 29
12 14 19
14 18 23
18 22 29
15 18 23
13 16 20
18 22 28
13 16 21
14 17 22
17 21 28
14 18 23
14 17 22
13 16 20
11 14 18
18 23 30
14 17 22
19 23 29
11 14 18
20 25 31
12 15 20
10 13 17
9 11 14
14 17 22
13 16 20
14 17 22
16 20 27
17 21 27
12 14 18
20 25 32
13 16 22
17 21 28
18 22 28
11 13 17
18 23 29
10 12 16
16 20 25
19 23 30
18 22 29
13 16 21
10 12 15
15 19 25
11 13 17
13 17 22
16 20 26
14 18 23
13 16 21
18 22 28
9 11 14
16 20 26
13 16 20
17 21 27
13 16 20
14 17 22
15 18 23
14 18 24
18 22 28
10 13 16
15 19 24
14 17 22
13 16 20
16 21 27
21 26 33
21 26 33
15 19 24
13 16 20
15 18 23
19 23 30
12 15 19
9 12 15
15 18 23
15 19 24
16 20 26
17 20 26
14 16 20
20 25 32
19 23 29
14 18 24
12 15 20
19 23 29
19 23 30
15 18 23
13 16 21
15 19 24
18 22 28
18 22 28
10 12 15
19 24 30
7 9 11
11 13 17
21 25 33
12 14 18
16 20 25
12 15 19
14 17 21
16 19 23
11 13 17
11 13 18
15 18 22
13 16 20
12 15 20
15 19 24
10 12 16
13 16 21
17 21 27
18 23 29
17 21 26
13 16 20
12 15 19
17 21 27
11 14 18
9 11 15
10 12 15
15 19 25
18 22 28
12 14 19
12 15 19
9 12 16
8 10 13
17 21 27
12 15 20
21 26 34
15 18 23
17 21 28
17 21 26
17 21 28
12 15 19
18 22 28
16 20 26
21 26 34
11 14 18
14 18 24
17 21 27
10 13 17
15 19 24
15 19 25
19 23 30
16 20 25
13 16 20
18 22 28
18 22 29
14 17 21
9 12 15
18 22 29
9 11 15
10 13 17
12 15 20
16 20 26
15 18 23
11 13 17
12 15 20
14 17 22
19 24 31
15 19 24
17 21 27
15 18 24
7 9 11
14 16 21
18 22 29
16 20 26
19 23 30
22 27 34
13 17 22
14 18 23
14 18 23
15 18 23
16 20 26
14 17 22
18 22 29
15 18 24
12 15 20
14 17 21
19 23 30
19 24 32
11 14 18
14 17 22
14 18 24
16 20 25
14 18 24
14 18 24
12 15 19
19 24 30
12 15 19
12 15 20
17 21 26
15 19 25
17 21 26
14 17 22
20 24 31
14 17 23
13 16 20
17 21 26
14 17 23
19 23 30
15 19 24
9 11 14
20 25 33
19 24 31
17 21 27
18 22 27
18 22 29
13 16 20
16 21 27
10 13 17
12 15 19
18 23 31
18 22 28
21 27 34
21 26 33
19 24 30
22 27 34
18 22 28
19 23 30
15 19 24
15 19 24
19 23 30
16 19 25
12 16 20
10 12 16
13 16 20
15 18 24
16 20 26
17 22 28
14 17 23
17 22 28
14 17 22
22 27 35
14 18 23
15 19 25
13 16 20
16 20 26
13 16 20
15 19 25
18 22 29
13 17 22
14 17 23
15 18 24
18 22 28
15 19 25
18 23 30
10 12 16
21 25 33
15 19 25
17 21 27
16 20 26
21 26 34
10 13 17
17 21 27
16 20 26
14 18 22
23 28 36
19 24 31
18 22 28
21 27 34
16 20 26
18 22 28
16 20 25
17 21 28
12 14 19
12 15 20
15 19 25
13 17 22
20 24 31
18 22 29
11 14 18
22 27 35
17 21 27
15 18 23
13 17 22
15 19 25
18 23 30
15 20 27
17 21 26
16 20 26
18 22 29
15 19 24
13 16 21
12 15 19
14 18 23
18 22 29
15 19 24
19 24 32
15 18 22
17 21 27
16 21 28
18 22 28
