P3
400 225
255
204 226 255
204 226 255
204 226 255
204 226 255
204 226 255
204 226 255
204 226 255
204 226 255
204 226 255
204 226 255
204 226 255
204 226 255
204 226 255
204 226 255
204 226 255
203 226 255
203 226 255
203 226 255
203 226 255
203 226 255
203 226 255
203 226 255
203 226 255
203 225 255
203 225 255
203 225 255
203 225 255
203 225 255
203 225 255
203 225 255
203 225 255
203 225 255
202 225 255
202 225 255
202 225 255
202 225 255
202 225 255
202 225 255
202 225 255
202 225 255
202 225 255
202 225 255
202 225 255
202 225 255
202 225 255
202 225 255
202 225 255
202 225 255
201 225 255
201 225 255
201 225 255
201 225 255
201 224 255
201 224 255
201 224 255
201 224 255
201 224 255
201 224 255
201 224 255
201 224 255
201 224 255
201 224 255
201 224 255
200 224 255
200 224 255
200 224 255
200 224 255
200 224 255
200 224 255
200 224 255
200 224 255
200 224 255
200 224 255
200 224 255
200 224 255
200 224 255
200 224 255
200 224 255
199 224 255
199 224 255
199 223 255
199 223 255
199 223 255
199 223 255
199 223 255
199 223 255
199 223 255
199 223 255
199 223 255
199 223 255
199 223 255
199 223 255
198 223 255
198 223 255
198 223 255
198 223 255
198 223 255
198 223 255
198 223 255
198 223 255
198 223 255
198 223 255
198 223 255
198 223 255
198 223 255
198 223 255
197 223 255
197 222 255
197 222 255
197 222 255
197 222 255
197 222 255
197 222 255
197 222 255
197 222 255
197 222 255
197 222 255
197 222 255
197 222 255
197 222 255
197 222 255
196 222 255
196 222 255
196 222 255
196 222 255
196 222 255
196 222 255
196 222 255
196 222 255
196 222 255
196 222 255
196 222 255
196 222 255
196 222 255
196 222 255
196 221 255
196 221 255
195 221 255
195 221 255
195 221 255
195 221 255
195 221 255
195 221 255
195 221 255
195 221 255
195 221 255
195 221 255
195 221 255
195 221 255
195 221 255
195 221 255
195 221 255
195 221 255
195 221 255
195 221 255
194 221 255
194 221 255
194 221 255
194 221 255
194 221 255
194 221 255
194 221 255
194 221 255
194 221 255
194 221 255
194 221 255
194 221 255
194 221 255
194 221 255
194 221 255
194 221 255
194 221 255
194 221 255
194 221 255
194 221 255
194 221 255
194 221 255
194 220 255
194 220 255
194 220 255
194 220 255
194 220 255
194 220 255
194 220 255
194 220 255
194 220 255
193 220 255
193 220 255
193 220 255
193 220 255
193 220 255
193 220 255
193 220 255
193 220 255
193 220 255
193 220 255
193 220 255
193 220 255
193 220 255
193 220 255
193 220 255
193 220 255
193 220 255
193 220 255
193 220 255
193 220 255
193 220 255
193 220 255
193 220 255
193 220 255
193 220 255
193 220 255
193 220 255
193 220 255
194 220 255
194 220 255
194 220 255
194 220 255
194 220 255
194 220 255
194 220 255
194 220 255
194 221 255
194 221 255
194 221 255
194 221 255
194 221 255
194 221 255
194 221 255
194 221 255
194 221 255
194 221 255
194 221 255
194 221 255
194 221 255
194 221 255
194 221 255
194 221 255
194 221 255
194 221 255
194 221 255
194 221 255
194 221 255
194 221 255
194 221 255
195 221 255
195 221 255
195 221 255
195 221 255
195 221 255
195 221 255
195 221 255
195 221 255
195 221 255
195 221 255
195 221 255
195 221 255
195 221 255
195 221 255
195 221 255
195 221 255
195 221 255
195 221 255
196 221 255
196 221 255
196 222 255
196 222 255
196 222 255
196 222 255
196 222 255
196 222 255
196 222 255
196 222 255
196 222 255
196 222 255
196 222 255
196 222 255
196 222 255
196 222 255
197 222 255
197 222 255
197 222 255
197 222 255
197 222 255
197 222 255
197 222 255
197 222 255
197 222 255
197 222 255
197 222 255
197 222 255
197 222 255
197 222 255
197 223 255
198 223 255
198 223 255
198 223 255
198 223 255
198 223 255
198 223 255
198 223 255
198 223 255
198 223 255
198 223 255
198 223 255
198 223 255
198 223 255
198 223 255
199 223 255
199 223 255
199 223 255
199 223 255
199 223 255
199 223 255
199 223 255
199 223 255
199 223 255
199 223 255
199 223 255
199 223 255
199 224 255
199 224 255
199 224 255
200 224 255
200 224 255
200 224 255
200 224 255
200 224 255
200 224 255
200 224 255
200 224 255
200 224 255
200 224 255
200 224 255
200 224 255
200 224 255
200 224 255
201 224 255
201 224 255
201 224 255
201 224 255
201 224 255
201 224 255
201 224 255
201 224 255
201 224 255
201 224 255
201 225 255
201 225 255
201 225 255
201 225 255
201 225 255
202 225 255
202 225 255
202 225 255
202 225 255
202 225 255
202 225 255
202 225 255
202 225 255
202 225 255
202 225 255
202 225 255
202 225 255
202 225 255
202 225 255
202 225 255
202 225 255
203 225 255
203 225 255
203 225 255
203 225 255
203 225 255
203 225 255
203 225 255
203 225 255
203 225 255
203 226 255
203 226 255
203 226 255
203 226 255
203 226 255
203 226 255
203 226 255
203 226 255
204 226 255
204 226 255
204 226 255
204 226 255
204 226 255
204 226 255
204 226 255
204 226 255
204 226 255
204 226 255
204 226 255
204 226 255
204 226 255
204 226 255
204 226 255
204 226 255
204 226 255
204 226 255
204 226 255
204 226 255
204 226 255
204 226 255
204 226 255
204 226 255
204 226 255
204 226 255
204 226 255
204 226 255
204 226 255
204 226 255
204 226 255
204 226 255
204 226 255
203 226 255
203 226 255
203 226 255
203 226 255
203 226 255
203 226 255
203 226 255
203 225 255
203 225 255
203 225 255
203 225 255
203 225 255
203 225 255
203 225 255
203 225 255
203 225 255
202 225 255
202 225 255
202 225 255
202 225 255
202 225 255
202 225 255
202 225 255
202 225 255
202 225 255
202 225 255
202 225 255
202 225 255
202 225 255
202 225 255
202 225 255
202 225 255
201 225 255
201 225 255
201 225 255
201 225 255
201 225 255
201 224 255
201 224 255
201 224 255
201 224 255
201 224 255
201 224 255
201 224 255
201 224 255
201 224 255
201 224 255
200 224 255
200 224 255
200 224 255
200 224 255
200 224 255
200 224 255
200 224 255
200 224 255
200 224 255
200 224 255
200 224 255
200 224 255
200 224 255
200 224 255
200 224 255
199 224 255
199 224 255
199 223 255
199 223 255
199 223 255
199 223 255
199 223 255
199 223 255
199 223 255
199 223 255
199 223 255
199 223 255
199 223 255
199 223 255
198 223 255
198 223 255
198 223 255
198 223 255
198 223 255
198 223 255
198 223 255
198 223 255
198 223 255
198 223 255
198 223 255
198 223 255
198 223 255
198 223 255
197 223 255
197 222 255
197 222 255
197 222 255
197 222 255
197 222 255
197 222 255
197 222 255
197 222 255
197 222 255
197 222 255
197 222 255
197 222 255
197 222 255
197 222 255
196 222 255
196 222 255
196 222 255
196 222 255
196 222 255
196 222 255
196 222 255
196 222 255
196 222 255
196 222 255
196 222 255
196 222 255
196 222 255
196 222 255
196 222 255
196 221 255
195 221 255
195 221 255
195 221 255
195 221 255
195 221 255
195 221 255
195 221 255
195 221 255
195 221 255
195 221 255
195 221 255
195 221 255
195 221 255
195 221 255
195 221 255
195 221 255
195 221 255
195 221 255
195 221 255
194 221 255
194 221 255
194 221 255
194 221 255
194 221 255
194 221 255
194 221 255
194 221 255
194 221 255
194 221 255
194 221 255
194 221 255
194 221 255
194 221 255
194 221 255
194 221 255
194 221 255
194 221 255
194 221 255
194 221 255
194 221 255
194 221 255
194 221 255
194 221 255
194 221 255
194 220 255
194 220 255
194 220 255
194 220 255
194 220 255
194 220 255
194 220 255
194 220 255
194 220 255
194 220 255
194 220 255
194 220 255
194 220 255
194 220 255
194 220 255
194 220 255
194 220 255
194 220 255
194 220 255
194 220 255
194 220 255
194 220 255
194 220 255
194 220 255
194 220 255
194 220 255
194 220 255
194 220 255
194 220 255
194 220 255
194 220 255
194 220 255
194 220 255
194 220 255
194 221 255
194 221 255
194 221 255
194 221 255
194 221 255
194 221 255
194 221 255
194 221 255
194 221 255
194 221 255
194 221 255
194 221 255
194 221 255
194 221 255
194 221 255
194 221 255
194 221 255
194 221 255
194 221 255
194 221 255
194 221 255
194 221 255
194 221 255
194 221 255
195 221 255
195 221 255
195 221 255
195 221 255
195 221 255
195 221 255
195 221 255
195 221 255
195 221 255
195 221 255
195 221 255
195 221 255
195 221 255
195 221 255
195 221 255
195 221 255
195 221 255
195 221 255
195 221 255
195 221 255
196 221 255
196 222 255
196 222 255
196 222 255
196 222 255
196 222 255
196 222 255
196 222 255
196 222 255
196 222 255
196 222 255
196 222 255
196 222 255
196 222 255
196 222 255
196 222 255
197 222 255
197 222 255
197 222 255
197 222 255
197 222 255
197 222 255
197 222 255
197 222 255
197 222 255
197 222 255
197 222 255
197 222 255
197 222 255
197 222 255
197 223 255
198 223 255
198 223 255
198 223 255
198 223 255
198 223 255
198 223 255
198 223 255
198 223 255
198 223 255
198 223 255
198 223 255
198 223 255
198 223 255
198 223 255
199 223 255
199 223 255
199 223 255
199 223 255
199 223 255
199 223 255
199 223 255
199 223 255
199 223 255
199 223 255
199 223 255
199 223 255
199 224 255
199 224 255
199 224 255
200 224 255
200 224 255
200 224 255
200 224 255
200 224 255
200 224 255
200 224 255
200 224 255
200 224 255
200 224 255
200 224 255
200 224 255
200 224 255
200 224 255
201 224 255
201 224 255
201 224 255
201 224 255
201 224 255
201 224 255
201 224 255
201 224 255
201 224 255
201 224 255
201 225 255
201 225 255
201 225 255
201 225 255
201 225 255
202 225 255
202 225 255
202 225 255
202 225 255
202 225 255
202 225 255
202 225 255
202 225 255
202 225 255
202 225 255
202 225 255
202 225 255
202 225 255
202 225 255
202 225 255
202 225 255
203 225 255
203 225 255
203 225 255
203 225 255
203 225 255
203 225 255
203 225 255
203 225 255
203 225 255
203 226 255
203 226 255
203 226 255
203 226 255
203 226 255
203 226 255
203 226 255
204 226 255
204 226 255
204 226 255
204 226 255
204 226 255
204 226 255
204 226 255
204 226 255
204 226 255
204 226 255
204 226 255
204 226 255
204 226 255
204 226 255
204 226 255
204 226 255
204 226 255
204 226 255
205 226 255
205 226 255
204 226 255
204 226 255
204 226 255
204 226 255
204 226 255
204 226 255
204 226 255
204 226 255
204 226 255
204 226 255
204 226 255
204 226 255
204 226 255
204 226 255
204 226 255
204 226 255
204 226 255
204 226 255
203 226 255
203 226 255
203 226 255
203 226 255
203 226 255
203 226 255
203 226 255
203 225 255
203 225 255
203 225 255
203 225 255
203 225 255
203 225 255
203 225 255
203 225 255
203 225 255
202 225 255
202 225 255
202 225 255
202 225 255
202 225 255
202 225 255
202 225 255
202 225 255
202 225 255
202 225 255
202 225 255
202 225 255
202 225 255
202 225 255
202 225 255
202 225 255
201 225 255
201 225 255
201 225 255
201 225 255
201 225 255
201 224 255
201 224 255
201 224 255
201 224 255
201 224 255
201 224 255
201 224 255
201 224 255
201 224 255
201 224 255
200 224 255
200 224 255
200 224 255
200 224 255
200 224 255
200 224 255
200 224 255
200 224 255
200 224 255
200 224 255
200 224 255
200 224 255
200 224 255
200 224 255
200 224 255
199 224 255
199 224 255
199 223 255
199 223 255
199 223 255
199 223 255
199 223 255
199 223 255
199 223 255
199 223 255
199 223 255
199 223 255
199 223 255
199 223 255
198 223 255
198 223 255
198 223 255
198 223 255
198 223 255
198 223 255
198 223 255
198 223 255
198 223 255
198 223 255
198 223 255
198 223 255
198 223 255
198 223 255
197 223 255
197 222 255
197 222 255
197 222 255
197 222 255
197 222 255
197 222 255
197 222 255
197 222 255
197 222 255
197 222 255
197 222 255
197 222 255
197 222 255
197 222 255
196 222 255
196 222 255
196 222 255
196 222 255
196 222 255
196 222 255
196 222 255
196 222 255
196 222 255
196 222 255
196 222 255
196 222 255
196 222 255
196 222 255
196 222 255
196 221 255
195 221 255
195 221 255
195 221 255
195 221 255
195 221 255
195 221 255
195 221 255
195 221 255
195 221 255
195 221 255
195 221 255
195 221 255
195 221 255
195 221 255
195 221 255
195 221 255
195 221 255
195 221 255
195 221 255
195 221 255
194 221 255
194 221 255
194 221 255
194 221 255
194 221 255
194 221 255
194 221 255
194 221 255
194 221 255
194 221 255
194 221 255
194 221 255
194 221 255
194 221 255
194 221 255
194 221 255
194 221 255
194 221 255
194 221 255
194 221 255
194 221 255
194 221 255
194 221 255
194 221 255
194 221 255
194 221 255
194 221 255
194 221 255
194 221 255
194 221 255
194 221 255
194 220 255
194 220 255
194 220 255
194 220 255
194 220 255
194 220 255
194 220 255
194 220 255
194 220 255
194 220 255
194 220 255
194 220 255
194 220 255
194 220 255
194 220 255
194 220 255
194 221 255
194 221 255
194 221 255
194 221 255
194 221 255
194 221 255
194 221 255
194 221 255
194 221 255
194 221 255
194 221 255
194 221 255
194 221 255
194 221 255
194 221 255
194 221 255
194 221 255
194 221 255
194 221 255
194 221 255
194 221 255
194 221 255
194 221 255
194 221 255
194 221 255
194 221 255
194 221 255
194 221 255
194 221 255
194 221 255
195 221 255
195 221 255
195 221 255
195 221 255
195 221 255
195 221 255
195 221 255
195 221 255
195 221 255
195 221 255
195 221 255
195 221 255
195 221 255
195 221 255
195 221 255
195 221 255
195 221 255
195 221 255
195 221 255
195 221 255
196 221 255
196 221 255
196 222 255
196 222 255
196 222 255
196 222 255
196 222 255
196 222 255
196 222 255
196 222 255
196 222 255
196 222 255
196 222 255
196 222 255
196 222 255
196 222 255
196 222 255
197 222 255
197 222 255
197 222 255
197 222 255
197 222 255
197 222 255
197 222 255
197 222 255
197 222 255
197 222 255
197 222 255
197 222 255
197 222 255
197 222 255
197 223 255
198 223 255
198 223 255
198 223 255
198 223 255
198 223 255
198 223 255
198 223 255
198 223 255
198 223 255
198 223 255
198 223 255
198 223 255
198 223 255
198 223 255
199 223 255
199 223 255
199 223 255
199 223 255
199 223 255
199 223 255
199 223 255
199 223 255
199 223 255
199 223 255
199 223 255
199 223 255
199 224 255
199 224 255
200 224 255
200 224 255
200 224 255
200 224 255
200 224 255
200 224 255
200 224 255
200 224 255
200 224 255
200 224 255
200 224 255
200 224 255
200 224 255
200 224 255
200 224 255
201 224 255
201 224 255
201 224 255
201 224 255
201 224 255
201 224 255
201 224 255
201 224 255
201 224 255
201 224 255
201 225 255
201 225 255
201 225 255
201 225 255
201 225 255
202 225 255
202 225 255
202 225 255
202 225 255
202 225 255
202 225 255
202 225 255
202 225 255
202 225 255
202 225 255
202 225 255
202 225 255
202 225 255
202 225 255
202 225 255
203 225 255
203 225 255
203 225 255
203 225 255
203 225 255
203 225 255
203 225 255
203 225 255
203 225 255
203 225 255
203 226 255
203 226 255
203 226 255
203 226 255
203 226 255
203 226 255
203 226 255
204 226 255
204 226 255
204 226 255
204 226 255
204 226 255
204 226 255
204 226 255
204 226 255
204 226 255
204 226 255
204 226 255
204 226 255
204 226 255
204 226 255
204 226 255
204 226 255
204 226 255
204 226 255
205 226 255
205 226 255
205 226 255
205 226 255
205 226 255
205 226 255
204 226 255
204 226 255
204 226 255
204 226 255
204 226 255
204 226 255
204 226 255
204 226 255
204 226 255
204 226 255
204 226 255
204 226 255
204 226 255
204 226 255
204 226 255
204 226 255
204 226 255
204 226 255
203 226 255
203 226 255
203 226 255
203 226 255
203 226 255
203 226 255
203 226 255
203 226 255
203 225 255
203 225 255
203 225 255
203 225 255
203 225 255
203 225 255
203 225 255
203 225 255
203 225 255
202 225 255
202 225 255
202 225 255
202 225 255
202 225 255
202 225 255
202 225 255
202 225 255
202 225 255
202 225 255
202 225 255
202 225 255
202 225 255
202 225 255
202 225 255
201 225 255
201 225 255
201 225 255
201 225 255
201 225 255
201 224 255
201 224 255
201 224 255
201 224 255
201 224 255
201 224 255
201 224 255
201 224 255
201 224 255
201 224 255
200 224 255
200 224 255
200 224 255
200 224 255
200 224 255
200 224 255
200 224 255
200 224 255
200 224 255
200 224 255
200 224 255
200 224 255
200 224 255
200 224 255
200 224 255
199 224 255
199 224 255
199 223 255
199 223 255
199 223 255
199 223 255
199 223 255
199 223 255
199 223 255
199 223 255
199 223 255
199 223 255
199 223 255
199 223 255
198 223 255
198 223 255
198 223 255
198 223 255
198 223 255
198 223 255
198 223 255
198 223 255
198 223 255
198 223 255
198 223 255
198 223 255
198 223 255
198 223 255
197 223 255
197 222 255
197 222 255
197 222 255
197 222 255
197 222 255
197 222 255
197 222 255
197 222 255
197 222 255
197 222 255
197 222 255
197 222 255
197 222 255
197 222 255
196 222 255
196 222 255
196 222 255
196 222 255
196 222 255
196 222 255
196 222 255
196 222 255
196 222 255
196 222 255
196 222 255
196 222 255
196 222 255
196 222 255
196 222 255
196 221 255
196 221 255
195 221 255
195 221 255
195 221 255
195 221 255
195 221 255
195 221 255
195 221 255
195 221 255
195 221 255
195 221 255
195 221 255
195 221 255
195 221 255
195 221 255
195 221 255
195 221 255
195 221 255
195 221 255
195 221 255
195 221 255
195 221 255
194 221 255
194 221 255
194 221 255
194 221 255
194 221 255
194 221 255
194 221 255
194 221 255
194 221 255
194 221 255
194 221 255
194 221 255
194 221 255
194 221 255
194 221 255
194 221 255
194 221 255
194 221 255
194 221 255
194 221 255
194 221 255
194 221 255
194 221 255
194 221 255
194 221 255
194 221 255
194 221 255
194 221 255
194 221 255
194 221 255
194 221 255
194 221 255
194 221 255
194 221 255
194 221 255
194 221 255
194 221 255
194 221 255
194 221 255
194 221 255
194 221 255
194 221 255
194 221 255
194 221 255
194 221 255
194 221 255
194 221 255
194 221 255
194 221 255
194 221 255
194 221 255
194 221 255
194 221 255
194 221 255
194 221 255
194 221 255
194 221 255
194 221 255
194 221 255
194 221 255
194 221 255
194 221 255
194 221 255
194 221 255
194 221 255
194 221 255
194 221 255
194 221 255
194 221 255
194 221 255
195 221 255
195 221 255
195 221 255
195 221 255
195 221 255
195 221 255
195 221 255
195 221 255
195 221 255
195 221 255
195 221 255
195 221 255
195 221 255
195 221 255
195 221 255
195 221 255
195 221 255
195 221 255
195 221 255
195 221 255
195 221 255
196 221 255
196 221 255
196 222 255
196 222 255
196 222 255
196 222 255
196 222 255
196 222 255
196 222 255
196 222 255
196 222 255
196 222 255
196 222 255
196 222 255
196 222 255
196 222 255
196 222 255
197 222 255
197 222 255
197 222 255
197 222 255
197 222 255
197 222 255
197 222 255
197 222 255
197 222 255
197 222 255
197 222 255
197 222 255
197 222 255
197 222 255
197 223 255
198 223 255
198 223 255
198 223 255
198 223 255
198 223 255
198 223 255
198 223 255
198 223 255
198 223 255
198 223 255
198 223 255
198 223 255
198 223 255
198 223 255
199 223 255
199 223 255
199 223 255
199 223 255
199 223 255
199 223 255
199 223 255
199 223 255
199 223 255
199 223 255
199 223 255
199 223 255
199 224 255
199 224 255
200 224 255
200 224 255
200 224 255
200 224 255
200 224 255
200 224 255
200 224 255
200 224 255
200 224 255
200 224 255
200 224 255
200 224 255
200 224 255
200 224 255
200 224 255
201 224 255
201 224 255
201 224 255
201 224 255
201 224 255
201 224 255
201 224 255
201 224 255
201 224 255
201 224 255
201 225 255
201 225 255
201 225 255
201 225 255
201 225 255
202 225 255
202 225 255
202 225 255
202 225 255
202 225 255
202 225 255
202 225 255
202 225 255
202 225 255
202 225 255
202 225 255
202 225 255
202 225 255
202 225 255
202 225 255
203 225 255
203 225 255
203 225 255
203 225 255
203 225 255
203 225 255
203 225 255
203 225 255
203 225 255
203 226 255
203 226 255
203 226 255
203 226 255
203 226 255
203 226 255
203 226 255
203 226 255
204 226 255
204 226 255
204 226 255
204 226 255
204 226 255
204 226 255
204 226 255
204 226 255
204 226 255
204 226 255
204 226 255
204 226 255
204 226 255
204 226 255
204 226 255
204 226 255
204 226 255
204 226 255
205 226 255
205 226 255
205 226 255
205 226 255
205 226 255
205 226 255
205 226 255
205 226 255
205 226 255
205 226 255
205 226 255
204 226 255
204 226 255
204 226 255
204 226 255
204 226 255
204 226 255
204 226 255
204 226 255
204 226 255
204 226 255
204 226 255
204 226 255
204 226 255
204 226 255
204 226 255
204 226 255
204 226 255
204 226 255
203 226 255
203 226 255
203 226 255
203 226 255
203 226 255
203 226 255
203 226 255
203 225 255
203 225 255
203 225 255
203 225 255
203 225 255
203 225 255
203 225 255
203 225 255
203 225 255
202 225 255
202 225 255
202 225 255
202 225 255
202 225 255
202 225 255
202 225 255
202 225 255
202 225 255
202 225 255
202 225 255
202 225 255
202 225 255
202 225 255
202 225 255
201 225 255
201 225 255
201 225 255
201 225 255
201 225 255
201 224 255
201 224 255
201 224 255
201 224 255
201 224 255
201 224 255
201 224 255
201 224 255
201 224 255
201 224 255
200 224 255
200 224 255
200 224 255
200 224 255
200 224 255
200 224 255
200 224 255
200 224 255
200 224 255
200 224 255
200 224 255
200 224 255
200 224 255
200 224 255
200 224 255
199 224 255
199 224 255
199 223 255
199 223 255
199 223 255
199 223 255
199 223 255
199 223 255
199 223 255
199 223 255
199 223 255
199 223 255
199 223 255
199 223 255
198 223 255
198 223 255
198 223 255
198 223 255
198 223 255
198 223 255
198 223 255
198 223 255
198 223 255
198 223 255
198 223 255
198 223 255
198 223 255
198 223 255
197 223 255
197 222 255
197 222 255
197 222 255
197 222 255
197 222 255
197 222 255
197 222 255
197 222 255
197 222 255
197 222 255
197 222 255
197 222 255
197 222 255
197 222 255
197 222 255
196 222 255
196 222 255
196 222 255
196 222 255
196 222 255
196 222 255
196 222 255
196 222 255
196 222 255
196 222 255
196 222 255
196 222 255
196 222 255
196 222 255
196 222 255
196 221 255
196 221 255
195 221 255
195 221 255
195 221 255
195 221 255
195 221 255
195 221 255
195 221 255
195 221 255
195 221 255
195 221 255
195 221 255
195 221 255
195 221 255
195 221 255
195 221 255
195 221 255
195 221 255
195 221 255
195 221 255
195 221 255
195 221 255
195 221 255
194 221 255
194 221 255
194 221 255
194 221 255
194 221 255
194 221 255
194 221 255
194 221 255
194 221 255
194 221 255
194 221 255
194 221 255
194 221 255
194 221 255
194 221 255
194 221 255
194 221 255
194 221 255
194 221 255
194 221 255
194 221 255
194 221 255
194 221 255
194 221 255
194 221 255
194 221 255
194 221 255
194 221 255
194 221 255
194 221 255
194 221 255
194 221 255
194 221 255
194 221 255
194 221 255
194 221 255
194 221 255
194 221 255
194 221 255
194 221 255
194 221 255
194 221 255
194 221 255
194 221 255
194 221 255
194 221 255
194 221 255
194 221 255
194 221 255
194 221 255
194 221 255
194 221 255
194 221 255
194 221 255
194 221 255
194 221 255
194 221 255
194 221 255
194 221 255
194 221 255
194 221 255
194 221 255
195 221 255
195 221 255
195 221 255
195 221 255
195 221 255
195 221 255
195 221 255
195 221 255
195 221 255
195 221 255
195 221 255
195 221 255
195 221 255
195 221 255
195 221 255
195 221 255
195 221 255
195 221 255
195 221 255
195 221 255
195 221 255
195 221 255
196 221 255
196 221 255
196 222 255
196 222 255
196 222 255
196 222 255
196 222 255
196 222 255
196 222 255
196 222 255
196 222 255
196 222 255
196 222 255
196 222 255
196 222 255
196 222 255
196 222 255
197 222 255
197 222 255
197 222 255
197 222 255
197 222 255
197 222 255
197 222 255
197 222 255
197 222 255
197 222 255
197 222 255
197 222 255
197 222 255
197 222 255
197 222 255
198 223 255
198 223 255
198 223 255
198 223 255
198 223 255
198 223 255
198 223 255
198 223 255
198 223 255
198 223 255
198 223 255
198 223 255
198 223 255
198 223 255
198 223 255
199 223 255
199 223 255
199 223 255
199 223 255
199 223 255
199 223 255
199 223 255
199 223 255
199 223 255
199 223 255
199 223 255
199 223 255
199 224 255
199 224 255
200 224 255
200 224 255
200 224 255
200 224 255
200 224 255
200 224 255
200 224 255
200 224 255
200 224 255
200 224 255
200 224 255
200 224 255
200 224 255
200 224 255
200 224 255
201 224 255
201 224 255
201 224 255
201 224 255
201 224 255
201 224 255
201 224 255
201 224 255
201 224 255
201 224 255
201 225 255
201 225 255
201 225 255
201 225 255
201 225 255
202 225 255
202 225 255
202 225 255
202 225 255
202 225 255
202 225 255
202 225 255
202 225 255
202 225 255
202 225 255
202 225 255
202 225 255
202 225 255
202 225 255
202 225 255
203 225 255
203 225 255
203 225 255
203 225 255
203 225 255
203 225 255
203 225 255
203 225 255
203 225 255
203 226 255
203 226 255
203 226 255
203 226 255
203 226 255
203 226 255
203 226 255
203 226 255
204 226 255
204 226 255
204 226 255
204 226 255
204 226 255
204 226 255
204 226 255
204 226 255
204 226 255
204 226 255
204 226 255
204 226 255
204 226 255
204 226 255
204 226 255
204 226 255
204 226 255
205 226 255
205 226 255
205 226 255
205 226 255
205 226 255
205 226 255
205 226 255
205 227 255
205 227 255
205 226 255
205 226 255
205 226 255
205 226 255
205 226 255
205 226 255
205 226 255
204 226 255
204 226 255
204 226 255
204 226 255
204 226 255
204 226 255
204 226 255
204 226 255
204 226 255
204 226 255
204 226 255
204 226 255
204 226 255
204 226 255
204 226 255
204 226 255
204 226 255
204 226 255
203 226 255
203 226 255
203 226 255
203 226 255
203 226 255
203 226 255
203 226 255
203 225 255
203 225 255
203 225 255
203 225 255
203 225 255
203 225 255
203 225 255
203 225 255
203 225 255
202 225 255
202 225 255
202 225 255
202 225 255
202 225 255
202 225 255
202 225 255
202 225 255
202 225 255
202 225 255
202 225 255
202 225 255
202 225 255
202 225 255
202 225 255
201 225 255
201 225 255
201 225 255
201 225 255
201 225 255
201 224 255
201 224 255
201 224 255
201 224 255
201 224 255
201 224 255
201 224 255
201 224 255
201 224 255
201 224 255
200 224 255
200 224 255
200 224 255
200 224 255
200 224 255
200 224 255
200 224 255
200 224 255
200 224 255
200 224 255
200 224 255
200 224 255
200 224 255
200 224 255
200 224 255
199 224 255
199 224 255
199 223 255
199 223 255
199 223 255
199 223 255
199 223 255
199 223 255
199 223 255
199 223 255
199 223 255
199 223 255
199 223 255
199 223 255
198 223 255
198 223 255
198 223 255
198 223 255
198 223 255
198 223 255
198 223 255
198 223 255
198 223 255
198 223 255
198 223 255
198 223 255
198 223 255
198 223 255
198 223 255
197 222 255
197 222 255
197 222 255
197 222 255
197 222 255
197 222 255
197 222 255
197 222 255
197 222 255
197 222 255
197 222 255
197 222 255
197 222 255
197 222 255
197 222 255
196 222 255
196 222 255
196 222 255
196 222 255
196 222 255
196 222 255
196 222 255
196 222 255
196 222 255
196 222 255
196 222 255
196 222 255
196 222 255
196 222 255
196 222 255
196 222 255
196 221 255
195 221 255
195 221 255
195 221 255
195 221 255
195 221 255
195 221 255
195 221 255
195 221 255
195 221 255
195 221 255
195 221 255
195 221 255
195 221 255
195 221 255
195 221 255
195 221 255
195 221 255
195 221 255
195 221 255
195 221 255
195 221 255
195 221 255
195 221 255
195 221 255
194 221 255
194 221 255
194 221 255
194 221 255
194 221 255
194 221 255
194 221 255
194 221 255
194 221 255
194 221 255
194 221 255
194 221 255
194 221 255
194 221 255
194 221 255
194 221 255
194 221 255
194 221 255
194 221 255
194 221 255
194 221 255
194 221 255
194 221 255
194 221 255
194 221 255
194 221 255
194 221 255
194 221 255
194 221 255
194 221 255
194 221 255
194 221 255
194 221 255
194 221 255
194 221 255
194 221 255
194 221 255
194 221 255
194 221 255
194 221 255
194 221 255
194 221 255
194 221 255
194 221 255
194 221 255
194 221 255
194 221 255
194 221 255
194 221 255
194 221 255
194 221 255
194 221 255
194 221 255
194 221 255
195 221 255
195 221 255
195 221 255
195 221 255
195 221 255
195 221 255
195 221 255
195 221 255
195 221 255
195 221 255
195 221 255
195 221 255
195 221 255
195 221 255
195 221 255
195 221 255
195 221 255
195 221 255
195 221 255
195 221 255
195 221 255
195 221 255
195 221 255
196 221 255
196 221 255
196 222 255
196 222 255
196 222 255
196 222 255
196 222 255
196 222 255
196 222 255
196 222 255
196 222 255
196 222 255
196 222 255
196 222 255
196 222 255
196 222 255
196 222 255
196 222 255
197 222 255
197 222 255
197 222 255
197 222 255
197 222 255
197 222 255
197 222 255
197 222 255
197 222 255
197 222 255
197 222 255
197 222 255
197 222 255
197 222 255
197 222 255
198 223 255
198 223 255
198 223 255
198 223 255
198 223 255
198 223 255
198 223 255
198 223 255
198 223 255
198 223 255
198 223 255
198 223 255
198 223 255
198 223 255
198 223 255
199 223 255
199 223 255
199 223 255
199 223 255
199 223 255
199 223 255
199 223 255
199 223 255
199 223 255
199 223 255
199 223 255
199 223 255
199 224 255
199 224 255
200 224 255
200 224 255
200 224 255
200 224 255
200 224 255
200 224 255
200 224 255
200 224 255
200 224 255
200 224 255
200 224 255
200 224 255
200 224 255
200 224 255
201 224 255
201 224 255
201 224 255
201 224 255
201 224 255
201 224 255
201 224 255
201 224 255
201 224 255
201 224 255
201 224 255
201 225 255
201 225 255
201 225 255
201 225 255
202 225 255
202 225 255
202 225 255
202 225 255
202 225 255
202 225 255
202 225 255
202 225 255
202 225 255
202 225 255
202 225 255
202 225 255
202 225 255
202 225 255
202 225 255
202 225 255
203 225 255
203 225 255
203 225 255
203 225 255
203 225 255
203 225 255
203 225 255
203 225 255
203 225 255
203 226 255
203 226 255
203 226 255
203 226 255
203 226 255
203 226 255
203 226 255
204 226 255
204 226 255
204 226 255
204 226 255
204 226 255
204 226 255
204 226 255
204 226 255
204 226 255
204 226 255
204 226 255
204 226 255
204 226 255
204 226 255
204 226 255
204 226 255
204 226 255
204 226 255
205 226 255
205 226 255
205 226 255
205 226 255
205 226 255
205 226 255
205 226 255
205 227 255
205 227 255
205 227 255
205 227 255
205 227 255
205 227 255
205 226 255
205 226 255
205 226 255
205 226 255
205 226 255
205 226 255
205 226 255
205 226 255
204 226 255
204 226 255
204 226 255
204 226 255
204 226 255
204 226 255
204 226 255
204 226 255
204 226 255
204 226 255
204 226 255
204 226 255
204 226 255
204 226 255
204 226 255
204 226 255
204 226 255
203 226 255
203 226 255
203 226 255
203 226 255
203 226 255
203 226 255
203 226 255
203 225 255
203 225 255
203 225 255
203 225 255
203 225 255
203 225 255
203 225 255
203 225 255
203 225 255
202 225 255
202 225 255
202 225 255
202 225 255
202 225 255
202 225 255
202 225 255
202 225 255
202 225 255
202 225 255
202 225 255
202 225 255
202 225 255
202 225 255
202 225 255
202 225 255
201 225 255
201 225 255
201 225 255
201 225 255
201 224 255
201 224 255
201 224 255
201 224 255
201 224 255
201 224 255
201 224 255
201 224 255
201 224 255
201 224 255
201 224 255
200 224 255
200 224 255
200 224 255
200 224 255
200 224 255
200 224 255
200 224 255
200 224 255
200 224 255
200 224 255
200 224 255
200 224 255
200 224 255
200 224 255
199 224 255
199 224 255
199 223 255
199 223 255
199 223 255
199 223 255
199 223 255
199 223 255
199 223 255
199 223 255
199 223 255
199 223 255
199 223 255
199 223 255
198 223 255
198 223 255
198 223 255
198 223 255
198 223 255
198 223 255
198 223 255
198 223 255
198 223 255
198 223 255
198 223 255
198 223 255
198 223 255
198 223 255
198 223 255
197 222 255
197 222 255
197 222 255
197 222 255
197 222 255
197 222 255
197 222 255
197 222 255
197 222 255
197 222 255
197 222 255
197 222 255
197 222 255
197 222 255
197 222 255
196 222 255
196 222 255
196 222 255
196 222 255
196 222 255
196 222 255
196 222 255
196 222 255
196 222 255
196 222 255
196 222 255
196 222 255
196 222 255
196 222 255
196 222 255
196 222 255
196 221 255
196 221 255
195 221 255
195 221 255
195 221 255
195 221 255
195 221 255
195 221 255
195 221 255
195 221 255
195 221 255
195 221 255
195 221 255
195 221 255
195 221 255
195 221 255
195 221 255
195 221 255
195 221 255
195 221 255
195 221 255
195 221 255
195 221 255
195 221 255
195 221 255
195 221 255
195 221 255
195 221 255
194 221 255
194 221 255
194 221 255
194 221 255
194 221 255
194 221 255
194 221 255
194 221 255
194 221 255
194 221 255
194 221 255
194 221 255
194 221 255
194 221 255
194 221 255
194 221 255
194 221 255
194 221 255
194 221 255
194 221 255
194 221 255
194 221 255
194 221 255
194 221 255
194 221 255
194 221 255
194 221 255
194 221 255
194 221 255
194 221 255
194 221 255
194 221 255
194 221 255
194 221 255
194 221 255
194 221 255
194 221 255
194 221 255
194 221 255
194 221 255
194 221 255
194 221 255
194 221 255
194 221 255
195 221 255
195 221 255
195 221 255
195 221 255
195 221 255
195 221 255
195 221 255
195 221 255
195 221 255
195 221 255
195 221 255
195 221 255
195 221 255
195 221 255
195 221 255
195 221 255
195 221 255
195 221 255
195 221 255
195 221 255
195 221 255
195 221 255
195 221 255
195 221 255
195 221 255
195 221 255
196 221 255
196 222 255
196 222 255
196 222 255
196 222 255
196 222 255
196 222 255
196 222 255
196 222 255
196 222 255
196 222 255
196 222 255
196 222 255
196 222 255
196 222 255
196 222 255
196 222 255
196 222 255
197 222 255
197 222 255
197 222 255
197 222 255
197 222 255
197 222 255
197 222 255
197 222 255
197 222 255
197 222 255
197 222 255
197 222 255
197 222 255
197 222 255
197 222 255
198 223 255
198 223 255
198 223 255
198 223 255
198 223 255
198 223 255
198 223 255
198 223 255
198 223 255
198 223 255
198 223 255
198 223 255
198 223 255
198 223 255
198 223 255
199 223 255
199 223 255
199 223 255
199 223 255
199 223 255
199 223 255
199 223 255
199 223 255
199 223 255
199 223 255
199 223 255
199 223 255
199 224 255
199 224 255
200 224 255
200 224 255
200 224 255
200 224 255
200 224 255
200 224 255
200 224 255
200 224 255
200 224 255
200 224 255
200 224 255
200 224 255
200 224 255
200 224 255
200 224 255
201 224 255
201 224 255
201 224 255
201 224 255
201 224 255
201 224 255
201 224 255
201 224 255
201 224 255
201 224 255
201 225 255
201 225 255
201 225 255
201 225 255
202 225 255
202 225 255
202 225 255
202 225 255
202 225 255
202 225 255
202 225 255
202 225 255
202 225 255
202 225 255
202 225 255
202 225 255
202 225 255
202 225 255
202 225 255
202 225 255
203 225 255
203 225 255
203 225 255
203 225 255
203 225 255
203 225 255
203 225 255
203 225 255
203 225 255
203 226 255
203 226 255
203 226 255
203 226 255
203 226 255
203 226 255
203 226 255
204 226 255
204 226 255
204 226 255
204 226 255
204 226 255
204 226 255
204 226 255
204 226 255
204 226 255
204 226 255
204 226 255
204 226 255
204 226 255
204 226 255
204 226 255
204 226 255
204 226 255
205 226 255
205 226 255
205 226 255
205 226 255
205 226 255
205 226 255
205 226 255
205 226 255
205 227 255
205 227 255
205 227 255
205 227 255
205 227 255
205 227 255
205 227 255
205 227 255
205 227 255
205 227 255
205 227 255
205 226 255
205 226 255
205 226 255
205 226 255
205 226 255
205 226 255
205 226 255
204 226 255
204 226 255
204 226 255
204 226 255
204 226 255
204 226 255
204 226 255
204 226 255
204 226 255
204 226 255
204 226 255
204 226 255
204 226 255
204 226 255
204 226 255
204 226 255
204 226 255
203 226 255
203 226 255
203 226 255
203 226 255
203 226 255
203 226 255
203 226 255
203 226 255
203 225 255
203 225 255
203 225 255
203 225 255
203 225 255
203 225 255
203 225 255
203 225 255
203 225 255
202 225 255
202 225 255
202 225 255
202 225 255
202 225 255
202 225 255
202 225 255
202 225 255
202 225 255
202 225 255
202 225 255
202 225 255
202 225 255
202 225 255
202 225 255
201 225 255
201 225 255
201 225 255
201 225 255
201 224 255
201 224 255
201 224 255
201 224 255
201 224 255
201 224 255
201 224 255
201 224 255
201 224 255
201 224 255
201 224 255
200 224 255
200 224 255
200 224 255
200 224 255
200 224 255
200 224 255
200 224 255
200 224 255
200 224 255
200 224 255
200 224 255
200 224 255
200 224 255
200 224 255
199 224 255
199 224 255
199 223 255
199 223 255
199 223 255
199 223 255
199 223 255
199 223 255
199 223 255
199 223 255
199 223 255
199 223 255
199 223 255
199 223 255
199 223 255
198 223 255
198 223 255
198 223 255
198 223 255
198 223 255
198 223 255
198 223 255
198 223 255
198 223 255
198 223 255
198 223 255
198 223 255
198 223 255
198 223 255
197 223 255
197 222 255
197 222 255
197 222 255
197 222 255
197 222 255
197 222 255
197 222 255
197 222 255
197 222 255
197 222 255
197 222 255
197 222 255
197 222 255
197 222 255
197 222 255
196 222 255
196 222 255
196 222 255
196 222 255
196 222 255
196 222 255
196 222 255
196 222 255
196 222 255
196 222 255
196 222 255
196 222 255
196 222 255
196 222 255
196 222 255
196 222 255
196 222 255
196 221 255
195 221 255
195 221 255
195 221 255
195 221 255
195 221 255
195 221 255
195 221 255
195 221 255
195 221 255
195 221 255
195 221 255
195 221 255
195 221 255
195 221 255
195 221 255
195 221 255
195 221 255
195 221 255
195 221 255
195 221 255
195 221 255
195 221 255
195 221 255
195 221 255
195 221 255
195 221 255
195 221 255
195 221 255
195 221 255
195 221 255
194 221 255
194 221 255
194 221 255
194 221 255
194 221 255
194 221 255
194 221 255
194 221 255
194 221 255
194 221 255
194 221 255
194 221 255
194 221 255
194 221 255
194 221 255
194 221 255
194 221 255
194 221 255
194 221 255
194 221 255
194 221 255
194 221 255
194 221 255
194 221 255
194 221 255
194 221 255
194 221 255
194 221 255
194 221 255
194 221 255
195 221 255
195 221 255
195 221 255
195 221 255
195 221 255
195 221 255
195 221 255
195 221 255
195 221 255
195 221 255
195 221 255
195 221 255
195 221 255
195 221 255
195 221 255
195 221 255
195 221 255
195 221 255
195 221 255
195 221 255
195 221 255
195 221 255
195 221 255
195 221 255
195 221 255
195 221 255
195 221 255
195 221 255
195 221 255
195 221 255
196 221 255
196 222 255
196 222 255
196 222 255
196 222 255
196 222 255
196 222 255
196 222 255
196 222 255
196 222 255
196 222 255
196 222 255
196 222 255
196 222 255
196 222 255
196 222 255
196 222 255
196 222 255
197 222 255
197 222 255
197 222 255
197 222 255
197 222 255
197 222 255
197 222 255
197 222 255
197 222 255
197 222 255
197 222 255
197 222 255
197 222 255
197 222 255
197 222 255
197 222 255
198 223 255
198 223 255
198 223 255
198 223 255
198 223 255
198 223 255
198 223 255
198 223 255
198 223 255
198 223 255
198 223 255
198 223 255
198 223 255
198 223 255
198 223 255
199 223 255
199 223 255
199 223 255
199 223 255
199 223 255
199 223 255
199 223 255
199 223 255
199 223 255
199 223 255
199 223 255
199 223 255
199 224 255
199 224 255
200 224 255
200 224 255
200 224 255
200 224 255
200 224 255
200 224 255
200 224 255
200 224 255
200 224 255
200 224 255
200 224 255
200 224 255
200 224 255
200 224 255
201 224 255
201 224 255
201 224 255
201 224 255
201 224 255
201 224 255
201 224 255
201 224 255
201 224 255
201 224 255
201 224 255
201 225 255
201 225 255
201 225 255
201 225 255
202 225 255
202 225 255
202 225 255
202 225 255
202 225 255
202 225 255
202 225 255
202 225 255
202 225 255
202 225 255
202 225 255
202 225 255
202 225 255
202 225 255
202 225 255
203 225 255
203 225 255
203 225 255
203 225 255
203 225 255
203 225 255
203 225 255
203 225 255
203 225 255
203 226 255
203 226 255
203 226 255
203 226 255
203 226 255
203 226 255
203 226 255
203 226 255
204 226 255
204 226 255
204 226 255
204 226 255
204 226 255
204 226 255
204 226 255
204 226 255
204 226 255
204 226 255
204 226 255
204 226 255
204 226 255
204 226 255
204 226 255
204 226 255
204 226 255
205 226 255
205 226 255
205 226 255
205 226 255
205 226 255
205 226 255
205 226 255
205 227 255
205 227 255
205 227 255
205 227 255
205 227 255
205 227 255
205 227 255
205 227 255
205 227 255
205 227 255
205 227 255
205 227 255
205 227 255
205 227 255
205 227 255
205 227 255
205 226 255
205 226 255
205 226 255
205 226 255
205 226 255
205 226 255
205 226 255
204 226 255
204 226 255
204 226 255
204 226 255
204 226 255
204 226 255
204 226 255
204 226 255
204 226 255
204 226 255
204 226 255
204 226 255
204 226 255
204 226 255
204 226 255
204 226 255
204 226 255
204 226 255
203 226 255
203 226 255
203 226 255
203 226 255
203 226 255
203 226 255
203 226 255
203 225 255
203 225 255
203 225 255
203 225 255
203 225 255
203 225 255
203 225 255
203 225 255
203 225 255
202 225 255
202 225 255
202 225 255
202 225 255
202 225 255
202 225 255
202 225 255
202 225 255
202 225 255
202 225 255
202 225 255
202 225 255
202 225 255
202 225 255
202 225 255
201 225 255
201 225 255
201 225 255
201 225 255
201 225 255
201 224 255
201 224 255
201 224 255
201 224 255
201 224 255
201 224 255
201 224 255
201 224 255
201 224 255
201 224 255
200 224 255
200 224 255
200 224 255
200 224 255
200 224 255
200 224 255
200 224 255
200 224 255
200 224 255
200 224 255
200 224 255
200 224 255
200 224 255
200 224 255
199 224 255
199 224 255
199 224 255
199 223 255
199 223 255
199 223 255
199 223 255
199 223 255
199 223 255
199 223 255
199 223 255
199 223 255
199 223 255
199 223 255
199 223 255
198 223 255
198 223 255
198 223 255
198 223 255
198 223 255
198 223 255
198 223 255
198 223 255
198 223 255
198 223 255
198 223 255
198 223 255
198 223 255
198 223 255
197 223 255
197 222 255
197 222 255
197 222 255
197 222 255
197 222 255
197 222 255
197 222 255
197 222 255
197 222 255
197 222 255
197 222 255
197 222 255
197 222 255
197 222 255
197 222 255
196 222 255
196 222 255
196 222 255
196 222 255
196 222 255
196 222 255
196 222 255
196 222 255
196 222 255
196 222 255
196 222 255
196 222 255
196 222 255
196 222 255
196 222 255
196 222 255
196 222 255
196 222 255
196 221 255
195 221 255
195 221 255
195 221 255
195 221 255
195 221 255
195 221 255
195 221 255
195 221 255
195 221 255
195 221 255
195 221 255
195 221 255
195 221 255
195 221 255
195 221 255
195 221 255
195 221 255
195 221 255
195 221 255
195 221 255
195 221 255
195 221 255
195 221 255
195 221 255
195 221 255
195 221 255
195 221 255
195 221 255
195 221 255
195 221 255
195 221 255
195 221 255
195 221 255
195 221 255
195 221 255
195 221 255
195 221 255
195 221 255
195 221 255
195 221 255
195 221 255
195 221 255
195 221 255
195 221 255
195 221 255
195 221 255
195 221 255
195 221 255
195 221 255
195 221 255
195 221 255
195 221 255
195 221 255
195 221 255
195 221 255
195 221 255
195 221 255
195 221 255
195 221 255
195 221 255
195 221 255
195 221 255
195 221 255
195 221 255
195 221 255
195 221 255
195 221 255
195 221 255
195 221 255
195 221 255
195 221 255
195 221 255
195 221 255
195 221 255
195 221 255
195 221 255
195 221 255
195 221 255
195 221 255
195 221 255
195 221 255
195 221 255
195 221 255
195 221 255
196 221 255
196 222 255
196 222 255
196 222 255
196 222 255
196 222 255
196 222 255
196 222 255
196 222 255
196 222 255
196 222 255
196 222 255
196 222 255
196 222 255
196 222 255
196 222 255
196 222 255
196 222 255
197 222 255
197 222 255
197 222 255
197 222 255
197 222 255
197 222 255
197 222 255
197 222 255
197 222 255
197 222 255
197 222 255
197 222 255
197 222 255
197 222 255
197 222 255
197 222 255
197 223 255
198 223 255
198 223 255
198 223 255
198 223 255
198 223 255
198 223 255
198 223 255
198 223 255
198 223 255
198 223 255
198 223 255
198 223 255
198 223 255
198 223 255
199 223 255
199 223 255
199 223 255
199 223 255
199 223 255
199 223 255
199 223 255
199 223 255
199 223 255
199 223 255
199 223 255
199 223 255
199 224 255
199 224 255
199 224 255
200 224 255
200 224 255
200 224 255
200 224 255
200 224 255
200 224 255
200 224 255
200 224 255
200 224 255
200 224 255
200 224 255
200 224 255
200 224 255
200 224 255
201 224 255
201 224 255
201 224 255
201 224 255
201 224 255
201 224 255
201 224 255
201 224 255
201 224 255
201 224 255
201 225 255
201 225 255
201 225 255
201 225 255
201 225 255
202 225 255
202 225 255
202 225 255
202 225 255
202 225 255
202 225 255
202 225 255
202 225 255
202 225 255
202 225 255
202 225 255
202 225 255
202 225 255
202 225 255
202 225 255
203 225 255
203 225 255
203 225 255
203 225 255
203 225 255
203 225 255
203 225 255
203 225 255
203 225 255
203 226 255
203 226 255
203 226 255
203 226 255
203 226 255
203 226 255
203 226 255
204 226 255
204 226 255
204 226 255
204 226 255
204 226 255
204 226 255
204 226 255
204 226 255
204 226 255
204 226 255
204 226 255
204 226 255
204 226 255
204 226 255
204 226 255
204 226 255
204 226 255
204 226 255
205 226 255
205 226 255
205 226 255
205 226 255
205 226 255
205 226 255
205 226 255
205 227 255
205 227 255
205 227 255
205 227 255
205 227 255
205 227 255
205 227 255
205 227 255
205 227 255
205 227 255
205 227 255
205 227 255
205 227 255
205 227 255
205 227 255
205 227 255
205 227 255
205 227 255
205 227 255
205 227 255
205 227 255
205 226 255
205 226 255
205 226 255
205 226 255
205 226 255
205 226 255
205 226 255
204 226 255
204 226 255
204 226 255
204 226 255
204 226 255
204 226 255
204 226 255
204 226 255
204 226 255
204 226 255
204 226 255
204 226 255
204 226 255
204 226 255
204 226 255
204 226 255
204 226 255
203 226 255
203 226 255
203 226 255
203 226 255
203 226 255
203 226 255
203 226 255
203 225 255
203 225 255
203 225 255
203 225 255
203 225 255
203 225 255
203 225 255
203 225 255
203 225 255
202 225 255
202 225 255
202 225 255
202 225 255
202 225 255
202 225 255
202 225 255
202 225 255
202 225 255
202 225 255
202 225 255
202 225 255
202 225 255
202 225 255
202 225 255
201 225 255
201 225 255
201 225 255
201 225 255
201 225 255
201 224 255
201 224 255
201 224 255
201 224 255
201 224 255
201 224 255
201 224 255
201 224 255
201 224 255
201 224 255
200 224 255
200 224 255
200 224 255
200 224 255
200 224 255
200 224 255
200 224 255
200 224 255
200 224 255
200 224 255
200 224 255
200 224 255
200 224 255
200 224 255
199 224 255
199 224 255
199 224 255
199 223 255
199 223 255
199 223 255
199 223 255
199 223 255
199 223 255
199 223 255
199 223 255
199 223 255
199 223 255
199 223 255
199 223 255
198 223 255
198 223 255
198 223 255
198 223 255
198 223 255
198 223 255
198 223 255
198 223 255
198 223 255
198 223 255
198 223 255
198 223 255
198 223 255
198 223 255
198 223 255
197 222 255
197 222 255
197 222 255
197 222 255
197 222 255
197 222 255
197 222 255
197 222 255
197 222 255
197 222 255
197 222 255
197 222 255
197 222 255
197 222 255
197 222 255
197 222 255
196 222 255
196 222 255
196 222 255
196 222 255
196 222 255
196 222 255
196 222 255
196 222 255
196 222 255
196 222 255
196 222 255
196 222 255
196 222 255
196 222 255
196 222 255
196 222 255
196 222 255
196 222 255
196 221 255
196 221 255
195 221 255
195 221 255
195 221 255
195 221 255
195 221 255
195 221 255
195 221 255
195 221 255
195 221 255
195 221 255
195 221 255
195 221 255
195 221 255
195 221 255
195 221 255
195 221 255
195 221 255
195 221 255
195 221 255
195 221 255
195 221 255
195 221 255
195 221 255
195 221 255
195 221 255
195 221 255
195 221 255
195 221 255
195 221 255
195 221 255
195 221 255
195 221 255
195 221 255
195 221 255
195 221 255
195 221 255
195 221 255
195 221 255
195 221 255
195 221 255
195 221 255
195 221 255
195 221 255
195 221 255
195 221 255
195 221 255
195 221 255
195 221 255
195 221 255
195 221 255
195 221 255
195 221 255
195 221 255
195 221 255
195 221 255
195 221 255
195 221 255
195 221 255
195 221 255
195 221 255
195 221 255
195 221 255
195 221 255
195 221 255
195 221 255
195 221 255
195 221 255
195 221 255
195 221 255
195 221 255
195 221 255
195 221 255
195 221 255
195 221 255
195 221 255
195 221 255
196 221 255
196 221 255
196 222 255
196 222 255
196 222 255
196 222 255
196 222 255
196 222 255
196 222 255
196 222 255
196 222 255
196 222 255
196 222 255
196 222 255
196 222 255
196 222 255
196 222 255
196 222 255
196 222 255
196 222 255
197 222 255
197 222 255
197 222 255
197 222 255
197 222 255
197 222 255
197 222 255
197 222 255
197 222 255
197 222 255
197 222 255
197 222 255
197 222 255
197 222 255
197 222 255
197 222 255
198 223 255
198 223 255
198 223 255
198 223 255
198 223 255
198 223 255
198 223 255
198 223 255
198 223 255
198 223 255
198 223 255
198 223 255
198 223 255
198 223 255
198 223 255
199 223 255
199 223 255
199 223 255
199 223 255
199 223 255
199 223 255
199 223 255
199 223 255
199 223 255
199 223 255
199 223 255
199 223 255
199 224 255
199 224 255
199 224 255
200 224 255
200 224 255
200 224 255
200 224 255
200 224 255
200 224 255
200 224 255
200 224 255
200 224 255
200 224 255
200 224 255
200 224 255
200 224 255
200 224 255
201 224 255
201 224 255
201 224 255
201 224 255
201 224 255
201 224 255
201 224 255
201 224 255
201 224 255
201 224 255
201 225 255
201 225 255
201 225 255
201 225 255
201 225 255
202 225 255
202 225 255
202 225 255
202 225 255
202 225 255
202 225 255
202 225 255
202 225 255
202 225 255
202 225 255
202 225 255
202 225 255
202 225 255
202 225 255
202 225 255
203 225 255
203 225 255
203 225 255
203 225 255
203 225 255
203 225 255
203 225 255
203 225 255
203 225 255
203 226 255
203 226 255
203 226 255
203 226 255
203 226 255
203 226 255
203 226 255
204 226 255
204 226 255
204 226 255
204 226 255
204 226 255
204 226 255
204 226 255
204 226 255
204 226 255
204 226 255
204 226 255
204 226 255
204 226 255
204 226 255
204 226 255
204 226 255
204 226 255
205 226 255
205 226 255
205 226 255
205 226 255
205 226 255
205 226 255
205 226 255
205 227 255
205 227 255
205 227 255
205 227 255
205 227 255
205 227 255
205 227 255
205 227 255
205 227 255
205 227 255
205 227 255
205 227 255
206 227 255
206 227 255
206 227 255
205 227 255
205 227 255
205 227 255
205 227 255
205 227 255
205 227 255
205 227 255
205 227 255
205 227 255
205 227 255
205 227 255
205 226 255
205 226 255
205 226 255
205 226 255
205 226 255
205 226 255
205 226 255
204 226 255
204 226 255
204 226 255
204 226 255
204 226 255
204 226 255
204 226 255
204 226 255
204 226 255
204 226 255
204 226 255
204 226 255
204 226 255
204 226 255
204 226 255
204 226 255
204 226 255
203 226 255
203 226 255
203 226 255
203 226 255
203 226 255
203 226 255
203 226 255
203 226 255
203 225 255
203 225 255
203 225 255
203 225 255
203 225 255
203 225 255
203 225 255
203 225 255
202 225 255
202 225 255
202 225 255
202 225 255
202 225 255
202 225 255
202 225 255
202 225 255
202 225 255
202 225 255
202 225 255
202 225 255
202 225 255
202 225 255
202 225 255
202 225 255
201 225 255
201 225 255
201 225 255
201 225 255
201 224 255
201 224 255
201 224 255
201 224 255
201 224 255
201 224 255
201 224 255
201 224 255
201 224 255
201 224 255
200 224 255
200 224 255
200 224 255
200 224 255
200 224 255
200 224 255
200 224 255
200 224 255
200 224 255
200 224 255
200 224 255
200 224 255
200 224 255
200 224 255
200 224 255
199 224 255
199 224 255
199 223 255
199 223 255
199 223 255
199 223 255
199 223 255
199 223 255
199 223 255
199 223 255
199 223 255
199 223 255
199 223 255
199 223 255
198 223 255
198 223 255
198 223 255
198 223 255
198 223 255
198 223 255
198 223 255
198 223 255
198 223 255
198 223 255
198 223 255
198 223 255
198 223 255
198 223 255
198 223 255
197 223 255
197 222 255
197 222 255
197 222 255
197 222 255
197 222 255
197 222 255
197 222 255
197 222 255
197 222 255
197 222 255
197 222 255
197 222 255
197 222 255
197 222 255
197 222 255
197 222 255
196 222 255
196 222 255
196 222 255
196 222 255
196 222 255
196 222 255
196 222 255
196 222 255
196 222 255
196 222 255
196 222 255
196 222 255
196 222 255
196 222 255
196 222 255
196 222 255
196 222 255
196 222 255
196 221 255
196 221 255
196 221 255
195 221 255
195 221 255
195 221 255
195 221 255
195 221 255
195 221 255
195 221 255
195 221 255
195 221 255
195 221 255
195 221 255
195 221 255
195 221 255
195 221 255
195 221 255
195 221 255
195 221 255
195 221 255
195 221 255
195 221 255
195 221 255
195 221 255
195 221 255
195 221 255
195 221 255
195 221 255
195 221 255
195 221 255
195 221 255
195 221 255
195 221 255
195 221 255
195 221 255
195 221 255
195 221 255
195 221 255
195 221 255
195 221 255
195 221 255
195 221 255
195 221 255
195 221 255
195 221 255
195 221 255
195 221 255
195 221 255
195 221 255
195 221 255
195 221 255
195 221 255
195 221 255
195 221 255
195 221 255
195 221 255
195 221 255
195 221 255
195 221 255
195 221 255
195 221 255
195 221 255
195 221 255
195 221 255
195 221 255
195 221 255
195 221 255
195 221 255
195 221 255
195 221 255
196 221 255
196 221 255
196 221 255
196 222 255
196 222 255
196 222 255
196 222 255
196 222 255
196 222 255
196 222 255
196 222 255
196 222 255
196 222 255
196 222 255
196 222 255
196 222 255
196 222 255
196 222 255
196 222 255
196 222 255
196 222 255
197 222 255
197 222 255
197 222 255
197 222 255
197 222 255
197 222 255
197 222 255
197 222 255
197 222 255
197 222 255
197 222 255
197 222 255
197 222 255
197 222 255
197 222 255
197 222 255
197 223 255
198 223 255
198 223 255
198 223 255
198 223 255
198 223 255
198 223 255
198 223 255
198 223 255
198 223 255
198 223 255
198 223 255
198 223 255
198 223 255
198 223 255
198 223 255
199 223 255
199 223 255
199 223 255
199 223 255
199 223 255
199 223 255
199 223 255
199 223 255
199 223 255
199 223 255
199 223 255
199 223 255
199 224 255
199 224 255
200 224 255
200 224 255
200 224 255
200 224 255
200 224 255
200 224 255
200 224 255
200 224 255
200 224 255
200 224 255
200 224 255
200 224 255
200 224 255
200 224 255
200 224 255
201 224 255
201 224 255
201 224 255
201 224 255
201 224 255
201 224 255
201 224 255
201 224 255
201 224 255
201 224 255
201 225 255
201 225 255
201 225 255
201 225 255
202 225 255
202 225 255
202 225 255
202 225 255
202 225 255
202 225 255
202 225 255
202 225 255
202 225 255
202 225 255
202 225 255
202 225 255
202 225 255
202 225 255
202 225 255
202 225 255
203 225 255
203 225 255
203 225 255
203 225 255
203 225 255
203 225 255
203 225 255
203 225 255
203 226 255
203 226 255
203 226 255
203 226 255
203 226 255
203 226 255
203 226 255
203 226 255
204 226 255
204 226 255
204 226 255
204 226 255
204 226 255
204 226 255
204 226 255
204 226 255
204 226 255
204 226 255
204 226 255
204 226 255
204 226 255
204 226 255
204 226 255
204 226 255
204 226 255
205 226 255
205 226 255
205 226 255
205 226 255
205 226 255
205 226 255
205 226 255
205 227 255
205 227 255
205 227 255
205 227 255
205 227 255
205 227 255
205 227 255
205 227 255
205 227 255
205 227 255
205 227 255
206 227 255
206 227 255
206 227 255
206 227 255
206 227 255
206 227 255
206 227 255
206 227 255
205 227 255
205 227 255
205 227 255
205 227 255
205 227 255
205 227 255
205 227 255
205 227 255
205 227 255
205 227 255
205 227 255
205 226 255
205 226 255
205 226 255
205 226 255
205 226 255
205 226 255
205 226 255
205 226 255
204 226 255
204 226 255
204 226 255
204 226 255
204 226 255
204 226 255
204 226 255
204 226 255
204 226 255
204 226 255
204 226 255
204 226 255
204 226 255
204 226 255
204 226 255
204 226 255
204 226 255
203 226 255
203 226 255
203 226 255
203 226 255
203 226 255
203 226 255
203 226 255
203 225 255
203 225 255
203 225 255
203 225 255
203 225 255
203 225 255
203 225 255
203 225 255
203 225 255
202 225 255
202 225 255
202 225 255
202 225 255
202 225 255
202 225 255
202 225 255
202 225 255
202 225 255
202 225 255
202 225 255
202 225 255
202 225 255
202 225 255
202 225 255
201 225 255
201 225 255
201 225 255
201 225 255
201 224 255
201 224 255
201 224 255
201 224 255
201 224 255
201 224 255
201 224 255
201 224 255
201 224 255
201 224 255
201 224 255
200 224 255
200 224 255
200 224 255
200 224 255
200 224 255
200 224 255
200 224 255
200 224 255
200 224 255
200 224 255
200 224 255
200 224 255
200 224 255
200 224 255
199 224 255
199 224 255
199 223 255
199 223 255
199 223 255
199 223 255
199 223 255
199 223 255
199 223 255
199 223 255
199 223 255
199 223 255
199 223 255
199 223 255
198 223 255
198 223 255
198 223 255
198 223 255
198 223 255
198 223 255
198 223 255
198 223 255
198 223 255
198 223 255
198 223 255
198 223 255
198 223 255
198 223 255
198 223 255
198 223 255
197 222 255
197 222 255
197 222 255
197 222 255
197 222 255
197 222 255
197 222 255
197 222 255
197 222 255
197 222 255
197 222 255
197 222 255
197 222 255
197 222 255
197 222 255
197 222 255
197 222 255
196 222 255
196 222 255
196 222 255
196 222 255
196 222 255
196 222 255
196 222 255
196 222 255
196 222 255
196 222 255
196 222 255
196 222 255
196 222 255
196 222 255
196 222 255
196 222 255
196 222 255
196 222 255
196 222 255
196 222 255
196 221 255
196 221 255
195 221 255
195 221 255
195 221 255
195 221 255
195 221 255
195 221 255
195 221 255
195 221 255
195 221 255
195 221 255
195 221 255
195 221 255
195 221 255
195 221 255
195 221 255
195 221 255
195 221 255
195 221 255
195 221 255
195 221 255
195 221 255
195 221 255
195 221 255
195 221 255
195 221 255
195 221 255
195 221 255
195 221 255
195 221 255
195 221 255
195 221 255
195 221 255
195 221 255
195 221 255
195 221 255
195 221 255
195 221 255
195 221 255
195 221 255
195 221 255
195 221 255
195 221 255
195 221 255
195 221 255
195 221 255
195 221 255
195 221 255
195 221 255
195 221 255
195 221 255
195 221 255
195 221 255
195 221 255
195 221 255
195 221 255
195 221 255
195 221 255
195 221 255
195 221 255
195 221 255
196 221 255
196 221 255
196 222 255
196 222 255
196 222 255
196 222 255
196 222 255
196 222 255
196 222 255
196 222 255
196 222 255
196 222 255
196 222 255
196 222 255
196 222 255
196 222 255
196 222 255
196 222 255
196 222 255
196 222 255
196 222 255
196 222 255
197 222 255
197 222 255
197 222 255
197 222 255
197 222 255
197 222 255
197 222 255
197 222 255
197 222 255
197 222 255
197 222 255
197 222 255
197 222 255
197 222 255
197 222 255
197 222 255
197 222 255
198 223 255
198 223 255
198 223 255
198 223 255
198 223 255
198 223 255
198 223 255
198 223 255
198 223 255
198 223 255
198 223 255
198 223 255
198 223 255
198 223 255
198 223 255
198 223 255
199 223 255
199 223 255
199 223 255
199 223 255
199 223 255
199 223 255
199 223 255
199 223 255
199 223 255
199 223 255
199 223 255
199 223 255
199 224 255
199 224 255
200 224 255
200 224 255
200 224 255
200 224 255
200 224 255
200 224 255
200 224 255
200 224 255
200 224 255
200 224 255
200 224 255
200 224 255
200 224 255
200 224 255
200 224 255
201 224 255
201 224 255
201 224 255
201 224 255
201 224 255
201 224 255
201 224 255
201 224 255
201 224 255
201 224 255
201 225 255
201 225 255
201 225 255
201 225 255
202 225 255
202 225 255
202 225 255
202 225 255
202 225 255
202 225 255
202 225 255
202 225 255
202 225 255
202 225 255
202 225 255
202 225 255
202 225 255
202 225 255
202 225 255
203 225 255
203 225 255
203 225 255
203 225 255
203 225 255
203 225 255
203 225 255
203 225 255
203 225 255
203 226 255
203 226 255
203 226 255
203 226 255
203 226 255
203 226 255
203 226 255
204 226 255
204 226 255
204 226 255
204 226 255
204 226 255
204 226 255
204 226 255
204 226 255
204 226 255
204 226 255
204 226 255
204 226 255
204 226 255
204 226 255
204 226 255
204 226 255
204 226 255
205 226 255
205 226 255
205 226 255
205 226 255
205 226 255
205 226 255
205 226 255
205 227 255
205 227 255
205 227 255
205 227 255
205 227 255
205 227 255
205 227 255
205 227 255
205 227 255
205 227 255
205 227 255
206 227 255
206 227 255
206 227 255
206 227 255
206 227 255
206 227 255
206 227 255
206 227 255
206 227 255
206 227 255
206 227 255
206 227 255
206 227 255
206 227 255
205 227 255
205 227 255
205 227 255
205 227 255
205 227 255
205 227 255
205 227 255
205 227 255
205 227 255
205 227 255
205 227 255
205 226 255
205 226 255
205 226 255
205 226 255
205 226 255
205 226 255
205 226 255
204 226 255
204 226 255
204 226 255
204 226 255
204 226 255
204 226 255
204 226 255
204 226 255
204 226 255
204 226 255
204 226 255
204 226 255
204 226 255
204 226 255
204 226 255
204 226 255
204 226 255
203 226 255
203 226 255
203 226 255
203 226 255
203 226 255
203 226 255
203 226 255
203 225 255
203 225 255
203 225 255
203 225 255
203 225 255
203 225 255
203 225 255
203 225 255
203 225 255
202 225 255
202 225 255
202 225 255
202 225 255
202 225 255
202 225 255
202 225 255
202 225 255
202 225 255
202 225 255
202 225 255
202 225 255
202 225 255
202 225 255
202 225 255
201 225 255
201 225 255
201 225 255
201 225 255
201 224 255
201 224 255
201 224 255
201 224 255
201 224 255
201 224 255
201 224 255
201 224 255
201 224 255
201 224 255
201 224 255
200 224 255
200 224 255
200 224 255
200 224 255
200 224 255
200 224 255
200 224 255
200 224 255
200 224 255
200 224 255
200 224 255
200 224 255
200 224 255
200 224 255
199 224 255
199 224 255
199 223 255
199 223 255
199 223 255
199 223 255
199 223 255
199 223 255
199 223 255
199 223 255
199 223 255
199 223 255
199 223 255
199 223 255
199 223 255
198 223 255
198 223 255
198 223 255
198 223 255
198 223 255
198 223 255
198 223 255
198 223 255
198 223 255
198 223 255
198 223 255
198 223 255
198 223 255
198 223 255
198 223 255
197 223 255
197 222 255
197 222 255
197 222 255
197 222 255
197 222 255
197 222 255
197 222 255
197 222 255
197 222 255
197 222 255
197 222 255
197 222 255
197 222 255
197 222 255
197 222 255
197 222 255
197 222 255
196 222 255
196 222 255
196 222 255
196 222 255
196 222 255
196 222 255
196 222 255
196 222 255
196 222 255
196 222 255
196 222 255
196 222 255
196 222 255
196 222 255
196 222 255
196 222 255
196 222 255
196 222 255
196 222 255
196 222 255
196 222 255
196 221 255
196 221 255
196 221 255
195 221 255
195 221 255
195 221 255
195 221 255
195 221 255
195 221 255
195 221 255
195 221 255
195 221 255
195 221 255
195 221 255
195 221 255
195 221 255
195 221 255
195 221 255
195 221 255
195 221 255
195 221 255
195 221 255
195 221 255
195 221 255
195 221 255
195 221 255
195 221 255
195 221 255
195 221 255
195 221 255
195 221 255
195 221 255
195 221 255
195 221 255
195 221 255
195 221 255
195 221 255
195 221 255
195 221 255
195 221 255
195 221 255
195 221 255
195 221 255
195 221 255
195 221 255
195 221 255
195 221 255
195 221 255
195 221 255
195 221 255
195 221 255
195 221 255
195 221 255
196 221 255
196 221 255
196 221 255
196 222 255
196 222 255
196 222 255
196 222 255
196 222 255
196 222 255
196 222 255
196 222 255
196 222 255
196 222 255
196 222 255
196 222 255
196 222 255
196 222 255
196 222 255
196 222 255
196 222 255
196 222 255
196 222 255
196 222 255
196 222 255
197 222 255
197 222 255
197 222 255
197 222 255
197 222 255
197 222 255
197 222 255
197 222 255
197 222 255
197 222 255
197 222 255
197 222 255
197 222 255
197 222 255
197 222 255
197 222 255
197 222 255
197 223 255
198 223 255
198 223 255
198 223 255
198 223 255
198 223 255
198 223 255
198 223 255
198 223 255
198 223 255
198 223 255
198 223 255
198 223 255
198 223 255
198 223 255
198 223 255
199 223 255
199 223 255
199 223 255
199 223 255
199 223 255
199 223 255
199 223 255
199 223 255
199 223 255
199 223 255
199 223 255
199 223 255
199 223 255
199 224 255
199 224 255
200 224 255
200 224 255
200 224 255
200 224 255
200 224 255
200 224 255
200 224 255
200 224 255
200 224 255
200 224 255
200 224 255
200 224 255
200 224 255
200 224 255
201 224 255
201 224 255
201 224 255
201 224 255
201 224 255
201 224 255
201 224 255
201 224 255
201 224 255
201 224 255
201 224 255
201 225 255
201 225 255
201 225 255
201 225 255
202 225 255
202 225 255
202 225 255
202 225 255
202 225 255
202 225 255
202 225 255
202 225 255
202 225 255
202 225 255
202 225 255
202 225 255
202 225 255
202 225 255
202 225 255
203 225 255
203 225 255
203 225 255
203 225 255
203 225 255
203 225 255
203 225 255
203 225 255
203 225 255
203 226 255
203 226 255
203 226 255
203 226 255
203 226 255
203 226 255
203 226 255
204 226 255
204 226 255
204 226 255
204 226 255
204 226 255
204 226 255
204 226 255
204 226 255
204 226 255
204 226 255
204 226 255
204 226 255
204 226 255
204 226 255
204 226 255
204 226 255
204 226 255
205 226 255
205 226 255
205 226 255
205 226 255
205 226 255
205 226 255
205 226 255
205 227 255
205 227 255
205 227 255
205 227 255
205 227 255
205 227 255
205 227 255
205 227 255
205 227 255
205 227 255
205 227 255
206 227 255
206 227 255
206 227 255
206 227 255
206 227 255
206 227 255
206 227 255
206 227 255
206 227 255
206 227 255
206 227 255
206 227 255
206 227 255
206 227 255
206 227 255
206 227 255
206 227 255
206 227 255
206 227 255
205 227 255
205 227 255
205 227 255
205 227 255
205 227 255
205 227 255
205 227 255
205 227 255
205 227 255
205 227 255
205 227 255
205 226 255
205 226 255
205 226 255
205 226 255
205 226 255
205 226 255
205 226 255
204 226 255
204 226 255
204 226 255
204 226 255
204 226 255
204 226 255
204 226 255
204 226 255
204 226 255
204 226 255
204 226 255
204 226 255
204 226 255
204 226 255
204 226 255
204 226 255
204 226 255
203 226 255
203 226 255
203 226 255
203 226 255
203 226 255
203 226 255
203 226 255
203 225 255
203 225 255
203 225 255
203 225 255
203 225 255
203 225 255
203 225 255
203 225 255
202 225 255
202 225 255
202 225 255
202 225 255
202 225 255
202 225 255
202 225 255
202 225 255
202 225 255
202 225 255
202 225 255
202 225 255
202 225 255
202 225 255
202 225 255
201 225 255
201 225 255
201 225 255
201 225 255
201 225 255
201 224 255
201 224 255
201 224 255
201 224 255
201 224 255
201 224 255
201 224 255
201 224 255
201 224 255
201 224 255
200 224 255
200 224 255
200 224 255
200 224 255
200 224 255
200 224 255
200 224 255
200 224 255
200 224 255
200 224 255
200 224 255
200 224 255
200 224 255
200 224 255
200 224 255
199 224 255
199 224 255
199 223 255
199 223 255
199 223 255
199 223 255
199 223 255
199 223 255
199 223 255
199 223 255
199 223 255
199 223 255
199 223 255
199 223 255
198 223 255
198 223 255
198 223 255
198 223 255
198 223 255
198 223 255
198 223 255
198 223 255
198 223 255
198 223 255
198 223 255
198 223 255
198 223 255
198 223 255
198 223 255
198 223 255
197 222 255
197 222 255
197 222 255
197 222 255
197 222 255
197 222 255
197 222 255
197 222 255
197 222 255
197 222 255
197 222 255
197 222 255
197 222 255
197 222 255
197 222 255
197 222 255
197 222 255
197 222 255
196 222 255
196 222 255
196 222 255
196 222 255
196 222 255
196 222 255
196 222 255
196 222 255
196 222 255
196 222 255
196 222 255
196 222 255
196 222 255
196 222 255
196 222 255
196 222 255
196 222 255
196 222 255
196 222 255
196 222 255
196 222 255
196 222 255
196 222 255
196 221 255
196 221 255
196 221 255
196 221 255
195 221 255
195 221 255
195 221 255
195 221 255
195 221 255
195 221 255
195 221 255
195 221 255
195 221 255
195 221 255
195 221 255
195 221 255
195 221 255
195 221 255
195 221 255
195 221 255
195 221 255
195 221 255
195 221 255
195 221 255
195 221 255
195 221 255
195 221 255
195 221 255
195 221 255
195 221 255
195 221 255
195 221 255
195 221 255
195 221 255
195 221 255
195 221 255
195 221 255
195 221 255
195 221 255
195 221 255
195 221 255
195 221 255
196 221 255
196 221 255
196 221 255
196 222 255
196 222 255
196 222 255
196 222 255
196 222 255
196 222 255
196 222 255
196 222 255
196 222 255
196 222 255
196 222 255
196 222 255
196 222 255
196 222 255
196 222 255
196 222 255
196 222 255
196 222 255
196 222 255
196 222 255
196 222 255
196 222 255
196 222 255
196 222 255
197 222 255
197 222 255
197 222 255
197 222 255
197 222 255
197 222 255
197 222 255
197 222 255
197 222 255
197 222 255
197 222 255
197 222 255
197 222 255
197 222 255
197 222 255
197 222 255
197 222 255
197 222 255
198 223 255
198 223 255
198 223 255
198 223 255
198 223 255
198 223 255
198 223 255
198 223 255
198 223 255
198 223 255
198 223 255
198 223 255
198 223 255
198 223 255
198 223 255
198 223 255
199 223 255
199 223 255
199 223 255
199 223 255
199 223 255
199 223 255
199 223 255
199 223 255
199 223 255
199 223 255
199 223 255
199 223 255
199 224 255
199 224 255
199 224 255
200 224 255
200 224 255
200 224 255
200 224 255
200 224 255
200 224 255
200 224 255
200 224 255
200 224 255
200 224 255
200 224 255
200 224 255
200 224 255
200 224 255
201 224 255
201 224 255
201 224 255
201 224 255
201 224 255
201 224 255
201 224 255
201 224 255
201 224 255
201 224 255
201 225 255
201 225 255
201 225 255
201 225 255
201 225 255
202 225 255
202 225 255
202 225 255
202 225 255
202 225 255
202 225 255
202 225 255
202 225 255
202 225 255
202 225 255
202 225 255
202 225 255
202 225 255
202 225 255
202 225 255
203 225 255
203 225 255
203 225 255
203 225 255
203 225 255
203 225 255
203 225 255
203 225 255
203 226 255
203 226 255
203 226 255
203 226 255
203 226 255
203 226 255
203 226 255
204 226 255
204 226 255
204 226 255
204 226 255
204 226 255
204 226 255
204 226 255
204 226 255
204 226 255
204 226 255
204 226 255
204 226 255
204 226 255
204 226 255
204 226 255
204 226 255
204 226 255
205 226 255
205 226 255
205 226 255
205 226 255
205 226 255
205 226 255
205 226 255
205 227 255
205 227 255
205 227 255
205 227 255
205 227 255
205 227 255
205 227 255
205 227 255
205 227 255
205 227 255
205 227 255
206 227 255
206 227 255
206 227 255
206 227 255
206 227 255
206 227 255
206 227 255
206 227 255
206 227 255
206 227 255
206 227 255
206 227 255
206 227 255
206 227 255
206 227 255
206 227 255
206 227 255
206 227 255
206 227 255
206 227 255
206 227 255
206 227 255
206 227 255
206 227 255
205 227 255
205 227 255
205 227 255
205 227 255
205 227 255
205 227 255
205 227 255
205 227 255
205 227 255
205 227 255
205 227 255
205 226 255
205 226 255
205 226 255
205 226 255
205 226 255
205 226 255
205 226 255
204 226 255
204 226 255
204 226 255
204 226 255
204 226 255
204 226 255
204 226 255
204 226 255
204 226 255
204 226 255
204 226 255
204 226 255
204 226 255
204 226 255
204 226 255
204 226 255
204 226 255
203 226 255
203 226 255
203 226 255
203 226 255
203 226 255
203 226 255
203 226 255
203 225 255
203 225 255
203 225 255
203 225 255
203 225 255
203 225 255
203 225 255
203 225 255
203 225 255
202 225 255
202 225 255
202 225 255
202 225 255
202 225 255
202 225 255
202 225 255
202 225 255
202 225 255
202 225 255
202 225 255
202 225 255
202 225 255
202 225 255
202 225 255
201 225 255
201 225 255
201 225 255
201 225 255
201 224 255
201 224 255
201 224 255
201 224 255
201 224 255
201 224 255
201 224 255
201 224 255
201 224 255
201 224 255
200 224 255
200 224 255
200 224 255
200 224 255
200 224 255
200 224 255
200 224 255
200 224 255
200 224 255
200 224 255
200 224 255
200 224 255
200 224 255
200 224 255
200 224 255
199 224 255
199 224 255
199 223 255
199 223 255
199 223 255
199 223 255
199 223 255
199 223 255
199 223 255
199 223 255
199 223 255
199 223 255
199 223 255
199 223 255
199 223 255
198 223 255
198 223 255
198 223 255
198 223 255
198 223 255
198 223 255
198 223 255
198 223 255
198 223 255
198 223 255
198 223 255
198 223 255
198 223 255
198 223 255
198 223 255
197 223 255
197 222 255
197 222 255
197 222 255
197 222 255
197 222 255
197 222 255
197 222 255
197 222 255
197 222 255
197 222 255
197 222 255
197 222 255
197 222 255
197 222 255
197 222 255
197 222 255
197 222 255
197 222 255
196 222 255
196 222 255
196 222 255
196 222 255
196 222 255
196 222 255
196 222 255
196 222 255
196 222 255
196 222 255
196 222 255
196 222 255
196 222 255
196 222 255
196 222 255
196 222 255
196 222 255
196 222 255
196 222 255
196 222 255
196 222 255
196 222 255
196 222 255
196 222 255
196 222 255
196 222 255
196 222 255
196 221 255
196 221 255
196 221 255
196 221 255
196 221 255
196 221 255
195 221 255
195 221 255
195 221 255
195 221 255
195 221 255
195 221 255
195 221 255
195 221 255
195 221 255
195 221 255
195 221 255
195 221 255
195 221 255
195 221 255
195 221 255
195 221 255
195 221 255
195 221 255
195 221 255
195 221 255
196 221 255
196 221 255
196 221 255
196 221 255
196 221 255
196 221 255
196 222 255
196 222 255
196 222 255
196 222 255
196 222 255
196 222 255
196 222 255
196 222 255
196 222 255
196 222 255
196 222 255
196 222 255
196 222 255
196 222 255
196 222 255
196 222 255
196 222 255
196 222 255
196 222 255
196 222 255
196 222 255
196 222 255
196 222 255
196 222 255
196 222 255
196 222 255
196 222 255
197 222 255
197 222 255
197 222 255
197 222 255
197 222 255
197 222 255
197 222 255
197 222 255
197 222 255
197 222 255
197 222 255
197 222 255
197 222 255
197 222 255
197 222 255
197 222 255
197 222 255
197 222 255
197 223 255
198 223 255
198 223 255
198 223 255
198 223 255
198 223 255
198 223 255
198 223 255
198 223 255
198 223 255
198 223 255
198 223 255
198 223 255
198 223 255
198 223 255
198 223 255
198 223 255
199 223 255
199 223 255
199 223 255
199 223 255
199 223 255
199 223 255
199 223 255
199 223 255
199 223 255
199 223 255
199 223 255
199 223 255
199 224 255
199 224 255
200 224 255
200 224 255
200 224 255
200 224 255
200 224 255
200 224 255
200 224 255
200 224 255
200 224 255
200 224 255
200 224 255
200 224 255
200 224 255
200 224 255
200 224 255
201 224 255
201 224 255
201 224 255
201 224 255
201 224 255
201 224 255
201 224 255
201 224 255
201 224 255
201 224 255
201 225 255
201 225 255
201 225 255
201 225 255
202 225 255
202 225 255
202 225 255
202 225 255
202 225 255
202 225 255
202 225 255
202 225 255
202 225 255
202 225 255
202 225 255
202 225 255
202 225 255
202 225 255
202 225 255
203 225 255
203 225 255
203 225 255
203 225 255
203 225 255
203 225 255
203 225 255
203 225 255
203 225 255
203 226 255
203 226 255
203 226 255
203 226 255
203 226 255
203 226 255
203 226 255
204 226 255
204 226 255
204 226 255
204 226 255
204 226 255
204 226 255
204 226 255
204 226 255
204 226 255
204 226 255
204 226 255
204 226 255
204 226 255
204 226 255
204 226 255
204 226 255
204 226 255
205 226 255
205 226 255
205 226 255
205 226 255
205 226 255
205 226 255
205 226 255
205 227 255
205 227 255
205 227 255
205 227 255
205 227 255
205 227 255
205 227 255
205 227 255
205 227 255
205 227 255
205 227 255
206 227 255
206 227 255
206 227 255
206 227 255
206 227 255
206 227 255
206 227 255
206 227 255
206 227 255
206 227 255
206 227 255
206 227 255
206 227 255
206 227 255
206 227 255
206 227 255
206 227 255
206 227 255
206 227 255
206 227 255
206 227 255
206 227 255
206 227 255
206 227 255
206 227 255
206 227 255
206 227 255
206 227 255
206 227 255
205 227 255
205 227 255
205 227 255
205 227 255
205 227 255
205 227 255
205 227 255
205 227 255
205 227 255
205 227 255
205 227 255
205 226 255
205 226 255
205 226 255
205 226 255
205 226 255
205 226 255
205 226 255
204 226 255
204 226 255
204 226 255
204 226 255
204 226 255
204 226 255
204 226 255
204 226 255
204 226 255
204 226 255
204 226 255
204 226 255
204 226 255
204 226 255
204 226 255
204 226 255
203 226 255
203 226 255
203 226 255
203 226 255
203 226 255
203 226 255
203 226 255
203 225 255
203 225 255
203 225 255
203 225 255
203 225 255
203 225 255
203 225 255
203 225 255
203 225 255
202 225 255
202 225 255
202 225 255
202 225 255
202 225 255
202 225 255
202 225 255
202 225 255
202 225 255
202 225 255
202 225 255
202 225 255
202 225 255
202 225 255
202 225 255
201 225 255
201 225 255
201 225 255
201 225 255
201 224 255
201 224 255
201 224 255
201 224 255
201 224 255
201 224 255
201 224 255
201 224 255
201 224 255
201 224 255
200 224 255
200 224 255
200 224 255
200 224 255
200 224 255
200 224 255
200 224 255
200 224 255
200 224 255
200 224 255
200 224 255
200 224 255
200 224 255
200 224 255
200 224 255
199 224 255
199 224 255
199 223 255
199 223 255
199 223 255
199 223 255
199 223 255
199 223 255
199 223 255
199 223 255
199 223 255
199 223 255
199 223 255
199 223 255
199 223 255
198 223 255
198 223 255
198 223 255
198 223 255
198 223 255
198 223 255
198 223 255
198 223 255
198 223 255
198 223 255
198 223 255
198 223 255
198 223 255
198 223 255
198 223 255
198 223 255
197 223 255
197 222 255
197 222 255
197 222 255
197 222 255
197 222 255
197 222 255
197 222 255
197 222 255
197 222 255
197 222 255
197 222 255
197 222 255
197 222 255
197 222 255
197 222 255
197 222 255
197 222 255
197 222 255
197 222 255
196 222 255
196 222 255
196 222 255
196 222 255
196 222 255
196 222 255
196 222 255
196 222 255
196 222 255
196 222 255
196 222 255
196 222 255
196 222 255
196 222 255
196 222 255
196 222 255
196 222 255
196 222 255
196 222 255
196 222 255
196 222 255
196 222 255
196 222 255
196 222 255
196 222 255
196 222 255
196 222 255
196 222 255
196 222 255
196 222 255
196 222 255
196 222 255
196 222 255
196 222 255
196 222 255
196 222 255
196 222 255
196 222 255
196 222 255
196 222 255
196 222 255
196 222 255
196 222 255
196 222 255
196 222 255
196 222 255
196 222 255
196 222 255
196 222 255
196 222 255
196 222 255
196 222 255
196 222 255
196 222 255
196 222 255
196 222 255
196 222 255
196 222 255
196 222 255
196 222 255
196 222 255
196 222 255
196 222 255
196 222 255
196 222 255
196 222 255
196 222 255
196 222 255
196 222 255
196 222 255
196 222 255
196 222 255
196 222 255
196 222 255
196 222 255
196 222 255
196 222 255
196 222 255
197 222 255
197 222 255
197 222 255
197 222 255
197 222 255
197 222 255
197 222 255
197 222 255
197 222 255
197 222 255
197 222 255
197 222 255
197 222 255
197 222 255
197 222 255
197 222 255
197 222 255
197 222 255
197 222 255
197 223 255
198 223 255
198 223 255
198 223 255
198 223 255
198 223 255
198 223 255
198 223 255
198 223 255
198 223 255
198 223 255
198 223 255
198 223 255
198 223 255
198 223 255
198 223 255
198 223 255
199 223 255
199 223 255
199 223 255
199 223 255
199 223 255
199 223 255
199 223 255
199 223 255
199 223 255
199 223 255
199 223 255
199 223 255
199 224 255
199 224 255
199 224 255
200 224 255
200 224 255
200 224 255
200 224 255
200 224 255
200 224 255
200 224 255
200 224 255
200 224 255
200 224 255
200 224 255
200 224 255
200 224 255
200 224 255
200 224 255
201 224 255
201 224 255
201 224 255
201 224 255
201 224 255
201 224 255
201 224 255
201 224 255
201 224 255
201 224 255
201 225 255
201 225 255
201 225 255
201 225 255
202 225 255
202 225 255
202 225 255
202 225 255
202 225 255
202 225 255
202 225 255
202 225 255
202 225 255
202 225 255
202 225 255
202 225 255
202 225 255
202 225 255
202 225 255
203 225 255
203 225 255
203 225 255
203 225 255
203 225 255
203 225 255
203 225 255
203 225 255
203 225 255
203 226 255
203 226 255
203 226 255
203 226 255
203 226 255
203 226 255
203 226 255
204 226 255
204 226 255
204 226 255
204 226 255
204 226 255
204 226 255
204 226 255
204 226 255
204 226 255
204 226 255
204 226 255
204 226 255
204 226 255
204 226 255
204 226 255
204 226 255
205 226 255
205 226 255
205 226 255
205 226 255
205 226 255
205 226 255
205 226 255
205 227 255
205 227 255
205 227 255
205 227 255
205 227 255
205 227 255
205 227 255
205 227 255
205 227 255
205 227 255
205 227 255
206 227 255
206 227 255
206 227 255
206 227 255
206 227 255
206 227 255
206 227 255
206 227 255
206 227 255
206 227 255
206 227 255
206 227 255
206 227 255
206 227 255
206 227 255
206 227 255
206 227 255
206 227 255
206 227 255
206 227 255
206 227 255
206 227 255
206 227 255
206 227 255
206 227 255
206 227 255
206 227 255
206 227 255
206 227 255
206 227 255
206 227 255
206 227 255
206 227 255
206 227 255
205 227 255
205 227 255
205 227 255
205 227 255
205 227 255
205 227 255
205 227 255
205 227 255
205 227 255
205 227 255
205 227 255
205 226 255
205 226 255
205 226 255
205 226 255
205 226 255
205 226 255
205 226 255
204 226 255
204 226 255
204 226 255
204 226 255
204 226 255
204 226 255
204 226 255
204 226 255
204 226 255
204 226 255
204 226 255
204 226 255
204 226 255
204 226 255
204 226 255
204 226 255
204 226 255
203 226 255
203 226 255
203 226 255
203 226 255
203 226 255
203 226 255
203 226 255
203 225 255
203 225 255
203 225 255
203 225 255
203 225 255
203 225 255
203 225 255
203 225 255
202 225 255
202 225 255
202 225 255
202 225 255
202 225 255
202 225 255
202 225 255
202 225 255
202 225 255
202 225 255
202 225 255
202 225 255
202 225 255
202 225 255
202 225 255
201 225 255
201 225 255
201 225 255
201 225 255
201 225 255
201 224 255
201 224 255
201 224 255
201 224 255
201 224 255
201 224 255
201 224 255
201 224 255
201 224 255
201 224 255
200 224 255
200 224 255
200 224 255
200 224 255
200 224 255
200 224 255
200 224 255
200 224 255
200 224 255
200 224 255
200 224 255
200 224 255
200 224 255
200 224 255
199 224 255
199 224 255
199 224 255
199 223 255
199 223 255
199 223 255
199 223 255
199 223 255
199 223 255
199 223 255
199 223 255
199 223 255
199 223 255
199 223 255
199 223 255
199 223 255
198 223 255
198 223 255
198 223 255
198 223 255
198 223 255
198 223 255
198 223 255
198 223 255
198 223 255
198 223 255
198 223 255
198 223 255
198 223 255
198 223 255
198 223 255
198 223 255
197 223 255
197 222 255
197 222 255
197 222 255
197 222 255
197 222 255
197 222 255
197 222 255
197 222 255
197 222 255
197 222 255
197 222 255
197 222 255
197 222 255
197 222 255
197 222 255
197 222 255
197 222 255
197 222 255
197 222 255
196 222 255
196 222 255
196 222 255
196 222 255
196 222 255
196 222 255
196 222 255
196 222 255
196 222 255
196 222 255
196 222 255
196 222 255
196 222 255
196 222 255
196 222 255
196 222 255
196 222 255
196 222 255
196 222 255
196 222 255
196 222 255
196 222 255
196 222 255
196 222 255
196 222 255
196 222 255
196 222 255
196 222 255
196 222 255
196 222 255
196 222 255
196 222 255
196 222 255
196 222 255
196 222 255
196 222 255
196 222 255
196 222 255
196 222 255
196 222 255
196 222 255
196 222 255
196 222 255
196 222 255
196 222 255
196 222 255
196 222 255
196 222 255
196 222 255
196 222 255
196 222 255
196 222 255
196 222 255
196 222 255
196 222 255
196 222 255
196 222 255
196 222 255
196 222 255
196 222 255
196 222 255
196 222 255
196 222 255
196 222 255
196 222 255
196 222 255
196 222 255
196 222 255
196 222 255
196 222 255
196 222 255
196 222 255
197 222 255
197 222 255
197 222 255
197 222 255
197 222 255
197 222 255
197 222 255
197 222 255
197 222 255
197 222 255
197 222 255
197 222 255
197 222 255
197 222 255
197 222 255
197 222 255
197 222 255
197 222 255
197 222 255
197 223 255
198 223 255
198 223 255
198 223 255
198 223 255
198 223 255
198 223 255
198 223 255
198 223 255
198 223 255
198 223 255
198 223 255
198 223 255
198 223 255
198 223 255
198 223 255
198 223 255
199 223 255
199 223 255
199 223 255
199 223 255
199 223 255
199 223 255
199 223 255
199 223 255
199 223 255
199 223 255
199 223 255
199 223 255
199 223 255
199 224 255
199 224 255
200 224 255
200 224 255
200 224 255
200 224 255
200 224 255
200 224 255
200 224 255
200 224 255
200 224 255
200 224 255
200 224 255
200 224 255
200 224 255
200 224 255
200 224 255
201 224 255
201 224 255
201 224 255
201 224 255
201 224 255
201 224 255
201 224 255
201 224 255
201 224 255
201 224 255
201 225 255
201 225 255
201 225 255
201 225 255
201 225 255
202 225 255
202 225 255
202 225 255
202 225 255
202 225 255
202 225 255
202 225 255
202 225 255
202 225 255
202 225 255
202 225 255
202 225 255
202 225 255
202 225 255
202 225 255
203 225 255
203 225 255
203 225 255
203 225 255
203 225 255
203 225 255
203 225 255
203 225 255
203 226 255
203 226 255
203 226 255
203 226 255
203 226 255
203 226 255
203 226 255
204 226 255
204 226 255
204 226 255
204 226 255
204 226 255
204 226 255
204 226 255
204 226 255
204 226 255
204 226 255
204 226 255
204 226 255
204 226 255
204 226 255
204 226 255
204 226 255
204 226 255
205 226 255
205 226 255
205 226 255
205 226 255
205 226 255
205 226 255
205 226 255
205 227 255
205 227 255
205 227 255
205 227 255
205 227 255
205 227 255
205 227 255
205 227 255
205 227 255
205 227 255
205 227 255
206 227 255
206 227 255
206 227 255
206 227 255
206 227 255
206 227 255
206 227 255
206 227 255
206 227 255
206 227 255
206 227 255
206 227 255
206 227 255
206 227 255
206 227 255
206 227 255
206 227 255
206 227 255
207 227 255
207 227 255
206 227 255
206 227 255
206 227 255
206 227 255
206 227 255
206 227 255
206 227 255
206 227 255
206 227 255
206 227 255
206 227 255
206 227 255
206 227 255
206 227 255
206 227 255
206 227 255
206 227 255
206 227 255
206 227 255
205 227 255
205 227 255
205 227 255
205 227 255
205 227 255
205 227 255
205 227 255
205 227 255
205 227 255
205 227 255
205 227 255
205 226 255
205 226 255
205 226 255
205 226 255
205 226 255
205 226 255
205 226 255
204 226 255
204 226 255
204 226 255
204 226 255
204 226 255
204 226 255
204 226 255
204 226 255
204 226 255
204 226 255
204 226 255
204 226 255
204 226 255
204 226 255
204 226 255
204 226 255
203 226 255
203 226 255
203 226 255
203 226 255
203 226 255
203 226 255
203 226 255
203 225 255
203 225 255
203 225 255
203 225 255
203 225 255
203 225 255
203 225 255
203 225 255
203 225 255
202 225 255
202 225 255
202 225 255
202 225 255
202 225 255
202 225 255
202 225 255
202 225 255
202 225 255
202 225 255
202 225 255
202 225 255
202 225 255
202 225 255
201 225 255
201 225 255
201 225 255
201 225 255
201 225 255
201 224 255
201 224 255
201 224 255
201 224 255
201 224 255
201 224 255
201 224 255
201 224 255
201 224 255
201 224 255
200 224 255
200 224 255
200 224 255
200 224 255
200 224 255
200 224 255
200 224 255
200 224 255
200 224 255
200 224 255
200 224 255
200 224 255
200 224 255
200 224 255
200 224 255
199 224 255
199 224 255
199 223 255
199 223 255
199 223 255
199 223 255
199 223 255
199 223 255
199 223 255
199 223 255
199 223 255
199 223 255
199 223 255
199 223 255
199 223 255
198 223 255
198 223 255
198 223 255
198 223 255
198 223 255
198 223 255
198 223 255
198 223 255
198 223 255
198 223 255
198 223 255
198 223 255
198 223 255
198 223 255
198 223 255
198 223 255
198 223 255
197 223 255
197 222 255
197 222 255
197 222 255
197 222 255
197 222 255
197 222 255
197 222 255
197 222 255
197 222 255
197 222 255
197 222 255
197 222 255
197 222 255
197 222 255
197 222 255
197 222 255
197 222 255
197 222 255
197 222 255
197 222 255
197 222 255
196 222 255
196 222 255
196 222 255
196 222 255
196 222 255
196 222 255
196 222 255
196 222 255
196 222 255
196 222 255
196 222 255
196 222 255
196 222 255
196 222 255
196 222 255
196 222 255
196 222 255
196 222 255
196 222 255
196 222 255
196 222 255
196 222 255
196 222 255
196 222 255
196 222 255
196 222 255
196 222 255
196 222 255
196 222 255
196 222 255
196 222 255
196 222 255
196 222 255
196 222 255
196 222 255
196 222 255
196 222 255
196 222 255
196 222 255
196 222 255
196 222 255
196 222 255
196 222 255
196 222 255
196 222 255
196 222 255
196 222 255
196 222 255
196 222 255
196 222 255
196 222 255
196 222 255
196 222 255
196 222 255
196 222 255
196 222 255
196 222 255
196 222 255
196 222 255
196 222 255
196 222 255
196 222 255
197 222 255
197 222 255
197 222 255
197 222 255
197 222 255
197 222 255
197 222 255
197 222 255
197 222 255
197 222 255
197 222 255
197 222 255
197 222 255
197 222 255
197 222 255
197 222 255
197 222 255
197 222 255
197 222 255
197 222 255
197 222 255
197 223 255
198 223 255
198 223 255
198 223 255
198 223 255
198 223 255
198 223 255
198 223 255
198 223 255
198 223 255
198 223 255
198 223 255
198 223 255
198 223 255
198 223 255
198 223 255
198 223 255
198 223 255
199 223 255
199 223 255
199 223 255
199 223 255
199 223 255
199 223 255
199 223 255
199 223 255
199 223 255
199 223 255
199 223 255
199 223 255
199 223 255
199 224 255
199 224 255
200 224 255
200 224 255
200 224 255
200 224 255
200 224 255
200 224 255
200 224 255
200 224 255
200 224 255
200 224 255
200 224 255
200 224 255
200 224 255
200 224 255
200 224 255
201 224 255
201 224 255
201 224 255
201 224 255
201 224 255
201 224 255
201 224 255
201 224 255
201 224 255
201 224 255
201 225 255
201 225 255
201 225 255
201 225 255
202 225 255
202 225 255
202 225 255
202 225 255
202 225 255
202 225 255
202 225 255
202 225 255
202 225 255
202 225 255
202 225 255
202 225 255
202 225 255
202 225 255
202 225 255
203 225 255
203 225 255
203 225 255
203 225 255
203 225 255
203 225 255
203 225 255
203 225 255
203 225 255
203 226 255
203 226 255
203 226 255
203 226 255
203 226 255
203 226 255
203 226 255
204 226 255
204 226 255
204 226 255
204 226 255
204 226 255
204 226 255
204 226 255
204 226 255
204 226 255
204 226 255
204 226 255
204 226 255
204 226 255
204 226 255
204 226 255
204 226 255
205 226 255
205 226 255
205 226 255
205 226 255
205 226 255
205 226 255
205 226 255
205 227 255
205 227 255
205 227 255
205 227 255
205 227 255
205 227 255
205 227 255
205 227 255
205 227 255
205 227 255
205 227 255
206 227 255
206 227 255
206 227 255
206 227 255
206 227 255
206 227 255
206 227 255
206 227 255
206 227 255
206 227 255
206 227 255
206 227 255
206 227 255
206 227 255
206 227 255
206 227 255
206 227 255
206 227 255
206 227 255
207 227 255
207 227 255
207 227 255
207 227 255
207 227 255
207 227 255
207 227 255
206 227 255
206 227 255
206 227 255
206 227 255
206 227 255
206 227 255
206 227 255
206 227 255
206 227 255
206 227 255
206 227 255
206 227 255
206 227 255
206 227 255
206 227 255
206 227 255
206 227 255
206 227 255
206 227 255
205 227 255
205 227 255
205 227 255
205 227 255
205 227 255
205 227 255
205 227 255
205 227 255
205 227 255
205 227 255
205 226 255
205 226 255
205 226 255
205 226 255
205 226 255
205 226 255
205 226 255
204 226 255
204 226 255
204 226 255
204 226 255
204 226 255
204 226 255
204 226 255
204 226 255
204 226 255
204 226 255
204 226 255
204 226 255
204 226 255
204 226 255
204 226 255
204 226 255
204 226 255
203 226 255
203 226 255
203 226 255
203 226 255
203 226 255
203 226 255
203 225 255
203 225 255
203 225 255
203 225 255
203 225 255
203 225 255
203 225 255
203 225 255
203 225 255
202 225 255
202 225 255
202 225 255
202 225 255
202 225 255
202 225 255
202 225 255
202 225 255
202 225 255
202 225 255
202 225 255
202 225 255
202 225 255
202 225 255
202 225 255
201 225 255
201 225 255
201 225 255
201 225 255
201 224 255
201 224 255
201 224 255
201 224 255
201 224 255
201 224 255
201 224 255
201 224 255
201 224 255
201 224 255
201 224 255
200 224 255
200 224 255
200 224 255
200 224 255
200 224 255
200 224 255
200 224 255
200 224 255
200 224 255
200 224 255
200 224 255
200 224 255
200 224 255
200 224 255
199 224 255
199 224 255
199 224 255
199 223 255
199 223 255
199 223 255
199 223 255
199 223 255
199 223 255
199 223 255
199 223 255
199 223 255
199 223 255
199 223 255
199 223 255
199 223 255
198 223 255
198 223 255
198 223 255
198 223 255
198 223 255
198 223 255
198 223 255
198 223 255
198 223 255
198 223 255
198 223 255
198 223 255
198 223 255
198 223 255
198 223 255
198 223 255
198 223 255
197 223 255
197 222 255
197 222 255
197 222 255
197 222 255
197 222 255
197 222 255
197 222 255
197 222 255
197 222 255
197 222 255
197 222 255
197 222 255
197 222 255
197 222 255
197 222 255
197 222 255
197 222 255
197 222 255
197 222 255
197 222 255
197 222 255
197 222 255
197 222 255
196 222 255
196 222 255
196 222 255
196 222 255
196 222 255
196 222 255
196 222 255
196 222 255
196 222 255
196 222 255
196 222 255
196 222 255
196 222 255
196 222 255
196 222 255
196 222 255
196 222 255
196 222 255
196 222 255
196 222 255
196 222 255
196 222 255
196 222 255
196 222 255
196 222 255
196 222 255
196 222 255
196 222 255
196 222 255
196 222 255
196 222 255
196 222 255
196 222 255
196 222 255
196 222 255
196 222 255
196 222 255
196 222 255
196 222 255
196 222 255
196 222 255
196 222 255
196 222 255
196 222 255
196 222 255
196 222 255
196 222 255
196 222 255
196 222 255
196 222 255
196 222 255
196 222 255
197 222 255
197 222 255
197 222 255
197 222 255
197 222 255
197 222 255
197 222 255
197 222 255
197 222 255
197 222 255
197 222 255
197 222 255
197 222 255
197 222 255
197 222 255
197 222 255
197 222 255
197 222 255
197 222 255
197 222 255
197 222 255
197 222 255
197 222 255
197 223 255
198 223 255
198 223 255
198 223 255
198 223 255
198 223 255
198 223 255
198 223 255
198 223 255
198 223 255
198 223 255
198 223 255
198 223 255
198 223 255
198 223 255
198 223 255
198 223 255
198 223 255
199 223 255
199 223 255
199 223 255
199 223 255
199 223 255
199 223 255
199 223 255
199 223 255
199 223 255
199 223 255
199 223 255
199 223 255
199 223 255
199 224 255
199 224 255
199 224 255
200 224 255
200 224 255
200 224 255
200 224 255
200 224 255
200 224 255
200 224 255
200 224 255
200 224 255
200 224 255
200 224 255
200 224 255
200 224 255
200 224 255
201 224 255
201 224 255
201 224 255
201 224 255
201 224 255
201 224 255
201 224 255
201 224 255
201 224 255
201 224 255
201 224 255
201 225 255
201 225 255
201 225 255
201 225 255
202 225 255
202 225 255
202 225 255
202 225 255
202 225 255
202 225 255
202 225 255
202 225 255
202 225 255
202 225 255
202 225 255
202 225 255
202 225 255
202 225 255
202 225 255
203 225 255
203 225 255
203 225 255
203 225 255
203 225 255
203 225 255
203 225 255
203 225 255
203 225 255
203 226 255
203 226 255
203 226 255
203 226 255
203 226 255
203 226 255
203 226 255
204 226 255
204 226 255
204 226 255
204 226 255
204 226 255
204 226 255
204 226 255
204 226 255
204 226 255
204 226 255
204 226 255
204 226 255
204 226 255
204 226 255
204 226 255
204 226 255
205 226 255
205 226 255
205 226 255
205 226 255
205 226 255
205 226 255
205 226 255
205 227 255
205 227 255
205 227 255
205 227 255
205 227 255
205 227 255
205 227 255
205 227 255
205 227 255
205 227 255
206 227 255
206 227 255
206 227 255
206 227 255
206 227 255
206 227 255
206 227 255
206 227 255
206 227 255
206 227 255
206 227 255
206 227 255
206 227 255
206 227 255
206 227 255
206 227 255
206 227 255
206 227 255
206 227 255
206 227 255
207 227 255
207 227 255
207 227 255
207 227 255
207 228 255
207 228 255
207 227 255
207 227 255
207 227 255
207 227 255
207 227 255
206 227 255
206 227 255
206 227 255
206 227 255
206 227 255
206 227 255
206 227 255
206 227 255
206 227 255
206 227 255
206 227 255
206 227 255
206 227 255
206 227 255
206 227 255
206 227 255
206 227 255
206 227 255
206 227 255
205 227 255
205 227 255
205 227 255
205 227 255
205 227 255
205 227 255
205 227 255
205 227 255
205 227 255
205 227 255
205 227 255
205 226 255
205 226 255
205 226 255
205 226 255
205 226 255
205 226 255
205 226 255
204 226 255
204 226 255
204 226 255
204 226 255
204 226 255
204 226 255
204 226 255
204 226 255
204 226 255
204 226 255
204 226 255
204 226 255
204 226 255
204 226 255
204 226 255
204 226 255
203 226 255
203 226 255
203 226 255
203 226 255
203 226 255
203 226 255
203 226 255
203 225 255
203 225 255
203 225 255
203 225 255
203 225 255
203 225 255
203 225 255
203 225 255
203 225 255
202 225 255
202 225 255
202 225 255
202 225 255
202 225 255
202 225 255
202 225 255
202 225 255
202 225 255
202 225 255
202 225 255
202 225 255
202 225 255
202 225 255
202 225 255
201 225 255
201 225 255
201 225 255
201 225 255
201 224 255
201 224 255
201 224 255
201 224 255
201 224 255
201 224 255
201 224 255
201 224 255
201 224 255
201 224 255
200 224 255
200 224 255
200 224 255
200 224 255
200 224 255
200 224 255
200 224 255
200 224 255
200 224 255
200 224 255
200 224 255
200 224 255
200 224 255
200 224 255
200 224 255
199 224 255
199 224 255
199 223 255
199 223 255
199 223 255
199 223 255
199 223 255
199 223 255
199 223 255
199 223 255
199 223 255
199 223 255
199 223 255
199 223 255
199 223 255
199 223 255
198 223 255
198 223 255
198 223 255
198 223 255
198 223 255
198 223 255
198 223 255
198 223 255
198 223 255
198 223 255
198 223 255
198 223 255
198 223 255
198 223 255
198 223 255
198 223 255
198 223 255
198 223 255
197 222 255
197 222 255
197 222 255
197 222 255
197 222 255
197 222 255
197 222 255
197 222 255
197 222 255
197 222 255
197 222 255
197 222 255
197 222 255
197 222 255
197 222 255
197 222 255
197 222 255
197 222 255
197 222 255
197 222 255
197 222 255
197 222 255
197 222 255
197 222 255
197 222 255
197 222 255
196 222 255
196 222 255
196 222 255
196 222 255
196 222 255
196 222 255
196 222 255
196 222 255
196 222 255
196 222 255
196 222 255
196 222 255
196 222 255
196 222 255
196 222 255
196 222 255
196 222 255
196 222 255
196 222 255
196 222 255
196 222 255
196 222 255
196 222 255
196 222 255
196 222 255
196 222 255
196 222 255
196 222 255
196 222 255
196 222 255
196 222 255
196 222 255
196 222 255
196 222 255
196 222 255
196 222 255
196 222 255
196 222 255
196 222 255
196 222 255
197 222 255
197 222 255
197 222 255
197 222 255
197 222 255
197 222 255
197 222 255
197 222 255
197 222 255
197 222 255
197 222 255
197 222 255
197 222 255
197 222 255
197 222 255
197 222 255
197 222 255
197 222 255
197 222 255
197 222 255
197 222 255
197 222 255
197 222 255
197 222 255
197 222 255
197 222 255
198 223 255
198 223 255
198 223 255
198 223 255
198 223 255
198 223 255
198 223 255
198 223 255
198 223 255
198 223 255
198 223 255
198 223 255
198 223 255
198 223 255
198 223 255
198 223 255
198 223 255
198 223 255
199 223 255
199 223 255
199 223 255
199 223 255
199 223 255
199 223 255
199 223 255
199 223 255
199 223 255
199 223 255
199 223 255
199 223 255
199 223 255
199 223 255
199 224 255
199 224 255
200 224 255
200 224 255
200 224 255
200 224 255
200 224 255
200 224 255
200 224 255
200 224 255
200 224 255
200 224 255
200 224 255
200 224 255
200 224 255
200 224 255
200 224 255
201 224 255
201 224 255
201 224 255
201 224 255
201 224 255
201 224 255
201 224 255
201 224 255
201 224 255
201 224 255
201 225 255
201 225 255
201 225 255
201 225 255
201 225 255
202 225 255
202 225 255
202 225 255
202 225 255
202 225 255
202 225 255
202 225 255
202 225 255
202 225 255
202 225 255
202 225 255
202 225 255
202 225 255
202 225 255
202 225 255
203 225 255
203 225 255
203 225 255
203 225 255
203 225 255
203 225 255
203 225 255
203 225 255
203 226 255
203 226 255
203 226 255
203 226 255
203 226 255
203 226 255
203 226 255
204 226 255
204 226 255
204 226 255
204 226 255
204 226 255
204 226 255
204 226 255
204 226 255
204 226 255
204 226 255
204 226 255
204 226 255
204 226 255
204 226 255
204 226 255
204 226 255
205 226 255
205 226 255
205 226 255
205 226 255
205 226 255
205 226 255
205 226 255
205 227 255
205 227 255
205 227 255
205 227 255
205 227 255
205 227 255
205 227 255
205 227 255
205 227 255
205 227 255
205 227 255
206 227 255
206 227 255
206 227 255
206 227 255
206 227 255
206 227 255
206 227 255
206 227 255
206 227 255
206 227 255
206 227 255
206 227 255
206 227 255
206 227 255
206 227 255
206 227 255
206 227 255
206 227 255
206 227 255
207 227 255
207 227 255
207 227 255
207 227 255
207 228 255
207 228 255
207 228 255
207 228 255
207 228 255
207 228 255
207 228 255
207 228 255
207 227 255
207 227 255
207 227 255
207 227 255
207 227 255
206 227 255
206 227 255
206 227 255
206 227 255
206 227 255
206 227 255
206 227 255
206 227 255
206 227 255
206 227 255
206 227 255
206 227 255
206 227 255
206 227 255
206 227 255
206 227 255
206 227 255
206 227 255
206 227 255
205 227 255
205 227 255
205 227 255
205 227 255
205 227 255
205 227 255
205 227 255
205 227 255
205 227 255
205 227 255
205 227 255
205 226 255
205 226 255
205 226 255
205 226 255
205 226 255
205 226 255
204 226 255
204 226 255
204 226 255
204 226 255
204 226 255
204 226 255
204 226 255
204 226 255
204 226 255
204 226 255
204 226 255
204 226 255
204 226 255
204 226 255
204 226 255
204 226 255
204 226 255
203 226 255
203 226 255
203 226 255
203 226 255
203 226 255
203 226 255
203 226 255
203 225 255
203 225 255
203 225 255
203 225 255
203 225 255
203 225 255
203 225 255
203 225 255
202 225 255
202 225 255
202 225 255
202 225 255
202 225 255
202 225 255
202 225 255
202 225 255
202 225 255
202 225 255
202 225 255
202 225 255
202 225 255
202 225 255
202 225 255
201 225 255
201 225 255
201 225 255
201 225 255
201 224 255
201 224 255
201 224 255
201 224 255
201 224 255
201 224 255
201 224 255
201 224 255
201 224 255
201 224 255
200 224 255
200 224 255
200 224 255
200 224 255
200 224 255
200 224 255
200 224 255
200 224 255
200 224 255
200 224 255
200 224 255
200 224 255
200 224 255
200 224 255
200 224 255
200 224 255
199 224 255
199 224 255
199 223 255
199 223 255
199 223 255
199 223 255
199 223 255
199 223 255
199 223 255
199 223 255
199 223 255
199 223 255
199 223 255
199 223 255
199 223 255
199 223 255
198 223 255
198 223 255
198 223 255
198 223 255
198 223 255
198 223 255
198 223 255
198 223 255
198 223 255
198 223 255
198 223 255
198 223 255
198 223 255
198 223 255
198 223 255
198 223 255
198 223 255
198 223 255
197 223 255
197 222 255
197 222 255
197 222 255
197 222 255
197 222 255
197 222 255
197 222 255
197 222 255
197 222 255
197 222 255
197 222 255
197 222 255
197 222 255
197 222 255
197 222 255
197 222 255
197 222 255
197 222 255
197 222 255
197 222 255
197 222 255
197 222 255
197 222 255
197 222 255
197 222 255
197 222 255
197 222 255
197 222 255
197 222 255
197 222 255
197 222 255
196 222 255
196 222 255
196 222 255
196 222 255
196 222 255
196 222 255
196 222 255
196 222 255
196 222 255
196 222 255
196 222 255
196 222 255
196 222 255
196 222 255
196 222 255
196 222 255
196 222 255
196 222 255
196 222 255
196 222 255
196 222 255
196 222 255
197 222 255
197 222 255
197 222 255
197 222 255
197 222 255
197 222 255
197 222 255
197 222 255
197 222 255
197 222 255
197 222 255
197 222 255
197 222 255
197 222 255
197 222 255
197 222 255
197 222 255
197 222 255
197 222 255
197 222 255
197 222 255
197 222 255
197 222 255
197 222 255
197 222 255
197 222 255
197 222 255
197 222 255
197 222 255
197 222 255
197 222 255
197 223 255
198 223 255
198 223 255
198 223 255
198 223 255
198 223 255
198 223 255
198 223 255
198 223 255
198 223 255
198 223 255
198 223 255
198 223 255
198 223 255
198 223 255
198 223 255
198 223 255
198 223 255
198 223 255
198 223 255
199 223 255
199 223 255
199 223 255
199 223 255
199 223 255
199 223 255
199 223 255
199 223 255
199 223 255
199 223 255
199 223 255
199 223 255
199 223 255
199 224 255
199 224 255
200 224 255
200 224 255
200 224 255
200 224 255
200 224 255
200 224 255
200 224 255
200 224 255
200 224 255
200 224 255
200 224 255
200 224 255
200 224 255
200 224 255
200 224 255
200 224 255
201 224 255
201 224 255
201 224 255
201 224 255
201 224 255
201 224 255
201 224 255
201 224 255
201 224 255
201 224 255
201 225 255
201 225 255
201 225 255
201 225 255
202 225 255
202 225 255
202 225 255
202 225 255
202 225 255
202 225 255
202 225 255
202 225 255
202 225 255
202 225 255
202 225 255
202 225 255
202 225 255
202 225 255
202 225 255
203 225 255
203 225 255
203 225 255
203 225 255
203 225 255
203 225 255
203 225 255
203 225 255
203 226 255
203 226 255
203 226 255
203 226 255
203 226 255
203 226 255
203 226 255
204 226 255
204 226 255
204 226 255
204 226 255
204 226 255
204 226 255
204 226 255
204 226 255
204 226 255
204 226 255
204 226 255
204 226 255
204 226 255
204 226 255
204 226 255
204 226 255
204 226 255
205 226 255
205 226 255
205 226 255
205 226 255
205 226 255
205 226 255
205 227 255
205 227 255
205 227 255
205 227 255
205 227 255
205 227 255
205 227 255
205 227 255
205 227 255
205 227 255
205 227 255
206 227 255
206 227 255
206 227 255
206 227 255
206 227 255
206 227 255
206 227 255
206 227 255
206 227 255
206 227 255
206 227 255
206 227 255
206 227 255
206 227 255
206 227 255
206 227 255
206 227 255
206 227 255
206 227 255
207 227 255
207 227 255
207 227 255
207 227 255
207 227 255
207 228 255
207 228 255
207 228 255
207 228 255
207 228 255
207 228 255
207 228 255
207 228 255
207 228 255
207 228 255
207 228 255
207 228 255
207 228 255
207 227 255
207 227 255
207 227 255
207 227 255
207 227 255
206 227 255
206 227 255
206 227 255
206 227 255
206 227 255
206 227 255
206 227 255
206 227 255
206 227 255
206 227 255
206 227 255
206 227 255
206 227 255
206 227 255
206 227 255
206 227 255
206 227 255
206 227 255
206 227 255
205 227 255
205 227 255
205 227 255
205 227 255
205 227 255
205 227 255
205 227 255
205 227 255
205 227 255
205 227 255
205 226 255
205 226 255
205 226 255
205 226 255
205 226 255
205 226 255
205 226 255
204 226 255
204 226 255
204 226 255
204 226 255
204 226 255
204 226 255
204 226 255
204 226 255
204 226 255
204 226 255
204 226 255
204 226 255
204 226 255
204 226 255
204 226 255
204 226 255
203 226 255
203 226 255
203 226 255
203 226 255
203 226 255
203 226 255
203 226 255
203 225 255
203 225 255
203 225 255
203 225 255
203 225 255
203 225 255
203 225 255
203 225 255
202 225 255
202 225 255
202 225 255
202 225 255
202 225 255
202 225 255
202 225 255
202 225 255
202 225 255
202 225 255
202 225 255
202 225 255
202 225 255
202 225 255
202 225 255
201 225 255
201 225 255
201 225 255
201 225 255
201 225 255
201 224 255
201 224 255
201 224 255
201 224 255
201 224 255
201 224 255
201 224 255
201 224 255
201 224 255
201 224 255
200 224 255
200 224 255
200 224 255
200 224 255
200 224 255
200 224 255
200 224 255
200 224 255
200 224 255
200 224 255
200 224 255
200 224 255
200 224 255
200 224 255
200 224 255
199 224 255
199 224 255
199 224 255
199 223 255
199 223 255
199 223 255
199 223 255
199 223 255
199 223 255
199 223 255
199 223 255
199 223 255
199 223 255
199 223 255
199 223 255
199 223 255
198 223 255
198 223 255
198 223 255
198 223 255
198 223 255
198 223 255
198 223 255
198 223 255
198 223 255
198 223 255
198 223 255
198 223 255
198 223 255
198 223 255
198 223 255
198 223 255
198 223 255
198 223 255
198 223 255
198 223 255
197 223 255
197 222 255
197 222 255
197 222 255
197 222 255
197 222 255
197 222 255
197 222 255
197 222 255
197 222 255
197 222 255
197 222 255
197 222 255
197 222 255
197 222 255
197 222 255
197 222 255
197 222 255
197 222 255
197 222 255
197 222 255
197 222 255
197 222 255
197 222 255
197 222 255
197 222 255
197 222 255
197 222 255
197 222 255
197 222 255
197 222 255
197 222 255
197 222 255
197 222 255
197 222 255
197 222 255
197 222 255
197 222 255
197 222 255
197 222 255
197 222 255
197 222 255
197 222 255
197 222 255
197 222 255
197 222 255
197 222 255
197 222 255
197 222 255
197 222 255
197 222 255
197 222 255
197 222 255
197 222 255
197 222 255
197 222 255
197 222 255
197 222 255
197 222 255
197 222 255
197 222 255
197 222 255
197 222 255
197 222 255
197 222 255
197 222 255
197 222 255
197 222 255
197 222 255
197 222 255
197 222 255
197 222 255
197 222 255
197 222 255
197 222 255
197 222 255
197 222 255
197 223 255
198 223 255
198 223 255
198 223 255
198 223 255
198 223 255
198 223 255
198 223 255
198 223 255
198 223 255
198 223 255
198 223 255
198 223 255
198 223 255
198 223 255
198 223 255
198 223 255
198 223 255
198 223 255
198 223 255
198 223 255
199 223 255
199 223 255
199 223 255
199 223 255
199 223 255
199 223 255
199 223 255
199 223 255
199 223 255
199 223 255
199 223 255
199 223 255
199 223 255
199 224 255
199 224 255
199 224 255
200 224 255
200 224 255
200 224 255
200 224 255
200 224 255
200 224 255
200 224 255
200 224 255
200 224 255
200 224 255
200 224 255
200 224 255
200 224 255
200 224 255
200 224 255
201 224 255
201 224 255
201 224 255
201 224 255
201 224 255
201 224 255
201 224 255
201 224 255
201 224 255
201 224 255
201 225 255
201 225 255
201 225 255
201 225 255
201 225 255
202 225 255
202 225 255
202 225 255
202 225 255
202 225 255
202 225 255
202 225 255
202 225 255
202 225 255
202 225 255
202 225 255
202 225 255
202 225 255
202 225 255
202 225 255
203 225 255
203 225 255
203 225 255
203 225 255
203 225 255
203 225 255
203 225 255
203 225 255
203 226 255
203 226 255
203 226 255
203 226 255
203 226 255
203 226 255
203 226 255
204 226 255
204 226 255
204 226 255
204 226 255
204 226 255
204 226 255
204 226 255
204 226 255
204 226 255
204 226 255
204 226 255
204 226 255
204 226 255
204 226 255
204 226 255
204 226 255
205 226 255
205 226 255
205 226 255
205 226 255
205 226 255
205 226 255
205 226 255
205 227 255
205 227 255
205 227 255
205 227 255
205 227 255
205 227 255
205 227 255
205 227 255
205 227 255
205 227 255
206 227 255
206 227 255
206 227 255
206 227 255
206 227 255
206 227 255
206 227 255
206 227 255
206 227 255
206 227 255
206 227 255
206 227 255
206 227 255
206 227 255
206 227 255
206 227 255
206 227 255
206 227 255
206 227 255
207 227 255
207 227 255
207 227 255
207 227 255
207 227 255
207 228 255
207 228 255
207 228 255
207 228 255
207 228 255
207 228 255
207 228 255
207 228 255
207 228 255
207 228 255
207 228 255
207 228 255
207 228 255
207 228 255
207 228 255
207 228 255
207 228 255
207 228 255
207 228 255
207 227 255
207 227 255
207 227 255
207 227 255
207 227 255
206 227 255
206 227 255
206 227 255
206 227 255
206 227 255
206 227 255
206 227 255
206 227 255
206 227 255
206 227 255
206 227 255
206 227 255
206 227 255
206 227 255
206 227 255
206 227 255
206 227 255
206 227 255
205 227 255
205 227 255
205 227 255
205 227 255
205 227 255
205 227 255
205 227 255
205 227 255
205 227 255
205 227 255
205 227 255
205 226 255
205 226 255
205 226 255
205 226 255
205 226 255
205 226 255
205 226 255
204 226 255
204 226 255
204 226 255
204 226 255
204 226 255
204 226 255
204 226 255
204 226 255
204 226 255
204 226 255
204 226 255
204 226 255
204 226 255
204 226 255
204 226 255
204 226 255
203 226 255
203 226 255
203 226 255
203 226 255
203 226 255
203 226 255
203 225 255
203 225 255
203 225 255
203 225 255
203 225 255
203 225 255
203 225 255
203 225 255
203 225 255
202 225 255
202 225 255
202 225 255
202 225 255
202 225 255
202 225 255
202 225 255
202 225 255
202 225 255
202 225 255
202 225 255
202 225 255
202 225 255
202 225 255
202 225 255
201 225 255
201 225 255
201 225 255
201 225 255
201 224 255
201 224 255
201 224 255
201 224 255
201 224 255
201 224 255
201 224 255
201 224 255
201 224 255
201 224 255
200 224 255
200 224 255
200 224 255
200 224 255
200 224 255
200 224 255
200 224 255
200 224 255
200 224 255
200 224 255
200 224 255
200 224 255
200 224 255
200 224 255
200 224 255
200 224 255
199 224 255
199 224 255
199 223 255
199 223 255
199 223 255
199 223 255
199 223 255
199 223 255
199 223 255
199 223 255
199 223 255
199 223 255
199 223 255
199 223 255
199 223 255
199 223 255
198 223 255
198 223 255
198 223 255
198 223 255
198 223 255
198 223 255
198 223 255
198 223 255
198 223 255
198 223 255
198 223 255
198 223 255
198 223 255
198 223 255
198 223 255
198 223 255
198 223 255
198 223 255
198 223 255
198 223 255
198 223 255
197 223 255
197 222 255
197 222 255
197 222 255
197 222 255
197 222 255
197 222 255
197 222 255
197 222 255
197 222 255
197 222 255
197 222 255
197 222 255
197 222 255
197 222 255
197 222 255
197 222 255
197 222 255
197 222 255
197 222 255
197 222 255
197 222 255
197 222 255
197 222 255
197 222 255
197 222 255
197 222 255
197 222 255
197 222 255
197 222 255
197 222 255
197 222 255
197 222 255
197 222 255
197 222 255
197 222 255
197 222 255
197 222 255
197 222 255
197 222 255
197 222 255
197 222 255
197 222 255
197 222 255
197 222 255
197 222 255
197 222 255
197 222 255
197 222 255
197 222 255
197 222 255
197 222 255
197 222 255
197 222 255
197 222 255
197 222 255
197 222 255
197 222 255
197 222 255
197 222 255
197 222 255
197 222 255
197 222 255
197 222 255
197 222 255
197 222 255
197 222 255
197 222 255
197 222 255
197 223 255
198 223 255
198 223 255
198 223 255
198 223 255
198 223 255
198 223 255
198 223 255
198 223 255
198 223 255
198 223 255
198 223 255
198 223 255
198 223 255
198 223 255
198 223 255
198 223 255
198 223 255
198 223 255
198 223 255
198 223 255
199 223 255
199 223 255
199 223 255
199 223 255
199 223 255
199 223 255
199 223 255
199 223 255
199 223 255
199 223 255
199 223 255
199 223 255
199 223 255
199 223 255
199 223 255
199 224 255
199 224 255
200 224 255
200 224 255
200 224 255
200 224 255
200 224 255
200 224 255
200 224 255
200 224 255
200 224 255
200 224 255
200 224 255
200 224 255
200 224 255
200 224 255
200 224 255
201 224 255
201 224 255
201 224 255
201 224 255
201 224 255
201 224 255
201 224 255
201 224 255
201 224 255
201 224 255
201 224 255
201 225 255
201 225 255
201 225 255
201 225 255
202 225 255
202 225 255
202 225 255
202 225 255
202 225 255
202 225 255
202 225 255
202 225 255
202 225 255
202 225 255
202 225 255
202 225 255
202 225 255
202 225 255
202 225 255
203 225 255
203 225 255
203 225 255
203 225 255
203 225 255
203 225 255
203 225 255
203 225 255
203 225 255
203 226 255
203 226 255
203 226 255
203 226 255
203 226 255
203 226 255
204 226 255
204 226 255
204 226 255
204 226 255
204 226 255
204 226 255
204 226 255
204 226 255
204 226 255
204 226 255
204 226 255
204 226 255
204 226 255
204 226 255
204 226 255
204 226 255
204 226 255
205 226 255
205 226 255
205 226 255
205 226 255
205 226 255
205 226 255
205 227 255
205 227 255
205 227 255
205 227 255
205 227 255
205 227 255
205 227 255
205 227 255
205 227 255
205 227 255
205 227 255
206 227 255
206 227 255
206 227 255
206 227 255
206 227 255
206 227 255
206 227 255
206 227 255
206 227 255
206 227 255
206 227 255
206 227 255
206 227 255
206 227 255
206 227 255
206 227 255
206 227 255
206 227 255
207 227 255
207 227 255
207 227 255
207 227 255
207 227 255
207 228 255
207 228 255
207 228 255
207 228 255
207 228 255
207 228 255
207 228 255
207 228 255
207 228 255
207 228 255
207 228 255
207 228 255
207 228 255
207 228 255
207 228 255
207 228 255
207 228 255
207 228 255
207 228 255
207 228 255
207 228 255
207 228 255
207 228 255
207 228 255
207 228 255
207 227 255
207 227 255
207 227 255
207 227 255
206 227 255
206 227 255
206 227 255
206 227 255
206 227 255
206 227 255
206 227 255
206 227 255
206 227 255
206 227 255
206 227 255
206 227 255
206 227 255
206 227 255
206 227 255
206 227 255
206 227 255
206 227 255
206 227 255
205 227 255
205 227 255
205 227 255
205 227 255
205 227 255
205 227 255
205 227 255
205 227 255
205 227 255
205 227 255
205 226 255
205 226 255
205 226 255
205 226 255
205 226 255
205 226 255
205 226 255
204 226 255
204 226 255
204 226 255
204 226 255
204 226 255
204 226 255
204 226 255
204 226 255
204 226 255
204 226 255
204 226 255
204 226 255
204 226 255
204 226 255
204 226 255
204 226 255
203 226 255
203 226 255
203 226 255
203 226 255
203 226 255
203 226 255
203 226 255
203 225 255
203 225 255
203 225 255
203 225 255
203 225 255
203 225 255
203 225 255
203 225 255
202 225 255
202 225 255
202 225 255
202 225 255
202 225 255
202 225 255
202 225 255
202 225 255
202 225 255
202 225 255
202 225 255
202 225 255
202 225 255
202 225 255
202 225 255
201 225 255
201 225 255
201 225 255
201 225 255
201 225 255
201 224 255
201 224 255
201 224 255
201 224 255
201 224 255
201 224 255
201 224 255
201 224 255
201 224 255
201 224 255
200 224 255
200 224 255
200 224 255
200 224 255
200 224 255
200 224 255
200 224 255
200 224 255
200 224 255
200 224 255
200 224 255
200 224 255
200 224 255
200 224 255
200 224 255
200 224 255
199 224 255
199 224 255
199 223 255
199 223 255
199 223 255
199 223 255
199 223 255
199 223 255
199 223 255
199 223 255
199 223 255
199 223 255
199 223 255
199 223 255
199 223 255
199 223 255
199 223 255
198 223 255
198 223 255
198 223 255
198 223 255
198 223 255
198 223 255
198 223 255
198 223 255
198 223 255
198 223 255
198 223 255
198 223 255
198 223 255
198 223 255
198 223 255
198 223 255
198 223 255
198 223 255
198 223 255
198 223 255
198 223 255
198 223 255
197 223 255
197 222 255
197 222 255
197 222 255
197 222 255
197 222 255
197 222 255
197 222 255
197 222 255
197 222 255
197 222 255
197 222 255
197 222 255
197 222 255
197 222 255
197 222 255
197 222 255
197 222 255
197 222 255
197 222 255
197 222 255
197 222 255
197 222 255
197 222 255
197 222 255
197 222 255
197 222 255
197 222 255
197 222 255
197 222 255
197 222 255
197 222 255
197 222 255
197 222 255
197 222 255
197 222 255
197 222 255
197 222 255
197 222 255
197 222 255
197 222 255
197 222 255
197 222 255
197 222 255
197 222 255
197 222 255
197 222 255
197 222 255
197 222 255
197 222 255
197 222 255
197 222 255
197 222 255
197 222 255
197 222 255
197 222 255
197 222 255
197 222 255
197 222 255
197 223 255
198 223 255
198 223 255
198 223 255
198 223 255
198 223 255
198 223 255
198 223 255
198 223 255
198 223 255
198 223 255
198 223 255
198 223 255
198 223 255
198 223 255
198 223 255
198 223 255
198 223 255
198 223 255
198 223 255
198 223 255
198 223 255
198 223 255
199 223 255
199 223 255
199 223 255
199 223 255
199 223 255
199 223 255
199 223 255
199 223 255
199 223 255
199 223 255
199 223 255
199 223 255
199 223 255
199 223 255
199 223 255
199 224 255
199 224 255
200 224 255
200 224 255
200 224 255
200 224 255
200 224 255
200 224 255
200 224 255
200 224 255
200 224 255
200 224 255
200 224 255
200 224 255
200 224 255
200 224 255
200 224 255
200 224 255
201 224 255
201 224 255
201 224 255
201 224 255
201 224 255
201 224 255
201 224 255
201 224 255
201 224 255
201 224 255
201 225 255
201 225 255
201 225 255
201 225 255
201 225 255
202 225 255
202 225 255
202 225 255
202 225 255
202 225 255
202 225 255
202 225 255
202 225 255
202 225 255
202 225 255
202 225 255
202 225 255
202 225 255
202 225 255
202 225 255
203 225 255
203 225 255
203 225 255
203 225 255
203 225 255
203 225 255
203 225 255
203 225 255
203 226 255
203 226 255
203 226 255
203 226 255
203 226 255
203 226 255
203 226 255
204 226 255
204 226 255
204 226 255
204 226 255
204 226 255
204 226 255
204 226 255
204 226 255
204 226 255
204 226 255
204 226 255
204 226 255
204 226 255
204 226 255
204 226 255
204 226 255
205 226 255
205 226 255
205 226 255
205 226 255
205 226 255
205 226 255
205 226 255
205 227 255
205 227 255
205 227 255
205 227 255
205 227 255
205 227 255
205 227 255
205 227 255
205 227 255
205 227 255
206 227 255
206 227 255
206 227 255
206 227 255
206 227 255
206 227 255
206 227 255
206 227 255
206 227 255
206 227 255
206 227 255
206 227 255
206 227 255
206 227 255
206 227 255
206 227 255
206 227 255
206 227 255
206 227 255
207 227 255
207 227 255
207 227 255
207 227 255
207 228 255
207 228 255
207 228 255
207 228 255
207 228 255
207 228 255
207 228 255
207 228 255
207 228 255
207 228 255
207 228 255
207 228 255
207 228 255
207 228 255
208 228 255
207 228 255
207 228 255
207 228 255
207 228 255
207 228 255
207 228 255
207 228 255
207 228 255
207 228 255
207 228 255
207 228 255
207 228 255
207 228 255
207 228 255
207 228 255
207 228 255
207 227 255
207 227 255
207 227 255
207 227 255
206 227 255
206 227 255
206 227 255
206 227 255
206 227 255
206 227 255
206 227 255
206 227 255
206 227 255
206 227 255
206 227 255
206 227 255
206 227 255
206 227 255
206 227 255
206 227 255
206 227 255
206 227 255
206 227 255
205 227 255
205 227 255
205 227 255
205 227 255
205 227 255
205 227 255
205 227 255
205 227 255
205 227 255
205 227 255
205 226 255
205 226 255
205 226 255
205 226 255
205 226 255
205 226 255
205 226 255
204 226 255
204 226 255
204 226 255
204 226 255
204 226 255
204 226 255
204 226 255
204 226 255
204 226 255
204 226 255
204 226 255
204 226 255
204 226 255
204 226 255
204 226 255
204 226 255
203 226 255
203 226 255
203 226 255
203 226 255
203 226 255
203 226 255
203 226 255
203 225 255
203 225 255
203 225 255
203 225 255
203 225 255
203 225 255
203 225 255
203 225 255
202 225 255
202 225 255
202 225 255
202 225 255
202 225 255
202 225 255
202 225 255
202 225 255
202 225 255
202 225 255
202 225 255
202 225 255
202 225 255
202 225 255
202 225 255
201 225 255
201 225 255
201 225 255
201 225 255
201 224 255
201 224 255
201 224 255
201 224 255
201 224 255
201 224 255
201 224 255
201 224 255
201 224 255
201 224 255
201 224 255
200 224 255
200 224 255
200 224 255
200 224 255
200 224 255
200 224 255
200 224 255
200 224 255
200 224 255
200 224 255
200 224 255
200 224 255
200 224 255
200 224 255
200 224 255
200 224 255
199 224 255
199 224 255
199 223 255
199 223 255
199 223 255
199 223 255
199 223 255
199 223 255
199 223 255
199 223 255
199 223 255
199 223 255
199 223 255
199 223 255
199 223 255
199 223 255
199 223 255
198 223 255
198 223 255
198 223 255
198 223 255
198 223 255
198 223 255
198 223 255
198 223 255
198 223 255
198 223 255
198 223 255
198 223 255
198 223 255
198 223 255
198 223 255
198 223 255
198 223 255
198 223 255
198 223 255
198 223 255
198 223 255
198 223 255
198 223 255
198 223 255
197 223 255
197 222 255
197 222 255
197 222 255
197 222 255
197 222 255
197 222 255
197 222 255
197 222 255
197 222 255
197 222 255
197 222 255
197 222 255
197 222 255
197 222 255
197 222 255
197 222 255
197 222 255
197 222 255
197 222 255
197 222 255
197 222 255
197 222 255
197 222 255
197 222 255
197 222 255
197 222 255
197 222 255
197 222 255
197 222 255
197 222 255
197 222 255
197 222 255
197 222 255
197 222 255
197 222 255
197 222 255
197 222 255
197 222 255
197 222 255
197 222 255
197 222 255
197 222 255
197 222 255
197 222 255
197 222 255
197 222 255
197 222 255
197 222 255
197 223 255
198 223 255
198 223 255
198 223 255
198 223 255
198 223 255
198 223 255
198 223 255
198 223 255
198 223 255
198 223 255
198 223 255
198 223 255
198 223 255
198 223 255
198 223 255
198 223 255
198 223 255
198 223 255
198 223 255
198 223 255
198 223 255
198 223 255
198 223 255
198 223 255
199 223 255
199 223 255
199 223 255
199 223 255
199 223 255
199 223 255
199 223 255
199 223 255
199 223 255
199 223 255
199 223 255
199 223 255
199 223 255
199 223 255
199 223 255
199 224 255
199 224 255
199 224 255
200 224 255
200 224 255
200 224 255
200 224 255
200 224 255
200 224 255
200 224 255
200 224 255
200 224 255
200 224 255
200 224 255
200 224 255
200 224 255
200 224 255
200 224 255
201 224 255
201 224 255
201 224 255
201 224 255
201 224 255
201 224 255
201 224 255
201 224 255
201 224 255
201 224 255
201 224 255
201 225 255
201 225 255
201 225 255
201 225 255
202 225 255
202 225 255
202 225 255
202 225 255
202 225 255
202 225 255
202 225 255
202 225 255
202 225 255
202 225 255
202 225 255
202 225 255
202 225 255
202 225 255
202 225 255
203 225 255
203 225 255
203 225 255
203 225 255
203 225 255
203 225 255
203 225 255
203 225 255
203 226 255
203 226 255
203 226 255
203 226 255
203 226 255
203 226 255
203 226 255
204 226 255
204 226 255
204 226 255
204 226 255
204 226 255
204 226 255
204 226 255
204 226 255
204 226 255
204 226 255
204 226 255
204 226 255
204 226 255
204 226 255
204 226 255
204 226 255
205 226 255
205 226 255
205 226 255
205 226 255
205 226 255
205 226 255
205 226 255
205 227 255
205 227 255
205 227 255
205 227 255
205 227 255
205 227 255
205 227 255
205 227 255
205 227 255
205 227 255
206 227 255
206 227 255
206 227 255
206 227 255
206 227 255
206 227 255
206 227 255
206 227 255
206 227 255
206 227 255
206 227 255
206 227 255
206 227 255
206 227 255
206 227 255
206 227 255
206 227 255
206 227 255
206 227 255
207 227 255
207 227 255
207 227 255
207 227 255
207 227 255
207 228 255
207 228 255
207 228 255
207 228 255
207 228 255
207 228 255
207 228 255
207 228 255
207 228 255
207 228 255
207 228 255
207 228 255
207 228 255
207 228 255
207 228 255
208 228 255
208 228 255
208 228 255
208 228 255
208 228 255
207 228 255
207 228 255
207 228 255
207 228 255
207 228 255
207 228 255
207 228 255
207 228 255
207 228 255
207 228 255
207 228 255
207 228 255
207 228 255
207 228 255
207 228 255
207 227 255
207 227 255
207 227 255
207 227 255
207 227 255
206 227 255
206 227 255
206 227 255
206 227 255
206 227 255
206 227 255
206 227 255
206 227 255
206 227 255
206 227 255
206 227 255
206 227 255
206 227 255
206 227 255
206 227 255
206 227 255
206 227 255
206 227 255
205 227 255
205 227 255
205 227 255
205 227 255
205 227 255
205 227 255
205 227 255
205 227 255
205 227 255
205 227 255
205 227 255
205 226 255
205 226 255
205 226 255
205 226 255
205 226 255
205 226 255
204 226 255
204 226 255
204 226 255
204 226 255
204 226 255
204 226 255
204 226 255
204 226 255
204 226 255
204 226 255
204 226 255
204 226 255
204 226 255
204 226 255
204 226 255
204 226 255
203 226 255
203 226 255
203 226 255
203 226 255
203 226 255
203 226 255
203 226 255
203 225 255
203 225 255
203 225 255
203 225 255
203 225 255
203 225 255
203 225 255
203 225 255
202 225 255
202 225 255
202 225 255
202 225 255
202 225 255
202 225 255
202 225 255
202 225 255
202 225 255
202 225 255
202 225 255
202 225 255
202 225 255
202 225 255
202 225 255
202 225 255
201 225 255
201 225 255
201 225 255
201 225 255
201 224 255
201 224 255
201 224 255
201 224 255
201 224 255
201 224 255
201 224 255
201 224 255
201 224 255
201 224 255
201 224 255
200 224 255
200 224 255
200 224 255
200 224 255
200 224 255
200 224 255
200 224 255
200 224 255
200 224 255
200 224 255
200 224 255
200 224 255
200 224 255
200 224 255
200 224 255
199 224 255
199 224 255
199 224 255
199 223 255
199 223 255
199 223 255
199 223 255
199 223 255
199 223 255
199 223 255
199 223 255
199 223 255
199 223 255
199 223 255
199 223 255
199 223 255
199 223 255
199 223 255
199 223 255
198 223 255
198 223 255
198 223 255
198 223 255
198 223 255
198 223 255
198 223 255
198 223 255
198 223 255
198 223 255
198 223 255
198 223 255
198 223 255
198 223 255
198 223 255
198 223 255
198 223 255
198 223 255
198 223 255
198 223 255
198 223 255
198 223 255
198 223 255
198 223 255
198 223 255
198 223 255
198 223 255
198 223 255
197 223 255
197 222 255
197 222 255
197 222 255
197 222 255
197 222 255
197 222 255
197 222 255
197 222 255
197 222 255
197 222 255
197 222 255
197 222 255
197 222 255
197 222 255
197 222 255
197 222 255
197 222 255
197 222 255
197 222 255
197 222 255
197 222 255
197 222 255
197 222 255
197 222 255
197 222 255
197 222 255
197 222 255
197 222 255
197 222 255
197 222 255
197 222 255
197 222 255
197 223 255
197 223 255
198 223 255
198 223 255
198 223 255
198 223 255
198 223 255
198 223 255
198 223 255
198 223 255
198 223 255
198 223 255
198 223 255
198 223 255
198 223 255
198 223 255
198 223 255
198 223 255
198 223 255
198 223 255
198 223 255
198 223 255
198 223 255
198 223 255
198 223 255
198 223 255
198 223 255
198 223 255
198 223 255
199 223 255
199 223 255
199 223 255
199 223 255
199 223 255
199 223 255
199 223 255
199 223 255
199 223 255
199 223 255
199 223 255
199 223 255
199 223 255
199 223 255
199 223 255
199 223 255
199 224 255
199 224 255
199 224 255
200 224 255
200 224 255
200 224 255
200 224 255
200 224 255
200 224 255
200 224 255
200 224 255
200 224 255
200 224 255
200 224 255
200 224 255
200 224 255
200 224 255
200 224 255
201 224 255
201 224 255
201 224 255
201 224 255
201 224 255
201 224 255
201 224 255
201 224 255
201 224 255
201 224 255
201 224 255
201 225 255
201 225 255
201 225 255
201 225 255
202 225 255
202 225 255
202 225 255
202 225 255
202 225 255
202 225 255
202 225 255
202 225 255
202 225 255
202 225 255
202 225 255
202 225 255
202 225 255
202 225 255
202 225 255
203 225 255
203 225 255
203 225 255
203 225 255
203 225 255
203 225 255
203 225 255
203 225 255
203 225 255
203 226 255
203 226 255
203 226 255
203 226 255
203 226 255
203 226 255
203 226 255
204 226 255
204 226 255
204 226 255
204 226 255
204 226 255
204 226 255
204 226 255
204 226 255
204 226 255
204 226 255
204 226 255
204 226 255
204 226 255
204 226 255
204 226 255
204 226 255
205 226 255
205 226 255
205 226 255
205 226 255
205 226 255
205 226 255
205 227 255
205 227 255
205 227 255
205 227 255
205 227 255
205 227 255
205 227 255
205 227 255
205 227 255
205 227 255
206 227 255
206 227 255
206 227 255
206 227 255
206 227 255
206 227 255
206 227 255
206 227 255
206 227 255
206 227 255
206 227 255
206 227 255
206 227 255
206 227 255
206 227 255
206 227 255
206 227 255
206 227 255
206 227 255
207 227 255
207 227 255
207 227 255
207 227 255
207 227 255
207 228 255
207 228 255
207 228 255
207 228 255
207 228 255
207 228 255
207 228 255
207 228 255
207 228 255
207 228 255
207 228 255
207 228 255
207 228 255
207 228 255
207 228 255
208 228 255
208 228 255
208 228 255
208 228 255
208 228 255
208 228 255
208 228 255
208 228 255
208 228 255
208 228 255
208 228 255
207 228 255
207 228 255
207 228 255
207 228 255
207 228 255
207 228 255
207 228 255
207 228 255
207 228 255
207 228 255
207 228 255
207 228 255
207 228 255
207 228 255
207 228 255
207 228 255
207 227 255
207 227 255
207 227 255
207 227 255
206 227 255
206 227 255
206 227 255
206 227 255
206 227 255
206 227 255
206 227 255
206 227 255
206 227 255
206 227 255
206 227 255
206 227 255
206 227 255
206 227 255
206 227 255
206 227 255
206 227 255
206 227 255
205 227 255
205 227 255
205 227 255
205 227 255
205 227 255
205 227 255
205 227 255
205 227 255
205 227 255
205 227 255
205 226 255
205 226 255
205 226 255
205 226 255
205 226 255
205 226 255
205 226 255
204 226 255
204 226 255
204 226 255
204 226 255
204 226 255
204 226 255
204 226 255
204 226 255
204 226 255
204 226 255
204 226 255
204 226 255
204 226 255
204 226 255
204 226 255
204 226 255
203 226 255
203 226 255
203 226 255
203 226 255
203 226 255
203 226 255
203 226 255
203 225 255
203 225 255
203 225 255
203 225 255
203 225 255
203 225 255
203 225 255
203 225 255
202 225 255
202 225 255
202 225 255
202 225 255
202 225 255
202 225 255
202 225 255
202 225 255
202 225 255
202 225 255
202 225 255
202 225 255
202 225 255
202 225 255
202 225 255
201 225 255
201 225 255
201 225 255
201 225 255
201 225 255
201 224 255
201 224 255
201 224 255
201 224 255
201 224 255
201 224 255
201 224 255
201 224 255
201 224 255
201 224 255
200 224 255
200 224 255
200 224 255
200 224 255
200 224 255
200 224 255
200 224 255
200 224 255
200 224 255
200 224 255
200 224 255
200 224 255
200 224 255
200 224 255
200 224 255
200 224 255
199 224 255
199 224 255
199 224 255
199 223 255
199 223 255
199 223 255
199 223 255
199 223 255
199 223 255
199 223 255
199 223 255
199 223 255
199 223 255
199 223 255
199 223 255
199 223 255
199 223 255
199 223 255
199 223 255
199 223 255
198 223 255
198 223 255
198 223 255
198 223 255
198 223 255
198 223 255
198 223 255
198 223 255
198 223 255
198 223 255
198 223 255
198 223 255
198 223 255
198 223 255
198 223 255
198 223 255
198 223 255
198 223 255
198 223 255
198 223 255
198 223 255
198 223 255
198 223 255
198 223 255
198 223 255
198 223 255
198 223 255
198 223 255
198 223 255
198 223 255
198 223 255
198 223 255
198 223 255
198 223 255
198 223 255
198 223 255
198 223 255
198 223 255
197 223 255
197 223 255
198 223 255
197 223 255
198 223 255
198 223 255
197 223 255
198 223 255
198 223 255
198 223 255
198 223 255
198 223 255
198 223 255
198 223 255
198 223 255
198 223 255
198 223 255
198 223 255
198 223 255
198 223 255
198 223 255
198 223 255
198 223 255
198 223 255
198 223 255
198 223 255
198 223 255
198 223 255
198 223 255
198 223 255
198 223 255
198 223 255
198 223 255
198 223 255
198 223 255
198 223 255
198 223 255
198 223 255
198 223 255
198 223 255
198 223 255
198 223 255
198 223 255
198 223 255
199 223 255
199 223 255
199 223 255
199 223 255
199 223 255
199 223 255
199 223 255
199 223 255
199 223 255
199 223 255
199 223 255
199 223 255
199 223 255
199 223 255
199 223 255
199 223 255
199 223 255
199 224 255
199 224 255
200 224 255
200 224 255
200 224 255
200 224 255
200 224 255
200 224 255
200 224 255
200 224 255
200 224 255
200 224 255
200 224 255
200 224 255
200 224 255
200 224 255
200 224 255
200 224 255
200 224 255
201 224 255
201 224 255
201 224 255
201 224 255
201 224 255
201 224 255
201 224 255
201 224 255
201 224 255
201 224 255
201 225 255
201 225 255
201 225 255
201 225 255
201 225 255
202 225 255
202 225 255
202 225 255
202 225 255
202 225 255
202 225 255
202 225 255
202 225 255
202 225 255
202 225 255
202 225 255
202 225 255
202 225 255
202 225 255
202 225 255
203 225 255
203 225 255
203 225 255
203 225 255
203 225 255
203 225 255
203 225 255
203 225 255
203 226 255
203 226 255
203 226 255
203 226 255
203 226 255
203 226 255
203 226 255
204 226 255
204 226 255
204 226 255
204 226 255
204 226 255
204 226 255
204 226 255
204 226 255
204 226 255
204 226 255
204 226 255
204 226 255
204 226 255
204 226 255
204 226 255
204 226 255
205 226 255
205 226 255
205 226 255
205 226 255
205 226 255
205 226 255
205 226 255
205 227 255
205 227 255
205 227 255
205 227 255
205 227 255
205 227 255
205 227 255
205 227 255
205 227 255
205 227 255
206 227 255
206 227 255
206 227 255
206 227 255
206 227 255
206 227 255
206 227 255
206 227 255
206 227 255
206 227 255
206 227 255
206 227 255
206 227 255
206 227 255
206 227 255
206 227 255
206 227 255
206 227 255
207 227 255
207 227 255
207 227 255
207 227 255
207 227 255
207 228 255
207 228 255
207 228 255
207 228 255
207 228 255
207 228 255
207 228 255
207 228 255
207 228 255
207 228 255
207 228 255
207 228 255
207 228 255
207 228 255
207 228 255
208 228 255
208 228 255
208 228 255
208 228 255
208 228 255
208 228 255
208 228 255
208 228 255
208 228 255
208 228 255
208 228 255
208 228 255
208 228 255
208 228 255
208 228 255
208 228 255
208 228 255
207 228 255
207 228 255
207 228 255
207 228 255
207 228 255
207 228 255
207 228 255
207 228 255
207 228 255
207 228 255
207 228 255
207 228 255
207 228 255
207 228 255
207 228 255
207 227 255
207 227 255
207 227 255
207 227 255
207 227 255
206 227 255
206 227 255
206 227 255
206 227 255
206 227 255
206 227 255
206 227 255
206 227 255
206 227 255
206 227 255
206 227 255
206 227 255
206 227 255
206 227 255
206 227 255
206 227 255
206 227 255
206 227 255
205 227 255
205 227 255
205 227 255
205 227 255
205 227 255
205 227 255
205 227 255
205 227 255
205 227 255
205 227 255
205 226 255
205 226 255
205 226 255
205 226 255
205 226 255
205 226 255
205 226 255
204 226 255
204 226 255
204 226 255
204 226 255
204 226 255
204 226 255
204 226 255
204 226 255
204 226 255
204 226 255
204 226 255
204 226 255
204 226 255
204 226 255
204 226 255
204 226 255
203 226 255
203 226 255
203 226 255
203 226 255
203 226 255
203 226 255
203 225 255
203 225 255
203 225 255
203 225 255
203 225 255
203 225 255
203 225 255
203 225 255
203 225 255
202 225 255
202 225 255
202 225 255
202 225 255
202 225 255
202 225 255
202 225 255
202 225 255
202 225 255
202 225 255
202 225 255
202 225 255
202 225 255
202 225 255
202 225 255
201 225 255
201 225 255
201 225 255
201 225 255
201 224 255
201 224 255
201 224 255
201 224 255
201 224 255
201 224 255
201 224 255
201 224 255
201 224 255
201 224 255
201 224 255
200 224 255
200 224 255
200 224 255
200 224 255
200 224 255
200 224 255
200 224 255
200 224 255
200 224 255
200 224 255
200 224 255
200 224 255
200 224 255
200 224 255
200 224 255
200 224 255
200 224 255
199 224 255
199 224 255
199 224 255
199 223 255
199 223 255
199 223 255
199 223 255
199 223 255
199 223 255
199 223 255
199 223 255
199 223 255
199 223 255
199 223 255
199 223 255
199 223 255
199 223 255
199 223 255
199 223 255
199 223 255
198 223 255
198 223 255
198 223 255
198 223 255
198 223 255
198 223 255
198 223 255
198 223 255
198 223 255
198 223 255
198 223 255
198 223 255
198 223 255
198 223 255
198 223 255
198 223 255
198 223 255
198 223 255
198 223 255
198 223 255
198 223 255
198 223 255
198 223 255
198 223 255
198 223 255
198 223 255
198 223 255
198 223 255
198 223 255
198 223 255
198 223 255
198 223 255
198 223 255
198 223 255
198 223 255
198 223 255
198 223 255
198 223 255
198 223 255
198 223 255
198 223 255
198 223 255
198 223 255
198 223 255
198 223 255
198 223 255
198 223 255
198 223 255
198 223 255
198 223 255
198 223 255
198 223 255
198 223 255
198 223 255
198 223 255
198 223 255
198 223 255
198 223 255
198 223 255
198 223 255
198 223 255
198 223 255
198 223 255
198 223 255
198 223 255
198 223 255
198 223 255
198 223 255
198 223 255
198 223 255
198 223 255
198 223 255
198 223 255
198 223 255
199 223 255
199 223 255
199 223 255
199 223 255
199 223 255
199 223 255
199 223 255
199 223 255
199 223 255
199 223 255
199 223 255
199 223 255
199 223 255
199 223 255
199 223 255
199 223 255
199 223 255
199 224 255
199 224 255
199 224 255
200 224 255
200 224 255
200 224 255
200 224 255
200 224 255
200 224 255
200 224 255
200 224 255
200 224 255
200 224 255
200 224 255
200 224 255
200 224 255
200 224 255
200 224 255
200 224 255
200 224 255
201 224 255
201 224 255
201 224 255
201 224 255
201 224 255
201 224 255
201 224 255
201 224 255
201 224 255
201 224 255
201 224 255
201 225 255
201 225 255
201 225 255
201 225 255
202 225 255
202 225 255
202 225 255
202 225 255
202 225 255
202 225 255
202 225 255
202 225 255
202 225 255
202 225 255
202 225 255
202 225 255
202 225 255
202 225 255
202 225 255
203 225 255
203 225 255
203 225 255
203 225 255
203 225 255
203 225 255
203 225 255
203 225 255
203 225 255
203 226 255
203 226 255
203 226 255
203 226 255
203 226 255
203 226 255
204 226 255
204 226 255
204 226 255
204 226 255
204 226 255
204 226 255
204 226 255
204 226 255
204 226 255
204 226 255
204 226 255
204 226 255
204 226 255
204 226 255
204 226 255
204 226 255
205 226 255
205 226 255
205 226 255
205 226 255
205 226 255
205 226 255
205 226 255
205 227 255
205 227 255
205 227 255
205 227 255
205 227 255
205 227 255
205 227 255
205 227 255
205 227 255
205 227 255
206 227 255
206 227 255
206 227 255
206 227 255
206 227 255
206 227 255
206 227 255
206 227 255
206 227 255
206 227 255
206 227 255
206 227 255
206 227 255
206 227 255
206 227 255
206 227 255
206 227 255
206 227 255
207 227 255
207 227 255
207 227 255
207 227 255
207 227 255
207 228 255
207 228 255
207 228 255
207 228 255
207 228 255
207 228 255
207 228 255
207 228 255
207 228 255
207 228 255
207 228 255
207 228 255
207 228 255
207 228 255
207 228 255
208 228 255
208 228 255
208 228 255
208 228 255
208 228 255
208 228 255
208 228 255
208 228 255
208 228 255
208 228 255
208 228 255
208 228 255
208 228 255
208 228 255
208 228 255
208 228 255
208 228 255
208 228 255
208 228 255
208 228 255
208 228 255
208 228 255
208 228 255
207 228 255
207 228 255
207 228 255
207 228 255
207 228 255
207 228 255
207 228 255
207 228 255
207 228 255
207 228 255
207 228 255
207 228 255
207 228 255
207 228 255
207 228 255
207 227 255
207 227 255
207 227 255
207 227 255
207 227 255
206 227 255
206 227 255
206 227 255
206 227 255
206 227 255
206 227 255
206 227 255
206 227 255
206 227 255
206 227 255
206 227 255
206 227 255
206 227 255
206 227 255
206 227 255
206 227 255
206 227 255
206 227 255
205 227 255
205 227 255
205 227 255
205 227 255
205 227 255
205 227 255
205 227 255
205 227 255
205 227 255
205 227 255
205 226 255
205 226 255
205 226 255
205 226 255
205 226 255
205 226 255
204 226 255
204 226 255
204 226 255
204 226 255
204 226 255
204 226 255
204 226 255
204 226 255
204 226 255
204 226 255
204 226 255
204 226 255
204 226 255
204 226 255
204 226 255
204 226 255
203 226 255
203 226 255
203 226 255
203 226 255
203 226 255
203 226 255
203 226 255
203 225 255
203 225 255
203 225 255
203 225 255
203 225 255
203 225 255
203 225 255
203 225 255
202 225 255
202 225 255
202 225 255
202 225 255
202 225 255
202 225 255
202 225 255
202 225 255
202 225 255
202 225 255
202 225 255
202 225 255
202 225 255
202 225 255
202 225 255
202 225 255
201 225 255
201 225 255
201 225 255
201 225 255
201 224 255
201 224 255
201 224 255
201 224 255
201 224 255
201 224 255
201 224 255
201 224 255
201 224 255
201 224 255
201 224 255
200 224 255
200 224 255
200 224 255
200 224 255
200 224 255
200 224 255
200 224 255
200 224 255
200 224 255
200 224 255
200 224 255
200 224 255
200 224 255
200 224 255
200 224 255
200 224 255
200 224 255
199 224 255
199 224 255
199 224 255
199 223 255
199 223 255
199 223 255
199 223 255
199 223 255
199 223 255
199 223 255
199 223 255
199 223 255
199 223 255
199 223 255
199 223 255
199 223 255
199 223 255
199 223 255
199 223 255
199 223 255
199 223 255
199 223 255
198 223 255
198 223 255
198 223 255
198 223 255
198 223 255
198 223 255
198 223 255
198 223 255
198 223 255
198 223 255
198 223 255
198 223 255
198 223 255
198 223 255
198 223 255
198 223 255
198 223 255
198 223 255
198 223 255
198 223 255
198 223 255
198 223 255
198 223 255
198 223 255
198 223 255
198 223 255
198 223 255
198 223 255
198 223 255
198 223 255
198 223 255
198 223 255
198 223 255
198 223 255
198 223 255
198 223 255
198 223 255
198 223 255
198 223 255
198 223 255
198 223 255
198 223 255
198 223 255
198 223 255
198 223 255
198 223 255
198 223 255
198 223 255
198 223 255
198 223 255
198 223 255
198 223 255
198 223 255
198 223 255
198 223 255
198 223 255
198 223 255
198 223 255
198 223 255
198 223 255
198 223 255
198 223 255
198 223 255
198 223 255
199 223 255
199 223 255
199 223 255
199 223 255
199 223 255
199 223 255
199 223 255
199 223 255
199 223 255
199 223 255
199 223 255
199 223 255
199 223 255
199 223 255
199 223 255
199 223 255
199 223 255
199 223 255
199 223 255
199 224 255
199 224 255
199 224 255
200 224 255
200 224 255
200 224 255
200 224 255
200 224 255
200 224 255
200 224 255
200 224 255
200 224 255
200 224 255
200 224 255
200 224 255
200 224 255
200 224 255
200 224 255
200 224 255
200 224 255
201 224 255
201 224 255
201 224 255
201 224 255
201 224 255
201 224 255
201 224 255
201 224 255
201 224 255
201 224 255
201 224 255
201 225 255
201 225 255
201 225 255
201 225 255
202 225 255
202 225 255
202 225 255
202 225 255
202 225 255
202 225 255
202 225 255
202 225 255
202 225 255
202 225 255
202 225 255
202 225 255
202 225 255
202 225 255
202 225 255
203 225 255
203 225 255
203 225 255
203 225 255
203 225 255
203 225 255
203 225 255
203 225 255
203 225 255
203 226 255
203 226 255
203 226 255
203 226 255
203 226 255
203 226 255
203 226 255
204 226 255
204 226 255
204 226 255
204 226 255
204 226 255
204 226 255
204 226 255
204 226 255
204 226 255
204 226 255
204 226 255
204 226 255
204 226 255
204 226 255
204 226 255
204 226 255
205 226 255
205 226 255
205 226 255
205 226 255
205 226 255
205 226 255
205 227 255
205 227 255
205 227 255
205 227 255
205 227 255
205 227 255
205 227 255
205 227 255
205 227 255
205 227 255
206 227 255
206 227 255
206 227 255
206 227 255
206 227 255
206 227 255
206 227 255
206 227 255
206 227 255
206 227 255
206 227 255
206 227 255
206 227 255
206 227 255
206 227 255
206 227 255
206 227 255
206 227 255
207 227 255
207 227 255
207 227 255
207 227 255
207 227 255
207 228 255
207 228 255
207 228 255
207 228 255
207 228 255
207 228 255
207 228 255
207 228 255
207 228 255
207 228 255
207 228 255
207 228 255
207 228 255
207 228 255
207 228 255
208 228 255
208 228 255
208 228 255
208 228 255
208 228 255
208 228 255
208 228 255
208 228 255
208 228 255
208 228 255
208 228 255
208 228 255
208 228 255
208 228 255
208 228 255
208 228 255
208 228 255
208 228 255
208 228 255
208 228 255
208 228 255
208 228 255
208 228 255
208 228 255
208 228 255
208 228 255
208 228 255
208 228 255
208 228 255
207 228 255
207 228 255
207 228 255
207 228 255
207 228 255
207 228 255
207 228 255
207 228 255
207 228 255
207 228 255
207 228 255
207 228 255
207 228 255
207 228 255
207 228 255
207 227 255
207 227 255
207 227 255
207 227 255
207 227 255
206 227 255
206 227 255
206 227 255
206 227 255
206 227 255
206 227 255
206 227 255
206 227 255
206 227 255
206 227 255
206 227 255
206 227 255
206 227 255
206 227 255
206 227 255
206 227 255
206 227 255
205 227 255
205 227 255
205 227 255
205 227 255
205 227 255
205 227 255
205 227 255
205 227 255
205 227 255
205 227 255
205 227 255
205 226 255
205 226 255
205 226 255
205 226 255
205 226 255
205 226 255
204 226 255
204 226 255
204 226 255
204 226 255
204 226 255
204 226 255
204 226 255
204 226 255
204 226 255
204 226 255
204 226 255
204 226 255
204 226 255
204 226 255
204 226 255
204 226 255
203 226 255
203 226 255
203 226 255
203 226 255
203 226 255
203 226 255
203 226 255
203 225 255
203 225 255
203 225 255
203 225 255
203 225 255
203 225 255
203 225 255
203 225 255
202 225 255
202 225 255
202 225 255
202 225 255
202 225 255
202 225 255
202 225 255
202 225 255
202 225 255
202 225 255
202 225 255
202 225 255
202 225 255
202 225 255
202 225 255
201 225 255
201 225 255
201 225 255
201 225 255
201 225 255
201 224 255
201 224 255
201 224 255
201 224 255
201 224 255
201 224 255
201 224 255
201 224 255
201 224 255
201 224 255
201 224 255
200 224 255
200 224 255
200 224 255
200 224 255
200 224 255
200 224 255
200 224 255
200 224 255
200 224 255
200 224 255
200 224 255
200 224 255
200 224 255
200 224 255
200 224 255
200 224 255
200 224 255
200 224 255
199 224 255
199 224 255
199 224 255
199 223 255
199 223 255
199 223 255
199 223 255
199 223 255
199 223 255
199 223 255
199 223 255
199 223 255
199 223 255
199 223 255
199 223 255
199 223 255
199 223 255
199 223 255
199 223 255
199 223 255
199 223 255
199 223 255
199 223 255
198 223 255
198 223 255
198 223 255
198 223 255
198 223 255
198 223 255
198 223 255
198 223 255
198 223 255
198 223 255
198 223 255
198 223 255
198 223 255
198 223 255
198 223 255
198 223 255
198 223 255
198 223 255
198 223 255
198 223 255
198 223 255
198 223 255
198 223 255
198 223 255
198 223 255
198 223 255
198 223 255
198 223 255
198 223 255
198 223 255
198 223 255
198 223 255
198 223 255
198 223 255
198 223 255
198 223 255
198 223 255
198 223 255
198 223 255
198 223 255
198 223 255
198 223 255
198 223 255
198 223 255
198 223 255
198 223 255
198 223 255
198 223 255
198 223 255
198 223 255
198 223 255
198 223 255
198 223 255
198 223 255
199 223 255
199 223 255
199 223 255
199 223 255
199 223 255
199 223 255
199 223 255
199 223 255
199 223 255
199 223 255
199 223 255
199 223 255
199 223 255
199 223 255
199 223 255
199 223 255
199 223 255
199 223 255
199 223 255
199 223 255
199 224 255
199 224 255
199 224 255
200 224 255
200 224 255
200 224 255
200 224 255
200 224 255
200 224 255
200 224 255
200 224 255
200 224 255
200 224 255
200 224 255
200 224 255
200 224 255
200 224 255
200 224 255
200 224 255
200 224 255
200 224 255
201 224 255
201 224 255
201 224 255
201 224 255
201 224 255
201 224 255
201 224 255
201 224 255
201 224 255
201 224 255
201 224 255
201 225 255
201 225 255
201 225 255
201 225 255
201 225 255
202 225 255
202 225 255
202 225 255
202 225 255
202 225 255
202 225 255
202 225 255
202 225 255
202 225 255
202 225 255
202 225 255
202 225 255
202 225 255
202 225 255
202 225 255
203 225 255
203 225 255
203 225 255
203 225 255
203 225 255
203 225 255
203 225 255
203 225 255
203 226 255
203 226 255
203 226 255
203 226 255
203 226 255
203 226 255
203 226 255
204 226 255
204 226 255
204 226 255
204 226 255
204 226 255
204 226 255
204 226 255
204 226 255
204 226 255
204 226 255
204 226 255
204 226 255
204 226 255
204 226 255
204 226 255
204 226 255
205 226 255
205 226 255
205 226 255
205 226 255
205 226 255
205 226 255
205 227 255
205 227 255
205 227 255
205 227 255
205 227 255
205 227 255
205 227 255
205 227 255
205 227 255
205 227 255
206 227 255
206 227 255
206 227 255
206 227 255
206 227 255
206 227 255
206 227 255
206 227 255
206 227 255
206 227 255
206 227 255
206 227 255
206 227 255
206 227 255
206 227 255
206 227 255
206 227 255
206 227 255
207 227 255
207 227 255
207 227 255
207 227 255
207 227 255
207 228 255
207 228 255
207 228 255
207 228 255
207 228 255
207 228 255
207 228 255
207 228 255
207 228 255
207 228 255
207 228 255
207 228 255
207 228 255
207 228 255
207 228 255
208 228 255
208 228 255
208 228 255
208 228 255
208 228 255
208 228 255
208 228 255
208 228 255
208 228 255
208 228 255
208 228 255
208 228 255
208 228 255
208 228 255
208 228 255
208 228 255
208 228 255
208 228 255
208 228 255
208 228 255
208 228 255
208 228 255
208 228 255
208 228 255
208 228 255
208 228 255
208 228 255
208 228 255
208 228 255
208 228 255
208 228 255
208 228 255
208 228 255
208 228 255
208 228 255
207 228 255
207 228 255
207 228 255
207 228 255
207 228 255
207 228 255
207 228 255
207 228 255
207 228 255
207 228 255
207 228 255
207 228 255
207 228 255
207 228 255
207 228 255
207 227 255
207 227 255
207 227 255
207 227 255
207 227 255
206 227 255
206 227 255
206 227 255
206 227 255
206 227 255
206 227 255
206 227 255
206 227 255
206 227 255
206 227 255
206 227 255
206 227 255
206 227 255
206 227 255
206 227 255
206 227 255
206 227 255
205 227 255
205 227 255
205 227 255
205 227 255
205 227 255
205 227 255
205 227 255
205 227 255
205 227 255
205 227 255
205 226 255
205 226 255
205 226 255
205 226 255
205 226 255
205 226 255
205 226 255
204 226 255
204 226 255
204 226 255
204 226 255
204 226 255
204 226 255
204 226 255
204 226 255
204 226 255
204 226 255
204 226 255
204 226 255
204 226 255
204 226 255
204 226 255
204 226 255
203 226 255
203 226 255
203 226 255
203 226 255
203 226 255
203 226 255
203 225 255
203 225 255
203 225 255
203 225 255
203 225 255
203 225 255
203 225 255
203 225 255
203 225 255
202 225 255
202 225 255
202 225 255
202 225 255
202 225 255
202 225 255
202 225 255
202 225 255
202 225 255
202 225 255
202 225 255
202 225 255
202 225 255
202 225 255
202 225 255
201 225 255
201 225 255
201 225 255
201 225 255
201 225 255
201 224 255
201 224 255
201 224 255
201 224 255
201 224 255
201 224 255
201 224 255
201 224 255
201 224 255
201 224 255
201 224 255
200 224 255
200 224 255
200 224 255
200 224 255
200 224 255
200 224 255
200 224 255
200 224 255
200 224 255
200 224 255
200 224 255
200 224 255
200 224 255
200 224 255
200 224 255
200 224 255
200 224 255
200 224 255
199 224 255
199 224 255
199 224 255
199 224 255
199 223 255
199 223 255
199 223 255
199 223 255
199 223 255
199 223 255
199 223 255
199 223 255
199 223 255
199 223 255
199 223 255
199 223 255
199 223 255
199 223 255
199 223 255
199 223 255
199 223 255
199 223 255
199 223 255
199 223 255
199 223 255
199 223 255
199 223 255
198 223 255
198 223 255
198 223 255
198 223 255
198 223 255
198 223 255
198 223 255
198 223 255
198 223 255
198 223 255
198 223 255
198 223 255
198 223 255
198 223 255
198 223 255
198 223 255
198 223 255
198 223 255
198 223 255
198 223 255
198 223 255
198 223 255
198 223 255
198 223 255
198 223 255
198 223 255
198 223 255
198 223 255
198 223 255
198 223 255
198 223 255
198 223 255
198 223 255
198 223 255
198 223 255
198 223 255
198 223 255
198 223 255
198 223 255
198 223 255
199 223 255
199 223 255
199 223 255
199 223 255
199 223 255
199 223 255
199 223 255
199 223 255
199 223 255
199 223 255
199 223 255
199 223 255
199 223 255
199 223 255
199 223 255
199 223 255
199 223 255
199 223 255
199 223 255
199 223 255
199 223 255
199 223 255
199 223 255
199 224 255
199 224 255
199 224 255
199 224 255
200 224 255
200 224 255
200 224 255
200 224 255
200 224 255
200 224 255
200 224 255
200 224 255
200 224 255
200 224 255
200 224 255
200 224 255
200 224 255
200 224 255
200 224 255
200 224 255
200 224 255
200 224 255
201 224 255
201 224 255
201 224 255
201 224 255
201 224 255
201 224 255
201 224 255
201 224 255
201 224 255
201 224 255
201 224 255
201 225 255
201 225 255
201 225 255
201 225 255
201 225 255
202 225 255
202 225 255
202 225 255
202 225 255
202 225 255
202 225 255
202 225 255
202 225 255
202 225 255
202 225 255
202 225 255
202 225 255
202 225 255
202 225 255
202 225 255
203 225 255
203 225 255
203 225 255
203 225 255
203 225 255
203 225 255
203 225 255
203 225 255
203 225 255
203 226 255
203 226 255
203 226 255
203 226 255
203 226 255
203 226 255
204 226 255
204 226 255
204 226 255
204 226 255
204 226 255
204 226 255
204 226 255
204 226 255
204 226 255
204 226 255
204 226 255
204 226 255
204 226 255
204 226 255
204 226 255
204 226 255
205 226 255
205 226 255
205 226 255
205 226 255
205 226 255
205 226 255
205 226 255
205 227 255
205 227 255
205 227 255
205 227 255
205 227 255
205 227 255
205 227 255
205 227 255
205 227 255
205 227 255
206 227 255
206 227 255
206 227 255
206 227 255
206 227 255
206 227 255
206 227 255
206 227 255
206 227 255
206 227 255
206 227 255
206 227 255
206 227 255
206 227 255
206 227 255
206 227 255
206 227 255
207 227 255
207 227 255
207 227 255
207 227 255
207 227 255
207 228 255
207 228 255
207 228 255
207 228 255
207 228 255
207 228 255
207 228 255
207 228 255
207 228 255
207 228 255
207 228 255
207 228 255
207 228 255
207 228 255
207 228 255
208 228 255
208 228 255
208 228 255
208 228 255
208 228 255
208 228 255
208 228 255
208 228 255
208 228 255
208 228 255
208 228 255
208 228 255
208 228 255
208 228 255
208 228 255
208 228 255
208 228 255
208 228 255
208 228 255
209 228 255
208 228 255
208 228 255
208 228 255
208 228 255
208 228 255
208 228 255
208 228 255
208 228 255
208 228 255
208 228 255
208 228 255
208 228 255
208 228 255
208 228 255
208 228 255
208 228 255
208 228 255
208 228 255
208 228 255
208 228 255
208 228 255
207 228 255
207 228 255
207 228 255
207 228 255
207 228 255
207 228 255
207 228 255
207 228 255
207 228 255
207 228 255
207 228 255
207 228 255
207 228 255
207 228 255
207 228 255
207 227 255
207 227 255
207 227 255
207 227 255
207 227 255
206 227 255
206 227 255
206 227 255
206 227 255
206 227 255
206 227 255
206 227 255
206 227 255
206 227 255
206 227 255
206 227 255
206 227 255
206 227 255
206 227 255
206 227 255
206 227 255
206 227 255
205 227 255
205 227 255
205 227 255
205 227 255
205 227 255
205 227 255
205 227 255
205 227 255
205 227 255
205 227 255
205 226 255
205 226 255
205 226 255
205 226 255
205 226 255
205 226 255
205 226 255
204 226 255
204 226 255
204 226 255
204 226 255
204 226 255
204 226 255
204 226 255
204 226 255
204 226 255
204 226 255
204 226 255
204 226 255
204 226 255
204 226 255
204 226 255
203 226 255
203 226 255
203 226 255
203 226 255
203 226 255
203 226 255
203 226 255
203 225 255
203 225 255
203 225 255
203 225 255
203 225 255
203 225 255
203 225 255
203 225 255
203 225 255
202 225 255
202 225 255
202 225 255
202 225 255
202 225 255
202 225 255
202 225 255
202 225 255
202 225 255
202 225 255
202 225 255
202 225 255
202 225 255
202 225 255
202 225 255
201 225 255
201 225 255
201 225 255
201 225 255
201 225 255
201 224 255
201 224 255
201 224 255
201 224 255
201 224 255
201 224 255
201 224 255
201 224 255
201 224 255
201 224 255
201 224 255
200 224 255
200 224 255
200 224 255
200 224 255
200 224 255
200 224 255
200 224 255
200 224 255
200 224 255
200 224 255
200 224 255
200 224 255
200 224 255
200 224 255
200 224 255
200 224 255
200 224 255
200 224 255
200 224 255
200 224 255
199 224 255
199 224 255
199 224 255
199 223 255
199 223 255
199 223 255
199 223 255
199 223 255
199 223 255
199 223 255
199 223 255
199 223 255
199 223 255
199 223 255
199 223 255
199 223 255
199 223 255
199 223 255
199 223 255
199 223 255
199 223 255
199 223 255
199 223 255
199 223 255
199 223 255
199 223 255
199 223 255
199 223 255
199 223 255
199 223 255
199 223 255
199 223 255
198 223 255
198 223 255
198 223 255
198 223 255
198 223 255
198 223 255
198 223 255
198 223 255
198 223 255
198 223 255
198 223 255
198 223 255
198 223 255
198 223 255
198 223 255
198 223 255
198 223 255
198 223 255
198 223 255
199 223 255
199 223 255
199 223 255
199 223 255
199 223 255
199 223 255
199 223 255
199 223 255
199 223 255
199 223 255
199 223 255
199 223 255
199 223 255
199 223 255
199 223 255
199 223 255
199 223 255
199 223 255
199 223 255
199 223 255
199 223 255
199 223 255
199 223 255
199 223 255
199 223 255
199 223 255
199 223 255
199 223 255
199 223 255
199 223 255
199 224 255
199 224 255
199 224 255
199 224 255
200 224 255
200 224 255
200 224 255
200 224 255
200 224 255
200 224 255
200 224 255
200 224 255
200 224 255
200 224 255
200 224 255
200 224 255
200 224 255
200 224 255
200 224 255
200 224 255
200 224 255
200 224 255
200 224 255
201 224 255
201 224 255
201 224 255
201 224 255
201 224 255
201 224 255
201 224 255
201 224 255
201 224 255
201 224 255
201 224 255
201 225 255
201 225 255
201 225 255
201 225 255
201 225 255
202 225 255
202 225 255
202 225 255
202 225 255
202 225 255
202 225 255
202 225 255
202 225 255
202 225 255
202 225 255
202 225 255
202 225 255
202 225 255
202 225 255
202 225 255
203 225 255
203 225 255
203 225 255
203 225 255
203 225 255
203 225 255
203 225 255
203 225 255
203 225 255
203 226 255
203 226 255
203 226 255
203 226 255
203 226 255
203 226 255
203 226 255
204 226 255
204 226 255
204 226 255
204 226 255
204 226 255
204 226 255
204 226 255
204 226 255
204 226 255
204 226 255
204 226 255
204 226 255
204 226 255
204 226 255
204 226 255
205 226 255
205 226 255
205 226 255
205 226 255
205 226 255
205 226 255
205 226 255
205 227 255
205 227 255
205 227 255
205 227 255
205 227 255
205 227 255
205 227 255
205 227 255
205 227 255
205 227 255
206 227 255
206 227 255
206 227 255
206 227 255
206 227 255
206 227 255
206 227 255
206 227 255
206 227 255
206 227 255
206 227 255
206 227 255
206 227 255
206 227 255
206 227 255
206 227 255
206 227 255
207 227 255
207 227 255
207 227 255
207 227 255
207 227 255
207 228 255
207 228 255
207 228 255
207 228 255
207 228 255
207 228 255
207 228 255
207 228 255
207 228 255
207 228 255
207 228 255
207 228 255
207 228 255
207 228 255
207 228 255
208 228 255
208 228 255
208 228 255
208 228 255
208 228 255
208 228 255
208 228 255
208 228 255
208 228 255
208 228 255
208 228 255
208 228 255
208 228 255
208 228 255
208 228 255
208 228 255
208 228 255
208 228 255
208 228 255
208 228 255
208 228 255
209 228 255
209 229 255
209 229 255
209 228 255
209 228 255
208 228 255
208 228 255
208 228 255
208 228 255
208 228 255
208 228 255
208 228 255
208 228 255
208 228 255
208 228 255
208 228 255
208 228 255
208 228 255
208 228 255
208 228 255
208 228 255
208 228 255
208 228 255
208 228 255
208 228 255
208 228 255
207 228 255
207 228 255
207 228 255
207 228 255
207 228 255
207 228 255
207 228 255
207 228 255
207 228 255
207 228 255
207 228 255
207 228 255
207 228 255
207 228 255
207 228 255
207 227 255
207 227 255
207 227 255
207 227 255
207 227 255
206 227 255
206 227 255
206 227 255
206 227 255
206 227 255
206 227 255
206 227 255
206 227 255
206 227 255
206 227 255
206 227 255
206 227 255
206 227 255
206 227 255
206 227 255
206 227 255
206 227 255
205 227 255
205 227 255
205 227 255
205 227 255
205 227 255
205 227 255
205 227 255
205 227 255
205 227 255
205 227 255
205 226 255
205 226 255
205 226 255
205 226 255
205 226 255
205 226 255
205 226 255
204 226 255
204 226 255
204 226 255
204 226 255
204 226 255
204 226 255
204 226 255
204 226 255
204 226 255
204 226 255
204 226 255
204 226 255
204 226 255
204 226 255
204 226 255
203 226 255
203 226 255
203 226 255
203 226 255
203 226 255
203 226 255
203 226 255
203 225 255
203 225 255
203 225 255
203 225 255
203 225 255
203 225 255
203 225 255
203 225 255
203 225 255
202 225 255
202 225 255
202 225 255
202 225 255
202 225 255
202 225 255
202 225 255
202 225 255
202 225 255
202 225 255
202 225 255
202 225 255
202 225 255
202 225 255
202 225 255
201 225 255
201 225 255
201 225 255
201 225 255
201 225 255
201 224 255
201 224 255
201 224 255
201 224 255
201 224 255
201 224 255
201 224 255
201 224 255
201 224 255
201 224 255
201 224 255
201 224 255
200 224 255
200 224 255
200 224 255
200 224 255
200 224 255
200 224 255
200 224 255
200 224 255
200 224 255
200 224 255
200 224 255
200 224 255
200 224 255
200 224 255
200 224 255
200 224 255
200 224 255
200 224 255
200 224 255
200 224 255
199 224 255
199 224 255
199 224 255
199 224 255
199 223 255
199 223 255
199 223 255
199 223 255
199 223 255
199 223 255
199 223 255
199 223 255
199 223 255
199 223 255
199 223 255
199 223 255
199 223 255
199 223 255
199 223 255
199 223 255
199 223 255
199 223 255
199 223 255
199 223 255
199 223 255
199 223 255
199 223 255
199 223 255
199 223 255
199 223 255
199 223 255
199 223 255
199 223 255
199 223 255
199 223 255
199 223 255
199 223 255
199 223 255
199 223 255
199 223 255
199 223 255
199 223 255
199 223 255
199 223 255
199 223 255
199 223 255
199 223 255
199 223 255
199 223 255
199 223 255
199 223 255
199 223 255
199 223 255
199 223 255
199 223 255
199 223 255
199 223 255
199 223 255
199 223 255
199 223 255
199 223 255
199 223 255
199 223 255
199 223 255
199 223 255
199 223 255
199 223 255
199 223 255
199 223 255
199 223 255
199 223 255
199 223 255
199 224 255
199 224 255
199 224 255
199 224 255
200 224 255
200 224 255
200 224 255
200 224 255
200 224 255
200 224 255
200 224 255
200 224 255
200 224 255
200 224 255
200 224 255
200 224 255
200 224 255
200 224 255
200 224 255
200 224 255
200 224 255
200 224 255
200 224 255
200 224 255
201 224 255
201 224 255
201 224 255
201 224 255
201 224 255
201 224 255
201 224 255
201 224 255
201 224 255
201 224 255
201 224 255
201 224 255
201 225 255
201 225 255
201 225 255
201 225 255
201 225 255
202 225 255
202 225 255
202 225 255
202 225 255
202 225 255
202 225 255
202 225 255
202 225 255
202 225 255
202 225 255
202 225 255
202 225 255
202 225 255
202 225 255
202 225 255
203 225 255
203 225 255
203 225 255
203 225 255
203 225 255
203 225 255
203 225 255
203 225 255
203 225 255
203 226 255
203 226 255
203 226 255
203 226 255
203 226 255
203 226 255
203 226 255
204 226 255
204 226 255
204 226 255
204 226 255
204 226 255
204 226 255
204 226 255
204 226 255
204 226 255
204 226 255
204 226 255
204 226 255
204 226 255
204 226 255
204 226 255
204 226 255
205 226 255
205 226 255
205 226 255
205 226 255
205 226 255
205 226 255
205 227 255
205 227 255
205 227 255
205 227 255
205 227 255
205 227 255
205 227 255
205 227 255
205 227 255
205 227 255
206 227 255
206 227 255
206 227 255
206 227 255
206 227 255
206 227 255
206 227 255
206 227 255
206 227 255
206 227 255
206 227 255
206 227 255
206 227 255
206 227 255
206 227 255
206 227 255
206 227 255
207 227 255
207 227 255
207 227 255
207 227 255
207 227 255
207 228 255
207 228 255
207 228 255
207 228 255
207 228 255
207 228 255
207 228 255
207 228 255
207 228 255
207 228 255
207 228 255
207 228 255
207 228 255
207 228 255
207 228 255
208 228 255
208 228 255
208 228 255
208 228 255
208 228 255
208 228 255
208 228 255
208 228 255
208 228 255
208 228 255
208 228 255
208 228 255
208 228 255
208 228 255
208 228 255
208 228 255
208 228 255
208 228 255
208 228 255
208 228 255
208 228 255
209 228 255
209 228 255
209 229 255
209 229 255
209 229 255
209 229 255
209 229 255
209 229 255
209 229 255
209 229 255
209 228 255
208 228 255
208 228 255
208 228 255
208 228 255
208 228 255
208 228 255
208 228 255
208 228 255
208 228 255
208 228 255
208 228 255
208 228 255
208 228 255
208 228 255
208 228 255
208 228 255
208 228 255
208 228 255
208 228 255
208 228 255
208 228 255
207 228 255
207 228 255
207 228 255
207 228 255
207 228 255
207 228 255
207 228 255
207 228 255
207 228 255
207 228 255
207 228 255
207 228 255
207 228 255
207 228 255
207 228 255
207 227 255
207 227 255
207 227 255
207 227 255
206 227 255
206 227 255
206 227 255
206 227 255
206 227 255
206 227 255
206 227 255
206 227 255
206 227 255
206 227 255
206 227 255
206 227 255
206 227 255
206 227 255
206 227 255
206 227 255
206 227 255
206 227 255
205 227 255
205 227 255
205 227 255
205 227 255
205 227 255
205 227 255
205 227 255
205 227 255
205 227 255
205 227 255
205 226 255
205 226 255
205 226 255
205 226 255
205 226 255
205 226 255
204 226 255
204 226 255
204 226 255
204 226 255
204 226 255
204 226 255
204 226 255
204 226 255
204 226 255
204 226 255
204 226 255
204 226 255
204 226 255
204 226 255
204 226 255
204 226 255
203 226 255
203 226 255
203 226 255
203 226 255
203 226 255
203 226 255
203 226 255
203 225 255
203 225 255
203 225 255
203 225 255
203 225 255
203 225 255
203 225 255
203 225 255
203 225 255
202 225 255
202 225 255
202 225 255
202 225 255
202 225 255
202 225 255
202 225 255
202 225 255
202 225 255
202 225 255
202 225 255
202 225 255
202 225 255
202 225 255
202 225 255
201 225 255
201 225 255
201 225 255
201 225 255
201 225 255
201 224 255
201 224 255
201 224 255
201 224 255
201 224 255
201 224 255
201 224 255
201 224 255
201 224 255
201 224 255
201 224 255
201 224 255
200 224 255
200 224 255
200 224 255
200 224 255
200 224 255
200 224 255
200 224 255
200 224 255
200 224 255
200 224 255
200 224 255
200 224 255
200 224 255
200 224 255
200 224 255
200 224 255
200 224 255
200 224 255
200 224 255
200 224 255
200 224 255
200 224 255
199 224 255
199 224 255
199 224 255
199 224 255
199 223 255
199 223 255
199 223 255
199 223 255
199 223 255
199 223 255
199 223 255
199 223 255
199 223 255
199 223 255
199 223 255
199 223 255
199 223 255
199 223 255
199 223 255
199 223 255
199 223 255
199 223 255
199 223 255
199 223 255
199 223 255
199 223 255
199 223 255
199 223 255
199 223 255
199 223 255
199 223 255
199 223 255
199 223 255
199 223 255
199 223 255
199 223 255
199 223 255
199 223 255
199 223 255
199 223 255
199 223 255
199 223 255
199 223 255
199 223 255
199 223 255
199 223 255
199 223 255
199 223 255
199 223 255
199 223 255
199 223 255
199 223 255
199 223 255
199 223 255
199 223 255
199 223 255
199 223 255
199 223 255
199 223 255
199 223 255
199 223 255
199 223 255
199 224 255
199 224 255
199 224 255
199 224 255
200 224 255
200 224 255
200 224 255
200 224 255
200 224 255
200 224 255
200 224 255
200 224 255
200 224 255
200 224 255
200 224 255
200 224 255
200 224 255
200 224 255
200 224 255
200 224 255
200 224 255
200 224 255
200 224 255
200 224 255
200 224 255
200 224 255
201 224 255
201 224 255
201 224 255
201 224 255
201 224 255
201 224 255
201 224 255
201 224 255
201 224 255
201 224 255
201 224 255
201 224 255
201 225 255
201 225 255
201 225 255
201 225 255
201 225 255
202 225 255
202 225 255
202 225 255
202 225 255
202 225 255
202 225 255
202 225 255
202 225 255
202 225 255
202 225 255
202 225 255
202 225 255
202 225 255
202 225 255
202 225 255
202 225 255
203 225 255
203 225 255
203 225 255
203 225 255
203 225 255
203 225 255
203 225 255
203 225 255
203 226 255
203 226 255
203 226 255
203 226 255
203 226 255
203 226 255
203 226 255
204 226 255
204 226 255
204 226 255
204 226 255
204 226 255
204 226 255
204 226 255
204 226 255
204 226 255
204 226 255
204 226 255
204 226 255
204 226 255
204 226 255
204 226 255
204 226 255
205 226 255
205 226 255
205 226 255
205 226 255
205 226 255
205 226 255
205 227 255
205 227 255
205 227 255
205 227 255
205 227 255
205 227 255
205 227 255
205 227 255
205 227 255
205 227 255
206 227 255
206 227 255
206 227 255
206 227 255
206 227 255
206 227 255
206 227 255
206 227 255
206 227 255
206 227 255
206 227 255
206 227 255
206 227 255
206 227 255
206 227 255
206 227 255
206 227 255
207 227 255
207 227 255
207 227 255
207 227 255
207 227 255
207 228 255
207 228 255
207 228 255
207 228 255
207 228 255
207 228 255
207 228 255
207 228 255
207 228 255
207 228 255
207 228 255
207 228 255
207 228 255
207 228 255
207 228 255
208 228 255
208 228 255
208 228 255
208 228 255
208 228 255
208 228 255
208 228 255
208 228 255
208 228 255
208 228 255
208 228 255
208 228 255
208 228 255
208 228 255
208 228 255
208 228 255
208 228 255
208 228 255
208 228 255
208 228 255
208 228 255
209 228 255
209 229 255
209 229 255
209 229 255
209 229 255
209 229 255
209 229 255
209 229 255
209 229 255
209 229 255
209 229 255
209 229 255
209 229 255
209 229 255
209 229 255
209 229 255
209 228 255
209 228 255
208 228 255
208 228 255
208 228 255
208 228 255
208 228 255
208 228 255
208 228 255
208 228 255
208 228 255
208 228 255
208 228 255
208 228 255
208 228 255
208 228 255
208 228 255
208 228 255
208 228 255
208 228 255
208 228 255
208 228 255
208 228 255
207 228 255
207 228 255
207 228 255
207 228 255
207 228 255
207 228 255
207 228 255
207 228 255
207 228 255
207 228 255
207 228 255
207 228 255
207 228 255
207 228 255
207 227 255
207 227 255
207 227 255
207 227 255
206 227 255
206 227 255
206 227 255
206 227 255
206 227 255
206 227 255
206 227 255
206 227 255
206 227 255
206 227 255
206 227 255
206 227 255
206 227 255
206 227 255
206 227 255
206 227 255
206 227 255
206 227 255
205 227 255
205 227 255
205 227 255
205 227 255
205 227 255
205 227 255
205 227 255
205 227 255
205 227 255
205 227 255
205 226 255
205 226 255
205 226 255
205 226 255
205 226 255
205 226 255
204 226 255
204 226 255
204 226 255
204 226 255
204 226 255
204 226 255
204 226 255
204 226 255
204 226 255
204 226 255
204 226 255
204 226 255
204 226 255
204 226 255
204 226 255
204 226 255
203 226 255
203 226 255
203 226 255
203 226 255
203 226 255
203 226 255
203 226 255
203 225 255
203 225 255
203 225 255
203 225 255
203 225 255
203 225 255
203 225 255
203 225 255
202 225 255
202 225 255
202 225 255
202 225 255
202 225 255
202 225 255
202 225 255
202 225 255
202 225 255
202 225 255
202 225 255
202 225 255
202 225 255
202 225 255
202 225 255
202 225 255
201 225 255
201 225 255
201 225 255
201 225 255
201 225 255
201 224 255
201 224 255
201 224 255
201 224 255
201 224 255
201 224 255
201 224 255
201 224 255
201 224 255
201 224 255
201 224 255
201 224 255
201 224 255
200 224 255
200 224 255
200 224 255
200 224 255
200 224 255
200 224 255
200 224 255
200 224 255
200 224 255
200 224 255
200 224 255
200 224 255
200 224 255
200 224 255
200 224 255
200 224 255
200 224 255
200 224 255
200 224 255
200 224 255
200 224 255
200 224 255
200 224 255
199 224 255
199 224 255
199 224 255
199 224 255
199 224 255
199 224 255
199 223 255
199 223 255
199 223 255
199 223 255
199 223 255
199 223 255
199 223 255
199 223 255
199 223 255
199 223 255
199 223 255
199 223 255
199 223 255
199 223 255
199 223 255
199 223 255
199 223 255
199 223 255
199 223 255
199 223 255
199 223 255
199 223 255
199 223 255
199 223 255
199 223 255
199 223 255
199 223 255
199 223 255
199 223 255
199 223 255
199 223 255
199 223 255
199 223 255
199 223 255
199 223 255
199 223 255
199 223 255
199 223 255
199 223 255
199 223 255
199 223 255
199 223 255
199 223 255
199 223 255
199 224 255
199 224 255
199 224 255
199 224 255
199 224 255
200 224 255
200 224 255
200 224 255
200 224 255
200 224 255
200 224 255
200 224 255
200 224 255
200 224 255
200 224 255
200 224 255
200 224 255
200 224 255
200 224 255
200 224 255
200 224 255
200 224 255
200 224 255
200 224 255
200 224 255
200 224 255
200 224 255
200 224 255
200 224 255
201 224 255
201 224 255
201 224 255
201 224 255
201 224 255
201 224 255
201 224 255
201 224 255
201 224 255
201 224 255
201 224 255
201 224 255
201 225 255
201 225 255
201 225 255
201 225 255
201 225 255
202 225 255
202 225 255
202 225 255
202 225 255
202 225 255
202 225 255
202 225 255
202 225 255
202 225 255
202 225 255
202 225 255
202 225 255
202 225 255
202 225 255
202 225 255
202 225 255
202 225 255
203 225 255
203 225 255
203 225 255
203 225 255
203 225 255
203 225 255
203 225 255
203 225 255
203 226 255
203 226 255
203 226 255
203 226 255
203 226 255
203 226 255
203 226 255
204 226 255
204 226 255
204 226 255
204 226 255
204 226 255
204 226 255
204 226 255
204 226 255
204 226 255
204 226 255
204 226 255
204 226 255
204 226 255
204 226 255
204 226 255
204 226 255
205 226 255
205 226 255
205 226 255
205 226 255
205 226 255
205 226 255
205 227 255
205 227 255
205 227 255
205 227 255
205 227 255
205 227 255
205 227 255
205 227 255
205 227 255
205 227 255
206 227 255
206 227 255
206 227 255
206 227 255
206 227 255
206 227 255
206 227 255
206 227 255
206 227 255
206 227 255
206 227 255
206 227 255
206 227 255
206 227 255
206 227 255
206 227 255
206 227 255
206 227 255
207 227 255
207 227 255
207 227 255
207 227 255
207 228 255
207 228 255
207 228 255
207 228 255
207 228 255
207 228 255
207 228 255
207 228 255
207 228 255
207 228 255
207 228 255
207 228 255
207 228 255
207 228 255
208 228 255
208 228 255
208 228 255
208 228 255
208 228 255
208 228 255
208 228 255
208 228 255
208 228 255
208 228 255
208 228 255
208 228 255
208 228 255
208 228 255
208 228 255
208 228 255
208 228 255
208 228 255
208 228 255
208 228 255
208 228 255
209 228 255
209 228 255
209 229 255
209 229 255
209 229 255
209 229 255
209 229 255
209 229 255
209 229 255
209 229 255
209 229 255
209 229 255
209 229 255
209 229 255
209 229 255
209 229 255
209 229 255
209 229 255
209 229 255
209 229 255
209 229 255
209 229 255
209 229 255
209 228 255
209 228 255
208 228 255
208 228 255
208 228 255
208 228 255
208 228 255
208 228 255
208 228 255
208 228 255
208 228 255
208 228 255
208 228 255
208 228 255
208 228 255
208 228 255
208 228 255
208 228 255
208 228 255
208 228 255
208 228 255
208 228 255
208 228 255
207 228 255
207 228 255
207 228 255
207 228 255
207 228 255
207 228 255
207 228 255
207 228 255
207 228 255
207 228 255
207 228 255
207 228 255
207 228 255
207 228 255
207 227 255
207 227 255
207 227 255
207 227 255
207 227 255
206 227 255
206 227 255
206 227 255
206 227 255
206 227 255
206 227 255
206 227 255
206 227 255
206 227 255
206 227 255
206 227 255
206 227 255
206 227 255
206 227 255
206 227 255
206 227 255
206 227 255
205 227 255
205 227 255
205 227 255
205 227 255
205 227 255
205 227 255
205 227 255
205 227 255
205 227 255
205 227 255
205 226 255
205 226 255
205 226 255
205 226 255
205 226 255
205 226 255
204 226 255
204 226 255
204 226 255
204 226 255
204 226 255
204 226 255
204 226 255
204 226 255
204 226 255
204 226 255
204 226 255
204 226 255
204 226 255
204 226 255
204 226 255
204 226 255
203 226 255
203 226 255
203 226 255
203 226 255
203 226 255
203 226 255
203 226 255
203 225 255
203 225 255
203 225 255
203 225 255
203 225 255
203 225 255
203 225 255
203 225 255
202 225 255
202 225 255
202 225 255
202 225 255
202 225 255
202 225 255
202 225 255
202 225 255
202 225 255
202 225 255
202 225 255
202 225 255
202 225 255
202 225 255
202 225 255
202 225 255
202 225 255
201 225 255
201 225 255
201 225 255
201 225 255
201 225 255
201 224 255
201 224 255
201 224 255
201 224 255
201 224 255
201 224 255
201 224 255
201 224 255
201 224 255
201 224 255
201 224 255
201 224 255
201 224 255
200 224 255
200 224 255
200 224 255
200 224 255
200 224 255
200 224 255
200 224 255
200 224 255
200 224 255
200 224 255
200 224 255
200 224 255
200 224 255
200 224 255
200 224 255
200 224 255
200 224 255
200 224 255
200 224 255
200 224 255
200 224 255
200 224 255
200 224 255
200 224 255
200 224 255
200 224 255
200 224 255
199 224 255
199 224 255
199 224 255
199 224 255
199 224 255
199 224 255
199 224 255
199 224 255
199 223 255
199 223 255
199 223 255
199 223 255
199 223 255
199 223 255
199 223 255
199 223 255
199 223 255
199 223 255
199 223 255
199 223 255
199 223 255
199 223 255
199 223 255
199 223 255
199 223 255
199 223 255
199 223 255
199 223 255
199 223 255
199 223 255
199 223 255
199 223 255
199 224 255
199 224 255
199 224 255
199 224 255
199 224 255
199 224 255
199 224 255
199 224 255
200 224 255
200 224 255
200 224 255
200 224 255
200 224 255
200 224 255
200 224 255
200 224 255
200 224 255
200 224 255
200 224 255
200 224 255
200 224 255
200 224 255
200 224 255
200 224 255
200 224 255
200 224 255
200 224 255
200 224 255
200 224 255
200 224 255
200 224 255
200 224 255
200 224 255
200 224 255
200 224 255
201 224 255
201 224 255
201 224 255
201 224 255
201 224 255
201 224 255
201 224 255
201 224 255
201 224 255
201 224 255
201 224 255
201 224 255
201 224 255
201 225 255
201 225 255
201 225 255
201 225 255
201 225 255
202 225 255
202 225 255
202 225 255
202 225 255
202 225 255
202 225 255
202 225 255
202 225 255
202 225 255
202 225 255
202 225 255
202 225 255
202 225 255
202 225 255
202 225 255
202 225 255
202 225 255
203 225 255
203 225 255
203 225 255
203 225 255
203 225 255
203 225 255
203 225 255
203 225 255
203 226 255
203 226 255
203 226 255
203 226 255
203 226 255
203 226 255
203 226 255
204 226 255
204 226 255
204 226 255
204 226 255
204 226 255
204 226 255
204 226 255
204 226 255
204 226 255
204 226 255
204 226 255
204 226 255
204 226 255
204 226 255
204 226 255
204 226 255
205 226 255
205 226 255
205 226 255
205 226 255
205 226 255
205 226 255
205 227 255
205 227 255
205 227 255
205 227 255
205 227 255
205 227 255
205 227 255
205 227 255
205 227 255
205 227 255
206 227 255
206 227 255
206 227 255
206 227 255
206 227 255
206 227 255
206 227 255
206 227 255
206 227 255
206 227 255
206 227 255
206 227 255
206 227 255
206 227 255
206 227 255
206 227 255
206 227 255
207 227 255
207 227 255
207 227 255
207 227 255
207 227 255
207 228 255
207 228 255
207 228 255
207 228 255
207 228 255
207 228 255
207 228 255
207 228 255
207 228 255
207 228 255
207 228 255
207 228 255
207 228 255
207 228 255
208 228 255
208 228 255
208 228 255
208 228 255
208 228 255
208 228 255
208 228 255
208 228 255
208 228 255
208 228 255
208 228 255
208 228 255
208 228 255
208 228 255
208 228 255
208 228 255
208 228 255
208 228 255
208 228 255
208 228 255
208 228 255
209 228 255
209 228 255
209 229 255
209 229 255
209 229 255
209 229 255
209 229 255
209 229 255
209 229 255
209 229 255
209 229 255
209 229 255
209 229 255
209 229 255
209 229 255
209 229 255
209 229 255
209 229 255
209 229 255
209 229 255
209 229 255
209 229 255
209 229 255
209 229 255
209 229 255
209 229 255
209 229 255
209 229 255
209 229 255
209 229 255
209 228 255
208 228 255
208 228 255
208 228 255
208 228 255
208 228 255
208 228 255
208 228 255
208 228 255
208 228 255
208 228 255
208 228 255
208 228 255
208 228 255
208 228 255
208 228 255
208 228 255
208 228 255
208 228 255
208 228 255
208 228 255
208 228 255
207 228 255
207 228 255
207 228 255
207 228 255
207 228 255
207 228 255
207 228 255
207 228 255
207 228 255
207 228 255
207 228 255
207 228 255
207 228 255
207 228 255
207 227 255
207 227 255
207 227 255
207 227 255
206 227 255
206 227 255
206 227 255
206 227 255
206 227 255
206 227 255
206 227 255
206 227 255
206 227 255
206 227 255
206 227 255
206 227 255
206 227 255
206 227 255
206 227 255
206 227 255
206 227 255
206 227 255
205 227 255
205 227 255
205 227 255
205 227 255
205 227 255
205 227 255
205 227 255
205 227 255
205 227 255
205 227 255
205 226 255
205 226 255
205 226 255
205 226 255
205 226 255
205 226 255
204 226 255
204 226 255
204 226 255
204 226 255
204 226 255
204 226 255
204 226 255
204 226 255
204 226 255
204 226 255
204 226 255
204 226 255
204 226 255
204 226 255
204 226 255
204 226 255
203 226 255
203 226 255
203 226 255
203 226 255
203 226 255
203 226 255
203 226 255
203 225 255
203 225 255
203 225 255
203 225 255
203 225 255
203 225 255
203 225 255
203 225 255
203 225 255
202 225 255
202 225 255
202 225 255
202 225 255
202 225 255
202 225 255
202 225 255
202 225 255
202 225 255
202 225 255
202 225 255
202 225 255
202 225 255
202 225 255
202 225 255
202 225 255
201 225 255
201 225 255
201 225 255
201 225 255
201 225 255
201 225 255
201 224 255
201 224 255
201 224 255
201 224 255
201 224 255
201 224 255
201 224 255
201 224 255
201 224 255
201 224 255
201 224 255
201 224 255
201 224 255
200 224 255
200 224 255
200 224 255
200 224 255
200 224 255
200 224 255
200 224 255
200 224 255
200 224 255
200 224 255
200 224 255
200 224 255
200 224 255
200 224 255
200 224 255
200 224 255
200 224 255
200 224 255
200 224 255
200 224 255
200 224 255
200 224 255
200 224 255
200 224 255
200 224 255
200 224 255
200 224 255
200 224 255
200 224 255
200 224 255
200 224 255
200 224 255
200 224 255
200 224 255
199 224 255
199 224 255
199 224 255
199 224 255
199 224 255
199 224 255
199 224 255
199 224 255
199 224 255
199 224 255
199 224 255
199 224 255
199 224 255
199 224 255
199 224 255
199 224 255
199 224 255
199 224 255
200 224 255
200 224 255
200 224 255
200 224 255
200 224 255
200 224 255
200 224 255
200 224 255
200 224 255
200 224 255
200 224 255
200 224 255
200 224 255
200 224 255
200 224 255
200 224 255
200 224 255
200 224 255
200 224 255
200 224 255
200 224 255
200 224 255
200 224 255
200 224 255
200 224 255
200 224 255
200 224 255
200 224 255
200 224 255
200 224 255
200 224 255
200 224 255
200 224 255
200 224 255
201 224 255
201 224 255
201 224 255
201 224 255
201 224 255
201 224 255
201 224 255
201 224 255
201 224 255
201 224 255
201 224 255
201 224 255
201 224 255
201 224 255
201 225 255
201 225 255
201 225 255
201 225 255
201 225 255
202 225 255
202 225 255
202 225 255
202 225 255
202 225 255
202 225 255
202 225 255
202 225 255
202 225 255
202 225 255
202 225 255
202 225 255
202 225 255
202 225 255
202 225 255
202 225 255
203 225 255
203 225 255
203 225 255
203 225 255
203 225 255
203 225 255
203 225 255
203 225 255
203 225 255
203 226 255
203 226 255
203 226 255
203 226 255
203 226 255
203 226 255
203 226 255
204 226 255
204 226 255
204 226 255
204 226 255
204 226 255
204 226 255
204 226 255
204 226 255
204 226 255
204 226 255
204 226 255
204 226 255
204 226 255
204 226 255
204 226 255
204 226 255
205 226 255
205 226 255
205 226 255
205 226 255
205 226 255
205 226 255
205 227 255
205 227 255
205 227 255
205 227 255
205 227 255
205 227 255
205 227 255
205 227 255
205 227 255
205 227 255
206 227 255
206 227 255
206 227 255
206 227 255
206 227 255
206 227 255
206 227 255
206 227 255
206 227 255
206 227 255
206 227 255
206 227 255
206 227 255
206 227 255
206 227 255
206 227 255
206 227 255
206 227 255
207 227 255
207 227 255
207 227 255
207 227 255
207 228 255
207 228 255
207 228 255
207 228 255
207 228 255
207 228 255
207 228 255
207 228 255
207 228 255
207 228 255
207 228 255
207 228 255
207 228 255
207 228 255
208 228 255
208 228 255
208 228 255
208 228 255
208 228 255
208 228 255
208 228 255
208 228 255
208 228 255
208 228 255
208 228 255
208 228 255
208 228 255
208 228 255
208 228 255
208 228 255
208 228 255
208 228 255
208 228 255
208 228 255
208 228 255
209 228 255
209 229 255
209 229 255
209 229 255
209 229 255
209 229 255
209 229 255
209 229 255
209 229 255
209 229 255
209 229 255
209 229 255
209 229 255
209 229 255
209 229 255
209 229 255
209 229 255
209 229 255
209 229 255
209 229 255
209 229 255
209 229 255
209 229 255
209 229 255
209 229 255
209 229 255
209 229 255
209 229 255
209 229 255
209 229 255
209 229 255
209 229 255
209 229 255
209 229 255
209 229 255
209 229 255
209 228 255
209 228 255
208 228 255
208 228 255
208 228 255
208 228 255
208 228 255
208 228 255
208 228 255
208 228 255
208 228 255
208 228 255
208 228 255
208 228 255
208 228 255
208 228 255
208 228 255
208 228 255
208 228 255
208 228 255
208 228 255
208 228 255
207 228 255
207 228 255
207 228 255
207 228 255
207 228 255
207 228 255
207 228 255
207 228 255
207 228 255
207 228 255
207 228 255
207 228 255
207 228 255
207 228 255
207 227 255
207 227 255
207 227 255
207 227 255
207 227 255
206 227 255
206 227 255
206 227 255
206 227 255
206 227 255
206 227 255
206 227 255
206 227 255
206 227 255
206 227 255
206 227 255
206 227 255
206 227 255
206 227 255
206 227 255
206 227 255
206 227 255
205 227 255
205 227 255
205 227 255
205 227 255
205 227 255
205 227 255
205 227 255
205 227 255
205 227 255
205 227 255
205 226 255
205 226 255
205 226 255
205 226 255
205 226 255
205 226 255
204 226 255
204 226 255
204 226 255
204 226 255
204 226 255
204 226 255
204 226 255
204 226 255
204 226 255
204 226 255
204 226 255
204 226 255
204 226 255
204 226 255
204 226 255
204 226 255
203 226 255
203 226 255
203 226 255
203 226 255
203 226 255
203 226 255
203 226 255
203 225 255
203 225 255
203 225 255
203 225 255
203 225 255
203 225 255
203 225 255
203 225 255
203 225 255
202 225 255
202 225 255
202 225 255
202 225 255
202 225 255
202 225 255
202 225 255
202 225 255
202 225 255
202 225 255
202 225 255
202 225 255
202 225 255
202 225 255
202 225 255
202 225 255
202 225 255
201 225 255
201 225 255
201 225 255
201 225 255
201 225 255
201 224 255
201 224 255
201 224 255
201 224 255
201 224 255
201 224 255
201 224 255
201 224 255
201 224 255
201 224 255
201 224 255
201 224 255
201 224 255
201 224 255
201 224 255
200 224 255
200 224 255
200 224 255
200 224 255
200 224 255
200 224 255
200 224 255
200 224 255
200 224 255
200 224 255
200 224 255
200 224 255
200 224 255
200 224 255
200 224 255
200 224 255
200 224 255
200 224 255
200 224 255
200 224 255
200 224 255
200 224 255
200 224 255
200 224 255
200 224 255
200 224 255
200 224 255
200 224 255
200 224 255
200 224 255
200 224 255
200 224 255
200 224 255
200 224 255
200 224 255
200 224 255
200 224 255
200 224 255
200 224 255
200 224 255
200 224 255
200 224 255
200 224 255
200 224 255
200 224 255
200 224 255
200 224 255
200 224 255
200 224 255
200 224 255
200 224 255
200 224 255
200 224 255
200 224 255
200 224 255
200 224 255
200 224 255
200 224 255
200 224 255
200 224 255
200 224 255
200 224 255
200 224 255
200 224 255
200 224 255
200 224 255
200 224 255
200 224 255
200 224 255
200 224 255
200 224 255
200 224 255
200 224 255
200 224 255
200 224 255
200 224 255
201 224 255
201 224 255
201 224 255
201 224 255
201 224 255
201 224 255
201 224 255
201 224 255
201 224 255
201 224 255
201 224 255
201 224 255
201 224 255
201 224 255
201 224 255
201 225 255
201 225 255
201 225 255
201 225 255
201 225 255
202 225 255
202 225 255
202 225 255
202 225 255
202 225 255
202 225 255
202 225 255
202 225 255
202 225 255
202 225 255
202 225 255
202 225 255
202 225 255
202 225 255
202 225 255
202 225 255
202 225 255
203 225 255
203 225 255
203 225 255
203 225 255
203 225 255
203 225 255
203 225 255
203 225 255
203 225 255
203 226 255
203 226 255
203 226 255
203 226 255
203 226 255
203 226 255
203 226 255
204 226 255
204 226 255
204 226 255
204 226 255
204 226 255
204 226 255
204 226 255
204 226 255
204 226 255
204 226 255
204 226 255
204 226 255
204 226 255
204 226 255
204 226 255
204 226 255
205 226 255
205 226 255
205 226 255
205 226 255
205 226 255
205 226 255
205 226 255
205 227 255
205 227 255
205 227 255
205 227 255
205 227 255
205 227 255
205 227 255
205 227 255
205 227 255
206 227 255
206 227 255
206 227 255
206 227 255
206 227 255
206 227 255
206 227 255
206 227 255
206 227 255
206 227 255
206 227 255
206 227 255
206 227 255
206 227 255
206 227 255
206 227 255
206 227 255
206 227 255
207 227 255
207 227 255
207 227 255
207 227 255
207 228 255
207 228 255
207 228 255
207 228 255
207 228 255
207 228 255
207 228 255
207 228 255
207 228 255
207 228 255
207 228 255
207 228 255
207 228 255
207 228 255
208 228 255
208 228 255
208 228 255
208 228 255
208 228 255
208 228 255
208 228 255
208 228 255
208 228 255
208 228 255
208 228 255
208 228 255
208 228 255
208 228 255
208 228 255
208 228 255
208 228 255
208 228 255
208 228 255
208 228 255
209 228 255
209 228 255
209 229 255
209 229 255
209 229 255
209 229 255
209 229 255
209 229 255
209 229 255
209 229 255
209 229 255
209 229 255
209 229 255
209 229 255
209 229 255
209 229 255
209 229 255
209 229 255
209 229 255
209 229 255
209 229 255
210 229 255
209 229 255
209 229 255
209 229 255
209 229 255
209 229 255
209 229 255
209 229 255
209 229 255
209 229 255
209 229 255
209 229 255
209 229 255
209 229 255
209 229 255
209 229 255
209 229 255
209 229 255
209 229 255
209 229 255
209 229 255
209 229 255
209 229 255
209 228 255
208 228 255
208 228 255
208 228 255
208 228 255
208 228 255
208 228 255
208 228 255
208 228 255
208 228 255
208 228 255
208 228 255
208 228 255
208 228 255
208 228 255
208 228 255
208 228 255
208 228 255
208 228 255
208 228 255
208 228 255
207 228 255
207 228 255
207 228 255
207 228 255
207 228 255
207 228 255
207 228 255
207 228 255
207 228 255
207 228 255
207 228 255
207 228 255
207 228 255
207 228 255
207 227 255
207 227 255
207 227 255
207 227 255
207 227 255
206 227 255
206 227 255
206 227 255
206 227 255
206 227 255
206 227 255
206 227 255
206 227 255
206 227 255
206 227 255
206 227 255
206 227 255
206 227 255
206 227 255
206 227 255
206 227 255
206 227 255
205 227 255
205 227 255
205 227 255
205 227 255
205 227 255
205 227 255
205 227 255
205 227 255
205 227 255
205 227 255
205 226 255
205 226 255
205 226 255
205 226 255
205 226 255
205 226 255
204 226 255
204 226 255
204 226 255
204 226 255
204 226 255
204 226 255
204 226 255
204 226 255
204 226 255
204 226 255
204 226 255
204 226 255
204 226 255
204 226 255
204 226 255
204 226 255
203 226 255
203 226 255
203 226 255
203 226 255
203 226 255
203 226 255
203 226 255
203 225 255
203 225 255
203 225 255
203 225 255
203 225 255
203 225 255
203 225 255
203 225 255
203 225 255
202 225 255
202 225 255
202 225 255
202 225 255
202 225 255
202 225 255
202 225 255
202 225 255
202 225 255
202 225 255
202 225 255
202 225 255
202 225 255
202 225 255
202 225 255
202 225 255
202 225 255
202 225 255
201 225 255
201 225 255
201 225 255
201 225 255
201 225 255
201 224 255
201 224 255
201 224 255
201 224 255
201 224 255
201 224 255
201 224 255
201 224 255
201 224 255
201 224 255
201 224 255
201 224 255
201 224 255
201 224 255
201 224 255
201 224 255
200 224 255
200 224 255
200 224 255
200 224 255
200 224 255
200 224 255
200 224 255
200 224 255
200 224 255
200 224 255
200 224 255
200 224 255
200 224 255
200 224 255
200 224 255
200 224 255
200 224 255
200 224 255
200 224 255
200 224 255
200 224 255
200 224 255
200 224 255
200 224 255
200 224 255
200 224 255
200 224 255
200 224 255
200 224 255
200 224 255
200 224 255
200 224 255
200 224 255
200 224 255
200 224 255
200 224 255
200 224 255
200 224 255
200 224 255
200 224 255
200 224 255
200 224 255
200 224 255
200 224 255
200 224 255
200 224 255
200 224 255
200 224 255
200 224 255
200 224 255
200 224 255
200 224 255
200 224 255
200 224 255
200 224 255
200 224 255
200 224 255
200 224 255
200 224 255
200 224 255
200 224 255
200 224 255
200 224 255
200 224 255
200 224 255
201 224 255
201 224 255
201 224 255
201 224 255
201 224 255
201 224 255
201 224 255
201 224 255
201 224 255
201 224 255
201 224 255
201 224 255
201 224 255
201 224 255
201 224 255
201 224 255
201 224 255
201 225 255
201 225 255
201 225 255
201 225 255
201 225 255
202 225 255
202 225 255
202 225 255
202 225 255
202 225 255
202 225 255
202 225 255
202 225 255
202 225 255
202 225 255
202 225 255
202 225 255
202 225 255
202 225 255
202 225 255
202 225 255
202 225 255
202 225 255
203 225 255
203 225 255
203 225 255
203 225 255
203 225 255
203 225 255
203 225 255
203 225 255
203 225 255
203 226 255
203 226 255
203 226 255
203 226 255
203 226 255
203 226 255
203 226 255
204 226 255
204 226 255
204 226 255
204 226 255
204 226 255
204 226 255
204 226 255
204 226 255
204 226 255
204 226 255
204 226 255
204 226 255
204 226 255
204 226 255
204 226 255
204 226 255
205 226 255
205 226 255
205 226 255
205 226 255
205 226 255
205 226 255
205 227 255
205 227 255
205 227 255
205 227 255
205 227 255
205 227 255
205 227 255
205 227 255
205 227 255
205 227 255
206 227 255
206 227 255
206 227 255
206 227 255
206 227 255
206 227 255
206 227 255
206 227 255
206 227 255
206 227 255
206 227 255
206 227 255
206 227 255
206 227 255
206 227 255
206 227 255
206 227 255
207 227 255
207 227 255
207 227 255
207 227 255
207 227 255
207 228 255
207 228 255
207 228 255
207 228 255
207 228 255
207 228 255
207 228 255
207 228 255
207 228 255
207 228 255
207 228 255
207 228 255
207 228 255
207 228 255
208 228 255
208 228 255
208 228 255
208 228 255
208 228 255
208 228 255
208 228 255
208 228 255
208 228 255
208 228 255
208 228 255
208 228 255
208 228 255
208 228 255
208 228 255
208 228 255
208 228 255
208 228 255
208 228 255
208 228 255
209 228 255
209 228 255
209 229 255
209 229 255
209 229 255
209 229 255
209 229 255
209 229 255
209 229 255
209 229 255
209 229 255
209 229 255
209 229 255
209 229 255
209 229 255
209 229 255
209 229 255
209 229 255
209 229 255
209 229 255
209 229 255
209 229 255
209 229 255
210 229 255
210 229 255
210 229 255
210 229 255
210 229 255
210 229 255
209 229 255
209 229 255
209 229 255
209 229 255
209 229 255
209 229 255
209 229 255
209 229 255
209 229 255
209 229 255
209 229 255
209 229 255
209 229 255
209 229 255
209 229 255
209 229 255
209 229 255
209 229 255
209 229 255
209 229 255
209 229 255
209 228 255
208 228 255
208 228 255
208 228 255
208 228 255
208 228 255
208 228 255
208 228 255
208 228 255
208 228 255
208 228 255
208 228 255
208 228 255
208 228 255
208 228 255
208 228 255
208 228 255
208 228 255
208 228 255
208 228 255
208 228 255
207 228 255
207 228 255
207 228 255
207 228 255
207 228 255
207 228 255
207 228 255
207 228 255
207 228 255
207 228 255
207 228 255
207 228 255
207 228 255
207 228 255
207 227 255
207 227 255
207 227 255
207 227 255
207 227 255
206 227 255
206 227 255
206 227 255
206 227 255
206 227 255
206 227 255
206 227 255
206 227 255
206 227 255
206 227 255
206 227 255
206 227 255
206 227 255
206 227 255
206 227 255
206 227 255
206 227 255
205 227 255
205 227 255
205 227 255
205 227 255
205 227 255
205 227 255
205 227 255
205 227 255
205 227 255
205 227 255
205 226 255
205 226 255
205 226 255
205 226 255
205 226 255
205 226 255
204 226 255
204 226 255
204 226 255
204 226 255
204 226 255
204 226 255
204 226 255
204 226 255
204 226 255
204 226 255
204 226 255
204 226 255
204 226 255
204 226 255
204 226 255
204 226 255
203 226 255
203 226 255
203 226 255
203 226 255
203 226 255
203 226 255
203 226 255
203 225 255
203 225 255
203 225 255
203 225 255
203 225 255
203 225 255
203 225 255
203 225 255
203 225 255
203 225 255
202 225 255
202 225 255
202 225 255
202 225 255
202 225 255
202 225 255
202 225 255
202 225 255
202 225 255
202 225 255
202 225 255
202 225 255
202 225 255
202 225 255
202 225 255
202 225 255
202 225 255
201 225 255
201 225 255
201 225 255
201 225 255
201 225 255
201 225 255
201 225 255
201 224 255
201 224 255
201 224 255
201 224 255
201 224 255
201 224 255
201 224 255
201 224 255
201 224 255
201 224 255
201 224 255
201 224 255
201 224 255
201 224 255
201 224 255
201 224 255
201 224 255
200 224 255
200 224 255
200 224 255
200 224 255
200 224 255
200 224 255
200 224 255
200 224 255
200 224 255
200 224 255
200 224 255
200 224 255
200 224 255
200 224 255
200 224 255
200 224 255
200 224 255
200 224 255
200 224 255
200 224 255
200 224 255
200 224 255
200 224 255
200 224 255
200 224 255
200 224 255
200 224 255
200 224 255
200 224 255
200 224 255
200 224 255
200 224 255
200 224 255
200 224 255
200 224 255
200 224 255
200 224 255
200 224 255
200 224 255
200 224 255
200 224 255
200 224 255
200 224 255
200 224 255
200 224 255
200 224 255
200 224 255
200 224 255
200 224 255
200 224 255
200 224 255
200 224 255
200 224 255
200 224 255
201 224 255
201 224 255
201 224 255
201 224 255
201 224 255
201 224 255
201 224 255
201 224 255
201 224 255
201 224 255
201 224 255
201 224 255
201 224 255
201 224 255
201 224 255
201 224 255
201 224 255
201 225 255
201 225 255
201 225 255
201 225 255
201 225 255
201 225 255
201 225 255
202 225 255
202 225 255
202 225 255
202 225 255
202 225 255
202 225 255
202 225 255
202 225 255
202 225 255
202 225 255
202 225 255
202 225 255
202 225 255
202 225 255
202 225 255
202 225 255
202 225 255
203 225 255
203 225 255
203 225 255
203 225 255
203 225 255
203 225 255
203 225 255
203 225 255
203 225 255
203 225 255
203 226 255
203 226 255
203 226 255
203 226 255
203 226 255
203 226 255
203 226 255
204 226 255
204 226 255
204 226 255
204 226 255
204 226 255
204 226 255
204 226 255
204 226 255
204 226 255
204 226 255
204 226 255
204 226 255
204 226 255
204 226 255
204 226 255
204 226 255
205 226 255
205 226 255
205 226 255
205 226 255
205 226 255
205 226 255
205 227 255
205 227 255
205 227 255
205 227 255
205 227 255
205 227 255
205 227 255
205 227 255
205 227 255
205 227 255
206 227 255
206 227 255
206 227 255
206 227 255
206 227 255
206 227 255
206 227 255
206 227 255
206 227 255
206 227 255
206 227 255
206 227 255
206 227 255
206 227 255
206 227 255
206 227 255
206 227 255
207 227 255
207 227 255
207 227 255
207 227 255
207 228 255
207 228 255
207 228 255
207 228 255
207 228 255
207 228 255
207 228 255
207 228 255
207 228 255
207 228 255
207 228 255
207 228 255
207 228 255
207 228 255
207 228 255
208 228 255
208 228 255
208 228 255
208 228 255
208 228 255
208 228 255
208 228 255
208 228 255
208 228 255
208 228 255
208 228 255
208 228 255
208 228 255
208 228 255
208 228 255
208 228 255
208 228 255
208 228 255
208 228 255
208 228 255
209 228 255
209 229 255
209 229 255
209 229 255
209 229 255
209 229 255
209 229 255
209 229 255
209 229 255
209 229 255
209 229 255
209 229 255
209 229 255
209 229 255
209 229 255
209 229 255
209 229 255
209 229 255
209 229 255
209 229 255
209 229 255
209 229 255
210 229 255
210 229 255
210 229 255
210 229 255
210 229 255
210 229 255
210 229 255
210 229 255
210 229 255
210 229 255
210 229 255
210 229 255
210 229 255
210 229 255
209 229 255
209 229 255
209 229 255
209 229 255
209 229 255
209 229 255
209 229 255
209 229 255
209 229 255
209 229 255
209 229 255
209 229 255
209 229 255
209 229 255
209 229 255
209 229 255
209 229 255
209 229 255
209 229 255
209 229 255
209 228 255
209 228 255
208 228 255
208 228 255
208 228 255
208 228 255
208 228 255
208 228 255
208 228 255
208 228 255
208 228 255
208 228 255
208 228 255
208 228 255
208 228 255
208 228 255
208 228 255
208 228 255
208 228 255
208 228 255
208 228 255
208 228 255
207 228 255
207 228 255
207 228 255
207 228 255
207 228 255
207 228 255
207 228 255
207 228 255
207 228 255
207 228 255
207 228 255
207 228 255
207 228 255
207 228 255
207 227 255
207 227 255
207 227 255
207 227 255
206 227 255
206 227 255
206 227 255
206 227 255
206 227 255
206 227 255
206 227 255
206 227 255
206 227 255
206 227 255
206 227 255
206 227 255
206 227 255
206 227 255
206 227 255
206 227 255
206 227 255
205 227 255
205 227 255
205 227 255
205 227 255
205 227 255
205 227 255
205 227 255
205 227 255
205 227 255
205 227 255
205 226 255
205 226 255
205 226 255
205 226 255
205 226 255
205 226 255
204 226 255
204 226 255
204 226 255
204 226 255
204 226 255
204 226 255
204 226 255
204 226 255
204 226 255
204 226 255
204 226 255
204 226 255
204 226 255
204 226 255
204 226 255
204 226 255
203 226 255
203 226 255
203 226 255
203 226 255
203 226 255
203 226 255
203 226 255
203 226 255
203 225 255
203 225 255
203 225 255
203 225 255
203 225 255
203 225 255
203 225 255
203 225 255
203 225 255
202 225 255
202 225 255
202 225 255
202 225 255
202 225 255
202 225 255
202 225 255
202 225 255
202 225 255
202 225 255
202 225 255
202 225 255
202 225 255
202 225 255
202 225 255
202 225 255
202 225 255
202 225 255
202 225 255
201 225 255
201 225 255
201 225 255
201 225 255
201 225 255
201 225 255
201 224 255
201 224 255
201 224 255
201 224 255
201 224 255
201 224 255
201 224 255
201 224 255
201 224 255
201 224 255
201 224 255
201 224 255
201 224 255
201 224 255
201 224 255
201 224 255
201 224 255
201 224 255
201 224 255
201 224 255
201 224 255
201 224 255
200 224 255
200 224 255
200 224 255
200 224 255
200 224 255
200 224 255
200 224 255
200 224 255
200 224 255
200 224 255
200 224 255
200 224 255
200 224 255
200 224 255
200 224 255
200 224 255
200 224 255
200 224 255
200 224 255
200 224 255
200 224 255
200 224 255
200 224 255
200 224 255
200 224 255
200 224 255
200 224 255
200 224 255
200 224 255
200 224 255
200 224 255
200 224 255
200 224 255
200 224 255
200 224 255
200 224 255
200 224 255
201 224 255
201 224 255
201 224 255
201 224 255
201 224 255
201 224 255
201 224 255
201 224 255
201 224 255
201 224 255
201 224 255
201 224 255
201 224 255
201 224 255
201 224 255
201 224 255
201 224 255
201 224 255
201 224 255
201 224 255
201 224 255
201 225 255
201 225 255
201 225 255
201 225 255
201 225 255
201 225 255
202 225 255
202 225 255
202 225 255
202 225 255
202 225 255
202 225 255
202 225 255
202 225 255
202 225 255
202 225 255
202 225 255
202 225 255
202 225 255
202 225 255
202 225 255
202 225 255
202 225 255
202 225 255
202 225 255
203 225 255
203 225 255
203 225 255
203 225 255
203 225 255
203 225 255
203 225 255
203 225 255
203 225 255
203 226 255
203 226 255
203 226 255
203 226 255
203 226 255
203 226 255
203 226 255
203 226 255
204 226 255
204 226 255
204 226 255
204 226 255
204 226 255
204 226 255
204 226 255
204 226 255
204 226 255
204 226 255
204 226 255
204 226 255
204 226 255
204 226 255
204 226 255
204 226 255
205 226 255
205 226 255
205 226 255
205 226 255
205 226 255
205 226 255
205 227 255
205 227 255
205 227 255
205 227 255
205 227 255
205 227 255
205 227 255
205 227 255
205 227 255
205 227 255
206 227 255
206 227 255
206 227 255
206 227 255
206 227 255
206 227 255
206 227 255
206 227 255
206 227 255
206 227 255
206 227 255
206 227 255
206 227 255
206 227 255
206 227 255
206 227 255
206 227 255
207 227 255
207 227 255
207 227 255
207 227 255
207 228 255
207 228 255
207 228 255
207 228 255
207 228 255
207 228 255
207 228 255
207 228 255
207 228 255
207 228 255
207 228 255
207 228 255
207 228 255
207 228 255
208 228 255
208 228 255
208 228 255
208 228 255
208 228 255
208 228 255
208 228 255
208 228 255
208 228 255
208 228 255
208 228 255
208 228 255
208 228 255
208 228 255
208 228 255
208 228 255
208 228 255
208 228 255
208 228 255
208 228 255
209 228 255
209 228 255
209 229 255
209 229 255
209 229 255
209 229 255
209 229 255
209 229 255
209 229 255
209 229 255
209 229 255
209 229 255
209 229 255
209 229 255
209 229 255
209 229 255
209 229 255
209 229 255
209 229 255
209 229 255
209 229 255
209 229 255
210 229 255
210 229 255
210 229 255
210 229 255
210 229 255
210 229 255
210 229 255
210 229 255
210 229 255
210 229 255
210 229 255
210 229 255
210 229 255
210 229 255
210 229 255
210 229 255
210 229 255
210 229 255
210 229 255
210 229 255
210 229 255
209 229 255
209 229 255
209 229 255
209 229 255
209 229 255
209 229 255
209 229 255
209 229 255
209 229 255
209 229 255
209 229 255
209 229 255
209 229 255
209 229 255
209 229 255
209 229 255
209 229 255
209 229 255
209 229 255
209 229 255
209 229 255
209 228 255
208 228 255
208 228 255
208 228 255
208 228 255
208 228 255
208 228 255
208 228 255
208 228 255
208 228 255
208 228 255
208 228 255
208 228 255
208 228 255
208 228 255
208 228 255
208 228 255
208 228 255
208 228 255
208 228 255
208 228 255
207 228 255
207 228 255
207 228 255
207 228 255
207 228 255
207 228 255
207 228 255
207 228 255
207 228 255
207 228 255
207 228 255
207 228 255
207 228 255
207 228 255
207 227 255
207 227 255
207 227 255
207 227 255
206 227 255
206 227 255
206 227 255
206 227 255
206 227 255
206 227 255
206 227 255
206 227 255
206 227 255
206 227 255
206 227 255
206 227 255
206 227 255
206 227 255
206 227 255
206 227 255
206 227 255
205 227 255
205 227 255
205 227 255
205 227 255
205 227 255
205 227 255
205 227 255
205 227 255
205 227 255
205 227 255
205 226 255
205 226 255
205 226 255
205 226 255
205 226 255
205 226 255
204 226 255
204 226 255
204 226 255
204 226 255
204 226 255
204 226 255
204 226 255
204 226 255
204 226 255
204 226 255
204 226 255
204 226 255
204 226 255
204 226 255
204 226 255
204 226 255
204 226 255
203 226 255
203 226 255
203 226 255
203 226 255
203 226 255
203 226 255
203 226 255
203 225 255
203 225 255
203 225 255
203 225 255
203 225 255
203 225 255
203 225 255
203 225 255
203 225 255
203 225 255
202 225 255
202 225 255
202 225 255
202 225 255
202 225 255
202 225 255
202 225 255
202 225 255
202 225 255
202 225 255
202 225 255
202 225 255
202 225 255
202 225 255
202 225 255
202 225 255
202 225 255
202 225 255
202 225 255
201 225 255
201 225 255
201 225 255
201 225 255
201 225 255
201 225 255
201 225 255
201 225 255
201 224 255
201 224 255
201 224 255
201 224 255
201 224 255
201 224 255
201 224 255
201 224 255
201 224 255
201 224 255
201 224 255
201 224 255
201 224 255
201 224 255
201 224 255
201 224 255
201 224 255
201 224 255
201 224 255
201 224 255
201 224 255
201 224 255
201 224 255
201 224 255
201 224 255
201 224 255
201 224 255
201 224 255
201 224 255
201 224 255
201 224 255
201 224 255
201 224 255
201 224 255
201 224 255
201 224 255
201 224 255
201 224 255
201 224 255
201 224 255
201 224 255
201 224 255
201 224 255
201 224 255
201 224 255
201 224 255
201 224 255
201 224 255
201 224 255
201 224 255
201 224 255
201 224 255
201 224 255
201 224 255
201 224 255
201 224 255
201 224 255
201 224 255
201 224 255
201 224 255
201 224 255
201 224 255
201 224 255
201 224 255
201 224 255
201 224 255
201 224 255
201 224 255
201 225 255
201 225 255
201 225 255
201 225 255
201 225 255
201 225 255
201 225 255
202 225 255
202 225 255
202 225 255
202 225 255
202 225 255
202 225 255
202 225 255
202 225 255
202 225 255
202 225 255
202 225 255
202 225 255
202 225 255
202 225 255
202 225 255
202 225 255
202 225 255
202 225 255
202 225 255
202 225 255
203 225 255
203 225 255
203 225 255
203 225 255
203 225 255
203 225 255
203 225 255
203 225 255
203 225 255
203 225 255
203 226 255
203 226 255
203 226 255
203 226 255
203 226 255
203 226 255
203 226 255
204 226 255
204 226 255
204 226 255
204 226 255
204 226 255
204 226 255
204 226 255
204 226 255
204 226 255
204 226 255
204 226 255
204 226 255
204 226 255
204 226 255
204 226 255
204 226 255
204 226 255
205 226 255
205 226 255
205 226 255
205 226 255
205 226 255
205 226 255
205 227 255
205 227 255
205 227 255
205 227 255
205 227 255
205 227 255
205 227 255
205 227 255
205 227 255
205 227 255
206 227 255
206 227 255
206 227 255
206 227 255
206 227 255
206 227 255
206 227 255
206 227 255
206 227 255
206 227 255
206 227 255
206 227 255
206 227 255
206 227 255
206 227 255
206 227 255
206 227 255
207 227 255
207 227 255
207 227 255
207 227 255
207 228 255
207 228 255
207 228 255
207 228 255
207 228 255
207 228 255
207 228 255
207 228 255
207 228 255
207 228 255
207 228 255
207 228 255
207 228 255
207 228 255
208 228 255
208 228 255
208 228 255
208 228 255
208 228 255
208 228 255
208 228 255
208 228 255
208 228 255
208 228 255
208 228 255
208 228 255
208 228 255
208 228 255
208 228 255
208 228 255
208 228 255
208 228 255
208 228 255
208 228 255
209 228 255
209 229 255
209 229 255
209 229 255
209 229 255
209 229 255
209 229 255
209 229 255
209 229 255
209 229 255
209 229 255
209 229 255
209 229 255
209 229 255
209 229 255
209 229 255
209 229 255
209 229 255
209 229 255
209 229 255
209 229 255
209 229 255
210 229 255
210 229 255
210 229 255
210 229 255
210 229 255
210 229 255
210 229 255
210 229 255
210 229 255
210 229 255
210 229 255
210 229 255
210 229 255
210 229 255
210 229 255
210 229 255
210 229 255
210 229 255
210 229 255
210 229 255
210 229 255
210 229 255
210 229 255
210 229 255
210 229 255
210 229 255
210 229 255
210 229 255
209 229 255
209 229 255
209 229 255
209 229 255
209 229 255
209 229 255
209 229 255
209 229 255
209 229 255
209 229 255
209 229 255
209 229 255
209 229 255
209 229 255
209 229 255
209 229 255
209 229 255
209 229 255
209 229 255
209 229 255
209 228 255
209 228 255
208 228 255
208 228 255
208 228 255
208 228 255
208 228 255
208 228 255
208 228 255
208 228 255
208 228 255
208 228 255
208 228 255
208 228 255
208 228 255
208 228 255
208 228 255
208 228 255
208 228 255
208 228 255
208 228 255
207 228 255
207 228 255
207 228 255
207 228 255
207 228 255
207 228 255
207 228 255
207 228 255
207 228 255
207 228 255
207 228 255
207 228 255
207 228 255
207 228 255
207 227 255
207 227 255
207 227 255
207 227 255
206 227 255
206 227 255
206 227 255
206 227 255
206 227 255
206 227 255
206 227 255
206 227 255
206 227 255
206 227 255
206 227 255
206 227 255
206 227 255
206 227 255
206 227 255
206 227 255
206 227 255
205 227 255
205 227 255
205 227 255
205 227 255
205 227 255
205 227 255
205 227 255
205 227 255
205 227 255
205 227 255
205 226 255
205 226 255
205 226 255
205 226 255
205 226 255
205 226 255
205 226 255
204 226 255
204 226 255
204 226 255
204 226 255
204 226 255
204 226 255
204 226 255
204 226 255
204 226 255
204 226 255
204 226 255
204 226 255
204 226 255
204 226 255
204 226 255
204 226 255
203 226 255
203 226 255
203 226 255
203 226 255
203 226 255
203 226 255
203 226 255
203 226 255
203 225 255
203 225 255
203 225 255
203 225 255
203 225 255
203 225 255
203 225 255
203 225 255
203 225 255
203 225 255
202 225 255
202 225 255
202 225 255
202 225 255
202 225 255
202 225 255
202 225 255
202 225 255
202 225 255
202 225 255
202 225 255
202 225 255
202 225 255
202 225 255
202 225 255
202 225 255
202 225 255
202 225 255
202 225 255
202 225 255
202 225 255
201 225 255
201 225 255
201 225 255
201 225 255
201 225 255
201 225 255
201 225 255
201 225 255
201 224 255
201 224 255
201 224 255
201 224 255
201 224 255
201 224 255
201 224 255
201 224 255
201 224 255
201 224 255
201 224 255
201 224 255
201 224 255
201 224 255
201 224 255
201 224 255
201 224 255
201 224 255
201 224 255
201 224 255
201 224 255
201 224 255
201 224 255
201 224 255
201 224 255
201 224 255
201 224 255
201 224 255
201 224 255
201 224 255
201 224 255
201 224 255
201 224 255
201 224 255
201 224 255
201 224 255
201 224 255
201 224 255
201 224 255
201 224 255
201 224 255
201 224 255
201 224 255
201 224 255
201 224 255
201 224 255
201 224 255
201 224 255
201 224 255
201 224 255
201 224 255
201 224 255
201 224 255
201 224 255
201 224 255
201 224 255
201 225 255
201 225 255
201 225 255
201 225 255
201 225 255
201 225 255
201 225 255
201 225 255
201 225 255
202 225 255
202 225 255
202 225 255
202 225 255
202 225 255
202 225 255
202 225 255
202 225 255
202 225 255
202 225 255
202 225 255
202 225 255
202 225 255
202 225 255
202 225 255
202 225 255
202 225 255
202 225 255
202 225 255
202 225 255
203 225 255
203 225 255
203 225 255
203 225 255
203 225 255
203 225 255
203 225 255
203 225 255
203 225 255
203 225 255
203 226 255
203 226 255
203 226 255
203 226 255
203 226 255
203 226 255
203 226 255
203 226 255
204 226 255
204 226 255
204 226 255
204 226 255
204 226 255
204 226 255
204 226 255
204 226 255
204 226 255
204 226 255
204 226 255
204 226 255
204 226 255
204 226 255
204 226 255
204 226 255
205 226 255
205 226 255
205 226 255
205 226 255
205 226 255
205 226 255
205 226 255
205 227 255
205 227 255
205 227 255
205 227 255
205 227 255
205 227 255
205 227 255
205 227 255
205 227 255
206 227 255
206 227 255
206 227 255
206 227 255
206 227 255
206 227 255
206 227 255
206 227 255
206 227 255
206 227 255
206 227 255
206 227 255
206 227 255
206 227 255
206 227 255
206 227 255
206 227 255
206 227 255
207 227 255
207 227 255
207 227 255
207 227 255
207 228 255
207 228 255
207 228 255
207 228 255
207 228 255
207 228 255
207 228 255
207 228 255
207 228 255
207 228 255
207 228 255
207 228 255
207 228 255
207 228 255
208 228 255
208 228 255
208 228 255
208 228 255
208 228 255
208 228 255
208 228 255
208 228 255
208 228 255
208 228 255
208 228 255
208 228 255
208 228 255
208 228 255
208 228 255
208 228 255
208 228 255
208 228 255
208 228 255
209 228 255
209 228 255
209 229 255
209 229 255
209 229 255
209 229 255
209 229 255
209 229 255
209 229 255
209 229 255
209 229 255
209 229 255
209 229 255
209 229 255
209 229 255
209 229 255
209 229 255
209 229 255
209 229 255
209 229 255
209 229 255
209 229 255
210 229 255
210 229 255
210 229 255
210 229 255
210 229 255
210 229 255
210 229 255
210 229 255
210 229 255
210 229 255
210 229 255
210 229 255
210 229 255
210 229 255
210 229 255
210 229 255
210 229 255
210 229 255
210 229 255
210 229 255
210 229 255
210 229 255
210 229 255
210 229 255
210 229 255
210 229 255
210 229 255
210 229 255
210 229 255
210 229 255
210 229 255
210 229 255
210 229 255
210 229 255
210 229 255
209 229 255
209 229 255
209 229 255
209 229 255
209 229 255
209 229 255
209 229 255
209 229 255
209 229 255
209 229 255
209 229 255
209 229 255
209 229 255
209 229 255
209 229 255
209 229 255
209 229 255
209 229 255
209 229 255
209 229 255
209 229 255
209 228 255
208 228 255
208 228 255
208 228 255
208 228 255
208 228 255
208 228 255
208 228 255
208 228 255
208 228 255
208 228 255
208 228 255
208 228 255
208 228 255
208 228 255
208 228 255
208 228 255
208 228 255
208 228 255
208 228 255
208 228 255
207 228 255
207 228 255
207 228 255
207 228 255
207 228 255
207 228 255
207 228 255
207 228 255
207 228 255
207 228 255
207 228 255
207 228 255
207 228 255
207 227 255
207 227 255
207 227 255
207 227 255
207 227 255
206 227 255
206 227 255
206 227 255
206 227 255
206 227 255
206 227 255
206 227 255
206 227 255
206 227 255
206 227 255
206 227 255
206 227 255
206 227 255
206 227 255
206 227 255
206 227 255
206 227 255
205 227 255
205 227 255
205 227 255
205 227 255
205 227 255
205 227 255
205 227 255
205 227 255
205 227 255
205 226 255
205 226 255
205 226 255
205 226 255
205 226 255
205 226 255
205 226 255
204 226 255
204 226 255
204 226 255
204 226 255
204 226 255
204 226 255
204 226 255
204 226 255
204 226 255
204 226 255
204 226 255
204 226 255
204 226 255
204 226 255
204 226 255
204 226 255
204 226 255
203 226 255
203 226 255
203 226 255
203 226 255
203 226 255
203 226 255
203 226 255
203 225 255
203 225 255
203 225 255
203 225 255
203 225 255
203 225 255
203 225 255
203 225 255
203 225 255
203 225 255
203 225 255
202 225 255
202 225 255
202 225 255
202 225 255
202 225 255
202 225 255
202 225 255
202 225 255
202 225 255
202 225 255
202 225 255
202 225 255
202 225 255
202 225 255
202 225 255
202 225 255
202 225 255
202 225 255
202 225 255
202 225 255
202 225 255
202 225 255
202 225 255
201 225 255
201 225 255
201 225 255
201 225 255
201 225 255
201 225 255
201 225 255
201 225 255
201 225 255
201 225 255
201 224 255
201 224 255
201 224 255
201 224 255
201 224 255
201 224 255
201 224 255
201 224 255
201 224 255
201 224 255
201 224 255
201 224 255
201 224 255
201 224 255
201 224 255
201 224 255
201 224 255
201 224 255
201 224 255
201 224 255
201 224 255
201 224 255
201 224 255
201 224 255
201 224 255
201 224 255
201 224 255
201 224 255
201 224 255
201 224 255
201 224 255
201 224 255
201 224 255
201 224 255
201 224 255
201 224 255
201 224 255
201 224 255
201 224 255
201 224 255
201 225 255
201 225 255
201 225 255
201 225 255
201 225 255
201 225 255
201 225 255
201 225 255
201 225 255
201 225 255
202 225 255
202 225 255
202 225 255
202 225 255
202 225 255
202 225 255
202 225 255
202 225 255
202 225 255
202 225 255
202 225 255
202 225 255
202 225 255
202 225 255
202 225 255
202 225 255
202 225 255
202 225 255
202 225 255
202 225 255
202 225 255
202 225 255
202 225 255
203 225 255
203 225 255
203 225 255
203 225 255
203 225 255
203 225 255
203 225 255
203 225 255
203 225 255
203 225 255
203 226 255
203 226 255
203 226 255
203 226 255
203 226 255
203 226 255
203 226 255
203 226 255
204 226 255
204 226 255
204 226 255
204 226 255
204 226 255
204 226 255
204 226 255
204 226 255
204 226 255
204 226 255
204 226 255
204 226 255
204 226 255
204 226 255
204 226 255
204 226 255
204 226 255
205 226 255
205 226 255
205 226 255
205 226 255
205 226 255
205 226 255
205 226 255
205 227 255
205 227 255
205 227 255
205 227 255
205 227 255
205 227 255
205 227 255
205 227 255
205 227 255
206 227 255
206 227 255
206 227 255
206 227 255
206 227 255
206 227 255
206 227 255
206 227 255
206 227 255
206 227 255
206 227 255
206 227 255
206 227 255
206 227 255
206 227 255
206 227 255
206 227 255
207 227 255
207 227 255
207 227 255
207 227 255
207 227 255
207 228 255
207 228 255
207 228 255
207 228 255
207 228 255
207 228 255
207 228 255
207 228 255
207 228 255
207 228 255
207 228 255
207 228 255
207 228 255
208 228 255
208 228 255
208 228 255
208 228 255
208 228 255
208 228 255
208 228 255
208 228 255
208 228 255
208 228 255
208 228 255
208 228 255
208 228 255
208 228 255
208 228 255
208 228 255
208 228 255
208 228 255
208 228 255
208 228 255
209 228 255
209 229 255
209 229 255
209 229 255
209 229 255
209 229 255
209 229 255
209 229 255
209 229 255
209 229 255
209 229 255
209 229 255
209 229 255
209 229 255
209 229 255
209 229 255
209 229 255
209 229 255
209 229 255
209 229 255
209 229 255
209 229 255
210 229 255
210 229 255
210 229 255
210 229 255
210 229 255
210 229 255
210 229 255
210 229 255
210 229 255
210 229 255
210 229 255
210 229 255
210 229 255
210 229 255
210 229 255
210 229 255
210 229 255
210 229 255
210 229 255
210 230 255
210 229 255
210 229 255
210 229 255
210 229 255
210 229 255
210 229 255
210 229 255
210 229 255
210 229 255
210 229 255
210 229 255
210 229 255
210 229 255
210 229 255
210 229 255
210 229 255
210 229 255
210 229 255
210 229 255
210 229 255
210 229 255
210 229 255
209 229 255
209 229 255
209 229 255
209 229 255
209 229 255
209 229 255
209 229 255
209 229 255
209 229 255
209 229 255
209 229 255
209 229 255
209 229 255
209 229 255
209 229 255
209 229 255
209 229 255
209 229 255
209 229 255
209 229 255
209 228 255
209 228 255
208 228 255
208 228 255
208 228 255
208 228 255
208 228 255
208 228 255
208 228 255
208 228 255
208 228 255
208 228 255
208 228 255
208 228 255
208 228 255
208 228 255
208 228 255
208 228 255
208 228 255
208 228 255
208 228 255
207 228 255
207 228 255
207 228 255
207 228 255
207 228 255
207 228 255
207 228 255
207 228 255
207 228 255
207 228 255
207 228 255
207 228 255
207 228 255
207 228 255
207 227 255
207 227 255
207 227 255
207 227 255
206 227 255
206 227 255
206 227 255
206 227 255
206 227 255
206 227 255
206 227 255
206 227 255
206 227 255
206 227 255
206 227 255
206 227 255
206 227 255
206 227 255
206 227 255
206 227 255
206 227 255
205 227 255
205 227 255
205 227 255
205 227 255
205 227 255
205 227 255
205 227 255
205 227 255
205 227 255
205 227 255
205 226 255
205 226 255
205 226 255
205 226 255
205 226 255
205 226 255
204 226 255
204 226 255
204 226 255
204 226 255
204 226 255
204 226 255
204 226 255
204 226 255
204 226 255
204 226 255
204 226 255
204 226 255
204 226 255
204 226 255
204 226 255
204 226 255
204 226 255
203 226 255
203 226 255
203 226 255
203 226 255
203 226 255
203 226 255
203 226 255
203 226 255
203 225 255
203 225 255
203 225 255
203 225 255
203 225 255
203 225 255
203 225 255
203 225 255
203 225 255
203 225 255
203 225 255
202 225 255
202 225 255
202 225 255
202 225 255
202 225 255
202 225 255
202 225 255
202 225 255
202 225 255
202 225 255
202 225 255
202 225 255
202 225 255
202 225 255
202 225 255
202 225 255
202 225 255
202 225 255
202 225 255
202 225 255
202 225 255
202 225 255
202 225 255
202 225 255
202 225 255
202 225 255
201 225 255
201 225 255
201 225 255
201 225 255
201 225 255
201 225 255
201 225 255
201 225 255
201 225 255
201 225 255
201 225 255
201 225 255
201 225 255
201 225 255
201 225 255
201 225 255
201 225 255
201 224 255
201 224 255
201 224 255
201 224 255
201 224 255
201 224 255
201 224 255
201 224 255
201 224 255
201 224 255
201 224 255
201 224 255
201 225 255
201 225 255
201 225 255
201 225 255
201 225 255
201 225 255
201 225 255
201 225 255
201 225 255
201 225 255
201 225 255
201 225 255
201 225 255
201 225 255
201 225 255
201 225 255
201 225 255
202 225 255
202 225 255
202 225 255
202 225 255
202 225 255
202 225 255
202 225 255
202 225 255
202 225 255
202 225 255
202 225 255
202 225 255
202 225 255
202 225 255
202 225 255
202 225 255
202 225 255
202 225 255
202 225 255
202 225 255
202 225 255
202 225 255
202 225 255
202 225 255
202 225 255
202 225 255
203 225 255
203 225 255
203 225 255
203 225 255
203 225 255
203 225 255
203 225 255
203 225 255
203 225 255
203 225 255
203 225 255
203 226 255
203 226 255
203 226 255
203 226 255
203 226 255
203 226 255
203 226 255
203 226 255
204 226 255
204 226 255
204 226 255
204 226 255
204 226 255
204 226 255
204 226 255
204 226 255
204 226 255
204 226 255
204 226 255
204 226 255
204 226 255
204 226 255
204 226 255
204 226 255
204 226 255
205 226 255
205 226 255
205 226 255
205 226 255
205 226 255
205 226 255
205 227 255
205 227 255
205 227 255
205 227 255
205 227 255
205 227 255
205 227 255
205 227 255
205 227 255
205 227 255
206 227 255
206 227 255
206 227 255
206 227 255
206 227 255
206 227 255
206 227 255
206 227 255
206 227 255
206 227 255
206 227 255
206 227 255
206 227 255
206 227 255
206 227 255
206 227 255
206 227 255
207 227 255
207 227 255
207 227 255
207 227 255
207 228 255
207 228 255
207 228 255
207 228 255
207 228 255
207 228 255
207 228 255
207 228 255
207 228 255
207 228 255
207 228 255
207 228 255
207 228 255
207 228 255
208 228 255
208 228 255
208 228 255
208 228 255
208 228 255
208 228 255
208 228 255
208 228 255
208 228 255
208 228 255
208 228 255
208 228 255
208 228 255
208 228 255
208 228 255
208 228 255
208 228 255
208 228 255
208 228 255
208 228 255
209 228 255
209 229 255
209 229 255
209 229 255
209 229 255
209 229 255
209 229 255
209 229 255
209 229 255
209 229 255
209 229 255
209 229 255
209 229 255
209 229 255
209 229 255
209 229 255
209 229 255
209 229 255
209 229 255
209 229 255
209 229 255
210 229 255
210 229 255
210 229 255
210 229 255
210 229 255
210 229 255
210 229 255
210 229 255
210 229 255
210 229 255
210 229 255
210 229 255
210 229 255
210 229 255
210 229 255
210 229 255
210 229 255
210 229 255
210 229 255
210 229 255
210 229 255
210 229 255
210 230 255
211 230 255
211 230 255
210 230 255
210 230 255
210 230 255
210 229 255
210 229 255
210 229 255
210 229 255
210 229 255
210 229 255
210 229 255
210 229 255
210 229 255
210 229 255
210 229 255
210 229 255
210 229 255
210 229 255
210 229 255
210 229 255
210 229 255
210 229 255
210 229 255
210 229 255
210 229 255
210 229 255
209 229 255
209 229 255
209 229 255
209 229 255
209 229 255
209 229 255
209 229 255
209 229 255
209 229 255
209 229 255
209 229 255
209 229 255
209 229 255
209 229 255
209 229 255
209 229 255
209 229 255
209 229 255
209 229 255
209 229 255
209 228 255
208 228 255
208 228 255
208 228 255
208 228 255
208 228 255
208 228 255
208 228 255
208 228 255
208 228 255
208 228 255
208 228 255
208 228 255
208 228 255
208 228 255
208 228 255
208 228 255
208 228 255
208 228 255
208 228 255
207 228 255
207 228 255
207 228 255
207 228 255
207 228 255
207 228 255
207 228 255
207 228 255
207 228 255
207 228 255
207 228 255
207 228 255
207 228 255
207 228 255
207 227 255
207 227 255
207 227 255
207 227 255
206 227 255
206 227 255
206 227 255
206 227 255
206 227 255
206 227 255
206 227 255
206 227 255
206 227 255
206 227 255
206 227 255
206 227 255
206 227 255
206 227 255
206 227 255
206 227 255
206 227 255
205 227 255
205 227 255
205 227 255
205 227 255
205 227 255
205 227 255
205 227 255
205 227 255
205 227 255
205 227 255
205 226 255
205 226 255
205 226 255
205 226 255
205 226 255
205 226 255
205 226 255
204 226 255
204 226 255
204 226 255
204 226 255
204 226 255
204 226 255
204 226 255
204 226 255
204 226 255
204 226 255
204 226 255
204 226 255
204 226 255
204 226 255
204 226 255
204 226 255
204 226 255
203 226 255
203 226 255
203 226 255
203 226 255
203 226 255
203 226 255
203 226 255
203 226 255
203 225 255
203 225 255
203 225 255
203 225 255
203 225 255
203 225 255
203 225 255
203 225 255
203 225 255
203 225 255
203 225 255
203 225 255
202 225 255
202 225 255
202 225 255
202 225 255
202 225 255
202 225 255
202 225 255
202 225 255
202 225 255
202 225 255
202 225 255
202 225 255
202 225 255
202 225 255
202 225 255
202 225 255
202 225 255
202 225 255
202 225 255
202 225 255
202 225 255
202 225 255
202 225 255
202 225 255
202 225 255
202 225 255
202 225 255
202 225 255
202 225 255
202 225 255
202 225 255
201 225 255
201 225 255
201 225 255
201 225 255
201 225 255
201 225 255
201 225 255
201 225 255
201 225 255
201 225 255
201 225 255
201 225 255
201 225 255
201 225 255
201 225 255
201 225 255
201 225 255
201 225 255
201 225 255
201 225 255
201 225 255
201 225 255
201 225 255
201 225 255
201 225 255
201 225 255
202 225 255
202 225 255
202 225 255
202 225 255
202 225 255
202 225 255
202 225 255
202 225 255
202 225 255
202 225 255
202 225 255
202 225 255
202 225 255
202 225 255
202 225 255
202 225 255
202 225 255
202 225 255
202 225 255
202 225 255
202 225 255
202 225 255
202 225 255
202 225 255
202 225 255
202 225 255
202 225 255
202 225 255
202 225 255
202 225 255
202 225 255
203 225 255
203 225 255
203 225 255
203 225 255
203 225 255
203 225 255
203 225 255
203 225 255
203 225 255
203 225 255
203 225 255
203 225 255
203 226 255
203 226 255
203 226 255
203 226 255
203 226 255
203 226 255
203 226 255
203 226 255
204 226 255
204 226 255
204 226 255
204 226 255
204 226 255
204 226 255
204 226 255
204 226 255
204 226 255
204 226 255
204 226 255
204 226 255
204 226 255
204 226 255
204 226 255
204 226 255
204 226 255
205 226 255
205 226 255
205 226 255
205 226 255
205 226 255
205 226 255
205 226 255
205 227 255
205 227 255
205 227 255
205 227 255
205 227 255
205 227 255
205 227 255
205 227 255
205 227 255
205 227 255
206 227 255
206 227 255
206 227 255
206 227 255
206 227 255
206 227 255
206 227 255
206 227 255
206 227 255
206 227 255
206 227 255
206 227 255
206 227 255
206 227 255
206 227 255
206 227 255
206 227 255
207 227 255
207 227 255
207 227 255
207 227 255
207 228 255
207 228 255
207 228 255
207 228 255
207 228 255
207 228 255
207 228 255
207 228 255
207 228 255
207 228 255
207 228 255
207 228 255
207 228 255
207 228 255
208 228 255
208 228 255
208 228 255
208 228 255
208 228 255
208 228 255
208 228 255
208 228 255
208 228 255
208 228 255
208 228 255
208 228 255
208 228 255
208 228 255
208 228 255
208 228 255
208 228 255
208 228 255
208 228 255
209 228 255
209 228 255
209 229 255
209 229 255
209 229 255
209 229 255
209 229 255
209 229 255
209 229 255
209 229 255
209 229 255
209 229 255
209 229 255
209 229 255
209 229 255
209 229 255
209 229 255
209 229 255
209 229 255
209 229 255
209 229 255
210 229 255
210 229 255
210 229 255
210 229 255
210 229 255
210 229 255
210 229 255
210 229 255
210 229 255
210 229 255
210 229 255
210 229 255
210 229 255
210 229 255
210 229 255
210 229 255
210 229 255
210 229 255
210 229 255
210 229 255
210 229 255
210 229 255
210 230 255
210 230 255
210 230 255
211 230 255
211 230 255
211 230 255
211 230 255
211 230 255
211 230 255
211 230 255
211 230 255
210 230 255
210 230 255
210 230 255
210 229 255
210 229 255
210 229 255
210 229 255
210 229 255
210 229 255
210 229 255
210 229 255
210 229 255
210 229 255
210 229 255
210 229 255
210 229 255
210 229 255
210 229 255
210 229 255
210 229 255
210 229 255
210 229 255
210 229 255
210 229 255
209 229 255
209 229 255
209 229 255
209 229 255
209 229 255
209 229 255
209 229 255
209 229 255
209 229 255
209 229 255
209 229 255
209 229 255
209 229 255
209 229 255
209 229 255
209 229 255
209 229 255
209 229 255
209 229 255
209 229 255
209 228 255
209 228 255
208 228 255
208 228 255
208 228 255
208 228 255
208 228 255
208 228 255
208 228 255
208 228 255
208 228 255
208 228 255
208 228 255
208 228 255
208 228 255
208 228 255
208 228 255
208 228 255
208 228 255
208 228 255
208 228 255
207 228 255
207 228 255
207 228 255
207 228 255
207 228 255
207 228 255
207 228 255
207 228 255
207 228 255
207 228 255
207 228 255
207 228 255
207 228 255
207 228 255
207 227 255
207 227 255
207 227 255
207 227 255
206 227 255
206 227 255
206 227 255
206 227 255
206 227 255
206 227 255
206 227 255
206 227 255
206 227 255
206 227 255
206 227 255
206 227 255
206 227 255
206 227 255
206 227 255
206 227 255
206 227 255
205 227 255
205 227 255
205 227 255
205 227 255
205 227 255
205 227 255
205 227 255
205 227 255
205 227 255
205 227 255
205 226 255
205 226 255
205 226 255
205 226 255
205 226 255
205 226 255
205 226 255
204 226 255
204 226 255
204 226 255
204 226 255
204 226 255
204 226 255
204 226 255
204 226 255
204 226 255
204 226 255
204 226 255
204 226 255
204 226 255
204 226 255
204 226 255
204 226 255
204 226 255
203 226 255
203 226 255
203 226 255
203 226 255
203 226 255
203 226 255
203 226 255
203 226 255
203 226 255
203 225 255
203 225 255
203 225 255
203 225 255
203 225 255
203 225 255
203 225 255
203 225 255
203 225 255
203 225 255
203 225 255
203 225 255
202 225 255
202 225 255
202 225 255
202 225 255
202 225 255
202 225 255
202 225 255
202 225 255
202 225 255
202 225 255
202 225 255
202 225 255
202 225 255
202 225 255
202 225 255
202 225 255
202 225 255
202 225 255
202 225 255
202 225 255
202 225 255
202 225 255
202 225 255
202 225 255
202 225 255
202 225 255
202 225 255
202 225 255
202 225 255
202 225 255
202 225 255
202 225 255
202 225 255
202 225 255
202 225 255
202 225 255
202 225 255
202 225 255
202 225 255
202 225 255
202 225 255
202 225 255
202 225 255
202 225 255
202 225 255
202 225 255
202 225 255
202 225 255
202 225 255
202 225 255
202 225 255
202 225 255
202 225 255
202 225 255
202 225 255
202 225 255
202 225 255
202 225 255
202 225 255
202 225 255
202 225 255
202 225 255
202 225 255
202 225 255
202 225 255
202 225 255
202 225 255
202 225 255
202 225 255
202 225 255
202 225 255
202 225 255
202 225 255
202 225 255
202 225 255
202 225 255
202 225 255
202 225 255
203 225 255
203 225 255
203 225 255
203 225 255
203 225 255
203 225 255
203 225 255
203 225 255
203 225 255
203 225 255
203 225 255
203 225 255
203 226 255
203 226 255
203 226 255
203 226 255
203 226 255
203 226 255
203 226 255
203 226 255
203 226 255
204 226 255
204 226 255
204 226 255
204 226 255
204 226 255
204 226 255
204 226 255
204 226 255
204 226 255
204 226 255
204 226 255
204 226 255
204 226 255
204 226 255
204 226 255
204 226 255
204 226 255
205 226 255
205 226 255
205 226 255
205 226 255
205 226 255
205 226 255
205 226 255
205 227 255
205 227 255
205 227 255
205 227 255
205 227 255
205 227 255
205 227 255
205 227 255
205 227 255
205 227 255
206 227 255
206 227 255
206 227 255
206 227 255
206 227 255
206 227 255
206 227 255
206 227 255
206 227 255
206 227 255
206 227 255
206 227 255
206 227 255
206 227 255
206 227 255
206 227 255
206 227 255
207 227 255
207 227 255
207 227 255
207 227 255
207 227 255
207 228 255
207 228 255
207 228 255
207 228 255
207 228 255
207 228 255
207 228 255
207 228 255
207 228 255
207 228 255
207 228 255
207 228 255
207 228 255
208 228 255
208 228 255
208 228 255
208 228 255
208 228 255
208 228 255
208 228 255
208 228 255
208 228 255
208 228 255
208 228 255
208 228 255
208 228 255
208 228 255
208 228 255
208 228 255
208 228 255
208 228 255
208 228 255
208 228 255
209 228 255
209 229 255
209 229 255
209 229 255
209 229 255
209 229 255
209 229 255
209 229 255
209 229 255
209 229 255
209 229 255
209 229 255
209 229 255
209 229 255
209 229 255
209 229 255
209 229 255
209 229 255
209 229 255
209 229 255
209 229 255
210 229 255
210 229 255
210 229 255
210 229 255
210 229 255
210 229 255
210 229 255
210 229 255
210 229 255
210 229 255
210 229 255
210 229 255
210 229 255
210 229 255
210 229 255
210 229 255
210 229 255
210 229 255
210 229 255
210 229 255
210 229 255
210 230 255
210 230 255
210 230 255
211 230 255
211 230 255
211 230 255
211 230 255
211 230 255
211 230 255
211 230 255
211 230 255
211 230 255
211 230 255
211 230 255
211 230 255
211 230 255
211 230 255
211 230 255
211 230 255
210 230 255
210 230 255
210 230 255
210 229 255
210 229 255
210 229 255
210 229 255
210 229 255
210 229 255
210 229 255
210 229 255
210 229 255
210 229 255
210 229 255
210 229 255
210 229 255
210 229 255
210 229 255
210 229 255
210 229 255
210 229 255
210 229 255
210 229 255
210 229 255
209 229 255
209 229 255
209 229 255
209 229 255
208 227 254
206 226 252
197 215 241
191 209 235
189 208 233
186 204 228
188 207 232
187 206 231
180 198 222
183 201 226
188 207 232
183 201 226
175 193 217
189 208 233
187 206 232
180 198 222
180 198 223
187 206 231
187 206 231
191 209 235
193 212 238
192 211 237
205 225 252
208 228 255
208 228 255
208 228 255
208 228 255
208 228 255
208 228 255
208 228 255
208 228 255
208 228 255
208 228 255
208 228 255
208 228 255
208 228 255
207 228 255
207 228 255
207 228 255
207 228 255
207 228 255
207 228 255
207 228 255
207 228 255
207 228 255
207 228 255
207 228 255
207 228 255
207 228 255
207 228 255
207 227 255
207 227 255
207 227 255
207 227 255
206 227 255
206 227 255
206 227 255
206 227 255
206 227 255
206 227 255
206 227 255
206 227 255
206 227 255
206 227 255
206 227 255
206 227 255
206 227 255
206 227 255
206 227 255
206 227 255
206 227 255
205 227 255
205 227 255
205 227 255
205 227 255
205 227 255
205 227 255
205 227 255
205 227 255
205 227 255
205 227 255
205 226 255
205 226 255
205 226 255
205 226 255
205 226 255
205 226 255
205 226 255
204 226 255
204 226 255
204 226 255
204 226 255
204 226 255
204 226 255
204 226 255
204 226 255
204 226 255
204 226 255
204 226 255
204 226 255
204 226 255
204 226 255
204 226 255
204 226 255
204 226 255
204 226 255
203 226 255
203 226 255
203 226 255
203 226 255
203 226 255
203 226 255
203 226 255
203 226 255
203 226 255
203 225 255
203 225 255
203 225 255
203 225 255
203 225 255
203 225 255
203 225 255
203 225 255
203 225 255
203 225 255
203 225 255
203 225 255
203 225 255
202 225 255
202 225 255
202 225 255
202 225 255
202 225 255
202 225 255
202 225 255
202 225 255
202 225 255
202 225 255
202 225 255
202 225 255
202 225 255
202 225 255
202 225 255
202 225 255
202 225 255
202 225 255
202 225 255
202 225 255
202 225 255
202 225 255
202 225 255
202 225 255
202 225 255
202 225 255
200 223 252
197 218 246
188 206 226
185 203 225
177 192 204
168 182 193
171 185 196
177 191 202
170 183 190
169 183 191
179 195 211
174 189 204
186 205 226
191 210 231
192 213 240
201 224 254
202 225 255
202 225 255
202 225 255
202 225 255
202 225 255
202 225 255
202 225 255
202 225 255
202 225 255
202 225 255
202 225 255
202 225 255
202 225 255
202 225 255
202 225 255
202 225 255
202 225 255
202 225 255
202 225 255
202 225 255
202 225 255
202 225 255
202 225 255
202 225 255
202 225 255
203 225 255
203 225 255
203 225 255
203 225 255
203 225 255
203 225 255
203 225 255
203 225 255
203 225 255
203 225 255
203 225 255
203 225 255
203 225 255
203 226 255
203 226 255
203 226 255
203 226 255
203 226 255
203 226 255
203 226 255
203 226 255
203 226 255
203 226 255
204 226 255
204 226 255
204 226 255
204 226 255
204 226 255
204 226 255
204 226 255
204 226 255
204 226 255
204 226 255
204 226 255
204 226 255
204 226 255
204 226 255
204 226 255
204 226 255
204 226 255
204 226 255
205 226 255
205 226 255
205 226 255
205 226 255
205 226 255
205 226 255
205 226 255
205 227 255
205 227 255
205 227 255
205 227 255
205 227 255
205 227 255
205 227 255
205 227 255
205 227 255
205 227 255
206 227 255
206 227 255
206 227 255
206 227 255
206 227 255
206 227 255
206 227 255
206 227 255
206 227 255
206 227 255
206 227 255
206 227 255
206 227 255
206 227 255
206 227 255
206 227 255
206 227 255
207 227 255
207 227 255
207 227 255
207 227 255
207 228 255
207 228 255
207 228 255
207 228 255
207 228 255
207 228 255
207 228 255
207 228 255
207 228 255
207 228 255
207 228 255
207 228 255
207 228 255
207 228 255
208 228 255
208 228 255
208 228 255
208 228 255
208 228 255
208 228 255
208 228 255
208 228 255
208 228 255
208 228 255
208 228 255
208 228 255
208 228 255
208 228 255
208 228 255
208 228 255
208 228 255
208 228 255
208 228 255
209 228 255
209 229 255
209 229 255
209 229 255
209 229 255
209 229 255
209 229 255
209 229 255
209 229 255
209 229 255
209 229 255
209 229 255
209 229 255
209 229 255
209 229 255
209 229 255
209 229 255
209 229 255
209 229 255
209 229 255
209 229 255
210 229 255
210 229 255
210 229 255
210 229 255
210 229 255
210 229 255
210 229 255
210 229 255
210 229 255
210 229 255
210 229 255
210 229 255
210 229 255
210 229 255
210 229 255
210 229 255
210 229 255
210 229 255
210 229 255
210 229 255
210 229 255
210 230 255
210 230 255
210 230 255
211 230 255
211 230 255
211 230 255
211 230 255
211 230 255
211 230 255
211 230 255
211 230 255
211 230 255
211 230 255
211 230 255
211 230 255
211 230 255
211 230 255
211 230 255
211 230 255
211 230 255
211 230 255
211 230 255
211 230 255
211 230 255
211 230 255
211 230 255
211 230 255
210 230 255
210 230 255
210 230 255
210 229 255
210 229 255
210 229 255
210 229 255
210 229 255
210 229 255
210 229 255
210 229 255
210 229 255
210 229 255
210 229 255
210 229 255
205 224 250
202 221 246
176 193 216
191 209 234
180 198 222
173 191 214
157 173 196
150 166 188
155 173 196
148 166 189
154 172 196
140 156 178
141 157 180
154 172 196
152 171 195
151 169 194
152 171 195
148 166 190
142 160 183
154 174 199
157 177 203
151 171 196
146 165 190
152 171 196
150 169 194
158 178 204
161 181 208
153 172 198
154 173 198
146 164 188
148 166 191
156 176 202
143 160 183
156 175 199
154 172 196
166 185 210
162 180 204
170 188 212
184 203 229
190 209 235
191 210 236
205 225 252
208 228 255
208 228 255
208 228 255
208 228 255
208 228 255
208 228 255
208 228 255
207 228 255
207 228 255
207 228 255
207 228 255
207 228 255
207 228 255
207 228 255
207 228 255
207 228 255
207 228 255
207 228 255
207 228 255
207 228 255
207 227 255
207 227 255
207 227 255
207 227 255
206 227 255
206 227 255
206 227 255
206 227 255
206 227 255
206 227 255
206 227 255
206 227 255
206 227 255
206 227 255
206 227 255
206 227 255
206 227 255
206 227 255
206 227 255
206 227 255
206 227 255
206 227 255
205 227 255
205 227 255
205 227 255
205 227 255
205 227 255
205 227 255
205 227 255
205 227 255
205 227 255
205 227 255
205 226 255
205 226 255
205 226 255
205 226 255
205 226 255
205 226 255
205 226 255
204 226 255
204 226 255
204 226 255
204 226 255
204 226 255
204 226 255
204 226 255
204 226 255
204 226 255
204 226 255
204 226 255
204 226 255
204 226 255
204 226 255
204 226 255
204 226 255
204 226 255
204 226 255
204 226 255
203 226 255
203 226 255
203 226 255
203 226 255
203 226 255
203 226 255
203 226 255
203 226 255
203 226 255
203 226 255
203 225 255
203 225 255
203 225 255
203 225 255
203 225 255
203 225 255
203 225 255
203 225 255
203 225 255
203 225 255
203 225 255
203 225 255
203 225 255
203 225 255
203 225 255
202 225 255
202 225 255
202 225 255
202 225 255
202 225 255
202 225 255
202 225 255
202 225 255
202 225 255
202 225 255
202 225 255
202 225 255
200 223 252
188 207 227
177 192 204
163 175 178
151 160 158
142 144 118
125 124 83
130 128 86
127 126 84
141 139 93
130 129 87
133 132 88
121 120 80
132 131 87
130 129 87
129 128 86
121 121 82
121 120 80
124 122 82
127 126 84
118 117 78
134 133 93
130 133 110
150 158 152
159 169 167
170 184 195
188 207 229
202 224 253
202 225 255
202 225 255
202 225 255
202 225 255
202 225 255
202 225 255
202 225 255
202 225 255
202 225 255
202 225 255
202 225 255
202 225 255
203 225 255
203 225 255
203 225 255
203 225 255
203 225 255
203 225 255
203 225 255
203 225 255
203 225 255
203 225 255
203 225 255
203 225 255
203 225 255
203 225 255
203 225 255
203 226 255
203 226 255
203 226 255
203 226 255
203 226 255
203 226 255
203 226 255
203 226 255
203 226 255
203 226 255
204 226 255
204 226 255
204 226 255
204 226 255
204 226 255
204 226 255
204 226 255
204 226 255
204 226 255
204 226 255
204 226 255
204 226 255
204 226 255
204 226 255
204 226 255
204 226 255
204 226 255
204 226 255
204 226 255
205 226 255
205 226 255
205 226 255
205 226 255
205 226 255
205 226 255
205 226 255
205 227 255
205 227 255
205 227 255
205 227 255
205 227 255
205 227 255
205 227 255
205 227 255
205 227 255
205 227 255
206 227 255
206 227 255
206 227 255
206 227 255
206 227 255
206 227 255
206 227 255
206 227 255
206 227 255
206 227 255
206 227 255
206 227 255
206 227 255
206 227 255
206 227 255
206 227 255
206 227 255
206 227 255
207 227 255
207 227 255
207 227 255
207 227 255
207 228 255
207 228 255
207 228 255
207 228 255
207 228 255
207 228 255
207 228 255
207 228 255
207 228 255
207 228 255
207 228 255
207 228 255
207 228 255
208 228 255
208 228 255
208 228 255
208 228 255
208 228 255
208 228 255
208 228 255
208 228 255
208 228 255
208 228 255
208 228 255
208 228 255
208 228 255
208 228 255
208 228 255
208 228 255
208 228 255
208 228 255
208 228 255
209 228 255
209 228 255
209 229 255
209 229 255
209 229 255
209 229 255
209 229 255
209 229 255
209 229 255
209 229 255
209 229 255
209 229 255
209 229 255
209 229 255
209 229 255
209 229 255
209 229 255
209 229 255
209 229 255
209 229 255
209 229 255
210 229 255
210 229 255
210 229 255
210 229 255
210 229 255
210 229 255
210 229 255
210 229 255
210 229 255
210 229 255
210 229 255
210 229 255
210 229 255
210 229 255
210 229 255
210 229 255
210 229 255
210 229 255
210 229 255
210 229 255
210 229 255
210 230 255
210 230 255
210 230 255
211 230 255
211 230 255
211 230 255
211 230 255
211 230 255
211 230 255
211 230 255
211 230 255
211 230 255
211 230 255
211 230 255
211 230 255
211 230 255
211 230 255
211 230 255
211 230 255
211 230 255
211 230 255
211 230 255
211 230 255
211 230 255
211 230 255
211 230 255
211 230 255
211 230 255
211 230 255
211 230 255
211 230 255
211 230 255
211 230 255
211 230 255
211 230 255
210 230 255
210 230 255
210 230 255
210 229 255
210 229 255
204 223 248
193 211 236
178 195 218
173 190 213
153 169 191
154 170 192
146 163 186
159 177 202
154 172 196
159 178 203
156 175 199
155 173 198
153 172 196
160 179 204
148 167 192
150 169 194
160 180 207
165 186 214
159 179 206
162 183 211
166 187 216
157 177 204
165 186 214
160 182 209
168 190 219
158 179 207
166 188 217
161 182 209
161 183 211
164 186 214
165 187 216
159 181 209
158 180 208
162 184 213
162 183 212
159 180 208
156 177 204
161 183 212
162 184 213
159 180 208
159 181 209
155 176 203
151 171 198
150 169 195
156 177 204
155 175 200
149 169 194
144 163 187
163 182 207
159 177 200
170 188 213
180 199 225
197 217 243
201 221 247
208 228 255
208 228 255
208 228 255
208 228 255
207 228 255
207 228 255
207 228 255
207 228 255
207 228 255
207 228 255
207 228 255
207 228 255
207 228 255
207 228 255
207 228 255
207 228 255
207 228 255
207 228 255
207 227 255
207 227 255
207 227 255
207 227 255
206 227 255
206 227 255
206 227 255
206 227 255
206 227 255
206 227 255
206 227 255
206 227 255
206 227 255
206 227 255
206 227 255
206 227 255
206 227 255
206 227 255
206 227 255
206 227 255
206 227 255
205 227 255
205 227 255
205 227 255
205 227 255
205 227 255
205 227 255
205 227 255
205 227 255
205 227 255
205 227 255
205 227 255
205 226 255
205 226 255
205 226 255
205 226 255
205 226 255
205 226 255
205 226 255
204 226 255
204 226 255
204 226 255
204 226 255
204 226 255
204 226 255
204 226 255
204 226 255
204 226 255
204 226 255
204 226 255
204 226 255
204 226 255
204 226 255
204 226 255
204 226 255
204 226 255
204 226 255
204 226 255
204 226 255
203 226 255
203 226 255
203 226 255
203 226 255
203 226 255
203 226 255
203 226 255
203 226 255
203 226 255
203 226 255
203 225 255
203 225 255
203 225 255
203 225 255
203 225 255
203 225 255
203 225 255
203 225 255
203 225 255
203 225 255
203 225 255
203 225 255
203 225 255
203 225 255
203 225 255
203 225 255
203 225 255
203 225 255
200 222 251
185 203 219
160 172 176
146 149 126
133 133 94
136 135 90
119 117 78
140 139 93
141 140 94
130 128 86
136 135 91
140 138 93
126 126 84
132 131 88
139 138 93
137 136 91
131 130 87
137 136 91
128 127 85
137 135 90
133 131 88
138 138 93
134 133 90
128 126 84
136 135 90
133 131 88
129 127 85
129 128 86
128 128 86
133 132 88
132 130 87
127 126 87
146 152 141
167 178 179
183 200 216
199 221 251
203 225 255
203 225 255
203 225 255
203 225 255
203 225 255
203 225 255
203 225 255
203 225 255
203 225 255
203 225 255
203 225 255
203 225 255
203 225 255
203 225 255
203 225 255
203 225 255
203 225 255
203 225 255
203 226 255
203 226 255
203 226 255
203 226 255
203 226 255
203 226 255
203 226 255
203 226 255
203 226 255
203 226 255
204 226 255
204 226 255
204 226 255
204 226 255
204 226 255
204 226 255
204 226 255
204 226 255
204 226 255
204 226 255
204 226 255
204 226 255
204 226 255
204 226 255
204 226 255
204 226 255
204 226 255
204 226 255
204 226 255
204 226 255
205 226 255
205 226 255
205 226 255
205 226 255
205 226 255
205 226 255
205 226 255
205 227 255
205 227 255
205 227 255
205 227 255
205 227 255
205 227 255
205 227 255
205 227 255
205 227 255
205 227 255
205 227 255
206 227 255
206 227 255
206 227 255
206 227 255
206 227 255
206 227 255
206 227 255
206 227 255
206 227 255
206 227 255
206 227 255
206 227 255
206 227 255
206 227 255
206 227 255
206 227 255
206 227 255
207 227 255
207 227 255
207 227 255
207 227 255
207 228 255
207 228 255
207 228 255
207 228 255
207 228 255
207 228 255
207 228 255
207 228 255
207 228 255
207 228 255
207 228 255
207 228 255
207 228 255
207 228 255
208 228 255
208 228 255
208 228 255
208 228 255
208 228 255
208 228 255
208 228 255
208 228 255
208 228 255
208 228 255
208 228 255
208 228 255
208 228 255
208 228 255
208 228 255
208 228 255
208 228 255
208 228 255
208 228 255
209 228 255
209 229 255
209 229 255
209 229 255
209 229 255
209 229 255
209 229 255
209 229 255
209 229 255
209 229 255
209 229 255
209 229 255
209 229 255
209 229 255
209 229 255
209 229 255
209 229 255
209 229 255
209 229 255
209 229 255
209 229 255
210 229 255
210 229 255
210 229 255
210 229 255
210 229 255
210 229 255
210 229 255
210 229 255
210 229 255
210 229 255
210 229 255
210 229 255
210 229 255
210 229 255
210 229 255
210 229 255
210 229 255
210 229 255
210 229 255
210 229 255
210 230 255
210 230 255
210 230 255
211 230 255
211 230 255
211 230 255
211 230 255
211 230 255
211 230 255
211 230 255
211 230 255
211 230 255
211 230 255
211 230 255
211 230 255
211 230 255
211 230 255
211 230 255
211 230 255
211 230 255
211 230 255
211 230 255
211 230 255
211 230 255
211 230 255
211 230 255
211 230 255
211 230 255
211 230 255
211 230 255
211 230 255
211 230 255
211 230 255
211 230 255
211 230 255
211 230 255
211 230 255
211 230 255
211 230 255
202 221 246
191 209 232
179 197 220
160 177 199
148 164 186
146 162 184
158 176 200
152 170 194
153 170 194
158 177 202
159 178 203
157 176 202
155 174 199
161 180 206
161 182 209
158 177 203
164 185 212
162 182 209
161 182 209
164 186 214
164 186 214
170 193 221
168 190 219
166 189 218
167 189 218
162 184 213
169 191 220
168 191 220
168 191 221
167 189 219
169 192 221
166 190 220
168 191 221
162 185 214
166 190 220
164 187 217
167 190 220
168 192 223
164 188 218
169 193 224
167 191 221
168 192 223
169 193 224
163 186 216
162 185 216
162 185 216
161 184 213
163 186 216
164 187 217
158 180 209
158 180 208
156 177 206
165 187 217
152 172 199
157 179 207
147 166 192
146 166 191
148 167 192
139 157 180
152 171 195
171 190 215
181 201 227
182 201 226
204 225 252
208 228 255
208 228 255
208 228 255
207 228 255
207 228 255
207 228 255
207 228 255
207 228 255
207 228 255
207 228 255
207 228 255
207 228 255
207 228 255
207 228 255
207 228 255
207 228 255
207 227 255
207 227 255
207 227 255
207 227 255
207 227 255
206 227 255
206 227 255
206 227 255
206 227 255
206 227 255
206 227 255
206 227 255
206 227 255
206 227 255
206 227 255
206 227 255
206 227 255
206 227 255
206 227 255
206 227 255
206 227 255
206 227 255
205 227 255
205 227 255
205 227 255
205 227 255
205 227 255
205 227 255
205 227 255
205 227 255
205 227 255
205 227 255
205 227 255
205 226 255
205 226 255
205 226 255
205 226 255
205 226 255
205 226 255
205 226 255
204 226 255
204 226 255
204 226 255
204 226 255
204 226 255
204 226 255
204 226 255
204 226 255
204 226 255
204 226 255
204 226 255
204 226 255
204 226 255
204 226 255
204 226 255
204 226 255
204 226 255
204 226 255
204 226 255
204 226 255
204 226 255
203 226 255
203 226 255
203 226 255
203 226 255
203 226 255
203 226 255
203 226 255
203 226 255
203 226 255
203 226 255
203 226 255
203 226 255
203 225 255
203 225 255
203 225 255
203 225 255
203 225 255
203 225 255
203 225 255
203 225 255
193 213 238
168 180 184
152 160 153
128 125 83
131 130 87
130 128 86
134 133 89
125 125 84
128 127 86
132 131 87
142 142 95
136 136 91
135 134 90
135 134 90
137 136 91
139 138 93
134 133 90
124 124 84
127 126 85
126 126 84
136 135 91
129 129 87
135 134 90
130 129 87
138 137 92
135 134 90
133 132 88
142 141 95
125 124 83
131 129 87
135 134 90
128 127 85
127 126 84
131 130 87
134 132 88
128 127 85
125 124 83
128 127 85
125 124 85
155 162 154
171 185 196
194 214 238
203 225 255
203 225 255
203 225 255
203 225 255
203 225 255
203 225 255
203 225 255
203 225 255
203 226 255
203 226 255
203 226 255
203 226 255
203 226 255
203 226 255
203 226 255
203 226 255
203 226 255
203 226 255
203 226 255
203 226 255
204 226 255
204 226 255
204 226 255
204 226 255
204 226 255
204 226 255
204 226 255
204 226 255
204 226 255
204 226 255
204 226 255
204 226 255
204 226 255
204 226 255
204 226 255
204 226 255
204 226 255
204 226 255
204 226 255
204 226 255
204 226 255
205 226 255
205 226 255
205 226 255
205 226 255
205 226 255
205 226 255
205 226 255
205 227 255
205 227 255
205 227 255
205 227 255
205 227 255
205 227 255
205 227 255
205 227 255
205 227 255
205 227 255
205 227 255
206 227 255
206 227 255
206 227 255
206 227 255
206 227 255
206 227 255
206 227 255
206 227 255
206 227 255
206 227 255
206 227 255
206 227 255
206 227 255
206 227 255
206 227 255
206 227 255
206 227 255
207 227 255
207 227 255
207 227 255
207 227 255
207 227 255
207 228 255
207 228 255
207 228 255
207 228 255
207 228 255
207 228 255
207 228 255
207 228 255
207 228 255
207 228 255
207 228 255
207 228 255
207 228 255
208 228 255
208 228 255
208 228 255
208 228 255
208 228 255
208 228 255
208 228 255
208 228 255
208 228 255
208 228 255
208 228 255
208 228 255
208 228 255
208 228 255
208 228 255
208 228 255
208 228 255
208 228 255
208 228 255
209 228 255
209 228 255
209 229 255
209 229 255
209 229 255
209 229 255
209 229 255
209 229 255
209 229 255
209 229 255
209 229 255
209 229 255
209 229 255
209 229 255
209 229 255
209 229 255
209 229 255
209 229 255
209 229 255
209 229 255
209 229 255
210 229 255
210 229 255
210 229 255
210 229 255
210 229 255
210 229 255
210 229 255
210 229 255
210 229 255
210 229 255
210 229 255
210 229 255
210 229 255
210 229 255
210 229 255
210 229 255
210 229 255
210 229 255
210 229 255
210 229 255
210 230 255
210 230 255
210 230 255
211 230 255
211 230 255
211 230 255
211 230 255
211 230 255
211 230 255
211 230 255
211 230 255
211 230 255
211 230 255
211 230 255
211 230 255
211 230 255
211 230 255
211 230 255
211 230 255
211 230 255
211 230 255
211 230 255
211 230 255
211 230 255
211 230 255
211 230 255
211 230 255
211 230 255
211 230 255
211 230 255
211 230 255
211 230 255
211 230 255
211 230 255
211 230 255
211 230 255
211 230 255
211 230 255
211 230 255
197 215 239
193 211 235
176 193 217
157 174 196
149 165 187
146 162 184
146 163 186
159 177 202
157 175 199
152 170 194
159 178 203
162 182 208
157 176 200
167 188 216
165 185 212
161 181 208
168 190 218
169 191 219
164 185 213
165 186 213
172 194 224
167 189 218
170 192 221
168 191 220
171 195 225
173 197 227
173 197 227
171 195 225
171 194 225
172 196 227
173 197 228
168 192 223
172 196 227
173 197 228
170 195 226
172 196 227
172 196 228
172 197 228
170 194 225
170 195 227
171 196 228
170 195 227
171 196 228
172 196 228
169 194 226
168 193 225
171 196 228
168 193 225
164 188 219
169 194 226
169 194 226
170 195 227
169 194 226
166 190 221
170 194 226
167 192 224
170 194 226
165 189 220
160 183 213
166 190 220
159 181 211
159 181 211
161 183 212
151 171 198
159 181 209
156 177 204
158 178 206
142 160 184
158 177 203
162 179 203
185 205 230
198 217 244
208 228 255
208 228 255
208 228 255
207 228 255
207 228 255
207 228 255
207 228 255
207 228 255
207 228 255
207 228 255
207 228 255
207 228 255
207 228 255
207 228 255
207 228 255
207 228 255
207 227 255
207 227 255
207 227 255
207 227 255
206 227 255
206 227 255
206 227 255
206 227 255
206 227 255
206 227 255
206 227 255
206 227 255
206 227 255
206 227 255
206 227 255
206 227 255
206 227 255
206 227 255
206 227 255
206 227 255
206 227 255
206 227 255
205 227 255
205 227 255
205 227 255
205 227 255
205 227 255
205 227 255
205 227 255
205 227 255
205 227 255
205 227 255
205 227 255
205 226 255
205 226 255
205 226 255
205 226 255
205 226 255
205 226 255
205 226 255
205 226 255
204 226 255
204 226 255
204 226 255
204 226 255
204 226 255
204 226 255
204 226 255
204 226 255
204 226 255
204 226 255
204 226 255
204 226 255
204 226 255
204 226 255
204 226 255
204 226 255
204 226 255
204 226 255
204 226 255
204 226 255
204 226 255
204 226 255
203 226 255
203 226 255
203 226 255
203 226 255
203 226 255
203 226 255
203 226 255
203 226 255
203 226 255
203 226 255
203 226 255
199 220 246
170 185 200
152 159 149
122 121 81
136 135 91
139 138 92
135 134 90
131 130 87
131 130 87
136 134 90
139 138 92
142 141 95
131 130 87
137 136 91
132 131 88
131 130 87
142 141 94
134 133 90
138 137 92
138 137 92
143 142 95
136 135 90
130 129 87
145 144 97
138 137 92
129 128 86
139 138 93
139 138 93
147 146 98
136 136 92
141 140 94
137 136 92
140 140 94
136 135 91
136 135 91
135 134 90
134 133 90
136 135 90
136 135 91
132 131 87
133 131 88
137 136 91
134 132 88
137 135 90
133 132 90
154 160 148
166 178 185
197 218 245
203 226 255
203 226 255
203 226 255
203 226 255
203 226 255
203 226 255
203 226 255
203 226 255
203 226 255
203 226 255
203 226 255
204 226 255
204 226 255
204 226 255
204 226 255
204 226 255
204 226 255
204 226 255
204 226 255
204 226 255
204 226 255
204 226 255
204 226 255
204 226 255
204 226 255
204 226 255
204 226 255
204 226 255
204 226 255
204 226 255
204 226 255
204 226 255
204 226 255
205 226 255
205 226 255
205 226 255
205 226 255
205 226 255
205 226 255
205 226 255
205 226 255
205 227 255
205 227 255
205 227 255
205 227 255
205 227 255
205 227 255
205 227 255
205 227 255
205 227 255
205 227 255
205 227 255
206 227 255
206 227 255
206 227 255
206 227 255
206 227 255
206 227 255
206 227 255
206 227 255
206 227 255
206 227 255
206 227 255
206 227 255
206 227 255
206 227 255
206 227 255
206 227 255
206 227 255
206 227 255
207 227 255
207 227 255
207 227 255
207 227 255
207 228 255
207 228 255
207 228 255
207 228 255
207 228 255
207 228 255
207 228 255
207 228 255
207 228 255
207 228 255
207 228 255
207 228 255
207 228 255
207 228 255
208 228 255
208 228 255
208 228 255
208 228 255
208 228 255
208 228 255
208 228 255
208 228 255
208 228 255
208 228 255
208 228 255
208 228 255
208 228 255
208 228 255
208 228 255
208 228 255
208 228 255
208 228 255
209 228 255
209 228 255
209 229 255
209 229 255
209 229 255
209 229 255
209 229 255
209 229 255
209 229 255
209 229 255
209 229 255
209 229 255
209 229 255
209 229 255
209 229 255
209 229 255
209 229 255
209 229 255
209 229 255
209 229 255
209 229 255
210 229 255
210 229 255
210 229 255
210 229 255
210 229 255
210 229 255
210 229 255
210 229 255
210 229 255
210 229 255
210 229 255
210 229 255
210 229 255
210 229 255
210 229 255
210 229 255
210 229 255
210 229 255
210 229 255
210 229 255
210 230 255
210 230 255
210 230 255
211 230 255
211 230 255
211 230 255
211 230 255
211 230 255
211 230 255
211 230 255
211 230 255
211 230 255
211 230 255
211 230 255
211 230 255
211 230 255
211 230 255
211 230 255
211 230 255
211 230 255
211 230 255
211 230 255
211 230 255
211 230 255
211 230 255
211 230 255
211 230 255
211 230 255
211 230 255
212 230 255
212 230 255
212 230 255
212 230 255
211 230 255
211 230 255
211 230 255
211 230 255
211 230 255
211 230 255
208 226 251
183 200 222
167 183 205
147 163 183
152 168 190
146 163 184
148 165 188
149 166 188
160 179 203
159 177 202
156 175 199
159 179 204
164 183 209
165 184 211
165 186 213
170 192 220
173 195 224
167 189 217
174 197 226
168 189 218
171 193 223
173 196 226
174 197 226
171 195 225
172 195 225
174 197 227
173 197 227
174 197 228
173 196 227
173 197 228
173 197 228
173 197 228
173 197 228
172 196 228
172 196 228
171 196 228
172 196 228
171 196 228
171 196 228
172 196 228
171 196 228
171 196 228
170 196 228
170 196 228
170 196 228
170 195 228
170 196 228
170 196 228
170 196 228
169 195 228
170 196 228
169 195 228
169 195 228
170 195 228
170 195 228
170 195 228
170 195 228
170 195 228
170 195 228
170 195 228
170 196 228
169 195 227
171 196 228
169 194 226
168 193 225
167 193 225
164 188 219
162 185 216
165 189 220
162 186 217
156 179 208
164 187 217
152 174 202
148 168 195
145 164 190
152 172 198
159 179 204
172 191 216
185 204 230
202 222 249
208 228 255
208 228 255
207 228 255
207 228 255
207 228 255
207 228 255
207 228 255
207 228 255
207 228 255
207 228 255
207 228 255
207 228 255
207 228 255
207 228 255
207 228 255
207 228 255
207 227 255
207 227 255
207 227 255
207 227 255
206 227 255
206 227 255
206 227 255
206 227 255
206 227 255
206 227 255
206 227 255
206 227 255
206 227 255
206 227 255
206 227 255
206 227 255
206 227 255
206 227 255
206 227 255
206 227 255
206 227 255
206 227 255
205 227 255
205 227 255
205 227 255
205 227 255
205 227 255
205 227 255
205 227 255
205 227 255
205 227 255
205 227 255
205 227 255
205 226 255
205 226 255
205 226 255
205 226 255
205 226 255
205 226 255
205 226 255
205 226 255
205 226 255
204 226 255
204 226 255
204 226 255
204 226 255
204 226 255
204 226 255
204 226 255
204 226 255
204 226 255
204 226 255
204 226 255
204 226 255
204 226 255
204 226 255
204 226 255
204 226 255
204 226 255
204 226 255
204 226 255
204 226 255
204 226 255
204 226 255
204 226 255
204 226 255
203 226 255
203 226 255
190 208 230
162 173 173
138 137 99
118 116 78
128 127 85
126 124 83
134 132 88
128 126 84
131 129 86
120 119 80
138 137 92
139 138 93
137 135 90
138 136 91
141 140 94
136 134 90
135 134 90
139 137 92
134 133 90
145 145 97
148 148 99
140 139 93
145 144 97
134 132 89
141 139 93
136 135 90
139 138 93
142 141 95
145 145 97
138 137 92
141 140 94
142 141 95
141 139 93
140 139 93
138 137 92
135 134 90
137 134 90
140 138 93
137 136 91
136 134 90
141 139 93
133 132 88
134 133 90
129 128 86
128 126 84
139 137 92
134 133 89
118 116 78
119 117 78
141 139 95
149 157 153
189 207 229
203 225 254
203 226 255
204 226 255
204 226 255
204 226 255
204 226 255
204 226 255
204 226 255
204 226 255
204 226 255
204 226 255
204 226 255
204 226 255
204 226 255
204 226 255
204 226 255
204 226 255
204 226 255
204 226 255
204 226 255
204 226 255
204 226 255
204 226 255
204 226 255
204 226 255
204 226 255
204 226 255
205 226 255
205 226 255
205 226 255
205 226 255
205 226 255
205 226 255
205 226 255
205 227 255
205 227 255
205 227 255
205 227 255
205 227 255
205 227 255
205 227 255
205 227 255
205 227 255
205 227 255
205 227 255
205 227 255
206 227 255
206 227 255
206 227 255
206 227 255
206 227 255
206 227 255
206 227 255
206 227 255
206 227 255
206 227 255
206 227 255
206 227 255
206 227 255
206 227 255
206 227 255
206 227 255
206 227 255
206 227 255
207 227 255
207 227 255
207 227 255
207 227 255
207 228 255
207 228 255
207 228 255
207 228 255
207 228 255
207 228 255
207 228 255
207 228 255
207 228 255
207 228 255
207 228 255
207 228 255
207 228 255
207 228 255
208 228 255
208 228 255
208 228 255
208 228 255
208 228 255
208 228 255
208 228 255
208 228 255
208 228 255
208 228 255
208 228 255
208 228 255
208 228 255
208 228 255
208 228 255
208 228 255
208 228 255
208 228 255
208 228 255
209 228 255
209 229 255
209 229 255
209 229 255
209 229 255
209 229 255
209 229 255
209 229 255
209 229 255
209 229 255
209 229 255
209 229 255
209 229 255
209 229 255
209 229 255
209 229 255
209 229 255
209 229 255
209 229 255
209 229 255
210 229 255
210 229 255
210 229 255
210 229 255
210 229 255
210 229 255
210 229 255
210 229 255
210 229 255
210 229 255
210 229 255
210 229 255
210 229 255
210 229 255
210 229 255
210 229 255
210 229 255
210 229 255
210 229 255
210 229 255
210 230 255
210 230 255
210 230 255
211 230 255
211 230 255
211 230 255
211 230 255
211 230 255
211 230 255
211 230 255
211 230 255
211 230 255
211 230 255
211 230 255
211 230 255
211 230 255
211 230 255
211 230 255
211 230 255
211 230 255
211 230 255
211 230 255
211 230 255
211 230 255
211 230 255
211 230 255
211 230 255
211 230 255
212 230 255
212 230 255
212 230 255
212 230 255
212 230 255
212 230 255
212 230 255
212 230 255
212 230 255
212 230 255
212 230 255
212 230 255
203 221 246
189 206 230
168 185 207
159 175 198
150 166 188
156 173 196
157 174 198
157 175 199
155 173 198
166 185 211
165 185 211
163 182 208
165 184 211
167 187 214
164 185 212
170 191 219
174 195 224
173 195 224
173 195 224
174 196 225
171 193 221
172 195 225
174 197 227
175 198 228
174 198 228
175 198 228
174 198 228
174 197 228
173 197 228
174 197 228
173 197 228
173 197 228
172 197 228
172 196 228
171 196 228
172 197 228
172 196 228
171 196 228
171 196 228
170 196 228
170 196 228
170 196 228
170 195 228
170 195 228
169 195 228
170 196 228
169 195 228
169 195 228
169 195 228
169 195 228
169 195 228
169 195 228
169 195 228
168 195 228
168 194 228
169 195 228
169 195 228
168 195 228
168 194 228
168 195 228
168 195 228
168 195 228
169 195 228
169 195 228
169 195 228
168 195 228
170 196 228
169 195 228
170 195 228
170 195 228
170 196 228
169 195 228
166 191 223
168 193 225
166 190 221
160 184 214
162 185 216
166 189 219
164 187 218
164 187 217
156 177 204
154 174 200
146 165 190
159 177 202
175 194 219
201 221 248
207 227 254
208 228 255
208 228 255
207 228 255
207 228 255
207 228 255
207 228 255
207 228 255
207 228 255
207 228 255
207 228 255
207 228 255
207 228 255
207 228 255
207 228 255
207 228 255
207 228 255
207 227 255
207 227 255
207 227 255
207 227 255
206 227 255
206 227 255
206 227 255
206 227 255
206 227 255
206 227 255
206 227 255
206 227 255
206 227 255
206 227 255
206 227 255
206 227 255
206 227 255
206 227 255
206 227 255
206 227 255
206 227 255
206 227 255
206 227 255
205 227 255
205 227 255
205 227 255
205 227 255
205 227 255
205 227 255
205 227 255
205 227 255
205 227 255
205 227 255
205 227 255
205 226 255
205 226 255
205 226 255
205 226 255
205 226 255
205 226 255
205 226 255
205 226 255
204 226 255
204 226 255
204 226 255
204 226 255
204 226 255
204 226 255
204 226 255
204 226 255
204 226 255
204 226 255
204 226 255
204 226 255
204 226 255
204 226 255
204 226 255
204 226 255
204 226 255
204 226 255
204 226 255
204 226 255
178 192 205
151 157 147
123 121 80
139 137 92
136 134 90
140 138 92
139 138 93
130 128 86
126 125 83
134 133 89
126 125 84
143 141 94
135 135 90
135 134 90
151 149 99
140 138 93
136 135 91
141 140 94
135 135 90
129 128 86
140 140 94
131 131 88
144 142 95
147 146 98
144 143 96
141 141 95
142 140 94
139 138 93
141 140 95
144 143 96
153 152 103
150 148 99
140 138 93
147 146 99
133 132 89
145 143 95
136 134 90
137 135 90
137 136 91
133 133 90
144 142 95
138 137 93
145 144 97
139 137 92
140 139 93
137 136 91
138 137 92
137 136 91
140 139 93
129 128 86
125 124 83
126 125 83
125 123 82
119 117 78
138 141 120
185 200 214
204 226 255
204 226 255
204 226 255
204 226 255
204 226 255
204 226 255
204 226 255
204 226 255
204 226 255
204 226 255
204 226 255
204 226 255
204 226 255
204 226 255
204 226 255
204 226 255
204 226 255
204 226 255
204 226 255
205 226 255
205 226 255
205 226 255
205 226 255
205 226 255
205 226 255
205 226 255
205 226 255
205 226 255
205 227 255
205 227 255
205 227 255
205 227 255
205 227 255
205 227 255
205 227 255
205 227 255
205 227 255
205 227 255
205 227 255
205 227 255
206 227 255
206 227 255
206 227 255
206 227 255
206 227 255
206 227 255
206 227 255
206 227 255
206 227 255
206 227 255
206 227 255
206 227 255
206 227 255
206 227 255
206 227 255
206 227 255
206 227 255
206 227 255
207 227 255
207 227 255
207 227 255
207 227 255
207 228 255
207 228 255
207 228 255
207 228 255
207 228 255
207 228 255
207 228 255
207 228 255
207 228 255
207 228 255
207 228 255
207 228 255
207 228 255
207 228 255
208 228 255
208 228 255
208 228 255
208 228 255
208 228 255
208 228 255
208 228 255
208 228 255
208 228 255
208 228 255
208 228 255
208 228 255
208 228 255
208 228 255
208 228 255
208 228 255
208 228 255
208 228 255
208 228 255
209 228 255
209 229 255
209 229 255
209 229 255
209 229 255
209 229 255
209 229 255
209 229 255
209 229 255
209 229 255
209 229 255
209 229 255
209 229 255
209 229 255
209 229 255
209 229 255
209 229 255
209 229 255
209 229 255
209 229 255
210 229 255
210 229 255
210 229 255
210 229 255
210 229 255
210 229 255
210 229 255
210 229 255
210 229 255
210 229 255
210 229 255
210 229 255
210 229 255
210 229 255
210 229 255
210 229 255
210 229 255
210 229 255
210 229 255
210 229 255
210 230 255
210 230 255
210 230 255
211 230 255
211 230 255
211 230 255
211 230 255
211 230 255
211 230 255
211 230 255
211 230 255
211 230 255
211 230 255
211 230 255
211 230 255
211 230 255
211 230 255
211 230 255
211 230 255
211 230 255
211 230 255
211 230 255
211 230 255
211 230 255
211 230 255
211 230 255
211 230 255
211 230 255
211 230 255
212 230 255
212 230 255
212 230 255
212 230 255
212 230 255
212 230 255
212 230 255
212 230 255
212 230 255
212 230 255
212 230 255
211 229 254
193 210 234
179 195 218
155 170 191
144 159 180
151 168 190
157 175 198
154 171 194
167 186 212
160 178 203
163 182 208
167 187 213
161 181 207
171 192 219
163 183 209
169 189 217
170 191 218
174 196 224
172 193 221
174 197 226
175 198 227
174 197 226
173 196 226
175 198 228
176 198 228
175 198 228
175 198 228
174 198 228
173 197 228
174 197 228
173 197 228
173 197 228
173 197 228
173 197 228
172 196 228
172 197 228
171 196 228
171 196 228
170 196 228
171 196 228
171 196 228
171 196 228
170 196 228
170 196 228
170 195 228
169 195 228
169 195 228
170 195 228
169 195 228
168 195 228
168 195 228
168 194 228
169 195 228
168 194 228
168 194 228
168 194 228
168 195 228
168 194 228
168 194 228
167 194 228
168 194 228
168 194 228
167 194 228
167 194 228
167 194 228
168 194 228
167 194 228
167 194 228
168 194 228
167 194 228
167 194 228
167 194 228
168 194 228
168 194 228
168 195 228
168 194 228
168 194 228
168 195 228
169 195 228
168 194 227
168 193 225
169 194 227
165 190 221
167 192 224
164 188 219
163 186 217
154 175 203
161 183 212
157 178 206
151 171 196
154 173 198
173 191 216
197 217 244
208 228 255
208 228 255
208 228 255
208 228 255
207 228 255
207 228 255
207 228 255
207 228 255
207 228 255
207 228 255
207 228 255
207 228 255
207 228 255
207 228 255
207 228 255
207 228 255
207 228 255
207 228 255
207 227 255
207 227 255
207 227 255
207 227 255
206 227 255
206 227 255
206 227 255
206 227 255
206 227 255
206 227 255
206 227 255
206 227 255
206 227 255
206 227 255
206 227 255
206 227 255
206 227 255
206 227 255
206 227 255
206 227 255
206 227 255
206 227 255
206 227 255
205 227 255
205 227 255
205 227 255
205 227 255
205 227 255
205 227 255
205 227 255
205 227 255
205 227 255
205 227 255
205 227 255
205 227 255
205 226 255
205 226 255
205 226 255
205 226 255
205 226 255
205 226 255
205 226 255
205 226 255
205 226 255
204 226 255
204 226 255
204 226 255
204 226 255
204 226 255
204 226 255
204 226 255
204 226 255
204 226 255
204 226 255
204 226 255
204 226 254
174 188 200
137 141 125
126 124 83
130 128 85
129 128 85
123 122 82
132 130 87
144 142 95
136 135 90
134 132 89
137 135 91
136 135 90
138 137 92
149 147 99
140 137 92
143 142 95
139 137 92
140 139 94
140 139 93
149 147 99
138 138 93
139 138 93
139 137 92
144 143 96
147 146 98
141 140 94
137 136 91
135 134 90
136 135 90
143 142 95
137 137 92
142 141 95
150 149 101
136 135 90
130 128 86
142 140 94
133 131 88
136 135 91
137 136 91
143 141 95
143 142 95
141 140 94
139 137 92
147 146 98
140 139 93
150 148 99
137 136 91
143 141 94
133 131 87
141 139 93
131 129 85
133 132 88
136 135 90
128 127 84
144 142 95
130 128 84
137 134 90
136 133 87
133 136 117
180 194 205
204 225 253
204 226 255
204 226 255
204 226 255
204 226 255
204 226 255
204 226 255
204 226 255
204 226 255
204 226 255
204 226 255
204 226 255
205 226 255
205 226 255
205 226 255
205 226 255
205 226 255
205 226 255
205 226 255
205 226 255
205 226 255
205 226 255
205 227 255
205 227 255
205 227 255
205 227 255
205 227 255
205 227 255
205 227 255
205 227 255
205 227 255
205 227 255
205 227 255
206 227 255
206 227 255
206 227 255
206 227 255
206 227 255
206 227 255
206 227 255
206 227 255
206 227 255
206 227 255
206 227 255
206 227 255
206 227 255
206 227 255
206 227 255
206 227 255
206 227 255
206 227 255
206 227 255
207 227 255
207 227 255
207 227 255
207 227 255
207 228 255
207 228 255
207 228 255
207 228 255
207 228 255
207 228 255
207 228 255
207 228 255
207 228 255
207 228 255
207 228 255
207 228 255
207 228 255
207 228 255
208 228 255
208 228 255
208 228 255
208 228 255
208 228 255
208 228 255
208 228 255
208 228 255
208 228 255
208 228 255
208 228 255
208 228 255
208 228 255
208 228 255
208 228 255
208 228 255
208 228 255
208 228 255
208 228 255
209 228 255
209 229 255
209 229 255
209 229 255
209 229 255
209 229 255
209 229 255
209 229 255
209 229 255
209 229 255
209 229 255
209 229 255
209 229 255
209 229 255
209 229 255
209 229 255
209 229 255
209 229 255
209 229 255
209 229 255
210 229 255
210 229 255
210 229 255
210 229 255
210 229 255
210 229 255
210 229 255
210 229 255
210 229 255
210 229 255
210 229 255
210 229 255
210 229 255
210 229 255
210 229 255
210 229 255
210 229 255
210 229 255
210 229 255
210 229 255
210 230 255
210 230 255
210 230 255
211 230 255
211 230 255
211 230 255
211 230 255
211 230 255
211 230 255
211 230 255
211 230 255
211 230 255
211 230 255
211 230 255
211 230 255
211 230 255
211 230 255
211 230 255
211 230 255
211 230 255
211 230 255
211 230 255
211 230 255
211 230 255
211 230 255
211 230 255
211 230 255
211 230 255
212 230 255
212 230 255
212 230 255
212 230 255
212 230 255
212 230 255
212 230 255
212 230 255
212 230 255
212 230 255
212 230 255
212 230 255
212 230 255
212 230 255
200 217 241
188 205 229
152 167 187
151 167 188
157 174 196
158 175 198
163 181 206
161 180 204
169 188 214
163 182 207
166 185 211
169 189 216
165 185 212
169 190 218
173 195 223
169 189 216
172 193 221
174 196 225
173 195 224
176 198 227
176 199 228
176 198 228
176 198 228
176 199 228
175 198 228
175 198 228
175 198 228
174 198 228
173 197 228
173 197 228
173 197 228
173 197 228
173 197 228
172 197 228
172 197 228
173 197 228
171 196 228
171 196 228
172 196 228
171 196 228
171 196 228
171 196 228
170 195 228
169 195 228
170 195 228
169 195 228
170 195 228
169 195 228
169 195 228
169 195 228
168 195 228
168 194 228
169 195 228
168 195 228
167 194 228
167 194 228
168 194 228
167 194 228
167 194 228
167 194 228
167 194 228
167 194 228
167 194 228
167 194 228
166 194 228
166 193 228
166 194 228
166 193 228
166 193 228
166 194 228
166 194 228
167 194 228
166 194 228
166 194 228
166 194 228
167 194 228
166 194 228
167 194 228
166 194 228
166 194 228
168 194 228
168 194 228
168 195 228
169 195 228
169 195 228
169 195 228
169 194 227
170 195 227
168 194 226
165 190 221
159 182 212
164 187 217
161 183 212
154 175 202
152 173 199
153 171 196
171 189 214
199 219 246
208 228 255
208 228 255
208 228 255
208 228 255
208 228 255
207 228 255
207 228 255
207 228 255
207 228 255
207 228 255
207 228 255
207 228 255
207 228 255
207 228 255
207 228 255
207 228 255
207 228 255
207 228 255
207 228 255
207 227 255
207 227 255
207 227 255
207 227 255
206 227 255
206 227 255
206 227 255
206 227 255
206 227 255
206 227 255
206 227 255
206 227 255
206 227 255
206 227 255
206 227 255
206 227 255
206 227 255
206 227 255
206 227 255
206 227 255
206 227 255
206 227 255
206 227 255
205 227 255
205 227 255
205 227 255
205 227 255
205 227 255
205 227 255
205 227 255
205 227 255
205 227 255
205 227 255
205 227 255
205 227 255
205 227 255
205 226 255
205 226 255
205 226 255
205 226 255
205 226 255
205 226 255
205 226 255
205 226 255
205 226 255
205 226 255
204 226 255
204 226 255
204 226 255
204 226 255
189 207 228
138 140 114
133 131 87
122 120 80
140 139 93
133 132 88
132 131 87
140 139 93
132 130 87
139 138 93
153 151 101
133 132 88
144 142 95
145 144 97
144 142 95
143 141 94
146 146 98
143 142 95
129 128 86
136 136 91
132 131 88
144 143 96
150 148 99
147 146 98
147 146 98
147 147 99
148 146 98
143 141 95
148 147 99
150 148 99
148 146 98
132 131 88
138 137 92
144 143 96
143 143 96
152 151 101
141 139 93
131 130 87
142 141 95
145 144 96
142 140 94
143 141 95
143 142 95
143 142 95
138 136 91
135 135 90
152 150 101
143 142 95
144 142 95
146 146 98
143 141 95
142 141 95
137 135 90
127 126 83
136 134 90
136 134 89
133 130 87
132 131 87
136 135 90
140 138 92
137 135 89
129 126 83
150 156 149
181 197 214
204 226 255
204 226 255
204 226 255
205 226 255
205 226 255
205 226 255
205 226 255
205 226 255
205 226 255
205 226 255
205 226 255
205 226 255
205 226 255
205 226 255
205 227 255
205 227 255
205 227 255
205 227 255
205 227 255
205 227 255
205 227 255
205 227 255
205 227 255
205 227 255
205 227 255
205 227 255
205 227 255
206 227 255
206 227 255
206 227 255
206 227 255
206 227 255
206 227 255
206 227 255
206 227 255
206 227 255
206 227 255
206 227 255
206 227 255
206 227 255
206 227 255
206 227 255
206 227 255
206 227 255
206 227 255
206 227 255
207 227 255
207 227 255
207 227 255
207 227 255
207 228 255
207 228 255
207 228 255
207 228 255
207 228 255
207 228 255
207 228 255
207 228 255
207 228 255
207 228 255
207 228 255
207 228 255
207 228 255
207 228 255
208 228 255
208 228 255
208 228 255
208 228 255
208 228 255
208 228 255
208 228 255
208 228 255
208 228 255
208 228 255
208 228 255
208 228 255
208 228 255
208 228 255
208 228 255
208 228 255
208 228 255
208 228 255
208 228 255
209 228 255
209 229 255
209 229 255
209 229 255
209 229 255
209 229 255
209 229 255
209 229 255
209 229 255
209 229 255
209 229 255
209 229 255
209 229 255
209 229 255
209 229 255
209 229 255
209 229 255
209 229 255
209 229 255
209 229 255
210 229 255
210 229 255
210 229 255
210 229 255
210 229 255
210 229 255
210 229 255
210 229 255
210 229 255
210 229 255
210 229 255
210 229 255
210 229 255
210 229 255
210 229 255
210 229 255
210 229 255
210 229 255
210 229 255
210 229 255
210 230 255
210 230 255
210 230 255
211 230 255
211 230 255
211 230 255
211 230 255
211 230 255
211 230 255
211 230 255
211 230 255
211 230 255
211 230 255
211 230 255
211 230 255
211 230 255
211 230 255
211 230 255
211 230 255
211 230 255
211 230 255
211 230 255
211 230 255
211 230 255
211 230 255
211 230 255
211 230 255
212 230 255
212 230 255
212 230 255
212 230 255
212 230 255
212 230 255
212 230 255
212 230 255
212 230 255
212 230 255
212 230 255
212 230 255
212 230 255
212 230 255
212 230 255
212 230 255
212 230 255
212 230 255
156 171 191
156 173 195
155 171 192
146 162 183
158 176 199
166 185 209
165 183 208
161 180 204
168 187 213
165 184 208
168 188 214
171 191 218
172 192 219
174 196 224
176 197 225
175 197 225
176 198 226
176 198 227
176 199 228
175 198 228
176 199 228
175 198 228
176 198 228
175 198 228
175 198 228
174 198 228
174 198 228
174 198 228
173 197 228
173 197 228
173 197 228
172 197 228
172 197 228
172 196 228
171 196 228
172 196 228
171 196 228
170 196 228
170 196 228
171 196 228
171 196 228
170 196 228
170 196 228
170 195 228
170 195 228
170 195 228
169 195 228
168 195 228
169 195 228
169 195 228
169 195 228
168 194 228
168 194 228
168 194 228
167 194 228
167 194 228
167 194 228
167 194 228
167 194 228
166 194 228
167 194 228
166 193 228
166 194 228
166 194 228
166 193 228
166 193 228
166 193 228
166 193 228
166 193 228
165 193 228
166 193 228
166 193 228
166 193 228
166 193 228
166 193 228
166 193 228
166 193 228
166 193 228
166 193 228
166 193 228
166 194 228
166 194 228
166 194 228
167 194 228
167 194 228
167 194 228
167 194 228
168 194 228
168 195 228
168 194 227
169 195 228
169 195 227
165 190 223
165 189 220
158 181 211
157 180 209
155 177 206
151 172 199
148 167 192
158 177 202
182 200 226
203 223 250
208 228 255
208 228 255
208 228 255
208 228 255
208 228 255
208 228 255
207 228 255
207 228 255
207 228 255
207 228 255
207 228 255
207 228 255
207 228 255
207 228 255
207 228 255
207 228 255
207 228 255
207 228 255
207 228 255
207 228 255
207 227 255
207 227 255
207 227 255
207 227 255
206 227 255
206 227 255
206 227 255
206 227 255
206 227 255
206 227 255
206 227 255
206 227 255
206 227 255
206 227 255
206 227 255
206 227 255
206 227 255
206 227 255
206 227 255
206 227 255
206 227 255
206 227 255
206 227 255
206 227 255
205 227 255
205 227 255
205 227 255
205 227 255
205 227 255
205 227 255
205 227 255
205 227 255
205 227 255
205 227 255
205 227 255
205 227 255
205 227 255
205 227 255
205 226 255
205 226 255
205 226 255
205 226 255
205 226 255
205 226 255
190 208 230
146 150 131
131 129 86
127 126 84
129 127 85
142 140 93
137 136 91
136 134 90
131 129 86
139 138 92
145 143 96
130 128 86
137 135 90
142 140 93
145 144 96
148 145 97
140 139 93
143 142 95
146 145 97
143 142 95
153 151 101
147 146 98
140 139 93
144 143 96
139 138 93
149 148 99
138 137 92
135 134 90
150 148 99
145 143 96
146 145 97
150 148 99
148 147 99
151 150 101
145 144 97
151 149 100
144 143 96
144 143 96
149 148 100
140 139 93
141 139 93
148 147 99
145 143 96
141 139 93
148 146 98
135 134 90
149 148 100
149 147 99
142 140 94
153 151 101
151 151 101
146 145 97
140 139 93
142 141 95
144 143 96
142 140 93
149 146 97
141 139 93
135 132 87
140 138 93
128 126 84
132 131 87
131 129 85
135 133 89
139 137 91
134 132 88
135 138 120
192 211 235
205 226 255
205 226 255
205 226 255
205 226 255
205 226 255
205 226 255
205 227 255
205 227 255
205 227 255
205 227 255
205 227 255
205 227 255
205 227 255
205 227 255
205 227 255
205 227 255
205 227 255
205 227 255
205 227 255
206 227 255
206 227 255
206 227 255
206 227 255
206 227 255
206 227 255
206 227 255
206 227 255
206 227 255
206 227 255
206 227 255
206 227 255
206 227 255
206 227 255
206 227 255
206 227 255
206 227 255
206 227 255
206 227 255
206 227 255
207 227 255
207 227 255
207 227 255
207 227 255
207 227 255
207 228 255
207 228 255
207 228 255
207 228 255
207 228 255
207 228 255
207 228 255
207 228 255
207 228 255
207 228 255
207 228 255
207 228 255
207 228 255
207 228 255
208 228 255
208 228 255
208 228 255
208 228 255
208 228 255
208 228 255
208 228 255
208 228 255
208 228 255
208 228 255
208 228 255
208 228 255
208 228 255
208 228 255
208 228 255
208 228 255
208 228 255
208 228 255
208 228 255
209 228 255
209 229 255
209 229 255
209 229 255
209 229 255
209 229 255
209 229 255
209 229 255
209 229 255
209 229 255
209 229 255
209 229 255
209 229 255
209 229 255
209 229 255
209 229 255
209 229 255
209 229 255
209 229 255
209 229 255
210 229 255
210 229 255
210 229 255
210 229 255
210 229 255
210 229 255
210 229 255
210 229 255
210 229 255
210 229 255
210 229 255
210 229 255
210 229 255
210 229 255
210 229 255
210 229 255
210 229 255
210 229 255
210 229 255
210 229 255
210 230 255
210 230 255
211 230 255
211 230 255
211 230 255
211 230 255
211 230 255
211 230 255
211 230 255
211 230 255
211 230 255
211 230 255
211 230 255
211 230 255
211 230 255
211 230 255
211 230 255
211 230 255
211 230 255
211 230 255
211 230 255
211 230 255
211 230 255
211 230 255
211 230 255
211 230 255
211 230 255
212 230 255
212 230 255
212 230 255
212 230 255
212 230 255
212 230 255
212 230 255
212 230 255
212 230 255
212 230 255
212 230 255
212 230 255
212 230 255
212 230 255
212 230 255
212 230 255
212 230 255
212 230 255
212 230 255
212 230 255
212 231 255
212 231 255
160 177 199
167 184 208
157 175 198
166 185 209
160 178 202
173 193 219
169 189 214
171 191 218
170 190 217
171 192 219
175 195 221
174 195 223
175 197 225
178 200 228
177 199 227
177 199 228
177 199 228
176 199 228
176 199 228
175 198 228
175 198 228
175 198 228
175 198 228
175 198 228
174 197 228
175 198 228
175 198 228
173 197 228
174 197 228
173 197 228
173 197 228
172 197 228
173 197 228
172 196 228
171 196 228
171 196 228
172 196 228
170 196 228
169 195 228
169 195 228
170 196 228
170 195 228
169 195 228
169 195 228
169 195 228
168 195 228
169 195 228
168 194 228
168 194 228
168 194 228
167 194 228
167 194 228
168 194 228
167 194 228
167 194 228
167 194 228
167 194 228
167 194 228
166 194 228
167 194 228
166 194 228
166 193 228
166 193 228
166 193 228
165 193 228
166 193 228
165 193 228
165 193 228
165 193 228
165 193 228
166 193 228
165 193 228
165 193 228
165 193 228
165 193 228
165 193 228
165 193 228
165 193 228
165 193 228
165 193 228
165 193 228
166 193 228
165 193 228
166 193 228
165 193 228
166 193 228
166 193 228
166 193 228
167 194 228
167 194 228
167 194 228
168 194 228
169 195 228
169 195 228
168 194 227
167 192 224
164 188 219
165 189 219
162 185 216
159 181 209
153 174 200
148 166 191
179 198 224
191 210 236
208 228 255
208 228 255
208 228 255
208 228 255
208 228 255
208 228 255
208 228 255
208 228 255
207 228 255
207 228 255
207 228 255
207 228 255
207 228 255
207 228 255
207 228 255
207 228 255
207 228 255
207 228 255
207 228 255
207 228 255
207 228 255
207 228 255
207 227 255
207 227 255
207 227 255
207 227 255
207 227 255
206 227 255
206 227 255
206 227 255
206 227 255
206 227 255
206 227 255
206 227 255
206 227 255
206 227 255
206 227 255
206 227 255
206 227 255
206 227 255
206 227 255
206 227 255
206 227 255
206 227 255
206 227 255
206 227 255
206 227 255
206 227 255
205 227 255
205 227 255
205 227 255
205 227 255
205 227 255
205 227 255
205 227 255
205 227 255
205 227 255
205 227 255
205 227 255
205 227 255
199 220 247
168 181 192
132 132 95
132 129 86
132 130 87
148 145 96
127 126 85
138 136 91
141 139 92
144 142 95
137 136 91
144 143 96
136 134 90
135 133 89
146 144 97
139 138 92
146 143 95
144 141 94
151 148 99
148 146 97
137 136 91
145 143 96
149 147 98
138 136 91
144 142 95
145 144 97
148 147 99
149 148 99
151 149 100
149 147 99
149 149 100
149 148 99
142 140 94
153 151 101
151 149 99
140 139 94
157 155 104
144 143 96
146 145 97
149 147 99
148 146 97
154 152 102
148 146 98
149 147 98
147 146 97
142 141 95
149 147 99
150 149 99
142 140 94
150 148 99
139 137 92
144 142 95
141 140 94
152 150 101
143 141 95
139 137 91
137 136 91
143 141 94
133 132 88
142 140 93
140 138 92
139 136 90
140 138 93
138 136 90
130 128 84
136 133 89
136 133 89
135 133 89
137 134 89
131 131 101
167 178 179
199 219 245
205 227 255
205 227 255
205 227 255
205 227 255
205 227 255
205 227 255
205 227 255
205 227 255
205 227 255
205 227 255
205 227 255
205 227 255
206 227 255
206 227 255
206 227 255
206 227 255
206 227 255
206 227 255
206 227 255
206 227 255
206 227 255
206 227 255
206 227 255
206 227 255
206 227 255
206 227 255
206 227 255
206 227 255
206 227 255
206 227 255
206 227 255
206 227 255
206 227 255
207 227 255
207 227 255
207 227 255
207 227 255
207 228 255
207 228 255
207 228 255
207 228 255
207 228 255
207 228 255
207 228 255
207 228 255
207 228 255
207 228 255
207 228 255
207 228 255
207 228 255
207 228 255
207 228 255
208 228 255
208 228 255
208 228 255
208 228 255
208 228 255
208 228 255
208 228 255
208 228 255
208 228 255
208 228 255
208 228 255
208 228 255
208 228 255
208 228 255
208 228 255
208 228 255
208 228 255
208 228 255
208 228 255
209 228 255
209 229 255
209 229 255
209 229 255
209 229 255
209 229 255
209 229 255
209 229 255
209 229 255
209 229 255
209 229 255
209 229 255
209 229 255
209 229 255
209 229 255
209 229 255
209 229 255
209 229 255
209 229 255
209 229 255
210 229 255
210 229 255
210 229 255
210 229 255
210 229 255
210 229 255
210 229 255
210 229 255
210 229 255
210 229 255
210 229 255
210 229 255
210 229 255
210 229 255
210 229 255
210 229 255
210 229 255
210 229 255
210 229 255
210 229 255
210 230 255
210 230 255
211 230 255
211 230 255
211 230 255
211 230 255
211 230 255
211 230 255
211 230 255
211 230 255
211 230 255
211 230 255
211 230 255
211 230 255
211 230 255
211 230 255
211 230 255
211 230 255
211 230 255
211 230 255
211 230 255
211 230 255
211 230 255
211 230 255
211 230 255
211 230 255
212 230 255
212 230 255
212 230 255
212 230 255
212 230 255
212 230 255
212 230 255
212 230 255
212 230 255
212 230 255
212 230 255
212 230 255
212 230 255
212 230 255
212 230 255
212 230 255
212 230 255
212 230 255
212 230 255
212 230 255
212 230 255
212 231 255
212 231 255
212 231 255
212 231 255
212 231 255
212 231 255
164 182 206
165 183 208
166 185 209
157 174 198
171 191 217
171 191 217
169 189 214
171 191 218
176 197 225
176 197 225
175 196 225
177 199 227
177 199 228
178 199 228
177 199 228
176 199 228
176 199 228
176 199 228
176 198 228
175 198 228
175 198 228
175 198 228
175 198 228
174 198 228
174 197 228
174 197 228
174 198 228
174 197 228
173 197 228
172 197 228
172 196 228
172 197 228
173 197 228
172 196 228
171 196 228
170 196 228
171 196 228
171 196 228
170 196 228
171 196 228
170 195 228
170 195 228
169 195 228
169 195 228
169 195 228
168 195 228
169 195 228
168 194 228
167 194 228
167 194 228
167 194 228
167 194 228
167 194 228
167 194 228
167 194 228
166 194 228
167 194 228
166 194 228
166 193 228
166 193 228
166 193 228
165 193 228
165 193 228
165 193 228
165 193 228
165 193 228
165 193 228
165 193 228
165 193 228
165 193 228
164 193 228
165 193 228
164 193 228
164 193 228
164 193 228
164 192 228
164 193 228
165 193 228
164 193 228
164 193 228
165 193 228
164 193 228
165 193 228
165 193 228
165 193 228
165 193 228
165 193 228
165 193 228
165 193 228
166 194 228
166 194 228
166 194 228
167 194 228
167 194 228
168 194 228
168 195 228
169 195 228
170 195 228
170 195 227
168 193 225
155 177 206
163 185 214
161 183 212
145 164 190
168 187 212
188 207 233
207 227 254
208 228 255
208 228 255
208 228 255
208 228 255
208 228 255
208 228 255
208 228 255
208 228 255
208 228 255
208 228 255
207 228 255
207 228 255
207 228 255
207 228 255
207 228 255
207 228 255
207 228 255
207 228 255
207 228 255
207 228 255
207 228 255
207 228 255
207 228 255
207 228 255
207 227 255
207 227 255
207 227 255
207 227 255
207 227 255
206 227 255
206 227 255
206 227 255
206 227 255
206 227 255
206 227 255
206 227 255
206 227 255
206 227 255
206 227 255
206 227 255
206 227 255
206 227 255
206 227 255
206 227 255
206 227 255
206 227 255
206 227 255
206 227 255
206 227 255
206 227 255
206 227 255
205 227 255
205 227 255
205 227 255
205 227 255
205 227 255
184 201 221
133 134 107
125 123 82
133 131 88
139 137 91
137 136 91
133 132 88
134 132 88
139 137 92
144 143 95
142 141 94
145 142 95
146 144 95
144 141 94
137 136 92
137 136 91
147 145 97
143 141 94
148 146 97
142 140 93
143 141 94
145 143 95
154 152 102
153 152 102
148 147 99
147 145 97
146 144 97
156 153 102
151 150 101
146 144 97
148 147 99
146 145 97
151 149 99
146 144 96
148 146 97
150 147 98
152 150 101
144 142 95
146 145 97
149 149 100
144 143 96
155 153 103
150 148 99
153 151 101
145 144 97
154 152 102
149 148 99
148 146 97
142 140 93
146 145 97
140 138 92
150 148 99
140 138 93
154 151 101
146 144 97
150 148 99
136 134 89
149 147 98
144 144 96
142 140 93
145 142 95
138 136 90
137 136 91
142 140 91
136 134 89
149 146 97
129 127 84
139 137 91
139 137 90
137 135 90
123 121 80
118 116 76
149 151 123
195 213 232
205 227 255
205 227 255
205 227 255
205 227 255
205 227 255
205 227 255
206 227 255
206 227 255
206 227 255
206 227 255
206 227 255
206 227 255
206 227 255
206 227 255
206 227 255
206 227 255
206 227 255
206 227 255
206 227 255
206 227 255
206 227 255
206 227 255
206 227 255
206 227 255
206 227 255
206 227 255
206 227 255
207 227 255
207 227 255
207 227 255
207 227 255
207 227 255
207 228 255
207 228 255
207 228 255
207 228 255
207 228 255
207 228 255
207 228 255
207 228 255
207 228 255
207 228 255
207 228 255
207 228 255
207 228 255
207 228 255
207 228 255
208 228 255
208 228 255
208 228 255
208 228 255
208 228 255
208 228 255
208 228 255
208 228 255
208 228 255
208 228 255
208 228 255
208 228 255
208 228 255
208 228 255
208 228 255
208 228 255
208 228 255
208 228 255
208 228 255
209 228 255
209 229 255
209 229 255
209 229 255
209 229 255
209 229 255
209 229 255
209 229 255
209 229 255
209 229 255
209 229 255
209 229 255
209 229 255
209 229 255
209 229 255
209 229 255
209 229 255
209 229 255
209 229 255
209 229 255
210 229 255
210 229 255
210 229 255
210 229 255
210 229 255
210 229 255
210 229 255
210 229 255
210 229 255
210 229 255
210 229 255
210 229 255
210 229 255
210 229 255
210 229 255
210 229 255
210 229 255
210 229 255
210 229 255
210 230 255
210 230 255
210 230 255
211 230 255
211 230 255
211 230 255
211 230 255
211 230 255
211 230 255
211 230 255
211 230 255
211 230 255
211 230 255
211 230 255
211 230 255
211 230 255
211 230 255
211 230 255
211 230 255
211 230 255
211 230 255
211 230 255
211 230 255
211 230 255
211 230 255
211 230 255
211 230 255
212 230 255
212 230 255
212 230 255
212 230 255
212 230 255
212 230 255
212 230 255
212 230 255
212 230 255
212 230 255
212 230 255
212 230 255
212 230 255
212 230 255
212 230 255
212 230 255
212 230 255
212 230 255
212 230 255
212 230 255
212 231 255
212 231 255
212 231 255
212 231 255
212 231 255
212 231 255
212 231 255
212 231 255
212 231 255
213 231 255
213 231 255
169 187 212
176 195 221
173 192 218
177 196 223
172 191 218
176 196 223
179 200 227
177 198 226
179 200 228
179 200 228
179 200 228
177 199 228
178 200 228
177 199 228
177 199 228
176 199 228
177 199 228
176 199 228
175 198 228
175 198 228
174 198 228
174 198 228
174 197 228
174 198 228
173 197 228
173 197 228
173 197 228
173 197 228
173 197 228
172 196 228
172 197 228
172 196 228
172 196 228
171 196 228
171 196 228
171 196 228
171 196 228
170 195 228
170 195 228
170 195 228
169 195 228
169 195 228
169 195 228
169 195 228
168 195 228
169 195 228
169 195 228
168 195 228
168 194 228
167 194 228
167 194 228
167 194 228
167 194 228
167 194 228
167 194 228
167 194 228
166 193 228
165 193 228
165 193 228
166 193 228
165 193 228
165 193 228
165 193 228
165 193 228
165 193 228
165 193 228
165 193 228
165 193 228
164 193 228
164 193 228
164 192 228
164 192 228
164 192 228
164 192 228
164 192 228
164 193 228
164 192 228
164 192 228
164 192 228
164 192 228
164 192 228
164 192 228
164 192 228
164 192 228
164 192 228
165 193 228
164 192 228
164 193 228
165 193 228
165 193 228
166 193 228
165 193 228
166 193 228
166 194 228
167 194 228
167 194 228
167 194 228
168 195 228
169 195 228
170 195 228
169 195 227
168 193 225
159 182 212
165 188 218
163 185 213
157 178 204
154 172 196
180 199 224
205 225 252
208 228 255
208 228 255
208 228 255
208 228 255
208 228 255
208 228 255
208 228 255
208 228 255
208 228 255
208 228 255
208 228 255
208 228 255
207 228 255
207 228 255
207 228 255
207 228 255
207 228 255
207 228 255
207 228 255
207 228 255
207 228 255
207 228 255
207 228 255
207 228 255
207 228 255
207 228 255
207 228 255
207 227 255
207 227 255
207 227 255
207 227 255
207 227 255
206 227 255
206 227 255
206 227 255
206 227 255
206 227 255
206 227 255
206 227 255
206 227 255
206 227 255
206 227 255
206 227 255
206 227 255
206 227 255
206 227 255
206 227 255
206 227 255
206 227 255
206 227 255
206 227 255
206 227 255
203 224 251
164 175 178
128 126 84
133 132 88
123 122 82
133 131 87
139 137 90
140 139 92
140 139 93
143 141 93
138 136 90
141 139 93
144 142 94
151 149 100
139 137 92
151 149 100
134 132 88
149 146 98
149 147 97
150 148 98
145 143 95
143 141 94
137 136 91
148 147 99
151 149 100
145 143 95
145 142 95
149 147 98
148 146 98
141 141 95
152 150 101
151 149 100
151 149 100
158 155 104
148 146 98
144 141 94
154 153 103
145 143 96
150 148 99
151 149 100
150 147 98
157 154 103
144 142 95
152 151 101
145 144 97
151 149 99
146 144 97
159 157 105
148 146 97
146 145 97
151 149 100
155 153 101
147 145 97
153 151 101
148 146 97
145 143 95
149 147 99
147 145 97
143 141 95
146 145 97
144 142 95
149 146 97
151 149 100
142 140 93
143 141 94
140 138 93
135 133 88
142 141 93
135 134 90
136 134 89
142 140 94
129 126 81
124 122 80
140 138 92
130 127 84
139 137 90
163 174 179
202 223 251
206 227 255
206 227 255
206 227 255
206 227 255
206 227 255
206 227 255
206 227 255
206 227 255
206 227 255
206 227 255
206 227 255
206 227 255
206 227 255
206 227 255
206 227 255
206 227 255
206 227 255
206 227 255
206 227 255
206 227 255
207 227 255
207 227 255
207 227 255
207 227 255
207 227 255
207 228 255
207 228 255
207 228 255
207 228 255
207 228 255
207 228 255
207 228 255
207 228 255
207 228 255
207 228 255
207 228 255
207 228 255
207 228 255
207 228 255
207 228 255
208 228 255
208 228 255
208 228 255
208 228 255
208 228 255
208 228 255
208 228 255
208 228 255
208 228 255
208 228 255
208 228 255
208 228 255
208 228 255
208 228 255
208 228 255
208 228 255
208 228 255
208 228 255
208 228 255
208 228 255
209 228 255
209 229 255
209 229 255
209 229 255
209 229 255
209 229 255
209 229 255
209 229 255
209 229 255
209 229 255
209 229 255
209 229 255
209 229 255
209 229 255
209 229 255
209 229 255
209 229 255
209 229 255
209 229 255
209 229 255
210 229 255
210 229 255
210 229 255
210 229 255
210 229 255
210 229 255
210 229 255
210 229 255
210 229 255
210 229 255
210 229 255
210 229 255
210 229 255
210 229 255
210 229 255
210 229 255
210 229 255
210 229 255
210 229 255
210 230 255
210 230 255
211 230 255
211 230 255
211 230 255
211 230 255
211 230 255
211 230 255
211 230 255
211 230 255
211 230 255
211 230 255
211 230 255
211 230 255
211 230 255
211 230 255
211 230 255
211 230 255
211 230 255
211 230 255
211 230 255
211 230 255
211 230 255
211 230 255
211 230 255
211 230 255
211 230 255
212 230 255
212 230 255
212 230 255
212 230 255
212 230 255
212 230 255
212 230 255
212 230 255
212 230 255
212 230 255
212 230 255
212 230 255
212 230 255
212 230 255
212 230 255
212 230 255
212 230 255
212 230 255
212 230 255
212 231 255
212 231 255
212 231 255
212 231 255
212 231 255
212 231 255
212 231 255
212 231 255
212 231 255
213 231 255
213 231 255
213 231 255
213 231 255
213 231 255
213 231 255
213 231 255
176 195 220
172 191 217
173 193 219
176 195 221
175 195 221
179 200 227
180 201 228
179 200 228
178 200 228
178 200 228
177 199 228
177 199 228
176 199 228
177 199 228
176 199 228
175 198 228
176 199 228
176 198 228
175 198 228
175 198 228
176 198 228
174 198 228
173 197 228
174 197 228
174 197 228
173 197 228
174 197 228
172 197 228
173 197 228
172 197 228
172 197 228
171 196 228
172 196 228
171 196 228
171 196 228
171 196 228
170 196 228
170 196 228
169 195 228
169 195 228
170 195 228
169 195 228
169 195 228
168 195 228
168 194 228
168 194 228
168 194 228
168 194 228
167 194 228
167 194 228
167 194 228
167 194 228
167 194 228
166 194 228
166 193 228
165 193 228
166 194 228
166 193 228
166 193 228
166 193 228
165 193 228
165 193 228
165 193 228
164 193 228
165 193 228
165 193 228
164 193 228
164 192 228
164 192 228
164 192 228
164 192 228
164 192 228
164 192 228
164 192 228
164 192 228
164 192 228
163 192 228
163 192 228
163 192 228
163 192 228
163 192 228
164 192 228
163 192 228
163 192 228
164 192 228
164 192 228
164 192 228
164 192 228
164 192 228
165 193 228
165 193 228
165 193 228
165 193 228
165 193 228
165 193 228
167 194 228
167 194 228
167 194 228
167 194 228
167 194 228
169 195 228
169 195 228
169 195 227
170 195 227
163 187 218
166 190 220
159 180 208
149 169 195
154 173 197
187 206 232
203 223 250
208 228 255
208 228 255
208 228 255
208 228 255
208 228 255
208 228 255
208 228 255
208 228 255
208 228 255
208 228 255
208 228 255
208 228 255
208 228 255
208 228 255
207 228 255
207 228 255
207 228 255
207 228 255
207 228 255
207 228 255
207 228 255
207 228 255
207 228 255
207 228 255
207 228 255
207 228 255
207 228 255
207 228 255
207 228 255
207 228 255
207 227 255
207 227 255
207 227 255
207 227 255
207 227 255
206 227 255
206 227 255
206 227 255
206 227 255
206 227 255
206 227 255
206 227 255
206 227 255
206 227 255
206 227 255
206 227 255
206 227 255
206 227 255
206 227 255
199 218 241
152 158 145
123 121 81
129 126 84
137 135 91
132 130 87
136 134 89
130 129 86
134 131 87
140 138 91
137 135 90
150 147 97
141 138 92
143 141 95
140 139 92
151 149 99
145 143 96
146 144 95
142 140 94
146 144 96
153 151 101
152 150 100
149 147 98
147 144 96
145 143 96
148 146 98
155 152 101
153 151 100
155 153 102
148 146 97
151 149 100
150 147 98
141 140 94
152 150 100
148 146 98
155 153 102
147 145 97
147 146 97
153 151 101
150 149 100
147 145 97
150 149 100
156 153 102
151 149 99
150 148 99
154 152 101
152 151 102
151 148 99
145 143 95
153 151 101
151 148 99
151 150 100
154 152 102
145 144 96
144 142 95
147 145 97
147 144 96
144 141 93
156 153 101
147 145 97
150 148 99
148 145 96
144 142 95
138 137 91
147 145 97
147 144 96
152 150 98
146 144 95
151 147 97
143 141 94
146 143 95
141 138 91
150 146 95
142 140 93
137 134 87
134 132 87
126 124 79
133 130 85
142 147 134
195 214 238
206 227 255
206 227 255
206 227 255
206 227 255
206 227 255
206 227 255
206 227 255
206 227 255
206 227 255
206 227 255
206 227 255
206 227 255
206 227 255
206 227 255
207 227 255
207 227 255
207 227 255
207 227 255
207 227 255
207 228 255
207 228 255
207 228 255
207 228 255
207 228 255
207 228 255
207 228 255
207 228 255
207 228 255
207 228 255
207 228 255
207 228 255
207 228 255
207 228 255
207 228 255
207 228 255
208 228 255
208 228 255
208 228 255
208 228 255
208 228 255
208 228 255
208 228 255
208 228 255
208 228 255
208 228 255
208 228 255
208 228 255
208 228 255
208 228 255
208 228 255
208 228 255
208 228 255
208 228 255
208 228 255
209 228 255
209 228 255
209 229 255
209 229 255
209 229 255
209 229 255
209 229 255
209 229 255
209 229 255
209 229 255
209 229 255
209 229 255
209 229 255
209 229 255
209 229 255
209 229 255
209 229 255
209 229 255
209 229 255
209 229 255
210 229 255
210 229 255
210 229 255
210 229 255
210 229 255
210 229 255
210 229 255
210 229 255
210 229 255
210 229 255
210 229 255
210 229 255
210 229 255
210 229 255
210 229 255
210 229 255
210 229 255
210 229 255
210 229 255
210 229 255
210 230 255
210 230 255
211 230 255
211 230 255
211 230 255
211 230 255
211 230 255
211 230 255
211 230 255
211 230 255
211 230 255
211 230 255
211 230 255
211 230 255
211 230 255
211 230 255
211 230 255
211 230 255
211 230 255
211 230 255
211 230 255
211 230 255
211 230 255
211 230 255
211 230 255
211 230 255
212 230 255
212 230 255
212 230 255
212 230 255
212 230 255
212 230 255
212 230 255
212 230 255
212 230 255
212 230 255
212 230 255
212 230 255
212 230 255
212 230 255
212 230 255
212 230 255
212 230 255
212 230 255
212 230 255
212 231 255
212 231 255
212 231 255
212 231 255
212 231 255
212 231 255
212 231 255
212 231 255
212 231 255
213 231 255
213 231 255
213 231 255
213 231 255
213 231 255
213 231 255
213 231 255
213 231 255
213 231 255
213 231 255
213 231 255
213 231 255
177 196 223
179 200 227
177 198 225
180 200 227
180 201 228
179 201 228
179 200 228
179 200 228
178 200 228
178 200 228
177 199 228
177 199 228
178 200 228
177 199 228
176 199 228
176 199 228
176 199 228
174 198 228
175 198 228
175 198 228
174 198 228
174 198 228
174 198 228
173 197 228
173 197 228
173 197 228
173 197 228
173 197 228
172 197 228
172 196 228
171 196 228
172 197 228
171 196 228
171 196 228
171 196 228
170 196 228
171 196 228
170 196 228
170 195 228
169 195 228
170 195 228
169 195 228
169 195 228
168 195 228
169 195 228
168 194 228
168 194 228
168 194 228
167 194 228
167 194 228
167 194 228
166 194 228
167 194 228
167 194 228
166 194 228
167 194 228
165 193 228
165 193 228
165 193 228
165 193 228
166 193 228
165 193 228
165 193 228
164 193 228
165 193 228
164 192 228
164 193 228
164 193 228
164 192 228
164 192 228
164 192 228
164 192 228
163 192 228
163 192 228
164 192 228
163 192 228
163 192 228
163 192 228
163 192 228
163 192 228
163 192 228
163 192 228
163 192 228
163 192 228
163 192 228
163 192 228
163 192 228
163 192 228
164 192 228
164 192 228
164 192 228
164 192 228
164 193 228
164 193 228
165 193 228
165 193 228
165 193 228
166 193 228
166 193 228
167 194 228
167 194 228
168 194 228
168 195 228
169 195 228
169 195 227
169 193 225
165 189 220
163 186 216
164 187 217
152 172 199
152 170 194
179 197 222
204 224 250
208 228 255
208 228 255
208 228 255
208 228 255
208 228 255
208 228 255
208 228 255
208 228 255
208 228 255
208 228 255
208 228 255
208 228 255
208 228 255
208 228 255
208 228 255
208 228 255
208 228 255
207 228 255
207 228 255
207 228 255
207 228 255
207 228 255
207 228 255
207 228 255
207 228 255
207 228 255
207 228 255
207 228 255
207 228 255
207 228 255
207 228 255
207 228 255
207 228 255
207 227 255
207 227 255
207 227 255
207 227 255
207 227 255
207 227 255
206 227 255
206 227 255
206 227 255
206 227 255
206 227 255
206 227 255
206 227 255
189 205 225
131 130 98
126 124 82
125 124 82
124 122 82
140 138 92
146 143 95
141 139 92
136 135 90
143 141 94
144 142 93
145 143 96
142 140 93
144 142 94
152 150 99
150 148 99
142 141 94
145 143 96
148 147 98
155 152 100
147 145 97
143 140 93
148 146 97
150 148 98
150 148 98
144 142 95
147 146 98
151 149 99
155 152 101
150 147 98
154 151 100
156 154 103
147 145 97
149 147 99
158 155 103
156 154 103
151 149 99
147 145 97
151 149 99
146 145 97
148 147 98
151 149 99
146 144 97
148 145 97
154 152 101
156 154 103
156 153 103
152 149 99
157 154 103
152 150 100
151 149 99
152 149 99
151 149 99
147 145 97
150 148 99
149 147 99
146 144 96
159 155 103
144 143 95
148 146 97
147 145 97
150 148 99
148 146 97
142 140 94
140 138 92
143 140 93
151 148 97
146 143 95
149 147 97
144 141 93
148 146 97
143 141 92
139 136 90
137 134 87
139 137 91
140 138 91
141 138 91
137 135 90
140 137 90
139 137 90
145 144 110
190 207 224
206 227 255
206 227 255
206 227 255
206 227 255
206 227 255
206 227 255
206 227 255
207 227 255
207 227 255
207 227 255
207 227 255
207 227 255
207 227 255
207 228 255
207 228 255
207 228 255
207 228 255
207 228 255
207 228 255
207 228 255
207 228 255
207 228 255
207 228 255
207 228 255
207 228 255
207 228 255
207 228 255
207 228 255
207 228 255
208 228 255
208 228 255
208 228 255
208 228 255
208 228 255
208 228 255
208 228 255
208 228 255
208 228 255
208 228 255
208 228 255
208 228 255
208 228 255
208 228 255
208 228 255
208 228 255
208 228 255
208 228 255
208 228 255
208 228 255
209 228 255
209 229 255
209 229 255
209 229 255
209 229 255
209 229 255
209 229 255
209 229 255
209 229 255
209 229 255
209 229 255
209 229 255
209 229 255
209 229 255
209 229 255
209 229 255
209 229 255
209 229 255
209 229 255
209 229 255
210 229 255
210 229 255
210 229 255
210 229 255
210 229 255
210 229 255
210 229 255
210 229 255
210 229 255
210 229 255
210 229 255
210 229 255
210 229 255
210 229 255
210 229 255
210 229 255
210 229 255
210 229 255
210 229 255
210 230 255
210 230 255
211 230 255
211 230 255
211 230 255
211 230 255
211 230 255
211 230 255
211 230 255
211 230 255
211 230 255
211 230 255
211 230 255
211 230 255
211 230 255
211 230 255
211 230 255
211 230 255
211 230 255
211 230 255
211 230 255
211 230 255
211 230 255
211 230 255
211 230 255
211 230 255
212 230 255
212 230 255
212 230 255
212 230 255
212 230 255
212 230 255
212 230 255
212 230 255
212 230 255
212 230 255
212 230 255
212 230 255
212 230 255
212 230 255
212 230 255
212 230 255
212 230 255
212 230 255
212 230 255
212 231 255
212 231 255
212 231 255
212 231 255
212 231 255
212 231 255
212 231 255
212 231 255
212 231 255
213 231 255
213 231 255
213 231 255
213 231 255
213 231 255
213 231 255
213 231 255
213 231 255
213 231 255
213 231 255
213 231 255
213 231 255
213 231 255
213 231 255
213 231 255
213 231 255
213 231 255
181 202 228
179 200 227
179 200 228
180 201 228
179 200 228
179 200 228
178 200 228
179 200 228
178 199 228
178 200 228
178 200 228
177 199 228
176 199 228
177 199 228
176 199 228
176 198 228
175 198 228
176 198 228
175 198 228
174 198 228
176 198 228
174 198 228
174 198 228
173 197 228
174 198 228
174 198 228
173 197 228
172 197 228
172 197 228
172 197 228
172 196 228
171 196 228
171 196 228
171 196 228
172 196 228
171 196 228
169 195 228
170 195 228
170 195 228
169 195 228
169 195 228
170 195 228
169 195 228
169 195 228
169 195 228
168 194 228
168 194 228
168 195 228
167 194 228
168 194 228
167 194 228
167 194 228
166 194 228
166 194 228
167 194 228
166 194 228
166 193 228
165 193 228
165 193 228
166 193 228
165 193 228
165 193 228
165 193 228
165 193 228
164 193 228
164 193 228
164 192 228
164 192 228
164 192 228
164 192 228
164 192 228
164 192 228
163 192 228
163 192 228
163 192 228
163 192 228
163 192 228
163 192 228
163 192 228
163 192 228
163 192 228
163 192 228
163 192 228
163 192 228
163 192 228
163 192 228
163 192 228
163 192 228
163 192 228
163 192 228
163 192 228
163 192 228
164 192 228
164 192 228
164 193 228
164 192 228
165 193 228
165 193 228
165 193 228
165 193 228
166 193 228
167 194 228
167 194 228
168 194 228
168 195 228
169 195 228
170 195 228
170 195 227
163 186 217
165 188 218
161 182 211
153 174 200
161 180 205
188 207 232
207 227 254
208 228 255
208 228 255
208 228 255
208 228 255
208 228 255
208 228 255
208 228 255
208 228 255
208 228 255
208 228 255
208 228 255
208 228 255
208 228 255
208 228 255
208 228 255
208 228 255
208 228 255
208 228 255
208 228 255
208 228 255
207 228 255
207 228 255
207 228 255
207 228 255
207 228 255
207 228 255
207 228 255
207 228 255
207 228 255
207 228 255
207 228 255
207 228 255
207 228 255
207 228 255
207 228 255
207 228 255
207 228 255
207 227 255
207 227 255
207 227 255
207 227 255
207 227 255
207 227 255
168 181 189
128 127 90
137 134 89
133 131 87
142 139 92
138 135 89
135 133 88
143 140 93
136 133 88
140 137 91
143 141 94
142 140 94
153 151 101
147 145 96
145 143 95
139 137 92
146 142 94
147 144 96
148 146 98
147 145 97
156 153 102
149 146 98
153 150 100
152 149 100
151 149 100
150 147 98
151 149 99
150 147 98
148 146 97
153 151 100
145 143 95
154 152 102
144 142 95
158 155 104
153 151 101
144 142 95
148 146 98
158 155 103
160 158 105
155 153 103
156 154 103
153 152 102
155 153 103
154 152 101
149 148 99
157 154 103
151 150 101
153 151 101
152 150 100
147 145 97
149 147 98
149 147 98
154 152 101
154 152 101
144 143 96
154 151 100
154 152 101
156 153 102
157 154 103
152 150 100
147 145 97
147 144 96
145 142 94
152 149 99
150 148 98
152 150 99
150 148 98
150 148 98
143 141 93
154 151 99
146 143 95
151 147 97
135 133 87
147 144 95
145 142 93
135 133 86
149 145 96
137 134 87
149 146 94
139 136 87
133 131 87
142 140 92
139 138 99
182 197 212
207 227 255
207 227 255
207 227 255
207 227 255
207 227 255
207 227 255
207 228 255
207 228 255
207 228 255
207 228 255
207 228 255
207 228 255
207 228 255
207 228 255
207 228 255
207 228 255
207 228 255
207 228 255
207 228 255
207 228 255
207 228 255
207 228 255
207 228 255
208 228 255
208 228 255
208 228 255
208 228 255
208 228 255
208 228 255
208 228 255
208 228 255
208 228 255
208 228 255
208 228 255
208 228 255
208 228 255
208 228 255
208 228 255
208 228 255
208 228 255
208 228 255
208 228 255
208 228 255
209 228 255
209 228 255
209 229 255
209 229 255
209 229 255
209 229 255
209 229 255
209 229 255
209 229 255
209 229 255
209 229 255
209 229 255
209 229 255
209 229 255
209 229 255
209 229 255
209 229 255
209 229 255
209 229 255
209 229 255
210 229 255
210 229 255
210 229 255
210 229 255
210 229 255
210 229 255
210 229 255
210 229 255
210 229 255
210 229 255
210 229 255
210 229 255
210 229 255
210 229 255
210 229 255
210 229 255
210 229 255
210 229 255
210 229 255
210 230 255
210 230 255
210 230 255
211 230 255
211 230 255
211 230 255
211 230 255
211 230 255
211 230 255
211 230 255
211 230 255
211 230 255
211 230 255
211 230 255
211 230 255
211 230 255
211 230 255
211 230 255
211 230 255
211 230 255
211 230 255
211 230 255
211 230 255
211 230 255
211 230 255
211 230 255
211 230 255
212 230 255
212 230 255
212 230 255
212 230 255
212 230 255
212 230 255
212 230 255
212 230 255
212 230 255
212 230 255
212 230 255
212 230 255
212 230 255
212 230 255
212 230 255
212 230 255
212 230 255
212 230 255
212 230 255
212 231 255
212 231 255
212 231 255
212 231 255
212 231 255
212 231 255
212 231 255
212 231 255
213 231 255
213 231 255
213 231 255
213 231 255
213 231 255
213 231 255
213 231 255
213 231 255
213 231 255
213 231 255
213 231 255
213 231 255
213 231 255
213 231 255
213 231 255
213 231 255
213 231 255
213 231 255
213 231 255
213 231 255
213 231 255
213 231 255
181 201 228
180 201 228
180 201 228
179 200 228
180 201 228
178 200 228
178 200 228
178 200 228
177 199 228
179 200 228
177 199 228
177 199 228
177 199 228
176 199 228
176 199 228
176 199 228
175 198 228
175 198 228
175 198 228
175 198 228
174 198 228
174 198 228
174 198 228
174 198 228
174 197 228
174 197 228
173 197 228
173 197 228
172 197 228
172 197 228
172 197 228
172 197 228
171 196 228
169 195 228
171 196 228
171 196 228
170 195 228
170 196 228
170 195 228
169 195 228
170 195 228
170 195 228
169 195 228
169 195 228
169 195 228
168 195 228
168 194 228
167 194 228
168 194 228
168 194 228
167 194 228
167 194 228
167 194 228
166 194 228
167 194 228
166 194 228
166 193 228
166 193 228
166 193 228
165 193 228
165 193 228
165 193 228
165 193 228
165 193 228
165 193 228
164 192 228
164 192 228
164 192 228
164 193 228
164 192 228
164 192 228
164 192 228
164 192 228
163 192 228
163 192 228
163 192 228
163 192 228
163 192 228
163 192 228
163 192 228
163 192 228
163 192 228
163 192 228
163 192 228
163 192 228
163 192 228
163 192 228
163 192 228
163 192 228
163 192 228
163 192 228
163 192 228
163 192 228
163 192 228
164 192 228
164 192 228
164 192 228
164 192 228
164 193 228
165 193 228
165 193 228
166 193 228
166 193 228
167 194 228
167 194 228
168 194 228
168 195 228
169 195 228
170 196 228
171 195 227
167 191 221
165 188 218
167 189 218
153 173 199
168 186 212
188 206 231
209 229 255
209 229 255
209 228 255
208 228 255
208 228 255
208 228 255
208 228 255
208 228 255
208 228 255
208 228 255
208 228 255
208 228 255
208 228 255
208 228 255
208 228 255
208 228 255
208 228 255
208 228 255
208 228 255
208 228 255
208 228 255
208 228 255
208 228 255
208 228 255
208 228 255
207 228 255
207 228 255
207 228 255
207 228 255
207 228 255
207 228 255
207 228 255
207 228 255
207 228 255
207 228 255
207 228 255
207 228 255
207 228 255
207 228 255
207 228 255
207 227 254
161 170 172
124 121 80
131 128 85
129 127 84
130 128 85
140 138 91
147 144 94
140 139 93
132 130 86
138 136 90
144 142 94
149 147 97
147 145 96
148 146 97
145 142 94
146 144 97
151 149 98
157 155 103
152 150 100
149 147 97
155 152 101
144 142 95
144 142 93
150 148 99
156 153 102
156 153 102
152 149 99
149 146 97
146 144 96
149 147 98
154 152 101
146 144 96
152 149 99
154 152 101
154 152 101
148 146 97
154 152 102
150 148 99
157 155 103
148 146 97
162 159 106
156 152 101
152 149 99
158 156 104
165 162 108
157 155 104
159 155 103
151 149 99
153 152 102
150 149 99
163 161 107
150 148 99
157 155 103
154 151 101
160 157 105
156 154 103
159 156 104
159 156 104
150 149 99
151 149 99
147 144 96
150 147 97
156 152 101
148 145 97
139 137 90
145 143 95
152 149 99
149 146 97
146 143 95
147 144 96
144 142 93
150 147 97
146 143 94
150 147 95
147 145 96
146 144 95
145 142 94
148 145 94
136 133 88
145 141 91
142 139 91
125 122 81
142 139 91
133 129 82
116 114 75
164 173 169
206 226 252
207 228 255
207 228 255
207 228 255
207 228 255
207 228 255
207 228 255
207 228 255
207 228 255
207 228 255
207 228 255
207 228 255
207 228 255
207 228 255
207 228 255
207 228 255
208 228 255
208 228 255
208 228 255
208 228 255
208 228 255
208 228 255
208 228 255
208 228 255
208 228 255
208 228 255
208 228 255
208 228 255
208 228 255
208 228 255
208 228 255
208 228 255
208 228 255
208 228 255
208 228 255
208 228 255
208 228 255
209 228 255
209 228 255
209 229 255
209 229 255
209 229 255
209 229 255
209 229 255
209 229 255
209 229 255
209 229 255
209 229 255
209 229 255
209 229 255
209 229 255
209 229 255
209 229 255
209 229 255
209 229 255
209 229 255
209 229 255
209 229 255
210 229 255
210 229 255
210 229 255
210 229 255
210 229 255
210 229 255
210 229 255
210 229 255
210 229 255
210 229 255
210 229 255
210 229 255
210 229 255
210 229 255
210 229 255
210 229 255
210 229 255
210 229 255
210 229 255
210 230 255
210 230 255
211 230 255
211 230 255
211 230 255
211 230 255
211 230 255
211 230 255
211 230 255
211 230 255
211 230 255
211 230 255
211 230 255
211 230 255
211 230 255
211 230 255
211 230 255
211 230 255
211 230 255
211 230 255
211 230 255
211 230 255
211 230 255
211 230 255
211 230 255
211 230 255
212 230 255
212 230 255
212 230 255
212 230 255
212 230 255
212 230 255
212 230 255
212 230 255
212 230 255
212 230 255
212 230 255
212 230 255
212 230 255
212 230 255
212 230 255
212 230 255
212 230 255
212 230 255
212 230 255
212 231 255
212 231 255
212 231 255
212 231 255
212 231 255
212 231 255
212 231 255
212 231 255
213 231 255
213 231 255
213 231 255
213 231 255
213 231 255
213 231 255
213 231 255
213 231 255
213 231 255
213 231 255
213 231 255
213 231 255
213 231 255
213 231 255
213 231 255
213 231 255
213 231 255
213 231 255
213 231 255
213 231 255
213 231 255
213 231 255
213 231 255
213 231 255
213 231 255
213 231 255
213 231 255
180 201 228
179 200 228
179 200 228
179 200 228
178 200 228
179 200 228
178 200 228
178 200 228
178 199 228
177 199 228
177 199 228
176 199 228
177 199 228
176 198 228
176 199 228
176 198 228
176 198 228
174 197 228
175 198 228
175 198 228
174 198 228
173 197 228
174 198 228
174 197 228
174 197 228
173 197 228
173 197 228
173 197 228
173 197 228
172 197 228
172 196 228
171 196 228
172 196 228
171 196 228
172 196 228
171 196 228
171 196 228
170 196 228
169 195 228
170 195 228
169 195 228
169 195 228
169 195 228
169 195 228
168 194 228
168 194 228
168 195 228
168 194 228
168 194 228
168 194 228
168 194 228
167 194 228
167 194 228
167 194 228
166 194 228
166 194 228
166 193 228
166 193 228
166 193 228
166 193 228
165 193 228
165 193 228
165 193 228
165 193 228
165 193 228
165 193 228
164 193 228
164 193 228
164 193 228
164 192 228
164 192 228
164 192 228
163 192 228
164 192 228
163 192 228
163 192 228
163 192 228
163 192 228
163 192 228
163 192 228
163 192 228
163 192 228
163 192 228
163 192 228
163 192 228
163 192 228
163 192 228
163 192 228
163 192 228
163 192 228
163 192 228
163 192 228
163 192 228
163 192 228
163 192 228
163 192 228
164 192 228
164 192 228
164 192 228
164 192 228
164 193 228
164 193 228
166 193 228
166 193 228
166 194 228
167 194 228
168 194 228
168 194 228
168 195 228
170 195 228
170 195 228
170 195 227
170 194 225
160 183 212
166 188 217
158 179 206
168 187 212
201 221 247
209 229 255
209 229 255
209 229 255
209 229 255
209 229 255
209 228 255
209 228 255
208 228 255
208 228 255
208 228 255
208 228 255
208 228 255
208 228 255
208 228 255
208 228 255
208 228 255
208 228 255
208 228 255
208 228 255
208 228 255
208 228 255
208 228 255
208 228 255
208 228 255
208 228 255
208 228 255
208 228 255
208 228 255
207 228 255
207 228 255
207 228 255
207 228 255
207 228 255
207 228 255
207 228 255
207 228 255
207 228 255
205 226 252
150 155 144
126 124 83
123 122 81
133 131 87
137 134 89
128 126 84
141 139 92
134 132 88
143 140 92
136 135 90
138 136 90
143 140 93
143 139 92
149 145 96
135 134 89
142 140 94
143 141 93
143 141 94
144 141 93
144 142 94
150 148 97
148 145 96
149 147 97
147 145 96
158 154 102
148 146 97
155 152 101
150 147 98
152 149 99
161 157 104
153 151 101
161 159 106
150 148 98
154 152 102
156 153 102
153 151 101
156 154 103
152 149 99
155 153 103
156 153 103
157 155 103
158 154 103
142 140 94
153 150 100
160 157 105
153 150 100
162 160 107
162 159 106
153 150 100
156 155 104
161 157 104
158 156 104
164 161 107
156 152 101
157 154 103
163 160 106
156 154 102
158 156 104
161 158 104
156 153 102
151 148 98
151 149 99
150 147 97
158 155 103
152 149 99
149 147 97
156 154 103
148 144 95
153 150 99
150 148 99
155 153 101
145 142 95
147 144 93
149 146 96
149 147 97
147 144 94
152 149 98
154 151 99
140 137 90
149 146 96
141 138 91
140 137 88
137 134 88
138 135 88
134 131 87
133 129 84
140 136 89
157 162 147
205 225 253
207 228 255
207 228 255
207 228 255
207 228 255
207 228 255
207 228 255
207 228 255
207 228 255
207 228 255
208 228 255
208 228 255
208 228 255
208 228 255
208 228 255
208 228 255
208 228 255
208 228 255
208 228 255
208 228 255
208 228 255
208 228 255
208 228 255
208 228 255
208 228 255
208 228 255
208 228 255
208 228 255
208 228 255
208 228 255
208 228 255
209 228 255
209 228 255
209 229 255
209 229 255
209 229 255
209 229 255
209 229 255
209 229 255
209 229 255
209 229 255
209 229 255
209 229 255
209 229 255
209 229 255
209 229 255
209 229 255
209 229 255
209 229 255
209 229 255
209 229 255
209 229 255
210 229 255
210 229 255
210 229 255
210 229 255
210 229 255
210 229 255
210 229 255
210 229 255
210 229 255
210 229 255
210 229 255
210 229 255
210 229 255
210 229 255
210 229 255
210 229 255
210 229 255
210 229 255
210 229 255
210 229 255
210 230 255
210 230 255
211 230 255
211 230 255
211 230 255
211 230 255
211 230 255
211 230 255
211 230 255
211 230 255
211 230 255
211 230 255
211 230 255
211 230 255
211 230 255
211 230 255
211 230 255
211 230 255
211 230 255
211 230 255
211 230 255
211 230 255
211 230 255
211 230 255
211 230 255
212 230 255
212 230 255
212 230 255
212 230 255
212 230 255
212 230 255
212 230 255
212 230 255
212 230 255
212 230 255
212 230 255
212 230 255
212 230 255
212 230 255
212 230 255
212 230 255
212 230 255
212 230 255
212 230 255
212 231 255
212 231 255
212 231 255
212 231 255
212 231 255
212 231 255
212 231 255
212 231 255
213 231 255
213 231 255
213 231 255
213 231 255
213 231 255
213 231 255
213 231 255
213 231 255
213 231 255
213 231 255
213 231 255
213 231 255
213 231 255
213 231 255
213 231 255
213 231 255
213 231 255
213 231 255
213 231 255
213 231 255
213 231 255
213 231 255
213 231 255
213 231 255
213 231 255
213 231 255
213 231 255
213 231 255
213 231 255
213 231 255
213 231 255
213 231 255
180 201 228
180 201 228
179 200 228
178 200 228
180 201 228
178 200 228
178 200 228
177 199 228
178 199 228
177 199 228
177 199 228
176 199 228
176 199 228
177 199 228
175 198 228
175 198 228
175 198 228
175 198 228
175 198 228
175 198 228
175 198 228
175 198 228
174 198 228
173 197 228
174 198 228
173 197 228
173 197 228
173 197 228
172 197 228
173 197 228
172 196 228
171 196 228
171 196 228
172 196 228
171 196 228
171 196 228
171 196 228
170 196 228
171 196 228
170 196 228
170 195 228
169 195 228
169 195 228
169 195 228
169 195 228
168 194 228
169 195 228
168 195 228
168 194 228
168 194 228
168 194 228
167 194 228
167 194 228
167 194 228
167 194 228
167 194 228
167 194 228
166 193 228
166 193 228
165 193 228
166 193 228
165 193 228
165 193 228
165 193 228
165 193 228
165 193 228
164 193 228
165 193 228
164 192 228
164 192 228
164 192 228
164 192 228
164 192 228
164 192 228
164 192 228
164 192 228
163 192 228
163 192 228
163 192 228
163 192 228
163 192 228
163 192 228
163 192 228
163 192 228
163 192 228
163 192 228
163 192 228
163 192 228
163 192 228
162 192 228
163 192 228
163 192 228
163 192 228
163 192 228
163 192 228
163 192 228
163 192 228
164 192 228
164 192 228
164 192 228
164 192 228
165 193 228
165 193 228
165 193 228
165 193 228
166 193 228
166 194 228
167 194 228
168 194 228
168 194 228
169 195 228
170 195 228
171 196 228
171 195 226
165 188 218
165 188 217
165 187 216
148 166 190
183 202 227
207 227 253
209 229 255
209 229 255
209 229 255
209 229 255
209 229 255
209 229 255
209 229 255
209 229 255
209 228 255
209 228 255
208 228 255
208 228 255
208 228 255
208 228 255
208 228 255
208 228 255
208 228 255
208 228 255
208 228 255
208 228 255
208 228 255
208 228 255
208 228 255
208 228 255
208 228 255
208 228 255
208 228 255
208 228 255
208 228 255
208 228 255
208 228 255
208 228 255
208 228 255
207 228 255
202 222 248
162 169 159
130 127 84
137 134 89
134 132 87
132 130 85
137 135 90
138 135 89
129 127 84
146 144 97
146 143 95
146 143 95
147 145 94
142 139 91
127 125 83
146 144 96
149 146 95
147 145 95
144 142 94
149 146 97
155 151 99
143 141 93
152 149 99
155 152 100
158 154 100
148 145 96
155 152 100
157 154 103
156 153 101
158 155 102
152 148 98
157 155 102
154 151 101
158 156 103
158 155 103
154 152 101
152 150 101
162 158 105
160 157 104
164 161 107
157 154 102
156 154 103
158 155 103
155 153 102
153 150 99
157 155 104
151 148 99
157 155 104
158 155 103
159 156 103
156 153 103
153 150 100
154 151 101
161 159 106
152 149 99
163 159 105
154 152 101
153 151 100
153 150 99
157 155 103
149 147 98
157 154 102
156 153 102
154 152 100
160 156 103
151 148 98
155 153 101
152 150 99
154 151 100
153 149 99
146 144 95
146 144 94
145 141 92
145 142 94
160 157 104
159 155 101
152 150 100
149 146 96
151 148 97
150 147 95
146 143 94
146 143 94
134 133 89
147 144 95
142 138 89
132 129 83
128 126 81
134 132 85
135 132 85
125 120 76
147 152 134
205 225 251
207 228 255
208 228 255
208 228 255
208 228 255
208 228 255
208 228 255
208 228 255
208 228 255
208 228 255
208 228 255
208 228 255
208 228 255
208 228 255
208 228 255
208 228 255
208 228 255
208 228 255
208 228 255
208 228 255
208 228 255
208 228 255
208 228 255
208 228 255
208 228 255
209 228 255
209 228 255
209 229 255
209 229 255
209 229 255
209 229 255
209 229 255
209 229 255
209 229 255
209 229 255
209 229 255
209 229 255
209 229 255
209 229 255
209 229 255
209 229 255
209 229 255
209 229 255
209 229 255
209 229 255
209 229 255
210 229 255
210 229 255
210 229 255
210 229 255
210 229 255
210 229 255
210 229 255
210 229 255
210 229 255
210 229 255
210 229 255
210 229 255
210 229 255
210 229 255
210 229 255
210 229 255
210 229 255
210 229 255
210 229 255
210 229 255
210 230 255
210 230 255
211 230 255
211 230 255
211 230 255
211 230 255
211 230 255
211 230 255
211 230 255
211 230 255
211 230 255
211 230 255
211 230 255
211 230 255
211 230 255
211 230 255
211 230 255
211 230 255
211 230 255
211 230 255
211 230 255
211 230 255
211 230 255
211 230 255
211 230 255
212 230 255
212 230 255
212 230 255
212 230 255
212 230 255
212 230 255
212 230 255
212 230 255
212 230 255
212 230 255
212 230 255
212 230 255
212 230 255
212 230 255
212 230 255
212 230 255
212 230 255
212 230 255
212 230 255
212 231 255
212 231 255
212 231 255
212 231 255
212 231 255
212 231 255
212 231 255
212 231 255
213 231 255
213 231 255
213 231 255
213 231 255
213 231 255
213 231 255
213 231 255
213 231 255
213 231 255
213 231 255
213 231 255
213 231 255
213 231 255
213 231 255
213 231 255
213 231 255
213 231 255
213 231 255
213 231 255
213 231 255
213 231 255
213 231 255
213 231 255
213 231 255
213 231 255
213 231 255
213 231 255
213 231 255
213 231 255
213 231 255
213 231 255
214 231 255
214 231 255
214 231 255
214 231 255
214 231 255
214 231 255
180 201 228
179 200 228
179 200 228
179 200 228
179 200 228
177 199 228
178 200 228
178 200 228
178 200 228
178 200 228
177 199 228
176 199 228
175 198 228
177 199 228
175 198 228
176 198 228
175 198 228
175 198 228
175 198 228
175 198 228
175 198 228
174 198 228
174 198 228
174 198 228
174 198 228
174 197 228
173 197 228
173 197 228
172 197 228
173 197 228
172 197 228
172 197 228
171 196 228
172 196 228
171 196 228
171 196 228
171 196 228
170 196 228
170 196 228
170 196 228
170 195 228
169 195 228
169 195 228
169 195 228
169 195 228
169 195 228
168 195 228
168 195 228
169 195 228
168 194 228
168 194 228
168 194 228
167 194 228
167 194 228
167 194 228
167 194 228
167 194 228
166 194 228
166 194 228
166 194 228
166 193 228
166 193 228
165 193 228
165 193 228
165 193 228
165 193 228
165 193 228
164 193 228
165 193 228
164 193 228
164 192 228
164 192 228
164 192 228
164 192 228
164 192 228
164 192 228
164 192 228
163 192 228
163 192 228
163 192 228
163 192 228
163 192 228
163 192 228
163 192 228
163 192 228
163 192 228
163 192 228
163 192 228
163 192 228
163 192 228
163 192 228
163 192 228
163 192 228
163 192 228
163 192 228
163 192 228
163 192 228
163 192 228
163 192 228
163 192 228
164 192 228
164 192 228
164 192 228
165 193 228
165 193 228
165 193 228
166 193 228
166 193 228
166 194 228
166 194 228
168 194 228
169 195 228
169 195 228
170 196 228
171 196 228
172 196 227
169 192 223
159 180 208
154 173 199
156 173 197
204 224 250
209 229 255
209 229 255
209 229 255
209 229 255
209 229 255
209 229 255
209 229 255
209 229 255
209 229 255
209 229 255
209 229 255
209 229 255
209 229 255
209 228 255
208 228 255
208 228 255
208 228 255
208 228 255
208 228 255
208 228 255
208 228 255
208 228 255
208 228 255
208 228 255
208 228 255
208 228 255
208 228 255
208 228 255
208 228 255
208 228 255
208 228 255
208 228 255
203 222 245
140 144 131
124 122 81
128 127 84
127 125 84
135 133 88
137 134 88
137 135 89
137 135 89
147 144 96
139 137 90
148 145 97
152 149 99
147 144 95
152 149 96
135 133 87
146 143 95
154 151 99
154 151 100
153 150 98
155 152 100
155 153 101
152 149 99
150 147 98
146 143 94
157 154 102
153 151 100
159 156 103
152 150 99
158 154 102
156 152 101
160 157 104
147 145 97
152 149 99
158 155 103
155 153 102
161 158 105
158 155 103
151 149 99
155 153 102
156 153 102
151 147 97
153 150 100
163 159 104
159 156 104
156 153 102
156 151 100
156 153 102
162 159 106
162 159 105
156 152 100
169 166 110
161 157 104
156 153 102
159 155 103
153 150 99
159 157 104
156 153 101
158 156 103
157 154 102
154 151 100
159 156 103
147 144 95
156 152 100
156 154 102
151 149 99
158 154 102
158 156 104
152 148 96
150 146 97
156 153 101
150 146 96
153 150 100
157 153 100
156 152 99
139 138 90
145 142 94
142 140 91
154 150 98
151 148 97
149 147 97
145 143 93
141 138 90
151 148 97
143 139 91
137 132 85
142 138 88
141 139 89
135 132 84
141 138 88
132 130 84
128 125 82
145 150 133
196 215 239
208 228 255
208 228 255
208 228 255
208 228 255
208 228 255
208 228 255
208 228 255
208 228 255
208 228 255
208 228 255
208 228 255
208 228 255
208 228 255
208 228 255
208 228 255
208 228 255
208 228 255
208 228 255
209 228 255
209 228 255
209 229 255
209 229 255
209 229 255
209 229 255
209 229 255
209 229 255
209 229 255
209 229 255
209 229 255
209 229 255
209 229 255
209 229 255
209 229 255
209 229 255
209 229 255
209 229 255
209 229 255
209 229 255
209 229 255
210 229 255
210 229 255
210 229 255
210 229 255
210 229 255
210 229 255
210 229 255
210 229 255
210 229 255
210 229 255
210 229 255
210 229 255
210 229 255
210 229 255
210 229 255
210 229 255
210 229 255
210 229 255
210 229 255
210 229 255
210 230 255
210 230 255
211 230 255
211 230 255
211 230 255
211 230 255
211 230 255
211 230 255
211 230 255
211 230 255
211 230 255
211 230 255
211 230 255
211 230 255
211 230 255
211 230 255
211 230 255
211 230 255
211 230 255
211 230 255
211 230 255
211 230 255
211 230 255
211 230 255
211 230 255
212 230 255
212 230 255
212 230 255
212 230 255
212 230 255
212 230 255
212 230 255
212 230 255
212 230 255
212 230 255
212 230 255
212 230 255
212 230 255
212 230 255
212 230 255
212 230 255
212 230 255
212 230 255
212 230 255
212 231 255
212 231 255
212 231 255
212 231 255
212 231 255
212 231 255
212 231 255
212 231 255
213 231 255
213 231 255
213 231 255
213 231 255
213 231 255
213 231 255
213 231 255
213 231 255
213 231 255
213 231 255
213 231 255
213 231 255
213 231 255
213 231 255
213 231 255
213 231 255
213 231 255
213 231 255
213 231 255
213 231 255
213 231 255
213 231 255
213 231 255
213 231 255
213 231 255
213 231 255
213 231 255
213 231 255
213 231 255
213 231 255
213 231 255
214 231 255
214 231 255
214 231 255
214 231 255
214 231 255
214 231 255
214 231 255
214 231 255
214 231 255
214 231 255
214 231 255
180 201 228
180 201 228
180 201 228
178 200 228
179 200 228
179 200 228
178 200 228
178 199 228
178 200 228
178 200 228
177 199 228
176 199 228
177 199 228
177 199 228
177 199 228
176 199 228
176 199 228
175 198 228
175 198 228
175 198 228
175 198 228
175 198 228
174 198 228
174 198 228
173 197 228
174 198 228
174 197 228
173 197 228
173 197 228
173 197 228
173 197 228
172 196 228
172 197 228
171 196 228
171 196 228
171 196 228
171 196 228
171 196 228
171 196 228
170 196 228
170 196 228
170 195 228
170 196 228
170 195 228
169 195 228
169 195 228
168 195 228
168 195 228
169 195 228
168 195 228
168 194 228
168 194 228
168 194 228
168 194 228
167 194 228
167 194 228
166 194 228
166 193 228
167 194 228
166 193 228
166 193 228
166 193 228
166 193 228
165 193 228
165 193 228
165 193 228
165 193 228
165 193 228
165 193 228
164 193 228
165 193 228
164 192 228
164 192 228
164 192 228
164 192 228
164 192 228
164 192 228
164 192 228
163 192 228
163 192 228
163 192 228
163 192 228
163 192 228
163 192 228
163 192 228
163 192 228
163 192 228
163 192 228
163 192 228
163 192 228
163 192 228
163 192 228
163 192 228
163 192 228
163 192 228
163 192 228
163 192 228
163 192 228
163 192 228
163 192 228
163 192 228
164 192 228
164 192 228
164 193 228
164 193 228
164 193 228
165 193 228
165 193 228
166 194 228
166 194 228
167 194 228
168 195 228
168 194 228
169 195 228
170 196 228
171 196 228
173 197 228
172 195 226
169 192 221
160 181 208
153 172 197
176 193 217
209 228 255
209 229 255
209 229 255
209 229 255
209 229 255
209 229 255
209 229 255
209 229 255
209 229 255
209 229 255
209 229 255
209 229 255
209 229 255
209 229 255
209 229 255
209 229 255
209 229 255
209 228 255
209 228 255
208 228 255
208 228 255
208 228 255
208 228 255
208 228 255
208 228 255
208 228 255
208 228 255
208 228 255
208 228 255
208 228 255
205 224 250
149 154 139
132 129 85
137 135 89
136 134 89
131 129 86
126 124 82
142 138 91
143 140 91
142 140 91
148 146 97
136 134 88
148 146 96
143 140 92
144 141 92
144 141 91
152 149 98
148 145 96
152 149 98
150 147 97
143 140 92
158 155 101
144 140 92
153 151 100
152 148 97
155 152 100
157 154 101
156 154 102
158 155 103
156 152 100
149 146 96
164 160 105
155 152 101
157 154 102
158 156 103
161 158 104
156 154 102
155 152 101
160 156 103
159 156 103
152 150 100
155 153 102
158 156 104
165 161 107
149 147 97
165 162 108
163 160 106
161 158 106
151 149 99
160 156 104
162 158 105
161 157 104
161 157 104
159 156 103
151 148 99
164 160 104
157 154 102
153 149 99
164 160 106
158 154 103
154 151 100
161 158 104
161 158 104
155 152 101
156 153 102
153 151 100
157 154 102
157 153 101
155 153 102
160 156 103
157 154 101
156 152 100
154 151 100
154 151 99
151 147 95
157 153 100
148 144 93
146 143 92
150 146 96
140 138 90
151 149 97
148 146 97
145 141 93
148 144 94
147 144 93
152 148 95
145 142 92
154 151 99
130 127 81
133 131 83
131 128 82
131 129 83
138 136 87
146 142 92
146 150 132
205 224 249
208 228 255
208 228 255
208 228 255
208 228 255
208 228 255
208 228 255
208 228 255
208 228 255
208 228 255
208 228 255
208 228 255
209 228 255
209 229 255
209 229 255
209 229 255
209 229 255
209 229 255
209 229 255
209 229 255
209 229 255
209 229 255
209 229 255
209 229 255
209 229 255
209 229 255
209 229 255
209 229 255
209 229 255
209 229 255
209 229 255
209 229 255
209 229 255
209 229 255
210 229 255
210 229 255
210 229 255
210 229 255
210 229 255
210 229 255
210 229 255
210 229 255
210 229 255
210 229 255
210 229 255
210 229 255
210 229 255
210 229 255
210 229 255
210 229 255
210 229 255
210 229 255
210 229 255
210 229 255
210 230 255
210 230 255
211 230 255
211 230 255
211 230 255
211 230 255
211 230 255
211 230 255
211 230 255
211 230 255
211 230 255
211 230 255
211 230 255
211 230 255
211 230 255
211 230 255
211 230 255
211 230 255
211 230 255
211 230 255
211 230 255
211 230 255
211 230 255
211 230 255
211 230 255
211 230 255
212 230 255
212 230 255
212 230 255
212 230 255
212 230 255
212 230 255
212 230 255
212 230 255
212 230 255
212 230 255
212 230 255
212 230 255
212 230 255
212 230 255
212 230 255
212 230 255
212 230 255
212 231 255
212 231 255
212 231 255
212 231 255
212 231 255
212 231 255
212 231 255
212 231 255
213 231 255
213 231 255
213 231 255
213 231 255
213 231 255
213 231 255
213 231 255
213 231 255
213 231 255
213 231 255
213 231 255
213 231 255
213 231 255
213 231 255
213 231 255
213 231 255
213 231 255
213 231 255
213 231 255
213 231 255
213 231 255
213 231 255
213 231 255
213 231 255
213 231 255
213 231 255
213 231 255
213 231 255
213 231 255
213 231 255
213 231 255
214 231 255
214 231 255
214 231 255
214 231 255
214 231 255
214 231 255
214 231 255
214 231 255
214 231 255
214 231 255
214 231 255
214 231 255
214 231 255
214 231 255
214 231 255
214 231 255
214 231 255
180 201 228
179 201 228
179 200 228
180 201 228
179 200 228
179 200 228
178 200 228
178 200 228
177 199 228
178 200 228
177 199 228
178 200 228
177 199 228
177 199 228
176 199 228
177 199 228
176 199 228
176 198 228
175 198 228
176 198 228
175 198 228
175 198 228
174 198 228
175 198 228
174 197 228
174 197 228
173 197 228
174 197 228
173 197 228
173 197 228
172 197 228
172 197 228
172 197 228
172 196 228
171 196 228
171 196 228
172 196 228
172 196 228
170 196 228
171 196 228
170 196 228
171 196 228
170 196 228
170 195 228
170 195 228
169 195 228
169 195 228
169 195 228
169 195 228
169 195 228
168 194 228
168 195 228
168 194 228
168 194 228
168 195 228
167 194 228
167 194 228
167 194 228
167 194 228
166 194 228
167 194 228
166 194 228
166 193 228
166 193 228
166 193 228
165 193 228
165 193 228
165 193 228
165 193 228
165 193 228
165 193 228
165 193 228
164 192 228
164 192 228
164 193 228
164 192 228
164 192 228
164 192 228
164 192 228
164 192 228
164 192 228
163 192 228
163 192 228
163 192 228
163 192 228
163 192 228
163 192 228
163 192 228
163 192 228
163 192 228
163 192 228
163 192 228
163 192 228
163 192 228
163 192 228
163 192 228
163 192 228
163 192 228
163 192 228
163 192 228
163 192 228
164 192 228
164 192 228
164 192 228
164 193 228
164 193 228
165 193 228
165 193 228
166 193 228
166 194 228
167 194 228
167 194 228
168 194 228
168 194 228
169 195 228
170 195 228
171 196 228
172 196 228
172 196 227
168 191 221
169 190 219
164 185 212
164 183 207
198 217 243
209 229 255
209 229 255
209 229 255
209 229 255
209 229 255
209 229 255
209 229 255
209 229 255
209 229 255
209 229 255
209 229 255
209 229 255
209 229 255
209 229 255
209 229 255
209 229 255
209 229 255
209 229 255
209 229 255
209 229 255
209 229 255
209 228 255
209 228 255
208 228 255
208 228 255
208 228 255
208 228 255
206 226 252
148 153 143
132 129 86
130 127 84
136 133 86
135 132 86
133 131 87
143 140 92
149 147 97
155 152 101
140 137 90
147 144 96
146 143 95
156 153 100
158 155 102
144 141 93
145 141 91
141 138 92
153 150 99
151 149 97
155 151 99
147 144 95
156 153 102
162 159 105
158 155 103
155 152 101
153 149 98
160 156 102
156 153 101
160 157 104
158 155 102
158 154 101
153 151 100
162 159 104
157 154 102
154 151 99
156 152 100
151 148 98
156 153 99
165 160 106
157 154 103
159 155 103
162 159 105
160 157 103
154 150 99
159 156 103
157 154 101
158 154 102
163 159 105
158 154 102
162 159 105
155 153 101
162 158 104
160 158 104
159 157 104
159 155 103
164 160 106
157 154 101
160 156 101
161 158 105
151 149 98
161 159 105
154 152 101
158 154 101
167 163 108
154 151 100
157 154 101
161 158 104
160 157 103
157 153 101
152 150 99
156 152 99
153 151 100
145 141 92
158 155 101
155 151 99
155 152 99
159 155 99
157 154 101
146 144 93
155 152 99
151 149 95
149 145 95
148 145 94
145 142 92
149 146 94
142 140 93
157 152 98
137 134 86
148 144 95
142 138 87
147 143 91
138 136 88
142 139 88
137 134 86
134 130 80
151 155 140
206 226 252
208 228 255
208 228 255
208 228 255
208 228 255
209 228 255
209 229 255
209 229 255
209 229 255
209 229 255
209 229 255
209 229 255
209 229 255
209 229 255
209 229 255
209 229 255
209 229 255
209 229 255
209 229 255
209 229 255
209 229 255
209 229 255
209 229 255
209 229 255
209 229 255
209 229 255
209 229 255
209 229 255
210 229 255
210 229 255
210 229 255
210 229 255
210 229 255
210 229 255
210 229 255
210 229 255
210 229 255
210 229 255
210 229 255
210 229 255
210 229 255
210 229 255
210 229 255
210 229 255
210 229 255
210 229 255
210 229 255
210 229 255
210 230 255
210 230 255
211 230 255
211 230 255
211 230 255
211 230 255
211 230 255
211 230 255
211 230 255
211 230 255
211 230 255
211 230 255
211 230 255
211 230 255
211 230 255
211 230 255
211 230 255
211 230 255
211 230 255
211 230 255
211 230 255
211 230 255
211 230 255
211 230 255
211 230 255
212 230 255
212 230 255
212 230 255
212 230 255
212 230 255
212 230 255
212 230 255
212 230 255
212 230 255
212 230 255
212 230 255
212 230 255
212 230 255
212 230 255
212 230 255
212 230 255
212 230 255
212 230 255
212 231 255
212 231 255
212 231 255
212 231 255
212 231 255
212 231 255
212 231 255
212 231 255
213 231 255
213 231 255
213 231 255
213 231 255
213 231 255
213 231 255
213 231 255
213 231 255
213 231 255
213 231 255
213 231 255
213 231 255
213 231 255
213 231 255
213 231 255
213 231 255
213 231 255
213 231 255
213 231 255
213 231 255
213 231 255
213 231 255
213 231 255
213 231 255
213 231 255
213 231 255
213 231 255
213 231 255
213 231 255
213 231 255
214 231 255
214 231 255
214 231 255
214 231 255
214 231 255
214 231 255
214 231 255
214 231 255
214 231 255
214 231 255
214 231 255
214 231 255
214 231 255
214 231 255
214 231 255
214 231 255
214 231 255
214 231 255
214 232 255
214 232 255
214 232 255
214 232 255
214 232 255
180 201 228
181 201 228
180 201 228
179 200 228
179 200 228
179 200 228
178 200 228
178 200 228
178 200 228
178 200 228
178 200 228
176 199 228
177 199 228
177 199 228
176 198 228
176 199 228
176 199 228
176 199 228
175 198 228
176 199 228
175 198 228
176 198 228
175 198 228
175 198 228
174 198 228
174 198 228
173 197 228
173 197 228
173 197 228
173 197 228
173 197 228
172 196 228
173 197 228
173 197 228
172 197 228
171 196 228
172 196 228
172 196 228
171 196 228
171 196 228
171 196 228
171 196 228
170 195 228
170 196 228
169 195 228
170 195 228
169 195 228
169 195 228
169 195 228
169 195 228
170 195 228
168 195 228
169 195 228
168 194 228
168 194 228
167 194 228
167 194 228
167 194 228
167 194 228
167 194 228
166 194 228
166 194 228
167 194 228
166 193 228
166 194 228
166 193 228
166 193 228
165 193 228
166 193 228
165 193 228
165 193 228
165 193 228
165 193 228
164 193 228
165 193 228
164 192 228
164 192 228
164 192 228
164 192 228
164 192 228
164 192 228
164 192 228
164 192 228
164 192 228
164 192 228
163 192 228
163 192 228
163 192 228
163 192 228
163 192 228
163 192 228
163 192 228
163 192 228
163 192 228
163 192 228
163 192 228
163 192 228
163 192 228
163 192 228
163 192 228
163 192 228
164 192 228
164 193 228
164 192 228
164 192 228
164 193 228
165 193 228
165 193 228
165 193 228
166 193 228
166 193 228
167 194 228
167 194 228
168 194 228
168 195 228
169 195 228
169 195 228
171 196 228
171 196 228
173 197 228
170 194 224
165 187 216
156 176 202
145 162 185
189 207 232
210 229 255
210 229 255
210 229 255
210 229 255
210 229 255
209 229 255
209 229 255
209 229 255
209 229 255
209 229 255
209 229 255
209 229 255
209 229 255
209 229 255
209 229 255
209 229 255
209 229 255
209 229 255
209 229 255
209 229 255
209 229 255
209 229 255
209 229 255
209 229 255
209 229 255
209 229 255
162 171 171
140 138 91
129 127 83
138 134 88
137 135 89
132 130 86
143 139 92
146 143 94
144 141 92
145 142 92
143 141 93
148 144 96
149 146 94
152 148 97
152 150 99
134 132 86
155 151 99
152 148 97
150 148 98
150 147 97
155 152 99
153 150 99
148 145 96
151 148 97
158 155 102
152 149 98
155 152 99
152 149 98
156 153 100
157 154 100
155 152 101
162 159 106
164 160 105
157 154 102
158 154 100
158 154 101
162 159 105
160 157 104
162 158 103
156 153 101
152 150 99
165 161 107
166 163 107
160 156 103
163 160 106
159 156 103
166 162 108
163 159 106
161 157 104
162 158 104
157 153 101
162 160 106
164 161 106
167 163 108
163 159 105
166 162 106
164 161 106
156 153 101
157 154 102
160 157 104
162 158 103
165 161 107
160 156 103
157 154 102
160 156 103
158 153 100
154 152 99
160 156 101
158 155 102
151 147 96
152 149 97
160 156 103
157 154 101
154 151 99
154 152 99
151 147 97
157 154 101
146 142 94
159 155 101
158 154 100
157 154 101
141 137 90
156 152 99
153 150 99
154 149 95
146 142 92
144 141 91
144 140 89
147 144 93
148 144 93
144 139 89
143 139 90
141 138 89
132 130 82
139 136 88
137 134 87
127 123 78
159 166 161
208 227 254
209 229 255
209 229 255
209 229 255
209 229 255
209 229 255
209 229 255
209 229 255
209 229 255
209 229 255
209 229 255
209 229 255
209 229 255
209 229 255
209 229 255
209 229 255
209 229 255
209 229 255
209 229 255
209 229 255
209 229 255
210 229 255
210 229 255
210 229 255
210 229 255
210 229 255
210 229 255
210 229 255
210 229 255
210 229 255
210 229 255
210 229 255
210 229 255
210 229 255
210 229 255
210 229 255
210 229 255
210 229 255
210 229 255
210 229 255
210 229 255
210 229 255
210 230 255
210 230 255
211 230 255
211 230 255
211 230 255
211 230 255
211 230 255
211 230 255
211 230 255
211 230 255
211 230 255
211 230 255
211 230 255
211 230 255
211 230 255
211 230 255
211 230 255
211 230 255
211 230 255
211 230 255
211 230 255
211 230 255
211 230 255
211 230 255
211 230 255
212 230 255
212 230 255
212 230 255
212 230 255
212 230 255
212 230 255
212 230 255
212 230 255
212 230 255
212 230 255
212 230 255
212 230 255
212 230 255
212 230 255
212 230 255
212 230 255
212 230 255
212 230 255
212 231 255
212 231 255
212 231 255
212 231 255
212 231 255
212 231 255
212 231 255
212 231 255
213 231 255
213 231 255
213 231 255
213 231 255
213 231 255
213 231 255
213 231 255
213 231 255
213 231 255
213 231 255
213 231 255
213 231 255
213 231 255
213 231 255
213 231 255
213 231 255
213 231 255
213 231 255
213 231 255
213 231 255
213 231 255
213 231 255
213 231 255
213 231 255
213 231 255
213 231 255
213 231 255
213 231 255
213 231 255
213 231 255
214 231 255
214 231 255
214 231 255
214 231 255
214 231 255
214 231 255
214 231 255
214 231 255
214 231 255
214 231 255
214 231 255
214 231 255
214 231 255
214 231 255
214 231 255
214 231 255
214 231 255
214 231 255
214 232 255
214 232 255
214 232 255
214 232 255
214 232 255
214 232 255
214 232 255
214 232 255
214 232 255
214 232 255
180 201 228
179 200 228
180 201 228
180 201 228
179 200 228
180 201 228
179 200 228
179 200 228
179 200 228
178 200 228
178 200 228
178 199 228
177 199 228
178 200 228
177 199 228
176 199 228
176 198 228
176 199 228
176 199 228
175 198 228
175 198 228
175 198 228
174 198 228
174 198 228
175 198 228
174 198 228
174 198 228
175 198 228
174 198 228
174 197 228
174 198 228
173 197 228
174 198 228
171 196 228
172 197 228
172 196 228
172 197 228
171 196 228
170 196 228
172 197 228
170 196 228
171 196 228
171 196 228
170 196 228
171 196 228
169 195 228
170 195 228
170 195 228
169 195 228
169 195 228
169 195 228
168 194 228
168 194 228
168 195 228
169 195 228
169 195 228
168 194 228
167 194 228
167 194 228
168 194 228
168 194 228
167 194 228
167 194 228
167 194 228
166 194 228
166 193 228
166 193 228
166 193 228
166 194 228
165 193 228
166 193 228
165 193 228
166 193 228
165 193 228
165 193 228
165 193 228
165 193 228
164 193 228
165 193 228
164 193 228
165 193 228
164 192 228
164 192 228
164 192 228
164 192 228
164 192 228
163 192 228
164 192 228
163 192 228
163 192 228
164 192 228
164 192 228
163 192 228
163 192 228
163 192 228
163 192 228
163 192 228
164 192 228
163 192 228
163 192 228
164 192 228
163 192 228
164 192 228
164 192 228
164 193 228
164 193 228
164 192 228
165 193 228
165 193 228
165 193 228
165 193 228
166 194 228
167 194 228
167 194 228
167 194 228
168 194 228
169 195 228
170 195 228
170 196 228
171 196 228
172 197 228
173 196 227
168 189 218
168 190 218
158 178 203
174 192 216
207 226 252
210 229 255
210 229 255
210 229 255
210 229 255
210 229 255
210 229 255
210 229 255
210 229 255
210 229 255
209 229 255
209 229 255
209 229 255
209 229 255
209 229 255
209 229 255
209 229 255
209 229 255
209 229 255
209 229 255
209 229 255
209 229 255
209 229 255
209 229 255
170 181 186
130 128 85
128 125 82
131 129 86
135 133 89
148 145 95
143 140 93
142 140 93
144 141 92
143 141 92
151 149 96
148 144 93
144 141 91
148 145 95
150 147 96
147 144 96
155 152 100
158 154 101
156 152 100
147 144 94
155 151 98
156 152 99
153 149 97
157 153 99
159 155 102
156 153 100
160 157 103
150 147 96
161 156 102
164 161 104
156 154 100
163 159 104
154 150 98
162 158 104
161 157 103
161 157 103
164 161 106
158 155 103
162 158 105
161 157 104
162 158 104
158 155 102
165 161 106
162 159 105
163 159 104
159 156 103
163 159 105
160 156 103
170 165 108
163 158 104
162 158 104
168 164 108
158 155 103
163 158 104
165 161 104
166 161 106
163 158 103
166 162 106
163 159 103
164 161 108
165 161 106
160 156 103
160 157 104
164 161 106
159 156 102
166 162 105
158 155 103
161 158 103
162 158 104
155 152 99
157 154 99
164 161 106
161 157 102
152 149 97
159 156 104
154 152 99
162 158 103
158 154 99
159 155 101
156 153 100
152 149 96
150 146 95
150 146 96
152 149 95
157 153 99
149 145 95
145 142 93
153 148 97
152 148 97
149 146 96
154 149 97
152 149 97
145 142 91
137 133 86
143 139 90
146 141 89
134 130 83
131 127 80
130 127 81
168 179 184
209 229 255
209 229 255
209 229 255
209 229 255
209 229 255
209 229 255
209 229 255
209 229 255
209 229 255
209 229 255
209 229 255
209 229 255
209 229 255
209 229 255
210 229 255
210 229 255
210 229 255
210 229 255
210 229 255
210 229 255
210 229 255
210 229 255
210 229 255
210 229 255
210 229 255
210 229 255
210 229 255
210 229 255
210 229 255
210 229 255
210 229 255
210 229 255
210 229 255
210 229 255
210 229 255
210 230 255
210 230 255
210 230 255
211 230 255
211 230 255
211 230 255
211 230 255
211 230 255
211 230 255
211 230 255
211 230 255
211 230 255
211 230 255
211 230 255
211 230 255
211 230 255
211 230 255
211 230 255
211 230 255
211 230 255
211 230 255
211 230 255
211 230 255
211 230 255
211 230 255
211 230 255
212 230 255
212 230 255
212 230 255
212 230 255
212 230 255
212 230 255
212 230 255
212 230 255
212 230 255
212 230 255
212 230 255
212 230 255
212 230 255
212 230 255
212 230 255
212 230 255
212 230 255
212 230 255
212 231 255
212 231 255
212 231 255
212 231 255
212 231 255
212 231 255
212 231 255
212 231 255
213 231 255
213 231 255
213 231 255
213 231 255
213 231 255
213 231 255
213 231 255
213 231 255
213 231 255
213 231 255
213 231 255
213 231 255
213 231 255
213 231 255
213 231 255
213 231 255
213 231 255
213 231 255
213 231 255
213 231 255
213 231 255
213 231 255
213 231 255
213 231 255
213 231 255
213 231 255
213 231 255
213 231 255
213 231 255
214 231 255
214 231 255
214 231 255
214 231 255
214 231 255
214 231 255
214 231 255
214 231 255
214 231 255
214 231 255
214 231 255
214 231 255
214 231 255
214 231 255
214 231 255
214 231 255
214 231 255
214 231 255
214 232 255
214 232 255
214 232 255
214 232 255
214 232 255
214 232 255
214 232 255
214 232 255
214 232 255
214 232 255
214 232 255
214 232 255
214 232 255
214 232 255
214 232 255
214 232 255
180 201 228
180 201 228
180 201 228
180 201 228
180 201 228
179 200 228
179 200 228
179 200 228
178 200 228
178 200 228
178 200 228
178 200 228
177 199 228
177 199 228
178 200 228
177 199 228
177 199 228
176 199 228
176 199 228
176 199 228
176 199 228
176 199 228
175 198 228
175 198 228
174 198 228
175 198 228
175 198 228
174 197 228
174 198 228
173 197 228
173 197 228
174 198 228
174 197 228
174 197 228
173 197 228
172 197 228
173 197 228
172 196 228
172 196 228
171 196 228
171 196 228
172 196 228
171 196 228
172 196 228
171 196 228
171 196 228
170 195 228
171 196 228
169 195 228
169 195 228
169 195 228
169 195 228
169 195 228
169 195 228
168 195 228
168 195 228
169 195 228
168 195 228
168 195 228
168 194 228
168 194 228
167 194 228
167 194 228
167 194 228
167 194 228
166 194 228
167 194 228
166 194 228
166 194 228
166 193 228
166 193 228
165 193 228
165 193 228
165 193 228
165 193 228
165 193 228
165 193 228
165 193 228
165 193 228
165 193 228
164 193 228
164 193 228
164 193 228
164 192 228
164 193 228
164 192 228
164 192 228
164 192 228
164 192 228
164 192 228
164 192 228
164 192 228
164 192 228
164 192 228
164 192 228
164 192 228
164 192 228
163 192 228
163 192 228
164 192 228
164 192 228
164 192 228
164 192 228
164 192 228
164 193 228
165 193 228
164 192 228
165 193 228
165 193 228
165 193 228
165 193 228
166 194 228
166 194 228
166 194 228
167 194 228
167 194 228
169 195 228
169 195 228
170 195 228
170 196 228
172 197 228
172 197 228
174 198 228
173 195 225
169 190 219
159 178 203
163 181 205
204 222 248
210 229 255
210 229 255
210 229 255
210 229 255
210 229 255
210 229 255
210 229 255
210 229 255
210 229 255
210 229 255
210 229 255
210 229 255
210 229 255
210 229 255
209 229 255
209 229 255
209 229 255
209 229 255
209 229 255
209 229 255
209 229 255
181 195 206
133 130 86
129 126 83
139 137 89
137 134 89
134 132 88
142 139 92
140 137 90
136 133 85
142 139 91
148 144 93
144 140 91
148 145 93
150 146 95
151 148 98
149 146 95
151 146 94
160 156 100
151 148 98
160 156 100
149 147 96
158 155 102
154 151 99
155 151 100
154 151 97
163 160 102
161 158 102
157 153 100
156 153 100
157 154 102
164 160 103
157 153 98
164 160 105
161 157 103
158 154 101
168 163 106
164 160 105
166 161 105
165 161 104
161 158 105
158 154 101
166 161 104
161 158 104
167 163 106
168 164 107
166 162 106
160 156 103
164 161 107
170 166 109
163 159 104
163 159 105
166 163 108
169 165 109
170 164 106
163 159 104
161 158 103
159 155 101
167 163 107
164 161 106
166 162 108
164 159 104
162 159 104
164 161 107
161 157 103
165 161 106
161 157 100
160 157 102
163 159 105
158 154 99
156 153 99
154 151 100
159 156 101
166 162 107
164 160 104
162 159 103
153 149 98
142 140 90
159 155 101
150 146 95
154 150 98
157 153 99
155 151 97
154 150 97
157 153 101
155 151 96
151 148 96
154 152 99
151 147 95
155 150 96
151 148 97
144 142 90
138 135 84
150 146 94
147 143 93
146 142 90
149 146 94
136 133 85
137 133 84
119 116 72
131 128 84
131 127 81
185 198 208
209 229 255
209 229 255
209 229 255
209 229 255
209 229 255
209 229 255
209 229 255
210 229 255
210 229 255
210 229 255
210 229 255
210 229 255
210 229 255
210 229 255
210 229 255
210 229 255
210 229 255
210 229 255
210 229 255
210 229 255
210 229 255
210 229 255
210 229 255
210 229 255
210 229 255
210 229 255
210 229 255
210 229 255
210 230 255
210 230 255
210 230 255
211 230 255
211 230 255
211 230 255
211 230 255
211 230 255
211 230 255
211 230 255
211 230 255
211 230 255
211 230 255
211 230 255
211 230 255
211 230 255
211 230 255
211 230 255
211 230 255
211 230 255
211 230 255
211 230 255
211 230 255
211 230 255
211 230 255
211 230 255
211 230 255
212 230 255
212 230 255
212 230 255
212 230 255
212 230 255
212 230 255
212 230 255
212 230 255
212 230 255
212 230 255
212 230 255
212 230 255
212 230 255
212 230 255
212 230 255
212 230 255
212 230 255
212 231 255
212 231 255
212 231 255
212 231 255
212 231 255
212 231 255
212 231 255
212 231 255
213 231 255
213 231 255
213 231 255
213 231 255
213 231 255
213 231 255
213 231 255
213 231 255
213 231 255
213 231 255
213 231 255
213 231 255
213 231 255
213 231 255
213 231 255
213 231 255
213 231 255
213 231 255
213 231 255
213 231 255
213 231 255
213 231 255
213 231 255
213 231 255
213 231 255
213 231 255
213 231 255
213 231 255
213 231 255
214 231 255
214 231 255
214 231 255
214 231 255
214 231 255
214 231 255
214 231 255
214 231 255
214 231 255
214 231 255
214 231 255
214 231 255
214 231 255
214 231 255
214 231 255
214 231 255
214 231 255
214 231 255
214 232 255
214 232 255
214 232 255
214 232 255
214 232 255
214 232 255
214 232 255
214 232 255
214 232 255
214 232 255
214 232 255
214 232 255
214 232 255
214 232 255
214 232 255
214 232 255
214 232 255
214 232 255
215 232 255
215 232 255
215 232 255
215 232 255
181 201 228
181 201 228
180 201 228
180 201 228
180 201 228
179 200 228
179 200 228
179 200 228
178 200 228
178 200 228
179 200 228
178 200 228
177 199 228
177 199 228
177 199 228
177 199 228
177 199 228
177 199 228
177 199 228
176 199 228
177 199 228
176 198 228
174 198 228
175 198 228
175 198 228
175 198 228
174 198 228
175 198 228
174 198 228
174 197 228
174 198 228
173 197 228
174 198 228
173 197 228
173 197 228
173 197 228
173 197 228
172 197 228
172 196 228
172 196 228
172 197 228
170 196 228
172 196 228
172 196 228
171 196 228
170 196 228
171 196 228
170 196 228
170 196 228
170 196 228
169 195 228
170 195 228
169 195 228
169 195 228
169 195 228
169 195 228
169 195 228
169 195 228
169 195 228
169 195 228
168 194 228
168 194 228
168 194 228
167 194 228
168 194 228
167 194 228
167 194 228
167 194 228
167 194 228
167 194 228
167 194 228
166 194 228
166 193 228
166 193 228
166 193 228
166 194 228
166 193 228
165 193 228
165 193 228
165 193 228
165 193 228
165 193 228
165 193 228
165 193 228
164 193 228
165 193 228
164 192 228
164 192 228
164 192 228
164 193 228
164 192 228
164 192 228
164 193 228
164 192 228
164 192 228
164 192 228
164 192 228
164 192 228
164 192 228
164 192 228
164 193 228
164 192 228
164 193 228
164 193 228
164 193 228
164 193 228
165 193 228
165 193 228
165 193 228
165 193 228
165 193 228
166 193 228
166 194 228
166 194 228
167 194 228
167 194 228
168 195 228
168 194 228
169 195 228
171 196 228
170 195 228
171 196 228
173 197 228
173 197 228
172 194 224
169 191 219
170 191 218
158 176 200
195 213 237
210 229 255
210 229 255
210 229 255
210 229 255
210 229 255
210 229 255
210 229 255
210 229 255
210 229 255
210 229 255
210 229 255
210 229 255
210 229 255
210 229 255
210 229 255
210 229 255
210 229 255
210 229 255
210 229 255
193 210 231
134 133 95
136 134 89
124 122 82
129 127 81
131 128 85
138 135 89
148 144 93
144 142 91
143 140 92
135 131 83
152 149 97
144 141 93
149 145 95
138 136 89
149 145 93
153 150 99
147 144 93
154 149 97
148 145 94
161 156 102
160 156 100
156 154 100
158 154 99
159 154 101
156 152 100
154 150 96
154 150 96
154 150 97
158 154 98
158 154 98
163 159 104
161 158 104
160 157 103
167 162 105
162 159 104
163 161 106
160 156 101
163 159 104
160 157 101
158 154 100
166 161 106
170 165 108
165 161 105
161 157 100
169 164 106
168 164 109
165 161 106
170 167 110
163 158 104
162 158 104
163 159 103
163 159 105
159 155 103
163 159 105
160 155 100
163 159 105
164 161 106
158 153 99
166 162 104
162 159 104
162 158 103
163 158 103
163 159 104
164 160 106
163 160 104
159 155 101
160 157 101
158 155 100
169 165 109
161 158 103
154 151 96
158 155 103
166 161 104
160 156 102
163 159 103
163 158 100
159 155 100
155 151 97
155 152 99
159 155 103
159 155 101
159 154 101
155 151 97
154 149 96
149 146 94
147 144 93
150 147 96
157 153 99
147 144 90
152 149 97
150 146 93
154 150 95
149 145 93
138 134 86
138 136 87
142 139 90
141 137 87
148 144 93
138 133 80
142 138 90
137 133 87
134 131 87
197 214 237
210 229 255
210 229 255
210 229 255
210 229 255
210 229 255
210 229 255
210 229 255
210 229 255
210 229 255
210 229 255
210 229 255
210 229 255
210 229 255
210 229 255
210 229 255
210 229 255
210 229 255
210 229 255
210 229 255
210 229 255
210 229 255
210 230 255
210 230 255
210 230 255
211 230 255
211 230 255
211 230 255
211 230 255
211 230 255
211 230 255
211 230 255
211 230 255
211 230 255
211 230 255
211 230 255
211 230 255
211 230 255
211 230 255
211 230 255
211 230 255
211 230 255
211 230 255
211 230 255
211 230 255
211 230 255
211 230 255
211 230 255
211 230 255
212 230 255
212 230 255
212 230 255
212 230 255
212 230 255
212 230 255
212 230 255
212 230 255
212 230 255
212 230 255
212 230 255
212 230 255
212 230 255
212 230 255
212 230 255
212 230 255
212 230 255
212 230 255
212 231 255
212 231 255
212 231 255
212 231 255
212 231 255
212 231 255
212 231 255
213 231 255
213 231 255
213 231 255
213 231 255
213 231 255
213 231 255
213 231 255
213 231 255
213 231 255
213 231 255
213 231 255
213 231 255
213 231 255
213 231 255
213 231 255
213 231 255
213 231 255
213 231 255
213 231 255
213 231 255
213 231 255
213 231 255
213 231 255
213 231 255
213 231 255
213 231 255
213 231 255
213 231 255
213 231 255
213 231 255
214 231 255
214 231 255
214 231 255
214 231 255
214 231 255
214 231 255
214 231 255
214 231 255
214 231 255
214 231 255
214 231 255
214 231 255
214 231 255
214 231 255
214 231 255
214 231 255
214 231 255
214 232 255
214 232 255
214 232 255
214 232 255
214 232 255
214 232 255
214 232 255
214 232 255
214 232 255
214 232 255
214 232 255
214 232 255
214 232 255
214 232 255
214 232 255
214 232 255
214 232 255
215 232 255
215 232 255
215 232 255
215 232 255
215 232 255
215 232 255
215 232 255
215 232 255
215 232 255
215 232 255
215 232 255
181 201 228
180 201 228
180 201 228
180 201 228
181 201 228
180 201 228
178 200 228
179 200 228
179 200 228
179 200 228
179 200 228
178 200 228
178 200 228
177 199 228
177 199 228
178 200 228
177 199 228
177 199 228
177 199 228
176 199 228
176 199 228
177 199 228
176 198 228
176 199 228
175 198 228
175 198 228
175 198 228
175 198 228
175 198 228
175 198 228
175 198 228
175 198 228
174 198 228
174 198 228
174 198 228
173 197 228
173 197 228
174 197 228
173 197 228
172 196 228
171 196 228
172 196 228
172 197 228
172 197 228
171 196 228
171 196 228
171 196 228
171 196 228
170 196 228
170 196 228
170 196 228
170 196 228
170 196 228
169 195 228
169 195 228
169 195 228
169 195 228
169 195 228
169 195 228
169 195 228
168 195 228
168 195 228
168 195 228
168 194 228
168 194 228
168 194 228
167 194 228
167 194 228
167 194 228
167 194 228
167 194 228
167 194 228
166 194 228
166 194 228
166 193 228
167 194 228
166 194 228
166 193 228
166 193 228
166 193 228
166 193 228
166 193 228
166 193 228
165 193 228
165 193 228
165 193 228
165 193 228
165 193 228
164 193 228
164 193 228
165 193 228
164 193 228
164 192 228
164 193 228
164 192 228
165 193 228
164 192 228
164 193 228
165 193 228
164 193 228
164 192 228
164 193 228
164 193 228
165 193 228
164 193 228
164 193 228
165 193 228
165 193 228
165 193 228
165 193 228
165 193 228
166 193 228
166 194 228
166 194 228
166 194 228
168 194 228
168 194 228
168 195 228
169 195 228
169 195 228
170 195 228
171 196 228
171 196 228
173 197 228
173 197 228
174 197 227
172 195 224
161 181 207
156 174 197
190 207 232
210 230 255
210 230 255
210 230 255
210 229 255
210 229 255
210 229 255
210 229 255
210 229 255
210 229 255
210 229 255
210 229 255
210 229 255
210 229 255
210 229 255
210 229 255
210 229 255
210 229 255
202 221 245
139 141 115
118 116 78
142 138 90
127 125 79
136 134 88
143 140 91
143 139 89
139 136 90
146 143 94
140 137 88
154 150 97
148 144 91
145 143 94
149 146 95
146 143 92
137 133 87
155 151 98
154 150 96
157 153 95
148 143 93
157 154 99
162 158 103
152 148 96
154 150 96
162 158 104
166 160 102
155 152 98
166 162 104
161 157 102
166 162 105
162 158 103
155 152 101
160 156 102
165 161 104
164 159 104
161 157 102
161 156 99
163 159 104
157 153 99
165 161 104
160 156 101
163 160 104
168 165 107
167 163 104
165 161 105
162 158 103
161 158 102
168 164 108
164 159 104
162 157 103
161 157 104
169 165 108
164 160 103
164 159 105
161 159 105
165 161 106
158 154 101
167 164 107
163 159 104
165 161 106
169 164 107
159 156 101
160 156 103
161 157 104
166 160 102
166 162 105
163 158 103
159 155 101
161 157 101
159 155 101
161 158 103
169 164 107
162 158 102
162 158 102
161 157 103
158 154 100
159 155 102
160 155 100
155 150 98
161 156 101
162 158 103
161 157 99
156 154 100
155 151 97
158 154 101
152 147 94
152 148 94
153 149 95
146 143 93
156 152 99
150 147 94
153 149 95
140 137 87
149 146 94
142 138 85
147 143 93
146 142 86
143 140 88
145 141 91
141 137 87
134 130 84
140 136 85
136 132 84
140 139 103
205 224 248
210 229 255
210 229 255
210 229 255
210 229 255
210 229 255
210 229 255
210 229 255
210 229 255
210 229 255
210 229 255
210 229 255
210 229 255
210 229 255
210 229 255
210 230 255
210 230 255
210 230 255
211 230 255
211 230 255
211 230 255
211 230 255
211 230 255
211 230 255
211 230 255
211 230 255
211 230 255
211 230 255
211 230 255
211 230 255
211 230 255
211 230 255
211 230 255
211 230 255
211 230 255
211 230 255
211 230 255
211 230 255
211 230 255
211 230 255
211 230 255
211 230 255
211 230 255
212 230 255
212 230 255
212 230 255
212 230 255
212 230 255
212 230 255
212 230 255
212 230 255
212 230 255
212 230 255
212 230 255
212 230 255
212 230 255
212 230 255
212 230 255
212 230 255
212 230 255
212 231 255
212 231 255
212 231 255
212 231 255
212 231 255
212 231 255
212 231 255
212 231 255
213 231 255
213 231 255
213 231 255
213 231 255
213 231 255
213 231 255
213 231 255
213 231 255
213 231 255
213 231 255
213 231 255
213 231 255
213 231 255
213 231 255
213 231 255
213 231 255
213 231 255
213 231 255
213 231 255
213 231 255
213 231 255
213 231 255
213 231 255
213 231 255
213 231 255
213 231 255
213 231 255
213 231 255
213 231 255
214 231 255
214 231 255
214 231 255
214 231 255
214 231 255
214 231 255
214 231 255
214 231 255
214 231 255
214 231 255
214 231 255
214 231 255
214 231 255
214 231 255
214 231 255
214 231 255
214 232 255
214 232 255
214 232 255
214 232 255
214 232 255
214 232 255
214 232 255
214 232 255
214 232 255
214 232 255
214 232 255
214 232 255
214 232 255
214 232 255
214 232 255
214 232 255
214 232 255
214 232 255
215 232 255
215 232 255
215 232 255
215 232 255
215 232 255
215 232 255
215 232 255
215 232 255
215 232 255
215 232 255
215 232 255
215 232 255
215 232 255
215 232 255
215 232 255
215 232 255
215 232 255
180 201 228
181 201 228
180 201 228
180 201 228
181 201 228
179 200 228
179 200 228
179 200 228
179 200 228
179 200 228
180 201 228
180 201 228
178 200 228
178 200 228
179 200 228
178 200 228
178 200 228
177 199 228
177 199 228
177 199 228
176 199 228
176 199 228
176 199 228
176 199 228
176 198 228
176 199 228
175 198 228
175 198 228
176 199 228
175 198 228
175 198 228
174 198 228
174 198 228
174 198 228
174 198 228
173 197 228
174 197 228
173 197 228
173 197 228
173 197 228
173 197 228
173 197 228
173 197 228
172 197 228
172 197 228
172 196 228
172 197 228
171 196 228
172 196 228
171 196 228
171 196 228
171 196 228
171 196 228
170 195 228
170 196 228
171 196 228
170 195 228
169 195 228
169 195 228
169 195 228
169 195 228
169 195 228
169 195 228
168 194 228
169 195 228
169 195 228
168 194 228
168 194 228
168 195 228
167 194 228
168 194 228
167 194 228
167 194 228
167 194 228
167 194 228
167 194 228
167 194 228
166 193 228
166 194 228
166 194 228
167 194 228
167 194 228
166 193 228
166 193 228
166 193 228
165 193 228
165 193 228
166 193 228
166 193 228
164 193 228
165 193 228
165 193 228
165 193 228
165 193 228
165 193 228
165 193 228
165 193 228
165 193 228
165 193 228
165 193 228
165 193 228
165 193 228
165 193 228
165 193 228
165 193 228
165 193 228
165 193 228
165 193 228
166 193 228
166 193 228
166 193 228
166 194 228
166 193 228
167 194 228
167 194 228
167 194 228
167 194 228
168 194 228
168 195 228
168 195 228
170 195 228
170 196 228
171 196 228
171 196 228
172 196 228
174 198 228
174 198 228
176 198 227
160 179 206
155 174 198
176 193 215
211 230 255
211 230 255
211 230 255
211 230 255
211 230 255
211 230 255
210 230 255
210 230 255
210 230 255
210 229 255
210 229 255
210 229 255
210 229 255
210 229 255
210 229 255
210 229 255
151 158 152
124 122 78
126 124 80
132 129 84
131 129 86
137 134 87
137 135 87
137 135 87
140 137 90
144 141 92
145 143 92
143 141 92
139 136 87
139 136 88
145 142 90
154 151 99
151 148 96
158 154 100
153 149 96
162 158 103
153 150 96
153 150 98
156 153 99
148 145 96
153 149 97
161 156 101
161 157 102
159 155 100
155 152 97
155 151 98
159 155 100
161 158 103
157 154 101
166 161 104
163 159 103
164 159 104
161 158 102
172 166 109
167 163 105
166 162 105
159 156 101
156 153 100
159 155 101
169 165 108
163 159 102
164 160 104
171 166 109
168 164 106
167 163 106
162 158 103
163 159 103
157 154 101
165 161 105
164 160 103
157 154 101
164 160 105
170 165 108
162 158 104
167 162 106
162 158 104
169 163 105
162 158 103
164 160 103
161 158 101
162 158 104
170 166 108
165 161 104
165 161 103
167 163 104
165 161 104
159 156 101
162 159 104
158 155 99
167 162 106
165 161 104
165 159 100
165 161 103
164 160 105
157 153 100
157 154 99
158 155 101
156 152 99
157 153 95
161 158 102
157 154 99
160 155 100
151 148 98
152 148 95
157 152 96
157 152 97
146 143 90
156 151 96
149 146 94
152 148 95
149 145 91
155 151 97
155 152 98
143 139 87
146 142 91
142 139 90
142 138 85
138 135 84
150 145 92
126 122 77
140 136 84
160 165 150
210 229 255
210 229 255
210 229 255
210 229 255
210 229 255
210 229 255
210 229 255
210 229 255
210 230 255
210 230 255
211 230 255
211 230 255
211 230 255
211 230 255
211 230 255
211 230 255
211 230 255
211 230 255
211 230 255
211 230 255
211 230 255
211 230 255
211 230 255
211 230 255
211 230 255
211 230 255
211 230 255
211 230 255
211 230 255
211 230 255
211 230 255
211 230 255
211 230 255
211 230 255
211 230 255
212 230 255
212 230 255
212 230 255
212 230 255
212 230 255
212 230 255
212 230 255
212 230 255
212 230 255
212 230 255
212 230 255
212 230 255
212 230 255
212 230 255
212 230 255
212 230 255
212 230 255
212 230 255
212 231 255
212 231 255
212 231 255
212 231 255
212 231 255
212 231 255
212 231 255
212 231 255
213 231 255
213 231 255
213 231 255
213 231 255
213 231 255
213 231 255
213 231 255
213 231 255
213 231 255
213 231 255
213 231 255
213 231 255
213 231 255
213 231 255
213 231 255
213 231 255
213 231 255
213 231 255
213 231 255
213 231 255
213 231 255
213 231 255
213 231 255
213 231 255
213 231 255
213 231 255
213 231 255
213 231 255
213 231 255
214 231 255
214 231 255
214 231 255
214 231 255
214 231 255
214 231 255
214 231 255
214 231 255
214 231 255
214 231 255
214 231 255
214 231 255
214 231 255
214 231 255
214 231 255
214 231 255
214 232 255
214 232 255
214 232 255
214 232 255
214 232 255
214 232 255
214 232 255
214 232 255
214 232 255
214 232 255
214 232 255
214 232 255
214 232 255
214 232 255
214 232 255
214 232 255
214 232 255
214 232 255
215 232 255
215 232 255
215 232 255
215 232 255
215 232 255
215 232 255
215 232 255
215 232 255
215 232 255
215 232 255
215 232 255
215 232 255
215 232 255
215 232 255
215 232 255
215 232 255
215 232 255
215 232 255
215 232 255
215 232 255
215 232 255
215 232 255
215 232 255
182 202 228
182 202 228
181 201 228
181 201 228
180 201 228
179 200 228
179 200 228
180 201 228
180 201 228
178 200 228
179 200 228
179 200 228
179 200 228
177 199 228
177 199 228
179 200 228
179 200 228
178 199 228
177 199 228
177 199 228
177 199 228
177 199 228
176 199 228
177 199 228
176 199 228
176 199 228
176 198 228
176 198 228
175 198 228
176 199 228
174 198 228
175 198 228
174 198 228
174 198 228
174 198 228
174 198 228
175 198 228
173 197 228
173 197 228
173 197 228
173 197 228
173 197 228
173 197 228
173 197 228
173 197 228
172 196 228
173 197 228
172 197 228
173 197 228
172 196 228
172 196 228
171 196 228
170 195 228
171 196 228
172 196 228
170 195 228
170 196 228
170 195 228
170 196 228
170 195 228
170 195 228
169 195 228
169 195 228
169 195 228
169 195 228
169 195 228
169 195 228
168 194 228
168 195 228
168 195 228
168 195 228
168 194 228
168 195 228
167 194 228
167 194 228
167 194 228
167 194 228
167 194 228
167 194 228
166 194 228
166 194 228
166 194 228
165 193 228
166 193 228
166 194 228
166 193 228
165 193 228
166 193 228
166 193 228
165 193 228
166 193 228
165 193 228
165 193 228
165 193 228
165 193 228
165 193 228
165 193 228
165 193 228
165 193 228
165 193 228
166 193 228
165 193 228
166 193 228
165 193 228
165 193 228
165 193 228
166 193 228
166 193 228
167 194 228
166 193 228
166 193 228
166 193 228
166 193 228
166 194 228
167 194 228
168 194 228
168 194 228
168 195 228
169 195 228
168 195 228
169 195 228
170 195 228
171 196 228
171 196 228
172 197 228
172 197 228
174 197 228
175 198 228
172 194 223
165 185 212
158 177 202
177 194 217
211 230 255
211 230 255
211 230 255
211 230 255
211 230 255
211 230 255
211 230 255
211 230 255
211 230 255
211 230 255
211 230 255
211 230 255
211 230 255
210 230 255
182 196 209
123 122 79
131 129 86
137 135 89
132 130 86
128 125 82
130 127 82
140 138 88
141 137 89
134 130 83
147 143 93
150 147 94
152 149 96
152 149 96
146 144 93
159 154 101
151 147 93
154 151 96
157 153 99
148 145 96
151 147 91
164 160 104
149 146 95
158 154 98
161 157 101
162 158 102
161 157 102
163 160 105
160 156 101
160 155 100
162 157 101
164 158 100
156 151 99
169 165 107
153 149 97
166 162 106
164 160 104
167 163 107
166 161 106
163 159 102
161 158 102
161 158 103
169 165 106
160 156 100
163 160 105
160 156 102
169 164 106
169 164 106
165 161 104
163 160 104
169 165 107
169 165 108
169 164 105
165 160 104
164 160 104
161 156 101
166 161 101
162 159 102
162 157 101
172 167 109
164 159 104
162 157 102
167 163 106
163 159 102
163 158 102
166 161 104
158 154 99
162 159 104
168 163 106
165 161 104
167 162 106
166 162 106
160 156 99
159 155 101
158 155 101
161 156 101
162 158 101
161 157 100
164 159 103
155 152 96
167 163 107
157 152 96
159 155 99
157 152 98
162 157 99
151 147 94
159 156 100
156 151 97
159 156 97
150 147 93
154 150 97
157 153 97
155 151 96
149 145 95
156 152 95
154 150 95
154 149 94
144 140 88
151 148 97
144 140 89
150 145 89
154 149 95
144 139 87
118 115 71
126 122 78
133 130 80
130 127 81
180 192 198
210 230 255
210 230 255
211 230 255
211 230 255
211 230 255
211 230 255
211 230 255
211 230 255
211 230 255
211 230 255
211 230 255
211 230 255
211 230 255
211 230 255
211 230 255
211 230 255
211 230 255
211 230 255
211 230 255
211 230 255
211 230 255
211 230 255
211 230 255
211 230 255
211 230 255
211 230 255
211 230 255
211 230 255
212 230 255
212 230 255
212 230 255
212 230 255
212 230 255
212 230 255
212 230 255
212 230 255
212 230 255
212 230 255
212 230 255
212 230 255
212 230 255
212 230 255
212 230 255
212 230 255
212 230 255
212 230 255
212 231 255
212 231 255
212 231 255
212 231 255
212 231 255
212 231 255
212 231 255
212 231 255
213 231 255
213 231 255
213 231 255
213 231 255
213 231 255
213 231 255
213 231 255
213 231 255
213 231 255
213 231 255
213 231 255
213 231 255
213 231 255
213 231 255
213 231 255
213 231 255
213 231 255
213 231 255
213 231 255
213 231 255
213 231 255
213 231 255
213 231 255
213 231 255
213 231 255
213 231 255
213 231 255
213 231 255
214 231 255
214 231 255
214 231 255
214 231 255
214 231 255
214 231 255
214 231 255
214 231 255
214 231 255
214 231 255
214 231 255
214 231 255
214 231 255
214 231 255
214 231 255
214 231 255
214 231 255
214 232 255
214 232 255
214 232 255
214 232 255
214 232 255
214 232 255
214 232 255
214 232 255
214 232 255
214 232 255
214 232 255
214 232 255
214 232 255
214 232 255
214 232 255
214 232 255
214 232 255
215 232 255
215 232 255
215 232 255
215 232 255
215 232 255
215 232 255
215 232 255
215 232 255
215 232 255
215 232 255
215 232 255
215 232 255
215 232 255
215 232 255
215 232 255
215 232 255
215 232 255
215 232 255
215 232 255
215 232 255
215 232 255
215 232 255
215 232 255
215 232 255
215 232 255
215 232 255
215 232 255
215 232 255
215 232 255
215 232 255
181 202 228
182 202 228
181 201 228
181 201 228
180 201 228
180 201 228
179 200 228
181 201 228
180 201 228
179 200 228
179 200 228
179 200 228
179 200 228
179 200 228
178 200 228
179 200 228
178 200 228
177 199 228
178 199 228
177 199 228
178 200 228
177 199 228
177 199 228
176 199 228
177 199 228
177 199 228
176 199 228
176 198 228
176 198 228
176 199 228
175 198 228
176 198 228
175 198 228
175 198 228
175 198 228
175 198 228
175 198 228
174 198 228
174 198 228
174 198 228
174 198 228
173 197 228
173 197 228
172 197 228
173 197 228
172 197 228
173 197 228
173 197 228
172 197 228
172 197 228
171 196 228
173 197 228
171 196 228
172 196 228
172 196 228
171 196 228
171 196 228
170 196 228
170 196 228
171 196 228
170 195 228
170 196 228
170 195 228
170 195 228
169 195 228
169 195 228
169 195 228
169 195 228
169 195 228
169 195 228
169 195 228
168 195 228
168 194 228
167 194 228
168 194 228
168 194 228
168 194 228
167 194 228
167 194 228
167 194 228
167 194 228
166 193 228
167 194 228
167 194 228
166 194 228
167 194 228
167 194 228
166 194 228
166 193 228
166 193 228
167 194 228
166 193 228
166 194 228
166 193 228
165 193 228
166 193 228
166 193 228
165 193 228
166 193 228
166 193 228
166 193 228
165 193 228
166 193 228
166 193 228
166 193 228
166 193 228
166 193 228
166 194 228
166 193 228
166 193 228
167 194 228
166 194 228
167 194 228
167 194 228
167 194 228
167 194 228
167 194 228
168 195 228
168 194 228
169 195 228
170 195 228
169 195 228
170 196 228
171 196 228
172 197 228
173 197 228
174 198 228
175 198 228
176 199 228
171 192 220
175 196 224
156 174 198
181 199 222
211 230 255
211 230 255
211 230 255
211 230 255
211 230 255
211 230 255
211 230 255
211 230 255
211 230 255
211 230 255
211 230 255
211 230 255
199 216 237
130 129 94
143 140 91
131 127 82
131 129 84
146 143 92
133 130 82
147 143 90
144 141 89
136 133 84
145 141 90
147 143 91
151 147 96
144 141 93
152 148 95
150 147 95
150 147 95
147 143 88
149 145 91
153 149 93
154 150 96
157 154 100
157 153 100
158 154 100
157 153 97
163 158 101
160 156 99
166 163 107
157 153 98
170 165 107
166 161 103
159 155 99
167 163 105
164 160 105
171 166 108
156 152 98
164 160 103
164 159 103
165 159 101
162 158 101
161 157 102
169 163 106
166 161 104
168 163 106
162 158 101
169 165 106
170 165 108
167 162 103
170 164 106
170 165 108
161 158 103
173 167 106
173 168 109
165 161 106
171 165 107
174 169 109
173 167 109
165 161 104
169 164 107
165 161 104
168 164 106
168 164 106
170 164 106
165 160 102
169 163 106
172 167 108
162 158 103
167 163 104
161 156 102
161 158 102
161 158 103
166 162 104
167 163 106
162 157 100
165 160 103
165 160 103
167 162 103
164 159 101
165 161 104
162 158 101
156 153 95
155 151 96
158 154 97
162 156 101
164 159 102
159 155 99
157 152 96
159 155 99
156 152 95
162 158 98
155 150 94
150 147 94
149 145 91
158 154 97
156 152 97
155 151 94
155 150 93
149 144 92
154 150 94
154 149 92
148 144 91
146 142 90
136 133 84
141 137 87
141 137 89
137 133 80
135 131 80
133 129 78
134 132 87
203 220 242
211 230 255
211 230 255
211 230 255
211 230 255
211 230 255
211 230 255
211 230 255
211 230 255
211 230 255
211 230 255
211 230 255
211 230 255
211 230 255
211 230 255
211 230 255
211 230 255
211 230 255
211 230 255
211 230 255
211 230 255
212 230 255
212 230 255
212 230 255
212 230 255
212 230 255
212 230 255
212 230 255
212 230 255
212 230 255
212 230 255
212 230 255
212 230 255
212 230 255
212 230 255
212 230 255
212 230 255
212 230 255
212 230 255
212 230 255
212 231 255
212 231 255
212 231 255
212 231 255
212 231 255
212 231 255
212 231 255
212 231 255
213 231 255
213 231 255
213 231 255
213 231 255
213 231 255
213 231 255
213 231 255
213 231 255
213 231 255
213 231 255
213 231 255
213 231 255
213 231 255
213 231 255
213 231 255
213 231 255
213 231 255
213 231 255
213 231 255
213 231 255
213 231 255
213 231 255
213 231 255
213 231 255
213 231 255
213 231 255
213 231 255
213 231 255
214 231 255
214 231 255
214 231 255
214 231 255
214 231 255
214 231 255
214 231 255
214 231 255
214 231 255
214 231 255
214 231 255
214 231 255
214 231 255
214 231 255
214 231 255
214 231 255
214 232 255
214 232 255
214 232 255
214 232 255
214 232 255
214 232 255
214 232 255
214 232 255
214 232 255
214 232 255
214 232 255
214 232 255
214 232 255
214 232 255
214 232 255
214 232 255
214 232 255
214 232 255
215 232 255
215 232 255
215 232 255
215 232 255
215 232 255
215 232 255
215 232 255
215 232 255
215 232 255
215 232 255
215 232 255
215 232 255
215 232 255
215 232 255
215 232 255
215 232 255
215 232 255
215 232 255
215 232 255
215 232 255
215 232 255
215 232 255
215 232 255
215 232 255
215 232 255
215 232 255
215 232 255
215 232 255
215 232 255
215 232 255
215 232 255
215 232 255
215 232 255
215 232 255
215 232 255
215 232 255
182 202 228
181 201 228
182 202 228
181 201 228
180 201 228
180 201 228
181 201 228
180 201 228
180 201 228
180 201 228
179 200 228
179 200 228
179 200 228
179 200 228
178 200 228
178 200 228
178 200 228
178 200 228
179 200 228
178 200 228
177 199 228
178 200 228
177 199 228
177 199 228
178 200 228
177 199 228
177 199 228
177 199 228
175 198 228
176 199 228
176 198 228
176 199 228
175 198 228
175 198 228
175 198 228
174 198 228
175 198 228
174 198 228
174 198 228
174 198 228
174 198 228
174 197 228
174 198 228
174 198 228
173 197 228
173 197 228
173 197 228
172 197 228
172 197 228
173 197 228
173 197 228
172 197 228
172 197 228
172 197 228
172 196 228
172 196 228
171 196 228
172 196 228
171 196 228
171 196 228
170 196 228
171 196 228
171 196 228
170 195 228
170 195 228
170 195 228
170 195 228
169 195 228
170 195 228
169 195 228
169 195 228
169 195 228
169 195 228
169 195 228
168 195 228
169 195 228
168 194 228
168 195 228
168 194 228
168 194 228
168 195 228
168 194 228
168 194 228
167 194 228
168 194 228
167 194 228
167 194 228
167 194 228
167 194 228
167 194 228
167 194 228
166 194 228
166 194 228
166 194 228
166 194 228
167 194 228
167 194 228
167 194 228
166 193 228
167 194 228
166 193 228
166 194 228
166 194 228
166 193 228
167 194 228
166 194 228
166 194 228
166 194 228
167 194 228
167 194 228
166 194 228
167 194 228
167 194 228
167 194 228
167 194 228
167 194 228
168 194 228
168 195 228
167 194 228
169 195 228
169 195 228
170 195 228
170 196 228
171 196 228
172 197 228
172 197 228
173 197 228
173 197 228
174 197 228
176 198 228
175 197 225
172 193 220
160 179 204
181 198 221
211 230 255
211 230 255
211 230 255
211 230 255
211 230 255
211 230 255
211 230 255
211 230 255
211 230 255
211 230 255
211 230 255
152 156 144
128 125 83
128 125 78
134 131 86
133 130 85
136 134 86
138 136 90
144 140 90
142 140 88
153 149 97
155 151 97
145 142 91
145 143 92
144 140 89
147 143 91
149 145 94
152 148 97
156 152 98
161 157 100
148 145 93
149 147 97
162 158 100
155 151 97
160 156 101
155 151 94
158 153 98
160 155 99
160 156 101
165 160 102
160 155 101
161 157 102
163 158 101
166 161 103
161 157 103
165 161 102
167 162 106
157 154 98
166 162 103
166 162 103
168 163 103
165 160 102
171 166 106
167 162 105
163 159 102
167 163 104
169 165 106
170 166 108
167 162 105
164 159 102
165 161 104
167 162 101
169 164 106
168 164 104
167 163 104
168 164 104
163 159 103
164 160 103
168 163 106
167 163 105
166 163 107
175 168 109
164 158 101
161 157 101
166 162 105
164 160 102
168 163 106
165 160 104
166 162 104
160 156 100
164 160 104
162 159 103
164 160 101
166 161 103
166 162 104
163 158 103
164 159 101
165 161 104
160 155 99
160 156 99
160 156 100
161 157 102
164 160 103
160 157 101
164 159 102
169 164 105
161 156 99
162 158 99
152 148 94
160 155 97
165 160 101
160 157 97
161 156 100
153 148 95
151 147 92
152 149 94
148 144 93
143 139 87
153 148 93
146 142 87
152 148 94
152 148 90
148 144 92
156 151 92
145 141 90
137 132 82
140 136 87
138 133 80
148 144 90
134 131 84
161 166 154
211 230 255
211 230 255
211 230 255
211 230 255
211 230 255
211 230 255
211 230 255
211 230 255
211 230 255
211 230 255
211 230 255
211 230 255
211 230 255
212 230 255
212 230 255
212 230 255
212 230 255
212 230 255
212 230 255
212 230 255
212 230 255
212 230 255
212 230 255
212 230 255
212 230 255
212 230 255
212 230 255
212 230 255
212 230 255
212 230 255
212 230 255
212 230 255
212 231 255
212 231 255
212 231 255
212 231 255
212 231 255
212 231 255
212 231 255
212 231 255
212 231 255
213 231 255
213 231 255
213 231 255
213 231 255
213 231 255
213 231 255
213 231 255
213 231 255
213 231 255
213 231 255
213 231 255
213 231 255
213 231 255
213 231 255
213 231 255
213 231 255
213 231 255
213 231 255
213 231 255
213 231 255
213 231 255
213 231 255
213 231 255
213 231 255
213 231 255
213 231 255
213 231 255
213 231 255
214 231 255
214 231 255
214 231 255
214 231 255
214 231 255
214 231 255
214 231 255
214 231 255
214 231 255
214 231 255
214 231 255
214 231 255
214 231 255
214 231 255
214 231 255
214 231 255
214 232 255
214 232 255
214 232 255
214 232 255
214 232 255
214 232 255
214 232 255
214 232 255
214 232 255
214 232 255
214 232 255
214 232 255
214 232 255
214 232 255
214 232 255
214 232 255
214 232 255
215 232 255
215 232 255
215 232 255
215 232 255
215 232 255
215 232 255
215 232 255
215 232 255
215 232 255
215 232 255
215 232 255
215 232 255
215 232 255
215 232 255
215 232 255
215 232 255
215 232 255
215 232 255
215 232 255
215 232 255
215 232 255
215 232 255
215 232 255
215 232 255
215 232 255
215 232 255
215 232 255
215 232 255
215 232 255
215 232 255
215 232 255
215 232 255
215 232 255
215 232 255
215 232 255
215 232 255
215 232 255
215 232 255
215 232 255
215 232 255
216 232 255
216 232 255
216 232 255
182 202 228
182 202 228
182 202 228
182 202 228
182 202 228
181 201 228
181 201 228
180 201 228
180 201 228
180 201 228
179 200 228
180 201 228
180 201 228
179 200 228
180 201 228
179 200 228
179 200 228
179 200 228
179 200 228
179 200 228
178 200 228
178 200 228
177 199 228
178 200 228
177 199 228
177 199 228
176 199 228
177 199 228
177 199 228
176 199 228
177 199 228
177 199 228
177 199 228
176 199 228
176 199 228
175 198 228
175 198 228
175 198 228
175 198 228
175 198 228
176 198 228
175 198 228
175 198 228
175 198 228
174 198 228
173 197 228
174 197 228
174 197 228
173 197 228
173 197 228
172 197 228
172 197 228
172 197 228
173 197 228
172 197 228
172 197 228
172 196 228
172 196 228
172 197 228
172 197 228
171 196 228
171 196 228
171 196 228
171 196 228
171 196 228
171 196 228
170 196 228
170 196 228
170 196 228
170 196 228
170 195 228
169 195 228
170 195 228
170 195 228
169 195 228
169 195 228
169 195 228
169 195 228
168 195 228
169 195 228
169 195 228
168 194 228
168 194 228
168 194 228
168 195 228
168 194 228
168 194 228
168 195 228
168 194 228
168 194 228
167 194 228
167 194 228
168 195 228
167 194 228
167 194 228
167 194 228
167 194 228
166 194 228
167 194 228
167 194 228
167 194 228
167 194 228
167 194 228
167 194 228
167 194 228
167 194 228
167 194 228
167 194 228
167 194 228
167 194 228
166 194 228
167 194 228
167 194 228
168 194 228
168 194 228
168 195 228
168 194 228
168 194 228
169 195 228
169 195 228
169 195 228
170 195 228
170 196 228
172 196 228
171 196 228
172 196 228
172 197 228
173 197 228
174 198 228
176 199 228
177 199 228
178 200 228
170 189 216
160 178 202
180 197 220
212 230 255
212 230 255
212 230 255
212 230 255
211 230 255
211 230 255
211 230 255
211 230 255
211 230 255
184 197 211
124 122 78
126 124 81
132 129 84
142 139 89
139 137 89
144 140 90
145 142 93
143 140 90
135 131 80
149 146 93
148 144 91
144 140 90
147 144 93
150 146 92
153 150 98
142 139 87
145 142 91
157 153 97
148 145 93
152 147 93
142 140 90
156 153 97
156 151 98
159 155 97
165 161 102
161 157 100
164 160 99
156 152 97
164 159 103
167 162 102
165 162 104
161 156 99
158 154 98
163 159 102
165 160 102
167 162 104
166 162 104
168 163 105
171 166 106
161 157 101
164 160 103
167 162 104
167 163 106
161 157 100
165 162 106
163 158 99
169 164 104
169 164 107
169 165 108
169 164 103
166 161 105
164 160 103
169 165 108
170 165 104
170 165 106
168 163 106
168 163 104
170 166 107
166 161 103
165 161 104
169 164 104
166 161 103
163 159 101
167 162 104
168 164 106
164 159 101
165 161 101
171 165 105
171 165 104
171 165 106
173 167 106
171 166 106
170 165 104
168 163 104
162 158 102
167 162 105
167 162 105
164 159 97
155 152 96
167 162 103
155 151 96
158 153 98
162 158 101
159 155 98
162 158 99
158 153 97
161 155 96
160 155 101
153 148 94
165 160 101
162 157 99
153 150 93
157 152 98
157 153 95
153 148 93
149 145 92
143 140 89
157 153 95
155 150 95
151 147 94
147 143 87
148 144 89
139 136 87
136 132 80
144 140 86
133 128 81
136 132 83
139 136 86
139 134 82
118 115 71
183 195 204
211 230 255
211 230 255
211 230 255
211 230 255
211 230 255
212 230 255
212 230 255
212 230 255
212 230 255
212 230 255
212 230 255
212 230 255
212 230 255
212 230 255
212 230 255
212 230 255
212 230 255
212 230 255
212 230 255
212 230 255
212 230 255
212 230 255
212 230 255
212 230 255
212 231 255
212 231 255
212 231 255
212 231 255
212 231 255
212 231 255
212 231 255
212 231 255
212 231 255
213 231 255
213 231 255
213 231 255
213 231 255
213 231 255
213 231 255
213 231 255
213 231 255
213 231 255
213 231 255
213 231 255
213 231 255
213 231 255
213 231 255
213 231 255
213 231 255
213 231 255
213 231 255
213 231 255
213 231 255
213 231 255
213 231 255
213 231 255
213 231 255
213 231 255
213 231 255
213 231 255
213 231 255
214 231 255
214 231 255
214 231 255
214 231 255
214 231 255
214 231 255
214 231 255
214 231 255
214 231 255
214 231 255
214 231 255
214 231 255
214 231 255
214 231 255
214 231 255
214 231 255
214 232 255
214 232 255
214 232 255
214 232 255
214 232 255
214 232 255
214 232 255
214 232 255
214 232 255
214 232 255
214 232 255
214 232 255
214 232 255
214 232 255
214 232 255
214 232 255
214 232 255
215 232 255
215 232 255
215 232 255
215 232 255
215 232 255
215 232 255
215 232 255
215 232 255
215 232 255
215 232 255
215 232 255
215 232 255
215 232 255
215 232 255
215 232 255
215 232 255
215 232 255
215 232 255
215 232 255
215 232 255
215 232 255
215 232 255
215 232 255
215 232 255
215 232 255
215 232 255
215 232 255
215 232 255
215 232 255
215 232 255
215 232 255
215 232 255
215 232 255
215 232 255
215 232 255
215 232 255
215 232 255
215 232 255
215 232 255
215 232 255
216 232 255
216 232 255
216 232 255
216 232 255
216 232 255
216 232 255
216 232 255
216 232 255
216 232 255
216 232 255
183 202 228
182 202 228
181 202 228
183 202 228
181 201 228
182 202 228
182 202 228
182 202 228
181 201 228
181 201 228
180 201 228
180 201 228
180 201 228
180 201 228
181 201 228
179 200 228
180 201 228
180 201 228
179 200 228
178 200 228
179 200 228
178 200 228
178 200 228
178 200 228
178 200 228
178 200 228
177 199 228
177 199 228
177 199 228
176 199 228
177 199 228
177 199 228
175 198 228
176 199 228
176 199 228
176 199 228
175 198 228
176 198 228
175 198 228
176 198 228
175 198 228
176 198 228
175 198 228
175 198 228
175 198 228
174 198 228
174 198 228
174 198 228
175 198 228
173 197 228
174 197 228
173 197 228
173 197 228
173 197 228
173 197 228
173 197 228
173 197 228
172 197 228
172 197 228
172 196 228
171 196 228
171 196 228
171 196 228
171 196 228
171 196 228
171 196 228
172 196 228
171 196 228
170 196 228
171 196 228
170 196 228
170 196 228
170 196 228
170 195 228
170 195 228
170 195 228
169 195 228
170 196 228
170 195 228
170 196 228
169 195 228
169 195 228
169 195 228
168 195 228
169 195 228
169 195 228
169 195 228
169 195 228
168 194 228
168 194 228
168 195 228
168 194 228
168 194 228
168 194 228
168 194 228
168 194 228
168 194 228
167 194 228
167 194 228
168 194 228
168 194 228
168 194 228
168 194 228
167 194 228
167 194 228
167 194 228
167 194 228
167 194 228
168 194 228
167 194 228
168 194 228
168 194 228
167 194 228
168 194 228
168 195 228
168 195 228
168 195 228
169 195 228
169 195 228
169 195 228
170 195 228
170 195 228
170 196 228
170 196 228
172 196 228
172 196 228
172 197 228
173 197 228
174 197 228
175 198 228
176 199 228
177 199 228
176 198 226
170 190 217
161 179 203
186 202 225
212 230 255
212 230 255
212 230 255
212 230 255
212 230 255
212 230 255
212 230 255
206 224 248
134 136 112
127 124 79
140 136 86
129 127 82
136 134 87
146 143 94
144 140 90
143 139 88
146 142 88
142 138 90
152 148 94
155 152 97
139 136 87
155 151 96
160 155 99
150 146 93
149 144 90
150 147 93
161 155 99
146 143 90
157 152 97
154 152 95
152 148 94
154 150 95
164 159 100
160 156 101
161 156 98
160 155 99
165 161 102
160 155 97
161 156 101
150 147 95
161 158 100
166 160 103
169 164 107
167 163 104
167 162 102
162 158 101
169 165 104
171 165 106
168 163 102
166 162 106
170 166 105
165 161 103
170 165 106
170 165 104
171 166 105
169 165 107
168 163 104
166 161 103
169 163 104
169 165 105
162 158 97
167 162 104
169 164 105
173 168 106
167 163 104
170 166 107
167 163 104
174 169 106
169 164 106
171 166 105
169 164 103
166 161 104
173 168 110
170 165 104
167 161 101
166 162 103
168 164 104
169 164 103
164 158 100
162 157 100
175 170 110
165 160 100
172 166 106
165 161 104
165 162 104
165 161 99
162 157 100
158 154 99
169 164 105
160 156 99
164 159 100
163 158 99
157 152 95
160 156 98
153 150 93
157 154 99
161 155 98
161 156 95
159 155 97
155 151 97
149 146 95
159 155 99
154 150 94
155 149 93
155 151 96
157 153 98
156 152 97
154 150 95
150 146 89
156 152 93
154 150 93
138 135 84
154 149 95
148 143 92
147 141 87
136 133 82
136 133 85
134 130 78
135 132 82
146 147 122
207 225 248
212 230 255
212 230 255
212 230 255
212 230 255
212 230 255
212 230 255
212 230 255
212 230 255
212 230 255
212 230 255
212 230 255
212 230 255
212 230 255
212 230 255
212 230 255
212 230 255
212 230 255
212 231 255
212 231 255
212 231 255
212 231 255
212 231 255
212 231 255
212 231 255
212 231 255
213 231 255
213 231 255
213 231 255
213 231 255
213 231 255
213 231 255
213 231 255
213 231 255
213 231 255
213 231 255
213 231 255
213 231 255
213 231 255
213 231 255
213 231 255
213 231 255
213 231 255
213 231 255
213 231 255
213 231 255
213 231 255
213 231 255
213 231 255
213 231 255
213 231 255
213 231 255
213 231 255
213 231 255
214 231 255
214 231 255
214 231 255
214 231 255
214 231 255
214 231 255
214 231 255
214 231 255
214 231 255
214 231 255
214 231 255
214 231 255
214 231 255
214 231 255
214 231 255
214 231 255
214 232 255
214 232 255
214 232 255
214 232 255
214 232 255
214 232 255
214 232 255
214 232 255
214 232 255
214 232 255
214 232 255
214 232 255
214 232 255
214 232 255
214 232 255
214 232 255
214 232 255
215 232 255
215 232 255
215 232 255
215 232 255
215 232 255
215 232 255
215 232 255
215 232 255
215 232 255
215 232 255
215 232 255
215 232 255
215 232 255
215 232 255
215 232 255
215 232 255
215 232 255
215 232 255
215 232 255
215 232 255
215 232 255
215 232 255
215 232 255
215 232 255
215 232 255
215 232 255
215 232 255
215 232 255
215 232 255
215 232 255
215 232 255
215 232 255
215 232 255
215 232 255
215 232 255
215 232 255
215 232 255
215 232 255
215 232 255
216 232 255
216 232 255
216 232 255
216 232 255
216 232 255
216 232 255
216 232 255
216 232 255
216 232 255
216 232 255
216 232 255
216 232 255
216 232 255
216 232 255
216 233 255
216 233 255
216 233 255
216 233 255
183 202 228
182 202 228
182 202 228
182 202 228
182 202 228
181 202 228
181 201 228
181 201 228
181 202 228
181 201 228
181 201 228
180 201 228
180 201 228
180 201 228
180 201 228
179 200 228
179 200 228
180 201 228
180 201 228
179 200 228
179 200 228
179 200 228
178 200 228
178 200 228
179 200 228
178 200 228
177 199 228
178 200 228
178 200 228
178 199 228
177 199 228
178 200 228
177 199 228
179 200 228
176 199 228
177 199 228
177 199 228
176 199 228
177 199 228
176 198 228
176 199 228
176 198 228
176 199 228
175 198 228
175 198 228
176 198 228
175 198 228
175 198 228
175 198 228
175 198 228
174 197 228
174 197 228
174 198 228
174 198 228
173 197 228
173 197 228
173 197 228
173 197 228
173 197 228
172 197 228
172 197 228
172 197 228
173 197 228
172 196 228
172 196 228
171 196 228
171 196 228
172 197 228
171 196 228
171 196 228
171 196 228
171 196 228
172 196 228
170 195 228
171 196 228
171 196 228
170 196 228
170 196 228
170 196 228
170 196 228
170 195 228
169 195 228
170 195 228
170 195 228
169 195 228
169 195 228
170 195 228
170 195 228
169 195 228
169 195 228
169 195 228
169 195 228
169 195 228
169 195 228
168 194 228
168 194 228
168 194 228
168 195 228
168 194 228
168 194 228
168 194 228
168 194 228
168 195 228
168 194 228
169 195 228
168 194 228
168 194 228
168 194 228
168 195 228
169 195 228
169 195 228
168 194 228
168 195 228
169 195 228
168 194 228
169 195 228
169 195 228
169 195 228
170 195 228
169 195 228
170 196 228
170 196 228
170 195 228
172 196 228
171 196 228
172 197 228
172 197 228
173 197 228
174 197 228
174 197 228
176 199 228
176 199 228
177 199 227
177 198 226
168 187 213
160 178 202
195 213 236
212 230 255
212 230 255
212 230 255
212 230 255
212 230 255
212 230 255
170 180 187
133 130 85
127 125 82
135 132 84
129 126 81
128 125 81
138 135 86
143 139 90
138 135 84
149 145 90
152 148 94
154 149 93
145 141 89
156 151 97
151 147 93
154 149 94
152 148 95
161 157 100
153 149 92
155 151 92
149 144 91
158 154 95
160 156 101
161 157 98
159 156 99
163 158 99
158 153 98
163 158 100
161 155 100
156 152 96
168 163 105
162 159 102
163 159 102
170 165 104
162 158 98
162 157 101
169 165 106
165 161 102
166 162 104
168 164 103
167 162 104
167 163 104
166 162 104
168 163 103
171 165 104
168 164 105
168 163 105
168 163 104
168 163 104
172 166 105
171 166 109
174 169 107
170 166 107
164 159 101
167 163 102
169 165 106
173 168 107
164 159 101
170 165 105
167 163 103
173 169 110
173 167 106
171 165 106
170 165 106
168 164 103
168 163 107
168 163 106
172 167 105
160 156 100
163 158 100
171 166 104
164 160 99
166 161 103
166 161 101
166 162 101
168 163 103
169 163 103
165 161 99
169 165 106
166 162 104
166 161 103
161 157 99
168 162 104
159 155 97
163 159 101
159 156 100
164 158 101
163 158 101
160 154 91
166 160 101
163 157 97
157 152 95
165 160 100
158 154 96
162 157 97
163 158 101
156 152 95
157 151 96
162 156 100
154 150 93
144 140 88
151 148 90
156 150 95
149 145 89
148 144 87
147 143 88
142 138 87
154 149 93
138 133 80
140 137 83
135 131 81
143 139 85
142 137 83
171 182 190
212 230 255
212 230 255
212 230 255
212 230 255
212 230 255
212 230 255
212 230 255
212 230 255
212 230 255
212 231 255
212 231 255
212 231 255
212 231 255
212 231 255
212 231 255
212 231 255
212 231 255
212 231 255
213 231 255
213 231 255
213 231 255
213 231 255
213 231 255
213 231 255
213 231 255
213 231 255
213 231 255
213 231 255
213 231 255
213 231 255
213 231 255
213 231 255
213 231 255
213 231 255
213 231 255
213 231 255
213 231 255
213 231 255
213 231 255
213 231 255
213 231 255
213 231 255
213 231 255
213 231 255
213 231 255
213 231 255
213 231 255
214 231 255
214 231 255
214 231 255
214 231 255
214 231 255
214 231 255
214 231 255
214 231 255
214 231 255
214 231 255
214 231 255
214 231 255
214 231 255
214 231 255
214 231 255
214 232 255
214 232 255
214 232 255
214 232 255
214 232 255
214 232 255
214 232 255
214 232 255
214 232 255
214 232 255
214 232 255
214 232 255
214 232 255
214 232 255
214 232 255
214 232 255
214 232 255
215 232 255
215 232 255
215 232 255
215 232 255
215 232 255
215 232 255
215 232 255
215 232 255
215 232 255
215 232 255
215 232 255
215 232 255
215 232 255
215 232 255
215 232 255
215 232 255
215 232 255
215 232 255
215 232 255
215 232 255
215 232 255
215 232 255
215 232 255
215 232 255
215 232 255
215 232 255
215 232 255
215 232 255
215 232 255
215 232 255
215 232 255
215 232 255
215 232 255
215 232 255
215 232 255
215 232 255
215 232 255
215 232 255
216 232 255
216 232 255
216 232 255
216 232 255
216 232 255
216 232 255
216 232 255
216 232 255
216 232 255
216 232 255
216 232 255
216 232 255
216 232 255
216 232 255
216 232 255
216 233 255
216 233 255
216 233 255
216 233 255
216 233 255
216 233 255
216 233 255
216 233 255
216 233 255
216 233 255
216 233 255
183 202 228
184 203 228
182 202 228
182 202 228
182 202 228
182 202 228
182 202 228
181 201 228
182 202 228
181 202 228
182 202 228
182 202 228
181 201 228
180 201 228
180 201 228
181 201 228
180 201 228
180 201 228
180 201 228
180 201 228
179 200 228
179 200 228
179 200 228
180 201 228
179 200 228
179 200 228
180 201 228
179 200 228
178 200 228
178 200 228
178 200 228
178 200 228
178 200 228
178 200 228
178 200 228
177 199 228
177 199 228
177 199 228
177 199 228
177 199 228
177 199 228
176 199 228
176 199 228
176 198 228
176 198 228
176 199 228
174 198 228
175 198 228
175 198 228
175 198 228
174 198 228
175 198 228
174 198 228
174 197 228
173 197 228
175 198 228
174 198 228
174 197 228
173 197 228
174 197 228
173 197 228
174 197 228
173 197 228
173 197 228
173 197 228
173 197 228
172 197 228
172 197 228
172 197 228
173 197 228
172 197 228
172 197 228
171 196 228
171 196 228
172 196 228
172 196 228
171 196 228
171 196 228
171 196 228
171 196 228
170 196 228
171 196 228
170 196 228
170 196 228
170 195 228
170 195 228
170 195 228
169 195 228
170 195 228
170 195 228
170 196 228
169 195 228
169 195 228
169 195 228
169 195 228
170 195 228
169 195 228
169 195 228
169 195 228
169 195 228
169 195 228
168 195 228
169 195 228
168 195 228
169 195 228
169 195 228
168 195 228
168 195 228
169 195 228
169 195 228
169 195 228
168 195 228
169 195 228
169 195 228
169 195 228
169 195 228
170 195 228
169 195 228
170 195 228
170 196 228
170 195 228
171 196 228
170 196 228
171 196 228
172 196 228
172 196 228
173 197 228
172 197 228
173 197 228
175 198 228
174 198 228
177 199 228
177 199 228
178 200 228
177 198 226
167 186 212
156 172 194
204 222 246
212 231 255
212 231 255
212 231 255
212 231 255
203 220 241
124 121 83
136 134 88
134 131 82
136 133 86
139 135 85
131 128 82
140 137 88
151 147 92
139 136 87
143 139 86
144 140 88
152 148 93
152 148 94
149 144 90
153 149 94
151 147 94
155 150 92
158 154 98
151 147 89
146 142 88
153 150 97
157 152 97
152 148 93
166 160 100
156 151 95
158 154 98
162 157 100
156 152 96
161 156 99
162 157 99
162 158 99
167 162 100
164 159 99
167 162 100
162 158 102
162 158 99
164 159 99
164 159 102
166 160 100
168 163 104
165 161 104
169 164 103
165 159 101
166 162 102
168 162 102
169 164 103
169 164 106
164 159 102
172 166 103
168 163 104
170 166 103
173 168 108
169 165 104
172 166 108
172 168 106
170 166 107
168 164 106
170 166 104
170 165 105
170 165 106
171 167 107
174 169 106
168 164 104
169 163 103
171 165 103
170 164 104
169 164 104
166 161 100
168 163 103
168 163 103
167 162 102
166 161 101
170 164 102
165 160 101
166 163 105
171 165 106
164 160 99
161 158 99
165 160 101
162 157 99
164 159 101
161 157 101
165 159 103
168 163 102
167 161 101
162 157 99
161 155 98
159 154 97
166 161 99
164 158 99
164 159 97
156 152 92
161 156 96
151 146 90
157 154 97
149 145 89
151 146 93
158 153 97
152 147 90
152 148 90
156 151 93
146 141 86
154 149 90
148 144 89
152 147 90
144 140 87
144 140 87
145 140 86
135 130 80
141 137 80
138 135 84
142 137 86
131 128 80
137 133 83
206 222 241
212 231 255
212 231 255
212 231 255
212 231 255
212 231 255
212 231 255
212 231 255
212 231 255
213 231 255
213 231 255
213 231 255
213 231 255
213 231 255
213 231 255
213 231 255
213 231 255
213 231 255
213 231 255
213 231 255
213 231 255
213 231 255
213 231 255
213 231 255
213 231 255
213 231 255
213 231 255
213 231 255
213 231 255
213 231 255
213 231 255
213 231 255
213 231 255
213 231 255
213 231 255
213 231 255
213 231 255
213 231 255
213 231 255
213 231 255
214 231 255
214 231 255
214 231 255
214 231 255
214 231 255
214 231 255
214 231 255
214 231 255
214 231 255
214 231 255
214 231 255
214 231 255
214 231 255
214 231 255
214 231 255
214 231 255
214 232 255
214 232 255
214 232 255
214 232 255
214 232 255
214 232 255
214 232 255
214 232 255
214 232 255
214 232 255
214 232 255
214 232 255
214 232 255
214 232 255
214 232 255
215 232 255
215 232 255
215 232 255
215 232 255
215 232 255
215 232 255
215 232 255
215 232 255
215 232 255
215 232 255
215 232 255
215 232 255
215 232 255
215 232 255
215 232 255
215 232 255
215 232 255
215 232 255
215 232 255
215 232 255
215 232 255
215 232 255
215 232 255
215 232 255
215 232 255
215 232 255
215 232 255
215 232 255
215 232 255
215 232 255
215 232 255
215 232 255
215 232 255
215 232 255
215 232 255
215 232 255
215 232 255
215 232 255
215 232 255
216 232 255
216 232 255
216 232 255
216 232 255
216 232 255
216 232 255
216 232 255
216 232 255
216 232 255
216 232 255
216 232 255
216 232 255
216 232 255
216 232 255
216 233 255
216 233 255
216 233 255
216 233 255
216 233 255
216 233 255
216 233 255
216 233 255
216 233 255
216 233 255
216 233 255
216 233 255
216 233 255
216 233 255
216 233 255
216 233 255
216 233 255
216 233 255
216 233 255
184 203 228
183 202 228
183 202 228
183 202 228
182 202 228
183 202 228
182 202 228
182 202 228
183 202 228
182 202 228
183 202 228
182 202 228
182 202 228
182 202 228
181 201 228
180 201 228
180 201 228
180 201 228
180 201 228
181 202 228
181 201 228
180 201 228
181 201 228
179 200 228
179 200 228
180 201 228
179 200 228
179 200 228
178 200 228
179 200 228
178 200 228
178 200 228
178 200 228
178 200 228
178 200 228
178 200 228
177 199 228
177 199 228
177 199 228
177 199 228
177 199 228
177 199 228
177 199 228
177 199 228
177 199 228
176 199 228
176 199 228
175 198 228
175 198 228
175 198 228
175 198 228
175 198 228
175 198 228
174 197 228
175 198 228
174 198 228
174 198 228
174 198 228
174 198 228
174 198 228
175 198 228
174 198 228
173 197 228
173 197 228
174 198 228
173 197 228
173 197 228
173 197 228
172 197 228
172 197 228
173 197 228
172 197 228
172 197 228
172 197 228
172 197 228
171 196 228
172 197 228
172 196 228
172 196 228
172 196 228
171 196 228
171 196 228
171 196 228
171 196 228
171 196 228
170 196 228
171 196 228
170 196 228
170 196 228
170 196 228
170 196 228
170 195 228
170 196 228
169 195 228
170 195 228
170 195 228
169 195 228
169 195 228
169 195 228
170 196 228
169 195 228
170 195 228
170 195 228
169 195 228
170 195 228
169 195 228
169 195 228
170 195 228
170 195 228
169 195 228
169 195 228
169 195 228
169 195 228
170 195 228
170 195 228
170 195 228
170 196 228
171 196 228
170 195 228
170 195 228
171 196 228
171 196 228
171 196 228
171 196 228
172 197 228
172 197 228
173 197 228
174 197 228
173 197 228
174 198 228
175 198 228
176 199 228
176 199 228
178 199 228
178 200 228
176 196 223
172 191 217
168 185 208
209 226 251
213 231 255
213 231 255
213 231 255
161 169 169
129 126 83
124 121 79
134 131 84
136 133 85
139 136 84
138 135 82
141 138 87
136 133 86
155 151 97
149 146 92
145 142 91
146 142 91
156 151 97
149 146 92
148 145 93
155 151 98
153 148 94
153 150 97
155 151 94
153 148 95
151 148 93
159 155 97
160 155 95
160 154 99
156 151 93
163 159 98
162 157 98
157 153 99
162 157 97
165 160 99
166 161 102
167 161 104
160 155 97
172 167 105
166 161 104
167 163 103
166 161 101
164 159 99
167 162 102
167 162 103
165 161 104
170 164 103
169 164 101
173 167 102
168 163 104
169 164 104
172 167 106
170 165 103
171 166 106
174 168 109
167 162 101
169 164 104
171 166 106
170 165 104
173 168 106
169 164 104
167 162 103
170 165 104
178 171 108
167 162 103
169 164 104
169 163 102
174 168 105
172 167 104
167 163 104
167 162 101
166 161 99
172 167 107
169 162 103
168 165 107
167 163 105
169 165 104
167 162 101
168 164 101
164 160 99
166 161 102
164 158 98
165 161 102
167 162 98
163 157 97
164 160 99
168 163 104
162 159 101
166 161 101
164 159 97
170 166 106
167 161 99
166 161 103
161 157 99
171 165 103
160 155 95
164 160 101
161 157 95
155 151 95
162 157 99
157 152 94
151 147 93
155 151 93
161 156 98
154 149 88
158 153 95
154 148 93
152 147 89
152 147 93
147 142 93
157 151 92
149 145 84
148 143 84
148 143 87
146 142 87
139 135 84
141 136 84
142 137 81
122 119 72
164 172 169
213 231 255
213 231 255
213 231 255
213 231 255
213 231 255
213 231 255
213 231 255
213 231 255
213 231 255
213 231 255
213 231 255
213 231 255
213 231 255
213 231 255
213 231 255
213 231 255
213 231 255
213 231 255
213 231 255
213 231 255
213 231 255
213 231 255
213 231 255
213 231 255
213 231 255
213 231 255
213 231 255
213 231 255
213 231 255
213 231 255
213 231 255
214 231 255
214 231 255
214 231 255
214 231 255
214 231 255
214 231 255
214 231 255
214 231 255
214 231 255
214 231 255
214 231 255
214 231 255
214 231 255
214 231 255
214 231 255
214 231 255
214 232 255
214 232 255
214 232 255
214 232 255
214 232 255
214 232 255
214 232 255
214 232 255
214 232 255
214 232 255
214 232 255
214 232 255
214 232 255
214 232 255
214 232 255
214 232 255
215 232 255
215 232 255
215 232 255
215 232 255
215 232 255
215 232 255
215 232 255
215 232 255
215 232 255
215 232 255
215 232 255
215 232 255
215 232 255
215 232 255
215 232 255
215 232 255
215 232 255
215 232 255
215 232 255
215 232 255
215 232 255
215 232 255
215 232 255
215 232 255
215 232 255
215 232 255
215 232 255
215 232 255
215 232 255
215 232 255
215 232 255
215 232 255
215 232 255
215 232 255
215 232 255
215 232 255
215 232 255
216 232 255
216 232 255
216 232 255
216 232 255
216 232 255
216 232 255
216 232 255
216 232 255
216 232 255
216 232 255
216 232 255
216 232 255
216 232 255
216 232 255
216 233 255
216 233 255
216 233 255
216 233 255
216 233 255
216 233 255
216 233 255
216 233 255
216 233 255
216 233 255
216 233 255
216 233 255
216 233 255
216 233 255
216 233 255
216 233 255
216 233 255
216 233 255
216 233 255
216 233 255
216 233 255
216 233 255
216 233 255
216 233 255
216 233 255
216 233 255
216 233 255
216 233 255
183 203 228
184 203 228
183 203 228
183 202 228
183 203 228
183 202 228
183 202 228
183 202 228
182 202 228
183 202 228
182 202 228
181 202 228
182 202 228
182 202 228
181 201 228
181 201 228
181 201 228
182 202 228
181 201 228
180 201 228
181 202 228
180 201 228
180 201 228
180 201 228
179 200 228
179 201 228
179 200 228
179 200 228
180 201 228
179 200 228
179 200 228
178 200 228
179 200 228
178 200 228
177 199 228
178 200 228
178 200 228
177 199 228
179 200 228
177 199 228
177 199 228
177 199 228
177 199 228
177 199 228
177 199 228
177 199 228
177 199 228
176 199 228
176 198 228
176 199 228
176 199 228
176 199 228
176 199 228
176 198 228
176 199 228
175 198 228
176 198 228
175 198 228
174 197 228
174 198 228
173 197 228
174 198 228
175 198 228
174 198 228
174 198 228
174 198 228
174 198 228
174 198 228
173 197 228
173 197 228
174 198 228
173 197 228
173 197 228
172 197 228
172 197 228
173 197 228
173 197 228
172 197 228
172 197 228
172 197 228
172 197 228
172 196 228
172 197 228
172 197 228
171 196 228
171 196 228
172 196 228
172 197 228
171 196 228
171 196 228
171 196 228
171 196 228
171 196 228
172 197 228
171 196 228
170 196 228
170 195 228
171 196 228
170 196 228
171 196 228
170 195 228
170 196 228
170 196 228
170 196 228
169 195 228
170 195 228
170 195 228
171 196 228
170 195 228
170 196 228
170 195 228
170 196 228
169 195 228
169 195 228
170 196 228
171 196 228
171 196 228
171 196 228
171 196 228
170 196 228
171 196 228
171 196 228
171 196 228
172 197 228
172 197 228
173 197 228
172 197 228
173 197 228
174 198 228
175 198 228
174 198 228
176 198 228
176 199 228
177 199 228
180 201 228
179 200 227
176 195 221
166 183 207
169 186 208
213 231 255
213 231 255
200 216 236
109 108 76
132 129 83
138 135 86
129 125 80
143 139 88
133 130 84
148 144 91
138 135 83
129 126 77
151 147 92
145 140 88
144 141 87
153 149 92
139 134 87
145 140 88
155 149 93
144 139 88
140 137 86
150 144 90
152 148 93
161 156 95
156 151 94
155 151 93
162 157 97
157 152 96
164 158 97
160 156 99
161 156 97
158 153 93
169 163 102
165 160 99
162 157 98
167 163 102
170 165 105
165 159 100
166 161 102
163 159 99
167 161 101
167 162 101
171 166 105
167 162 103
163 159 99
172 167 104
165 160 100
170 165 105
167 162 99
170 165 105
165 160 100
168 163 104
168 164 101
170 165 103
175 170 109
171 164 103
172 166 104
167 162 104
172 167 104
169 165 100
170 165 106
168 164 105
171 166 105
174 169 109
170 165 106
168 163 101
174 168 106
170 165 102
174 169 107
173 167 104
169 164 101
168 163 104
171 166 102
171 166 104
168 162 101
174 169 107
166 162 102
170 165 105
166 161 101
164 159 97
173 168 104
169 163 101
167 161 99
169 163 100
166 161 101
169 164 103
166 160 100
169 163 101
165 160 101
161 156 95
161 156 101
164 158 101
161 155 95
162 157 97
160 156 98
153 148 91
165 160 99
166 160 97
163 157 96
156 151 93
154 149 94
160 156 97
153 147 90
155 150 93
157 152 97
150 146 89
150 145 90
152 147 90
152 148 91
142 137 83
149 143 88
152 147 88
149 144 89
143 138 85
134 130 77
136 130 78
142 135 81
131 127 80
130 126 75
206 222 240
213 231 255
213 231 255
213 231 255
213 231 255
213 231 255
213 231 255
213 231 255
213 231 255
213 231 255
213 231 255
213 231 255
213 231 255
213 231 255
213 231 255
213 231 255
213 231 255
213 231 255
213 231 255
213 231 255
213 231 255
213 231 255
213 231 255
214 231 255
214 231 255
214 231 255
214 231 255
214 231 255
214 231 255
214 231 255
214 231 255
214 231 255
214 231 255
214 231 255
214 231 255
214 231 255
214 231 255
214 231 255
214 231 255
214 232 255
214 232 255
214 232 255
214 232 255
214 232 255
214 232 255
214 232 255
214 232 255
214 232 255
214 232 255
214 232 255
214 232 255
214 232 255
214 232 255
214 232 255
214 232 255
215 232 255
215 232 255
215 232 255
215 232 255
215 232 255
215 232 255
215 232 255
215 232 255
215 232 255
215 232 255
215 232 255
215 232 255
215 232 255
215 232 255
215 232 255
215 232 255
215 232 255
215 232 255
215 232 255
215 232 255
215 232 255
215 232 255
215 232 255
215 232 255
215 232 255
215 232 255
215 232 255
215 232 255
215 232 255
215 232 255
215 232 255
215 232 255
215 232 255
215 232 255
215 232 255
215 232 255
215 232 255
215 232 255
216 232 255
216 232 255
216 232 255
216 232 255
216 232 255
216 232 255
216 232 255
216 232 255
216 232 255
216 232 255
216 232 255
216 232 255
216 232 255
216 233 255
216 233 255
216 233 255
216 233 255
216 233 255
216 233 255
216 233 255
216 233 255
216 233 255
216 233 255
216 233 255
216 233 255
216 233 255
216 233 255
216 233 255
216 233 255
216 233 255
216 233 255
216 233 255
216 233 255
216 233 255
216 233 255
216 233 255
216 233 255
216 233 255
216 233 255
216 233 255
216 233 255
216 233 255
216 233 255
216 233 255
216 233 255
216 233 255
216 233 255
216 233 255
217 233 255
184 203 228
184 203 228
184 203 228
185 203 228
183 202 228
183 202 228
183 203 228
183 202 228
183 202 228
182 202 228
183 203 228
182 202 228
181 202 228
183 203 228
182 202 228
182 202 228
182 202 228
182 202 228
182 202 228
181 201 228
181 201 228
181 202 228
181 202 228
180 201 228
180 201 228
180 201 228
180 201 228
181 201 228
179 200 228
181 201 228
180 201 228
180 201 228
179 200 228
179 200 228
180 201 228
179 200 228
179 200 228
178 200 228
179 200 228
178 200 228
179 200 228
178 200 228
178 200 228
177 199 228
177 199 228
177 199 228
178 200 228
177 199 228
177 199 228
176 199 228
177 199 228
178 200 228
176 199 228
176 199 228
176 199 228
177 199 228
176 199 228
176 199 228
175 198 228
176 199 228
175 198 228
175 198 228
175 198 228
175 198 228
175 198 228
174 198 228
175 198 228
174 198 228
174 198 228
175 198 228
174 198 228
173 197 228
174 198 228
173 197 228
173 197 228
174 197 228
173 197 228
173 197 228
173 197 228
172 197 228
172 197 228
174 197 228
173 197 228
173 197 228
172 197 228
172 197 228
172 196 228
172 197 228
172 197 228
172 196 228
172 197 228
172 196 228
170 196 228
171 196 228
172 196 228
171 196 228
172 196 228
171 196 228
171 196 228
170 196 228
171 196 228
171 196 228
171 196 228
171 196 228
171 196 228
170 196 228
170 195 228
171 196 228
171 196 228
171 196 228
171 196 228
171 196 228
171 196 228
172 196 228
170 196 228
171 196 228
171 196 228
171 196 228
170 194 226
171 196 228
171 196 228
168 192 224
173 197 228
172 197 228
173 197 228
173 196 227
173 197 228
174 198 228
175 198 228
175 198 228
175 198 228
177 199 228
176 199 228
177 199 228
178 200 228
179 200 228
179 200 227
171 190 216
160 177 199
185 202 224
213 231 255
164 172 177
125 122 78
114 112 73
131 127 77
122 118 73
134 130 82
134 130 79
139 136 86
141 138 84
147 143 88
146 142 89
151 147 92
147 142 90
150 146 93
150 146 88
155 150 91
156 150 93
149 146 89
157 152 93
152 147 93
156 152 95
153 149 91
147 143 85
156 151 93
163 158 97
161 156 98
165 160 96
161 156 99
156 151 96
165 159 100
159 155 97
166 161 100
170 165 104
170 164 104
164 159 100
167 162 103
171 166 101
163 158 96
169 164 101
169 163 98
168 163 100
165 160 101
171 166 104
169 163 103
168 163 99
168 163 103
165 159 99
173 167 105
166 161 101
166 162 100
171 166 106
177 171 106
171 166 105
174 168 102
173 168 106
172 167 103
175 169 105
176 169 106
166 162 101
171 165 103
171 166 105
170 165 101
168 163 103
167 163 101
172 167 104
170 165 104
174 168 107
174 168 106
169 163 99
171 166 106
175 170 105
170 165 103
168 163 102
166 160 100
172 167 103
174 169 106
169 163 105
165 160 100
169 163 101
166 162 103
168 163 99
174 167 103
166 161 101
164 159 101
164 159 99
163 157 98
161 156 100
163 158 97
162 157 98
166 161 99
161 156 94
162 157 96
166 161 102
162 156 95
161 157 97
154 150 90
163 159 99
163 157 98
157 152 95
163 158 100
158 152 90
153 149 90
159 155 95
156 151 93
148 144 90
153 149 93
151 146 90
147 143 87
139 135 75
145 141 84
151 145 88
151 147 91
140 136 84
138 134 81
141 136 83
128 124 75
122 118 73
161 168 156
213 231 255
213 231 255
213 231 255
213 231 255
213 231 255
213 231 255
213 231 255
213 231 255
213 231 255
213 231 255
213 231 255
213 231 255
213 231 255
213 231 255
214 231 255
214 231 255
214 231 255
214 231 255
214 231 255
214 231 255
214 231 255
214 231 255
214 231 255
214 231 255
214 231 255
214 231 255
214 231 255
214 231 255
214 231 255
214 231 255
214 232 255
214 232 255
214 232 255
214 232 255
214 232 255
214 232 255
214 232 255
214 232 255
214 232 255
214 232 255
214 232 255
214 232 255
214 232 255
214 232 255
214 232 255
214 232 255
215 232 255
215 232 255
215 232 255
215 232 255
215 232 255
215 232 255
215 232 255
215 232 255
215 232 255
215 232 255
215 232 255
215 232 255
215 232 255
215 232 255
215 232 255
215 232 255
215 232 255
215 232 255
215 232 255
215 232 255
215 232 255
215 232 255
215 232 255
215 232 255
215 232 255
215 232 255
215 232 255
215 232 255
215 232 255
215 232 255
215 232 255
215 232 255
215 232 255
215 232 255
215 232 255
215 232 255
215 232 255
216 232 255
216 232 255
216 232 255
216 232 255
216 232 255
216 232 255
216 232 255
216 232 255
216 232 255
216 232 255
216 232 255
216 232 255
216 232 255
216 232 255
216 233 255
216 233 255
216 233 255
216 233 255
216 233 255
216 233 255
216 233 255
216 233 255
216 233 255
216 233 255
216 233 255
216 233 255
216 233 255
216 233 255
216 233 255
216 233 255
216 233 255
216 233 255
216 233 255
216 233 255
216 233 255
216 233 255
216 233 255
216 233 255
216 233 255
216 233 255
216 233 255
216 233 255
216 233 255
216 233 255
216 233 255
216 233 255
216 233 255
216 233 255
217 233 255
217 233 255
217 233 255
217 233 255
217 233 255
217 233 255
217 233 255
217 233 255
217 233 255
217 233 255
184 203 228
184 203 228
184 203 228
184 203 228
184 203 228
184 203 228
183 202 228
183 203 228
184 203 228
182 202 228
183 203 228
182 202 228
183 202 228
182 202 228
182 202 228
183 202 228
183 202 228
182 202 228
182 202 228
183 202 228
182 202 228
182 202 228
182 202 228
181 201 228
181 201 228
181 201 228
180 201 228
181 201 228
181 201 228
181 201 228
180 201 228
180 201 228
180 201 228
180 201 228
180 201 228
179 200 228
180 201 228
180 201 228
178 200 228
180 201 228
179 200 228
178 200 228
179 200 228
178 200 228
178 200 228
178 200 228
178 200 228
178 199 228
178 200 228
178 200 228
178 199 228
177 199 228
178 200 228
178 200 228
177 199 228
176 199 228
176 199 228
177 199 228
177 199 228
176 198 228
176 199 228
177 199 228
174 198 228
175 198 228
176 199 228
175 198 228
175 198 228
176 199 228
175 198 228
175 198 228
175 198 228
176 198 228
175 198 228
174 198 228
174 198 228
174 198 228
174 197 228
174 198 228
173 197 228
174 198 228
173 197 228
173 197 228
174 197 228
173 197 228
173 197 228
174 197 228
173 197 228
173 197 228
173 197 228
172 197 228
173 197 228
172 196 228
172 197 228
173 197 228
172 196 228
172 197 228
172 197 228
172 197 228
172 196 228
172 196 228
172 197 228
172 197 228
172 196 228
172 196 228
172 196 228
172 197 228
171 196 228
172 197 228
171 196 228
171 196 228
172 196 228
172 197 228
172 196 228
172 197 228
171 196 227
168 193 225
170 195 225
170 194 223
170 192 221
171 195 226
168 191 220
168 191 219
169 192 221
168 191 220
170 193 222
169 191 220
173 197 228
172 196 227
172 195 225
174 198 228
176 198 228
177 199 228
177 199 228
178 200 228
179 200 228
179 200 228
180 201 228
177 197 223
162 180 204
158 174 196
191 207 229
125 124 91
123 121 76
121 118 75
137 133 85
142 139 88
129 125 78
136 132 78
135 131 80
145 142 89
148 144 92
145 140 85
152 148 94
143 140 86
155 151 92
143 139 84
151 147 92
151 147 93
153 149 90
149 145 90
153 149 96
153 149 90
161 156 97
159 154 95
156 151 93
160 156 95
166 162 102
162 157 96
165 161 102
165 159 96
156 152 91
165 159 98
164 160 100
166 160 101
163 158 97
170 165 103
165 161 100
166 162 103
165 159 99
170 165 101
168 162 103
170 165 105
171 165 101
172 166 105
168 163 101
171 165 101
168 164 103
169 164 99
167 163 105
170 166 101
170 165 101
176 170 106
175 170 106
168 163 98
167 161 97
168 162 104
168 163 100
172 166 101
172 167 103
172 167 103
170 164 104
175 169 107
171 166 104
167 161 100
175 169 106
168 162 102
172 167 104
172 167 105
171 165 104
171 166 102
172 166 106
173 167 103
174 169 106
172 166 105
170 165 103
170 165 103
172 167 107
170 165 103
168 163 97
169 164 100
166 162 99
166 160 99
162 158 95
169 164 99
165 160 98
169 164 104
159 156 95
161 156 96
161 156 93
162 157 96
164 158 95
163 157 97
153 149 93
161 156 97
163 158 99
165 160 99
162 157 97
160 154 93
154 149 91
158 152 93
162 157 95
158 154 94
164 157 96
151 146 88
159 154 94
150 145 90
147 142 87
150 145 87
150 145 88
149 144 90
149 144 85
144 139 80
149 144 89
140 136 80
141 137 83
135 131 77
135 130 77
128 124 72
138 133 84
204 220 240
213 231 255
213 231 255
213 231 255
214 231 255
214 231 255
214 231 255
214 231 255
214 231 255
214 231 255
214 231 255
214 231 255
214 231 255
214 231 255
214 231 255
214 231 255
214 231 255
214 231 255
214 231 255
214 231 255
214 231 255
214 231 255
214 232 255
214 232 255
214 232 255
214 232 255
214 232 255
214 232 255
214 232 255
214 232 255
214 232 255
214 232 255
214 232 255
214 232 255
214 232 255
214 232 255
214 232 255
214 232 255
215 232 255
215 232 255
215 232 255
215 232 255
215 232 255
215 232 255
215 232 255
215 232 255
215 232 255
215 232 255
215 232 255
215 232 255
215 232 255
215 232 255
215 232 255
215 232 255
215 232 255
215 232 255
215 232 255
215 232 255
215 232 255
215 232 255
215 232 255
215 232 255
215 232 255
215 232 255
215 232 255
215 232 255
215 232 255
215 232 255
215 232 255
215 232 255
215 232 255
215 232 255
215 232 255
215 232 255
215 232 255
216 232 255
216 232 255
216 232 255
216 232 255
216 232 255
216 232 255
216 232 255
216 232 255
216 232 255
216 232 255
216 232 255
216 232 255
216 232 255
216 233 255
216 233 255
216 233 255
216 233 255
216 233 255
216 233 255
216 233 255
216 233 255
216 233 255
216 233 255
216 233 255
216 233 255
216 233 255
216 233 255
216 233 255
216 233 255
216 233 255
216 233 255
216 233 255
216 233 255
216 233 255
216 233 255
216 233 255
216 233 255
216 233 255
216 233 255
216 233 255
216 233 255
216 233 255
216 233 255
216 233 255
216 233 255
216 233 255
217 233 255
217 233 255
217 233 255
217 233 255
217 233 255
217 233 255
217 233 255
217 233 255
217 233 255
217 233 255
217 233 255
217 233 255
217 233 255
217 233 255
217 233 255
217 233 255
217 233 255
217 233 255
217 233 255
217 233 255
185 203 228
184 203 228
186 204 228
185 203 228
185 203 228
184 203 228
184 203 228
184 203 228
184 203 228
184 203 228
184 203 228
184 203 228
183 203 228
182 202 228
183 203 228
182 202 228
183 202 228
182 202 228
183 202 228
183 202 228
183 203 228
182 202 228
182 202 228
182 202 228
182 202 228
181 202 228
182 202 228
181 201 228
181 201 228
181 202 228
181 201 228
181 201 228
180 201 228
181 201 228
180 201 228
180 201 228
180 201 228
180 201 228
179 200 228
180 201 228
180 201 228
179 200 228
179 200 228
179 200 228
179 200 228
179 200 228
178 200 228
178 200 228
179 200 228
178 200 228
178 200 228
177 199 228
178 200 228
178 199 228
178 200 228
177 199 228
178 199 228
177 199 228
177 199 228
178 200 228
177 199 228
176 199 228
176 199 228
177 199 228
176 199 228
176 199 228
176 199 228
176 198 228
176 199 228
176 198 228
176 199 228
175 198 228
175 198 228
175 198 228
175 198 228
175 198 228
174 198 228
175 198 228
175 198 228
174 198 228
174 198 228
173 197 228
173 197 228
174 197 228
173 197 228
173 197 228
175 198 228
174 198 228
174 198 228
174 197 228
174 197 228
173 197 228
173 197 228
174 197 228
173 197 228
173 197 228
173 197 228
174 197 228
173 197 228
172 197 228
172 197 228
173 197 228
172 197 228
172 197 228
172 197 228
172 197 228
172 197 228
173 197 228
173 197 228
172 197 228
172 196 228
172 196 228
172 196 227
169 192 221
168 191 219
167 189 216
166 189 217
166 188 213
163 185 211
164 185 207
163 186 214
167 189 214
158 178 201
162 182 205
166 187 213
165 186 214
168 189 213
167 189 218
166 188 217
167 189 218
170 193 225
171 194 224
175 197 227
177 199 228
178 200 228
179 200 228
180 201 228
181 201 228
179 199 225
173 191 216
134 142 144
114 111 69
110 107 65
126 123 78
132 128 81
137 132 84
130 127 79
142 138 86
137 133 81
143 138 85
139 137 87
147 142 84
151 147 88
149 145 88
152 148 90
145 141 85
150 146 91
151 146 88
163 159 98
154 149 93
163 158 100
154 150 89
149 144 87
156 150 91
158 152 93
159 155 96
159 154 97
161 157 99
160 155 95
164 158 97
159 154 95
164 159 97
167 163 100
161 157 96
160 156 99
169 164 103
168 163 99
168 163 101
167 163 98
172 166 104
169 164 101
172 165 103
169 165 101
169 163 97
169 163 103
173 167 102
174 168 101
167 163 103
167 161 98
170 165 104
171 166 99
170 164 100
170 165 102
175 169 106
173 168 104
171 166 103
175 169 108
170 164 98
172 167 103
169 164 102
172 167 104
172 166 102
172 165 104
172 167 103
171 166 104
176 169 106
172 167 107
170 164 102
173 167 106
174 169 106
172 166 101
171 166 105
173 166 103
169 163 100
172 166 104
170 165 101
169 164 103
171 165 101
173 166 103
169 163 101
167 161 100
165 160 100
170 163 103
164 158 97
169 164 99
171 166 106
170 164 103
155 151 94
155 150 91
163 157 95
166 160 101
170 164 96
159 155 94
159 154 95
160 154 93
163 158 98
162 157 97
164 160 99
159 154 91
156 151 95
163 158 96
157 152 90
162 157 94
157 151 91
159 154 95
148 143 90
140 136 83
149 143 86
152 146 85
157 151 93
156 150 87
143 138 84
152 146 84
151 146 89
151 145 87
140 134 81
136 131 76
129 125 76
132 127 75
188 197 198
214 231 255
214 231 255
214 231 255
214 231 255
214 231 255
214 231 255
214 231 255
214 231 255
214 231 255
214 231 255
214 231 255
214 232 255
214 232 255
214 232 255
214 232 255
214 232 255
214 232 255
214 232 255
214 232 255
214 232 255
214 232 255
214 232 255
214 232 255
214 232 255
214 232 255
214 232 255
214 232 255
214 232 255
214 232 255
215 232 255
215 232 255
215 232 255
215 232 255
215 232 255
215 232 255
215 232 255
215 232 255
215 232 255
215 232 255
215 232 255
215 232 255
215 232 255
215 232 255
215 232 255
215 232 255
215 232 255
215 232 255
215 232 255
215 232 255
215 232 255
215 232 255
215 232 255
215 232 255
215 232 255
215 232 255
215 232 255
215 232 255
215 232 255
215 232 255
215 232 255
215 232 255
215 232 255
215 232 255
215 232 255
215 232 255
215 232 255
216 232 255
216 232 255
216 232 255
216 232 255
216 232 255
216 232 255
216 232 255
216 232 255
216 232 255
216 232 255
216 232 255
216 232 255
216 233 255
216 233 255
216 233 255
216 233 255
216 233 255
216 233 255
216 233 255
216 233 255
216 233 255
216 233 255
216 233 255
216 233 255
216 233 255
216 233 255
216 233 255
216 233 255
216 233 255
216 233 255
216 233 255
216 233 255
216 233 255
216 233 255
216 233 255
216 233 255
216 233 255
216 233 255
216 233 255
216 233 255
216 233 255
216 233 255
216 233 255
216 233 255
216 233 255
216 233 255
217 233 255
217 233 255
217 233 255
217 233 255
217 233 255
217 233 255
217 233 255
217 233 255
217 233 255
217 233 255
217 233 255
217 233 255
217 233 255
217 233 255
217 233 255
217 233 255
217 233 255
217 233 255
217 233 255
217 233 255
217 233 255
217 233 255
217 233 255
217 233 255
217 233 255
217 233 255
217 233 255
217 233 255
187 204 228
185 203 228
185 203 228
185 204 228
186 204 228
184 203 228
184 203 228
185 203 228
184 203 228
184 203 228
183 202 228
183 202 228
183 203 228
184 203 228
183 203 228
183 202 228
183 203 228
183 203 228
183 202 228
183 203 228
182 202 228
183 202 228
182 202 228
182 202 228
183 202 228
182 202 228
182 202 228
182 202 228
182 202 228
182 202 228
182 202 228
182 202 228
181 201 228
180 201 228
181 202 228
180 201 228
181 201 228
181 201 228
180 201 228
181 201 228
180 201 228
180 201 228
180 201 228
180 201 228
179 200 228
179 201 228
180 201 228
180 201 228
180 201 228
178 200 228
179 200 228
179 200 228
178 200 228
179 200 228
179 200 228
178 200 228
180 201 228
178 200 228
178 200 228
178 200 228
177 199 228
177 199 228
177 199 228
178 199 228
177 199 228
177 199 228
177 199 228
176 198 228
177 199 228
177 199 228
176 199 228
177 199 228
175 198 228
176 199 228
176 199 228
176 199 228
175 198 228
176 199 228
176 199 228
175 198 228
176 198 228
175 198 228
175 198 228
174 198 228
174 198 228
175 198 228
175 198 228
174 198 228
174 198 228
175 198 228
174 198 228
174 198 228
174 198 228
175 198 228
173 197 228
175 198 228
174 198 228
173 197 228
174 197 228
174 198 228
174 197 228
173 197 228
174 198 228
173 197 228
173 197 228
173 197 228
174 198 228
173 197 228
173 197 228
173 197 228
170 193 222
170 194 224
168 191 220
169 191 217
168 191 219
163 184 209
161 181 205
165 185 206
163 185 213
166 187 210
162 182 206
160 179 201
162 181 200
165 185 208
162 180 198
158 178 204
161 179 198
166 186 210
160 181 206
162 182 207
166 187 215
167 189 219
168 189 219
167 189 221
172 194 225
178 199 228
180 201 228
181 202 228
182 202 228
173 191 215
126 127 96
125 121 73
125 122 77
128 125 80
140 136 83
143 139 87
144 141 88
145 142 87
141 137 86
145 141 85
149 146 91
149 145 90
151 147 92
150 146 90
141 137 84
157 152 92
150 145 85
158 153 96
154 149 91
150 145 84
157 153 94
160 154 94
159 153 96
157 152 92
166 161 100
164 158 97
160 155 92
165 161 99
161 155 95
165 159 99
169 163 100
162 157 96
163 158 100
169 163 99
168 162 97
167 161 100
163 158 98
165 160 99
171 165 101
165 160 99
169 164 101
169 163 100
168 163 100
167 163 100
170 165 100
167 162 103
169 164 99
171 164 102
170 165 100
173 167 102
172 167 103
173 168 104
175 169 103
167 162 99
172 166 104
175 168 103
167 162 100
171 166 103
174 168 106
164 160 96
168 164 100
172 167 104
170 165 103
171 164 98
171 166 103
173 167 105
169 164 103
171 166 101
174 168 105
172 167 104
172 166 103
173 168 106
172 166 106
164 160 98
173 167 104
172 166 103
164 159 99
166 160 95
177 171 108
170 164 99
172 167 98
164 159 99
162 158 97
169 163 101
166 162 95
170 165 100
164 159 94
166 161 98
164 159 99
169 163 100
171 164 99
166 161 100
163 158 95
166 160 99
164 160 98
165 159 95
162 157 95
163 157 98
161 155 98
162 157 96
150 146 89
159 155 96
158 152 91
152 146 89
152 148 90
158 153 93
155 149 90
146 142 87
158 152 93
154 148 87
140 135 78
148 144 87
149 145 88
147 141 85
148 143 83
150 146 90
137 132 80
141 136 79
142 137 80
131 131 97
213 230 253
214 231 255
214 232 255
214 232 255
214 232 255
214 232 255
214 232 255
214 232 255
214 232 255
214 232 255
214 232 255
214 232 255
214 232 255
214 232 255
214 232 255
214 232 255
214 232 255
214 232 255
214 232 255
214 232 255
215 232 255
215 232 255
215 232 255
215 232 255
215 232 255
215 232 255
215 232 255
215 232 255
215 232 255
215 232 255
215 232 255
215 232 255
215 232 255
215 232 255
215 232 255
215 232 255
215 232 255
215 232 255
215 232 255
215 232 255
215 232 255
215 232 255
215 232 255
215 232 255
215 232 255
215 232 255
215 232 255
215 232 255
215 232 255
215 232 255
215 232 255
215 232 255
215 232 255
215 232 255
215 232 255
215 232 255
215 232 255
216 232 255
216 232 255
216 232 255
216 232 255
216 232 255
216 232 255
216 232 255
216 232 255
216 232 255
216 232 255
216 232 255
216 232 255
216 233 255
216 233 255
216 233 255
216 233 255
216 233 255
216 233 255
216 233 255
216 233 255
216 233 255
216 233 255
216 233 255
216 233 255
216 233 255
216 233 255
216 233 255
216 233 255
216 233 255
216 233 255
216 233 255
216 233 255
216 233 255
216 233 255
216 233 255
216 233 255
216 233 255
216 233 255
216 233 255
216 233 255
216 233 255
216 233 255
216 233 255
216 233 255
216 233 255
217 233 255
217 233 255
217 233 255
217 233 255
217 233 255
217 233 255
217 233 255
217 233 255
217 233 255
217 233 255
217 233 255
217 233 255
217 233 255
217 233 255
217 233 255
217 233 255
217 233 255
217 233 255
217 233 255
217 233 255
217 233 255
217 233 255
217 233 255
217 233 255
217 233 255
217 233 255
217 233 255
217 233 255
217 233 255
217 233 255
217 233 255
217 233 255
217 233 255
217 233 255
217 233 255
217 233 255
217 233 255
217 233 255
185 203 228
185 204 228
186 204 228
185 203 228
185 203 228
186 204 228
184 203 228
184 203 228
184 203 228
185 203 228
184 203 228
185 204 228
184 203 228
184 203 228
184 203 228
184 203 228
184 203 228
184 203 228
183 203 228
183 203 228
184 203 228
183 202 228
184 203 228
183 202 228
183 202 228
182 202 228
183 202 228
183 202 228
182 202 228
182 202 228
183 202 228
182 202 228
182 202 228
181 202 228
180 201 228
181 201 228
181 202 228
180 201 228
180 201 228
180 201 228
181 201 228
180 201 228
181 201 228
180 201 228
181 201 228
180 201 228
180 201 228
180 201 228
179 201 228
180 201 228
180 201 228
180 201 228
179 200 228
179 200 228
179 200 228
178 200 228
179 200 228
178 200 228
179 200 228
179 200 228
179 200 228
178 200 228
178 200 228
178 200 228
178 200 228
177 199 228
178 200 228
178 200 228
178 200 228
178 200 228
176 199 228
176 199 228
177 199 228
176 199 228
177 199 228
177 199 228
176 199 228
177 199 228
176 199 228
176 199 228
177 199 228
176 199 228
175 198 228
176 199 228
175 198 228
176 199 228
175 198 228
175 198 228
176 198 228
175 198 228
175 198 228
175 198 228
174 198 228
175 198 228
175 198 228
175 198 228
174 198 228
175 198 228
174 198 228
175 198 228
175 198 228
174 198 228
174 198 228
175 198 228
173 197 228
174 198 228
175 198 228
173 197 228
172 196 226
172 195 224
171 193 221
167 189 216
170 191 218
167 189 216
165 186 211
167 187 208
159 178 199
161 181 203
156 174 191
162 181 202
163 182 204
155 173 189
159 178 197
161 178 192
158 175 192
153 169 181
160 179 199
158 175 193
163 180 195
164 183 204
162 181 203
166 184 206
165 185 209
164 185 215
168 189 219
167 189 220
173 194 223
180 201 228
182 202 228
160 174 189
121 117 73
125 122 76
128 125 76
140 136 83
122 119 75
136 134 79
143 139 88
145 140 87
139 136 84
160 154 94
146 140 86
145 141 85
154 150 90
159 154 98
150 144 83
155 151 91
151 148 92
155 150 92
157 152 95
159 154 94
161 155 94
156 152 92
159 154 97
160 155 93
158 153 96
163 158 98
163 158 97
165 159 98
161 155 95
162 158 99
165 159 99
163 157 98
162 157 91
168 163 99
167 161 99
169 164 100
165 160 94
169 164 101
171 166 102
170 164 99
167 162 98
172 166 102
170 165 102
171 165 104
164 159 97
168 163 101
168 164 101
170 164 103
173 168 103
174 168 104
169 163 99
170 166 104
171 166 101
175 170 104
167 162 101
172 166 104
173 167 99
173 168 105
174 168 106
171 166 103
176 170 106
170 165 102
173 168 103
174 167 103
174 168 104
171 166 104
171 166 103
173 167 101
176 170 103
173 167 100
173 169 102
176 169 103
168 163 99
170 164 103
171 165 103
166 161 100
173 167 103
169 164 100
173 167 105
173 168 106
167 161 95
163 157 93
173 167 104
168 162 98
172 168 107
164 159 97
167 162 99
171 165 103
163 158 97
164 158 95
164 160 99
163 157 95
158 153 92
172 166 99
170 164 101
161 156 93
161 156 95
159 155 92
161 156 97
163 158 95
165 159 96
152 148 90
155 150 89
161 155 95
149 145 87
158 153 93
149 144 88
159 153 94
152 146 90
151 146 90
159 154 94
152 148 87
147 143 85
144 140 80
141 136 83
125 121 66
137 133 80
133 129 76
135 131 76
138 133 80
185 197 207
214 232 255
214 232 255
214 232 255
214 232 255
214 232 255
214 232 255
214 232 255
214 232 255
215 232 255
215 232 255
215 232 255
215 232 255
215 232 255
215 232 255
215 232 255
215 232 255
215 232 255
215 232 255
215 232 255
215 232 255
215 232 255
215 232 255
215 232 255
215 232 255
215 232 255
215 232 255
215 232 255
215 232 255
215 232 255
215 232 255
215 232 255
215 232 255
215 232 255
215 232 255
215 232 255
215 232 255
215 232 255
215 232 255
215 232 255
215 232 255
215 232 255
215 232 255
215 232 255
215 232 255
215 232 255
215 232 255
215 232 255
216 232 255
216 232 255
216 232 255
216 232 255
216 232 255
216 232 255
216 232 255
216 232 255
216 232 255
216 232 255
216 232 255
216 232 255
216 233 255
216 233 255
216 233 255
216 233 255
216 233 255
216 233 255
216 233 255
216 233 255
216 233 255
216 233 255
216 233 255
216 233 255
216 233 255
216 233 255
216 233 255
216 233 255
216 233 255
216 233 255
216 233 255
216 233 255
216 233 255
216 233 255
216 233 255
216 233 255
216 233 255
216 233 255
216 233 255
216 233 255
216 233 255
216 233 255
216 233 255
216 233 255
217 233 255
217 233 255
217 233 255
217 233 255
217 233 255
217 233 255
217 233 255
217 233 255
217 233 255
217 233 255
217 233 255
217 233 255
217 233 255
217 233 255
217 233 255
217 233 255
217 233 255
217 233 255
217 233 255
217 233 255
217 233 255
217 233 255
217 233 255
217 233 255
217 233 255
217 233 255
217 233 255
217 233 255
217 233 255
217 233 255
217 233 255
217 233 255
217 233 255
217 233 255
217 233 255
217 233 255
217 233 255
217 233 255
217 233 255
217 233 255
217 233 255
217 233 255
217 233 255
217 233 255
217 233 255
217 233 255
217 233 255
217 233 255
186 204 228
186 204 228
186 204 228
186 204 228
185 204 228
185 204 228
185 203 228
184 203 228
185 204 228
185 204 228
185 204 228
185 204 228
185 204 228
185 203 228
185 204 228
185 204 228
185 203 228
184 203 228
184 203 228
185 204 228
184 203 228
184 203 228
183 202 228
183 202 228
183 203 228
184 203 228
183 203 228
184 203 228
183 202 228
184 203 228
183 203 228
183 202 228
182 202 228
182 202 228
182 202 228
182 202 228
183 202 228
181 202 228
182 202 228
182 202 228
182 202 228
181 201 228
182 202 228
181 201 228
181 201 228
181 202 228
181 201 228
181 201 228
180 201 228
180 201 228
181 201 228
179 200 228
180 201 228
180 201 228
179 200 228
180 201 228
180 201 228
180 201 228
179 200 228
179 200 228
179 200 228
178 200 228
179 200 228
179 200 228
179 200 228
178 200 228
179 200 228
178 200 228
179 200 228
178 200 228
178 199 228
178 200 228
177 199 228
178 200 228
177 199 228
177 199 228
177 199 228
177 199 228
176 199 228
177 199 228
177 199 228
178 200 228
177 199 228
176 199 228
177 199 228
176 199 228
176 199 228
176 199 228
176 199 228
176 199 228
176 198 228
176 199 228
176 199 228
176 199 228
176 199 228
176 199 228
175 198 228
176 199 228
176 199 228
175 198 228
175 198 228
175 198 228
175 198 228
176 199 228
175 198 228
174 198 228
174 197 228
173 195 225
171 192 218
169 191 219
166 186 210
162 183 207
166 185 205
161 180 202
157 174 190
161 180 198
160 176 191
164 182 201
161 178 191
162 180 197
159 174 184
157 172 183
158 175 188
149 164 175
155 172 188
154 170 181
152 167 179
162 178 192
155 170 180
157 175 193
157 175 196
159 177 198
165 184 207
159 178 201
160 180 206
158 179 211
168 189 219
171 191 221
181 201 228
138 144 137
131 127 81
126 122 73
132 128 78
131 127 75
133 129 80
130 127 78
147 143 86
148 145 89
147 142 85
154 149 94
142 139 83
152 147 89
160 156 95
152 146 90
150 146 88
153 148 92
150 146 93
155 150 91
155 149 92
153 150 89
163 158 95
158 154 94
154 149 92
156 151 90
161 155 95
163 159 93
164 159 96
158 154 93
164 158 96
166 162 100
162 157 96
164 158 99
174 167 103
163 158 98
167 162 100
164 159 97
163 158 95
163 158 96
167 162 102
176 169 106
168 162 99
168 162 97
167 163 102
173 167 103
167 163 101
174 169 102
170 165 97
174 167 103
167 162 99
173 167 99
173 167 100
172 167 106
174 168 103
174 167 101
171 167 102
174 168 106
170 165 101
175 169 105
173 167 102
170 165 103
173 168 105
171 167 103
173 167 101
170 165 100
173 167 103
174 167 101
172 166 97
171 166 100
170 166 99
172 166 102
174 168 101
172 166 97
174 168 102
168 163 101
173 167 103
168 163 99
169 163 97
172 166 97
168 164 97
169 164 101
162 158 93
167 162 97
170 164 98
170 165 99
170 164 101
170 164 102
166 160 95
164 158 98
163 158 96
166 160 100
166 161 95
166 161 97
161 156 96
159 153 93
162 155 93
158 153 95
159 153 92
165 159 93
166 161 97
159 155 93
159 153 93
153 149 84
156 153 96
167 163 101
150 145 88
162 156 95
157 152 92
155 151 92
154 149 90
156 151 92
150 144 87
156 152 88
147 142 76
141 135 83
150 144 84
144 140 84
145 141 85
138 134 80
132 127 70
137 133 76
159 164 152
215 232 255
215 232 255
215 232 255
215 232 255
215 232 255
215 232 255
215 232 255
215 232 255
215 232 255
215 232 255
215 232 255
215 232 255
215 232 255
215 232 255
215 232 255
215 232 255
215 232 255
215 232 255
215 232 255
215 232 255
215 232 255
215 232 255
215 232 255
215 232 255
215 232 255
215 232 255
215 232 255
215 232 255
215 232 255
215 232 255
215 232 255
215 232 255
215 232 255
215 232 255
215 232 255
215 232 255
215 232 255
216 232 255
216 232 255
216 232 255
216 232 255
216 232 255
216 232 255
216 232 255
216 232 255
216 232 255
216 232 255
216 232 255
216 232 255
216 232 255
216 233 255
216 233 255
216 233 255
216 233 255
216 233 255
216 233 255
216 233 255
216 233 255
216 233 255
216 233 255
216 233 255
216 233 255
216 233 255
216 233 255
216 233 255
216 233 255
216 233 255
216 233 255
216 233 255
216 233 255
216 233 255
216 233 255
216 233 255
216 233 255
216 233 255
216 233 255
216 233 255
216 233 255
216 233 255
216 233 255
216 233 255
217 233 255
217 233 255
217 233 255
217 233 255
217 233 255
217 233 255
217 233 255
217 233 255
217 233 255
217 233 255
217 233 255
217 233 255
217 233 255
217 233 255
217 233 255
217 233 255
217 233 255
217 233 255
217 233 255
217 233 255
217 233 255
217 233 255
217 233 255
217 233 255
217 233 255
217 233 255
217 233 255
217 233 255
217 233 255
217 233 255
217 233 255
217 233 255
217 233 255
217 233 255
217 233 255
217 233 255
217 233 255
217 233 255
217 233 255
217 233 255
217 233 255
217 233 255
217 233 255
217 233 255
217 233 255
217 233 255
217 233 255
217 233 255
217 233 255
217 233 255
217 233 255
217 233 255
217 233 255
217 233 255
217 233 255
217 233 255
217 233 255
217 233 255
187 204 228
186 204 228
187 204 228
186 204 228
186 204 228
187 204 228
186 204 228
185 204 228
185 204 228
186 204 228
185 203 228
184 203 228
185 204 228
184 203 228
185 204 228
185 204 228
186 204 228
185 203 228
186 204 228
185 203 228
185 204 228
184 203 228
185 203 228
185 203 228
183 202 228
184 203 228
184 203 228
185 203 228
183 203 228
183 203 228
183 203 228
183 203 228
183 202 228
182 202 228
184 203 228
184 203 228
182 202 228
183 202 228
182 202 228
182 202 228
182 202 228
183 202 228
182 202 228
181 202 228
182 202 228
182 202 228
182 202 228
182 202 228
182 202 228
181 201 228
182 202 228
182 202 228
181 201 228
181 201 228
181 201 228
182 202 228
180 201 228
180 201 228
180 201 228
180 201 228
180 201 228
180 201 228
180 201 228
180 201 228
179 200 228
180 201 228
179 200 228
178 200 228
179 200 228
178 200 228
180 201 228
178 200 228
178 200 228
178 200 228
178 200 228
179 200 228
178 200 228
179 200 228
179 200 228
178 200 228
178 200 228
177 199 228
178 200 228
177 199 228
178 200 228
177 199 228
177 199 228
177 199 228
177 199 228
177 199 228
177 199 228
177 199 228
177 199 228
177 199 228
177 199 228
176 199 228
178 199 228
177 199 228
176 199 228
176 199 228
176 199 228
176 199 228
176 199 228
176 199 228
175 198 228
176 199 228
175 198 227
172 193 219
167 188 213
167 187 210
168 189 213
165 185 208
166 186 210
163 182 201
161 179 196
159 176 191
160 178 196
157 175 193
156 169 174
154 169 181
155 168 172
149 162 167
151 166 175
154 169 181
151 165 175
150 162 164
151 166 179
152 166 176
150 163 171
148 164 178
151 166 178
152 167 179
152 169 188
152 169 191
151 168 190
159 179 206
147 168 201
171 192 221
167 186 210
114 111 70
124 120 78
121 118 71
135 131 78
140 136 84
140 135 83
139 135 84
134 131 79
137 133 83
142 138 85
151 146 86
137 133 81
148 143 86
156 151 92
149 145 85
152 146 90
155 150 87
152 147 89
163 157 97
164 158 94
152 148 90
159 155 93
157 152 91
148 145 88
162 157 95
167 162 97
168 163 102
160 154 91
165 160 98
161 155 92
165 160 93
164 158 96
169 163 99
165 159 95
165 160 97
168 164 98
166 160 95
171 163 96
170 163 99
172 165 99
170 165 100
173 167 104
167 162 96
174 168 104
165 160 97
168 163 100
171 165 98
176 170 107
171 166 99
175 169 106
172 166 103
170 164 100
172 166 100
174 168 103
179 172 107
174 168 104
174 168 102
169 164 100
176 170 103
174 169 104
177 170 107
172 166 99
175 169 102
173 167 103
173 168 103
174 167 103
173 167 98
173 167 101
173 167 101
171 166 103
177 170 109
176 169 101
172 166 101
173 166 102
171 164 99
169 163 97
170 164 99
175 168 101
169 165 97
165 160 97
167 162 98
169 164 101
168 163 99
166 162 97
163 158 96
172 166 102
164 158 96
166 160 97
166 161 97
168 163 99
166 161 99
168 163 98
158 154 93
162 157 95
166 160 101
164 159 93
162 156 93
167 161 96
164 159 97
160 155 94
159 153 92
162 157 95
152 148 90
157 152 90
153 149 85
156 151 88
159 153 90
152 147 89
147 143 83
152 147 88
150 145 92
153 147 87
154 149 89
147 143 87
148 143 84
140 134 79
147 141 84
130 126 76
134 130 78
141 136 80
137 132 77
116 112 68
212 228 250
215 232 255
215 232 255
215 232 255
215 232 255
215 232 255
215 232 255
215 232 255
215 232 255
215 232 255
215 232 255
215 232 255
215 232 255
215 232 255
215 232 255
215 232 255
215 232 255
215 232 255
215 232 255
215 232 255
215 232 255
215 232 255
215 232 255
215 232 255
215 232 255
215 232 255
215 232 255
216 232 255
216 232 255
216 232 255
216 232 255
216 232 255
216 232 255
216 232 255
216 232 255
216 232 255
216 232 255
216 232 255
216 232 255
216 232 255
216 233 255
216 233 255
216 233 255
216 233 255
216 233 255
216 233 255
216 233 255
216 233 255
216 233 255
216 233 255
216 233 255
216 233 255
216 233 255
216 233 255
216 233 255
216 233 255
216 233 255
216 233 255
216 233 255
216 233 255
216 233 255
216 233 255
216 233 255
216 233 255
216 233 255
216 233 255
216 233 255
216 233 255
216 233 255
216 233 255
216 233 255
217 233 255
217 233 255
217 233 255
217 233 255
217 233 255
217 233 255
217 233 255
217 233 255
217 233 255
217 233 255
217 233 255
217 233 255
217 233 255
217 233 255
217 233 255
217 233 255
217 233 255
217 233 255
217 233 255
217 233 255
217 233 255
217 233 255
217 233 255
217 233 255
217 233 255
217 233 255
217 233 255
217 233 255
217 233 255
217 233 255
217 233 255
217 233 255
217 233 255
217 233 255
217 233 255
217 233 255
217 233 255
217 233 255
217 233 255
217 233 255
217 233 255
217 233 255
217 233 255
217 233 255
217 233 255
217 233 255
217 233 255
217 233 255
217 233 255
217 233 255
217 233 255
217 233 255
217 233 255
217 233 255
217 233 255
217 233 255
217 233 255
218 233 255
218 233 255
218 233 255
218 233 255
218 233 255
218 233 255
218 233 255
218 234 255
218 234 255
218 234 255
218 234 255
188 205 228
187 205 228
187 204 228
186 204 228
186 204 228
187 205 228
187 205 228
186 204 228
186 204 228
186 204 228
186 204 228
186 204 228
185 203 228
185 204 228
186 204 228
185 203 228
185 204 228
186 204 228
185 204 228
185 204 228
184 203 228
185 203 228
184 203 228
185 203 228
185 204 228
185 204 228
184 203 228
184 203 228
185 203 228
185 203 228
184 203 228
184 203 228
184 203 228
184 203 228
184 203 228
184 203 228
183 202 228
184 203 228
184 203 228
182 202 228
183 202 228
183 203 228
183 202 228
181 201 228
183 202 228
182 202 228
182 202 228
182 202 228
182 202 228
182 202 228
181 201 228
182 202 228
181 201 228
181 201 228
181 202 228
181 201 228
181 201 228
181 201 228
181 201 228
180 201 228
180 201 228
181 201 228
181 201 228
180 201 228
180 201 228
180 201 228
180 201 228
180 201 228
180 201 228
180 201 228
180 201 228
180 201 228
180 201 228
179 200 228
180 201 228
179 201 228
179 200 228
178 200 228
178 200 228
179 200 228
179 200 228
178 200 228
178 200 228
179 200 228
178 200 228
179 201 228
179 200 228
179 200 228
178 200 228
178 200 228
178 200 228
178 200 228
177 199 228
177 199 228
177 199 228
177 199 228
177 199 228
177 199 228
178 200 228
177 199 228
178 200 228
177 199 228
178 200 228
177 199 228
175 197 226
174 196 225
169 190 216
170 188 208
171 192 218
164 183 206
169 188 208
166 185 205
165 183 202
161 178 194
164 182 199
159 176 191
154 168 179
153 167 175
151 163 169
147 158 160
155 166 168
156 169 176
144 155 156
149 163 169
151 162 161
144 155 157
147 157 153
147 157 154
148 161 168
139 150 150
150 163 169
150 166 180
148 162 170
153 168 180
151 167 181
159 176 197
155 173 197
161 181 209
145 157 169
113 109 63
117 114 69
123 119 73
130 126 79
135 132 78
127 124 74
140 136 82
145 140 83
143 139 81
140 136 81
152 147 90
159 153 93
148 143 87
149 144 89
150 146 89
148 143 84
146 141 81
160 154 94
149 144 86
155 151 90
161 155 93
162 156 95
159 153 90
161 156 96
162 157 93
156 150 91
170 164 98
157 152 90
171 164 99
163 158 93
167 161 94
166 161 102
161 156 90
166 161 93
165 160 94
171 165 98
169 163 99
167 162 98
167 162 97
175 168 104
172 165 100
164 160 93
169 164 95
168 162 99
173 167 99
164 159 92
173 167 99
170 165 97
172 166 97
175 169 104
172 165 99
171 166 103
174 167 99
175 169 104
174 167 101
171 165 101
172 166 102
177 170 104
171 166 99
173 167 99
174 168 101
172 166 97
173 167 98
175 168 101
174 167 99
176 170 107
168 162 95
174 168 103
172 166 102
173 168 102
171 165 97
177 170 103
169 164 97
173 168 101
172 166 103
171 165 99
173 167 101
175 169 97
171 166 99
175 168 102
171 165 99
172 165 101
165 160 97
168 161 94
167 161 95
168 162 96
168 162 99
167 162 99
166 160 93
166 160 97
171 165 96
165 160 95
168 162 97
162 157 92
168 162 94
165 159 97
166 160 99
162 156 90
163 157 93
165 159 97
161 155 95
162 155 92
167 161 97
160 154 90
157 153 95
162 157 95
152 148 87
158 153 92
156 150 88
161 155 94
146 141 82
147 141 84
153 148 90
146 139 80
150 144 83
153 146 87
143 138 82
140 134 77
137 132 75
140 136 76
137 132 74
121 116 64
185 196 203
215 232 255
215 232 255
215 232 255
215 232 255
215 232 255
215 232 255
215 232 255
215 232 255
215 232 255
215 232 255
215 232 255
215 232 255
215 232 255
215 232 255
215 232 255
216 232 255
216 232 255
216 232 255
216 232 255
216 232 255
216 232 255
216 232 255
216 232 255
216 232 255
216 232 255
216 232 255
216 232 255
216 232 255
216 233 255
216 233 255
216 233 255
216 233 255
216 233 255
216 233 255
216 233 255
216 233 255
216 233 255
216 233 255
216 233 255
216 233 255
216 233 255
216 233 255
216 233 255
216 233 255
216 233 255
216 233 255
216 233 255
216 233 255
216 233 255
216 233 255
216 233 255
216 233 255
216 233 255
216 233 255
216 233 255
216 233 255
216 233 255
216 233 255
216 233 255
217 233 255
217 233 255
217 233 255
217 233 255
217 233 255
217 233 255
217 233 255
217 233 255
217 233 255
217 233 255
217 233 255
217 233 255
217 233 255
217 233 255
217 233 255
217 233 255
217 233 255
217 233 255
217 233 255
217 233 255
217 233 255
217 233 255
217 233 255
217 233 255
217 233 255
217 233 255
217 233 255
217 233 255
217 233 255
217 233 255
217 233 255
217 233 255
217 233 255
217 233 255
217 233 255
217 233 255
217 233 255
217 233 255
217 233 255
217 233 255
217 233 255
217 233 255
217 233 255
217 233 255
217 233 255
217 233 255
217 233 255
217 233 255
217 233 255
217 233 255
217 233 255
217 233 255
217 233 255
217 233 255
217 233 255
217 233 255
217 233 255
218 233 255
218 233 255
218 233 255
218 233 255
218 233 255
218 233 255
218 233 255
218 234 255
218 234 255
218 234 255
218 234 255
218 234 255
218 234 255
218 234 255
218 234 255
218 234 255
218 234 255
218 234 255
218 234 255
218 234 255
218 234 255
218 234 255
187 205 228
188 205 228
188 205 228
187 205 228
189 206 228
186 204 228
186 204 228
188 205 228
186 204 228
186 204 228
186 204 228
186 204 228
187 205 228
186 204 228
186 204 228
186 204 228
186 204 228
186 204 228
186 204 228
185 204 228
186 204 228
185 204 228
186 204 228
184 203 228
185 204 228
185 203 228
186 204 228
185 203 228
184 203 228
184 203 228
184 203 228
184 203 228
184 203 228
184 203 228
183 203 228
184 203 228
184 203 228
184 203 228
183 203 228
183 202 228
183 202 228
184 203 228
183 202 228
183 203 228
183 202 228
182 202 228
182 202 228
183 203 228
184 203 228
182 202 228
182 202 228
183 202 228
183 202 228
182 202 228
182 202 228
182 202 228
182 202 228
182 202 228
182 202 228
181 201 228
181 201 228
180 201 228
182 202 228
181 201 228
182 202 228
181 201 228
182 202 228
180 201 228
180 201 228
181 201 228
181 201 228
180 201 228
180 201 228
180 201 228
180 201 228
179 200 228
179 200 228
179 200 228
180 201 228
180 201 228
180 201 228
180 201 228
179 200 228
180 201 228
179 200 228
178 200 228
179 200 228
178 200 228
179 200 228
178 200 228
178 200 228
179 200 228
179 200 228
179 200 228
178 200 228
178 200 228
179 200 228
178 200 228
178 200 228
177 199 228
179 200 228
178 200 228
178 200 228
178 199 228
177 198 225
171 192 217
173 193 217
171 190 214
166 183 199
170 189 210
165 184 203
165 180 193
162 179 196
155 170 182
161 174 179
155 168 174
156 169 176
154 167 172
159 173 179
149 160 161
152 162 158
145 156 156
147 158 160
137 145 138
151 158 146
149 159 155
138 146 139
147 155 147
142 149 141
148 157 154
144 152 148
147 158 160
143 154 162
150 165 177
151 165 179
143 158 177
152 168 188
151 168 191
128 127 102
121 119 73
129 125 75
133 130 77
128 125 78
134 131 82
139 134 84
140 135 79
148 144 90
138 134 81
150 146 88
152 148 88
148 144 83
145 140 82
143 138 84
146 142 83
150 145 88
153 148 88
152 147 88
158 152 91
153 148 84
159 153 91
158 153 94
156 152 90
163 158 95
167 161 97
159 154 93
155 150 88
164 159 96
164 158 93
164 158 93
159 155 91
164 158 97
164 158 93
173 166 100
167 162 98
168 162 97
170 164 98
164 158 95
166 161 97
169 164 101
171 166 98
171 165 100
171 165 103
168 163 95
175 168 99
171 164 96
173 167 101
170 164 97
175 168 108
173 168 102
173 166 99
171 166 101
174 168 103
174 168 103
173 167 102
169 163 94
170 165 103
174 167 101
175 169 102
169 164 99
172 167 101
172 166 98
174 168 100
174 168 99
174 168 101
175 168 101
174 168 103
176 169 101
170 165 95
179 172 109
171 165 99
172 167 99
171 164 98
172 166 96
176 169 103
172 166 102
175 169 99
176 170 103
171 165 100
172 165 101
167 162 95
175 168 103
167 161 99
172 166 99
169 162 97
168 162 91
172 165 98
170 164 96
168 162 97
164 160 95
162 157 93
168 162 97
170 164 101
166 160 97
162 157 92
164 159 90
161 156 90
167 161 97
164 158 97
167 161 93
160 153 90
161 156 88
162 155 93
153 147 86
159 154 88
156 151 89
158 152 89
146 141 78
144 140 84
149 144 84
145 141 80
153 147 87
142 136 79
147 143 87
156 151 87
152 146 90
145 140 84
145 140 84
155 149 90
138 133 75
138 134 80
133 129 75
156 159 143
215 232 255
215 232 255
215 232 255
216 232 255
216 232 255
216 232 255
216 232 255
216 232 255
216 232 255
216 232 255
216 232 255
216 232 255
216 232 255
216 232 255
216 232 255
216 232 255
216 232 255
216 233 255
216 233 255
216 233 255
216 233 255
216 233 255
216 233 255
216 233 255
216 233 255
216 233 255
216 233 255
216 233 255
216 233 255
216 233 255
216 233 255
216 233 255
216 233 255
216 233 255
216 233 255
216 233 255
216 233 255
216 233 255
216 233 255
216 233 255
216 233 255
216 233 255
216 233 255
216 233 255
216 233 255
216 233 255
216 233 255
216 233 255
217 233 255
217 233 255
217 233 255
217 233 255
217 233 255
217 233 255
217 233 255
217 233 255
217 233 255
217 233 255
217 233 255
217 233 255
217 233 255
217 233 255
217 233 255
217 233 255
217 233 255
217 233 255
217 233 255
217 233 255
217 233 255
217 233 255
217 233 255
217 233 255
217 233 255
217 233 255
217 233 255
217 233 255
217 233 255
217 233 255
217 233 255
217 233 255
217 233 255
217 233 255
217 233 255
217 233 255
217 233 255
217 233 255
217 233 255
217 233 255
217 233 255
217 233 255
217 233 255
217 233 255
217 233 255
217 233 255
217 233 255
217 233 255
217 233 255
217 233 255
217 233 255
217 233 255
217 233 255
217 233 255
217 233 255
217 233 255
218 233 255
218 233 255
218 233 255
218 233 255
218 233 255
218 233 255
218 233 255
218 234 255
218 234 255
218 234 255
218 234 255
218 234 255
218 234 255
218 234 255
218 234 255
218 234 255
218 234 255
218 234 255
218 234 255
218 234 255
218 234 255
218 234 255
218 234 255
218 234 255
218 234 255
218 234 255
218 234 255
218 234 255
218 234 255
218 234 255
218 234 255
218 234 255
218 234 255
218 234 255
189 206 228
188 205 228
188 205 228
188 205 228
187 205 228
188 205 228
187 205 228
187 204 228
187 205 228
187 205 228
188 205 228
187 205 228
187 205 228
186 204 228
187 205 228
187 205 228
187 204 228
187 205 228
187 205 228
185 204 228
186 204 228
186 204 228
186 204 228
186 204 228
186 204 228
186 204 228
186 204 228
185 204 228
185 204 228
185 204 228
184 203 228
186 204 228
185 203 228
185 203 228
184 203 228
184 203 228
185 203 228
185 203 228
185 203 228
184 203 228
184 203 228
184 203 228
184 203 228
184 203 228
184 203 228
184 203 228
183 202 228
184 203 228
184 203 228
183 203 228
182 202 228
183 202 228
184 203 228
183 202 228
183 202 228
182 202 228
182 202 228
183 202 228
182 202 228
182 202 228
183 202 228
181 202 228
181 201 228
182 202 228
183 202 228
182 202 228
182 202 228
182 202 228
182 202 228
182 202 228
180 201 228
181 201 228
182 202 228
182 202 228
182 202 228
180 201 228
182 202 228
181 201 228
181 201 228
180 201 228
180 201 228
181 201 228
181 202 228
181 201 228
180 201 228
180 201 228
180 201 228
180 201 228
179 200 228
179 201 228
180 201 228
180 201 228
180 201 228
179 200 228
180 201 228
180 201 228
179 200 228
180 201 228
180 201 228
179 200 228
178 200 228
179 200 228
179 200 228
176 197 224
171 190 213
175 194 217
170 188 209
166 184 203
168 186 204
164 182 203
166 183 196
160 176 192
164 181 198
158 172 181
162 174 175
156 167 166
157 170 177
145 153 148
155 167 169
153 163 160
149 156 145
144 151 141
143 147 129
140 144 122
139 145 130
144 149 127
139 145 129
137 143 127
141 147 131
141 150 142
144 149 131
140 146 130
141 150 145
147 158 158
138 147 147
152 164 169
143 157 171
141 153 164
112 109 66
126 122 73
125 121 74
132 127 76
131 128 78
130 127 76
139 135 79
139 135 84
136 132 79
144 139 85
143 138 78
149 144 82
150 144 87
147 144 89
153 149 88
151 146 88
152 146 85
148 144 90
160 155 88
151 146 85
154 148 86
150 146 85
160 154 91
163 157 97
159 153 92
160 155 93
164 159 97
158 153 89
163 158 93
163 156 93
165 159 95
167 162 98
166 161 97
166 161 95
170 163 100
170 163 98
165 159 92
172 167 101
163 158 89
170 163 99
166 160 96
173 167 101
172 167 104
167 163 99
169 163 96
168 162 95
171 165 99
172 166 98
171 166 97
170 164 96
169 163 95
171 165 99
174 169 104
172 167 99
176 169 100
169 165 93
176 169 102
172 167 101
175 168 102
174 168 100
176 171 104
174 168 103
173 167 97
174 168 103
177 171 103
175 169 103
171 165 100
173 167 101
172 166 101
171 166 101
170 166 101
173 167 101
175 168 101
172 166 97
168 163 93
174 167 99
170 165 93
171 165 100
175 168 103
166 162 97
169 163 98
169 164 94
174 167 97
170 165 99
168 162 96
173 167 101
172 165 99
171 165 101
167 162 96
178 170 103
167 162 96
170 163 97
164 159 88
162 156 91
163 159 98
159 154 90
166 159 93
164 158 95
165 158 93
170 165 99
169 163 93
157 152 87
162 156 95
161 155 89
160 155 90
155 151 90
156 151 80
162 157 93
163 156 90
141 137 80
155 150 87
161 154 94
155 149 89
148 143 87
153 148 84
142 137 81
147 142 87
142 137 81
146 140 80
148 143 82
136 132 79
140 135 75
129 125 72
136 132 75
207 222 242
216 232 255
216 232 255
216 232 255
216 233 255
216 233 255
216 233 255
216 233 255
216 233 255
216 233 255
216 233 255
216 233 255
216 233 255
216 233 255
216 233 255
216 233 255
216 233 255
216 233 255
216 233 255
216 233 255
216 233 255
216 233 255
216 233 255
216 233 255
216 233 255
216 233 255
216 233 255
216 233 255
216 233 255
216 233 255
216 233 255
216 233 255
216 233 255
216 233 255
216 233 255
216 233 255
216 233 255
217 233 255
217 233 255
217 233 255
217 233 255
217 233 255
217 233 255
217 233 255
217 233 255
217 233 255
217 233 255
217 233 255
217 233 255
217 233 255
217 233 255
217 233 255
217 233 255
217 233 255
217 233 255
217 233 255
217 233 255
217 233 255
217 233 255
217 233 255
217 233 255
217 233 255
217 233 255
217 233 255
217 233 255
217 233 255
217 233 255
217 233 255
217 233 255
217 233 255
217 233 255
217 233 255
217 233 255
217 233 255
217 233 255
217 233 255
217 233 255
217 233 255
217 233 255
217 233 255
217 233 255
217 233 255
217 233 255
217 233 255
217 233 255
217 233 255
217 233 255
217 233 255
217 233 255
217 233 255
217 233 255
218 233 255
218 233 255
218 233 255
218 233 255
218 233 255
218 233 255
218 233 255
218 234 255
218 234 255
218 234 255
218 234 255
218 234 255
218 234 255
218 234 255
218 234 255
218 234 255
218 234 255
218 234 255
218 234 255
218 234 255
218 234 255
218 234 255
218 234 255
218 234 255
218 234 255
218 234 255
218 234 255
218 234 255
218 234 255
218 234 255
218 234 255
218 234 255
218 234 255
218 234 255
218 234 255
218 234 255
218 234 255
218 234 255
218 234 255
218 234 255
218 234 255
218 234 255
218 234 255
218 234 255
218 234 255
218 234 255
218 234 255
189 206 228
188 205 228
189 206 228
188 205 228
188 205 228
189 206 228
188 205 228
188 205 228
188 205 228
188 205 228
188 205 228
188 205 228
188 205 228
188 205 228
187 205 228
187 205 228
187 205 228
187 204 228
187 205 228
188 205 228
185 204 228
187 205 228
186 204 228
186 204 228
186 204 228
187 204 228
187 204 228
185 204 228
185 203 228
187 204 228
185 204 228
186 204 228
187 204 228
185 203 228
185 203 228
185 204 228
186 204 228
185 204 228
186 204 228
185 203 228
185 203 228
184 203 228
186 204 228
184 203 228
184 203 228
185 203 228
184 203 228
183 203 228
185 203 228
185 203 228
183 203 228
185 203 228
184 203 228
183 202 228
184 203 228
183 203 228
183 202 228
183 203 228
184 203 228
183 202 228
183 202 228
183 202 228
182 202 228
184 203 228
182 202 228
181 201 228
183 202 228
182 202 228
184 203 228
182 202 228
182 202 228
182 202 228
182 202 228
182 202 228
182 202 228
181 202 228
183 202 228
181 201 228
182 202 228
181 201 228
182 202 228
181 201 228
182 202 228
182 202 228
181 201 228
181 201 228
180 201 228
181 202 228
181 201 228
181 201 228
180 201 228
181 201 228
181 202 228
180 201 228
180 201 228
180 201 228
179 200 228
179 200 228
179 200 228
180 201 228
181 201 228
180 201 228
175 195 221
175 195 221
175 194 218
173 192 215
174 192 213
162 179 198
164 178 190
165 181 196
160 175 189
167 182 196
159 174 184
155 166 166
158 171 179
146 155 151
153 163 160
149 158 152
148 154 142
147 151 130
147 155 146
143 148 130
144 148 129
140 147 136
136 140 118
143 147 125
142 143 113
137 139 113
136 140 121
136 139 116
133 138 119
132 136 114
141 147 133
139 145 131
130 139 137
150 158 154
142 152 156
127 130 117
113 109 64
118 114 69
126 122 73
122 118 71
140 137 83
135 132 81
137 133 79
139 136 83
134 130 78
137 132 82
145 140 84
146 141 81
147 142 85
144 140 84
151 146 89
148 143 81
156 150 90
152 147 88
158 153 86
156 150 90
160 155 88
156 151 88
154 149 90
159 154 93
161 155 93
158 154 87
160 155 92
164 158 92
167 162 97
161 156 95
167 162 94
166 160 97
164 158 95
167 162 99
165 158 93
168 162 97
165 160 99
171 165 97
166 161 97
170 164 95
172 165 97
173 167 101
170 165 94
171 165 99
172 166 100
172 166 96
171 165 99
169 162 97
172 166 99
172 166 99
170 164 99
173 167 98
174 168 99
177 170 106
173 167 99
176 170 102
170 164 99
176 170 101
176 169 98
177 170 106
176 169 101
173 167 98
174 168 100
170 164 99
174 167 101
173 167 98
171 165 95
171 166 97
174 167 98
168 162 93
177 170 102
176 170 105
171 166 97
175 169 99
176 170 102
173 166 98
172 167 101
169 164 97
170 164 99
170 165 97
168 163 93
171 165 99
170 163 95
171 165 101
170 164 101
166 161 91
170 164 99
167 162 95
162 157 94
167 161 94
167 161 95
171 164 97
169 163 99
164 158 95
168 162 97
159 153 93
164 159 93
158 154 93
165 159 93
164 158 92
163 157 92
162 156 91
157 152 92
160 155 93
165 159 90
157 151 90
156 150 88
154 149 83
156 151 88
155 149 84
156 151 90
153 148 86
151 145 87
152 146 86
157 151 87
144 139 82
150 144 86
148 142 82
149 144 84
140 136 80
140 135 78
141 135 79
133 129 75
126 122 69
180 189 192
216 233 255
216 233 255
216 233 255
216 233 255
216 233 255
216 233 255
216 233 255
216 233 255
216 233 255
216 233 255
216 233 255
216 233 255
216 233 255
216 233 255
216 233 255
216 233 255
216 233 255
216 233 255
216 233 255
216 233 255
216 233 255
216 233 255
216 233 255
217 233 255
217 233 255
217 233 255
217 233 255
217 233 255
217 233 255
217 233 255
217 233 255
217 233 255
217 233 255
217 233 255
217 233 255
217 233 255
217 233 255
217 233 255
217 233 255
217 233 255
217 233 255
217 233 255
217 233 255
217 233 255
217 233 255
217 233 255
217 233 255
217 233 255
217 233 255
217 233 255
217 233 255
217 233 255
217 233 255
217 233 255
217 233 255
217 233 255
217 233 255
217 233 255
217 233 255
217 233 255
217 233 255
217 233 255
217 233 255
217 233 255
217 233 255
217 233 255
217 233 255
217 233 255
217 233 255
217 233 255
217 233 255
217 233 255
217 233 255
217 233 255
217 233 255
217 233 255
217 233 255
217 233 255
218 233 255
218 233 255
218 233 255
218 233 255
218 233 255
218 233 255
218 234 255
218 234 255
218 234 255
218 234 255
218 234 255
218 234 255
218 234 255
218 234 255
218 234 255
218 234 255
218 234 255
218 234 255
218 234 255
218 234 255
218 234 255
218 234 255
218 234 255
218 234 255
218 234 255
218 234 255
218 234 255
218 234 255
218 234 255
218 234 255
218 234 255
218 234 255
218 234 255
218 234 255
218 234 255
218 234 255
218 234 255
218 234 255
218 234 255
218 234 255
218 234 255
218 234 255
218 234 255
218 234 255
218 234 255
218 234 255
218 234 255
218 234 255
218 234 255
218 234 255
218 234 255
218 234 255
218 234 255
218 234 255
218 234 255
218 234 255
218 234 255
218 234 255
218 234 255
189 206 228
189 206 228
190 206 228
188 205 228
188 205 228
189 206 228
189 206 228
188 205 228
188 205 228
189 206 228
189 206 228
189 206 228
187 205 228
188 205 228
189 206 228
187 205 228
188 205 228
188 205 228
188 205 228
188 205 228
186 204 228
187 205 228
188 205 228
186 204 228
187 205 228
187 205 228
188 205 228
186 204 228
187 205 228
186 204 228
186 204 228
186 204 228
187 204 228
186 204 228
187 205 228
185 204 228
186 204 228
185 204 228
185 204 228
186 204 228
186 204 228
186 204 228
186 204 228
185 203 228
185 204 228
185 203 228
185 204 228
186 204 228
186 204 228
184 203 228
184 203 228
184 203 228
185 203 228
184 203 228
184 203 228
185 204 228
185 204 228
184 203 228
184 203 228
184 203 228
184 203 228
184 203 228
184 203 228
183 203 228
184 203 228
184 203 228
183 202 228
182 202 228
183 202 228
183 203 228
182 202 228
184 203 228
183 202 228
184 203 228
182 202 228
183 202 228
183 202 228
182 202 228
182 202 228
182 202 228
183 202 228
181 201 228
182 202 228
182 202 228
181 201 228
182 202 228
182 202 228
182 202 228
182 202 228
182 202 228
182 202 228
181 201 228
181 201 228
181 201 228
182 202 228
182 202 228
180 201 228
181 201 228
182 202 228
180 201 228
181 201 228
180 200 226
177 196 218
175 194 219
176 195 219
169 186 206
166 183 199
167 184 204
156 171 184
160 173 183
164 179 192
158 172 182
155 166 170
156 169 174
153 163 162
155 164 159
151 159 150
141 145 127
152 159 147
147 153 140
146 151 133
146 149 125
144 145 112
141 144 119
142 142 106
141 141 103
130 129 92
136 135 98
133 134 101
128 129 97
129 129 94
128 130 104
135 137 109
129 131 108
137 141 120
134 141 132
135 143 141
117 117 92
125 121 76
127 122 76
130 126 73
138 133 81
125 121 71
133 129 80
144 140 83
143 138 82
138 133 76
144 140 82
150 146 84
149 143 84
151 146 88
154 149 85
151 146 85
154 149 86
150 146 86
157 152 89
161 155 90
159 154 89
159 153 88
160 154 86
160 154 90
165 160 94
158 152 89
163 158 93
162 156 91
168 163 99
162 157 92
164 158 91
163 158 90
169 163 96
159 154 89
164 158 91
168 161 94
163 157 95
168 162 95
171 165 95
168 162 92
172 166 99
174 167 99
170 164 93
170 164 100
172 165 97
172 166 97
175 168 103
169 163 92
168 162 90
172 167 98
171 166 95
174 168 101
174 168 98
175 168 104
170 163 96
173 167 101
176 169 101
173 167 95
174 169 101
171 165 95
173 168 99
176 170 100
173 167 100
167 161 92
177 170 101
169 165 97
175 169 103
172 166 101
175 168 101
176 170 104
175 168 99
178 171 104
173 168 98
171 166 95
171 165 101
172 167 97
174 168 101
171 165 93
171 165 99
171 165 99
170 164 101
171 165 96
177 170 101
164 158 90
172 166 99
174 167 99
165 160 95
168 163 95
168 162 95
163 156 95
170 164 100
166 160 93
166 161 96
167 161 94
165 159 94
168 162 96
173 166 100
164 158 93
160 154 91
164 159 93
169 163 96
159 154 92
168 160 97
157 152 89
162 157 93
163 158 90
155 149 87
152 148 82
162 156 93
158 153 87
155 150 85
148 142 78
146 142 80
153 147 89
155 150 86
146 142 85
147 142 79
149 144 85
140 136 81
147 142 76
134 130 73
142 136 76
143 137 84
143 138 78
133 128 76
154 157 140
216 233 255
216 233 255
216 233 255
216 233 255
216 233 255
216 233 255
216 233 255
216 233 255
216 233 255
216 233 255
217 233 255
217 233 255
217 233 255
217 233 255
217 233 255
217 233 255
217 233 255
217 233 255
217 233 255
217 233 255
217 233 255
217 233 255
217 233 255
217 233 255
217 233 255
217 233 255
217 233 255
217 233 255
217 233 255
217 233 255
217 233 255
217 233 255
217 233 255
217 233 255
217 233 255
217 233 255
217 233 255
217 233 255
217 233 255
217 233 255
217 233 255
217 233 255
217 233 255
217 233 255
217 233 255
217 233 255
217 233 255
217 233 255
217 233 255
217 233 255
217 233 255
217 233 255
217 233 255
217 233 255
217 233 255
217 233 255
217 233 255
217 233 255
217 233 255
217 233 255
217 233 255
217 233 255
217 233 255
217 233 255
217 233 255
218 233 255
218 233 255
218 233 255
218 233 255
218 233 255
218 233 255
218 233 255
218 234 255
218 234 255
218 234 255
218 234 255
218 234 255
218 234 255
218 234 255
218 234 255
218 234 255
218 234 255
218 234 255
218 234 255
218 234 255
218 234 255
218 234 255
218 234 255
218 234 255
218 234 255
218 234 255
218 234 255
218 234 255
218 234 255
218 234 255
218 234 255
218 234 255
218 234 255
218 234 255
218 234 255
218 234 255
218 234 255
218 234 255
218 234 255
218 234 255
218 234 255
218 234 255
218 234 255
218 234 255
218 234 255
218 234 255
218 234 255
218 234 255
218 234 255
218 234 255
218 234 255
218 234 255
218 234 255
218 234 255
218 234 255
218 234 255
218 234 255
218 234 255
218 234 255
218 234 255
218 234 255
218 234 255
218 234 255
218 234 255
218 234 255
218 234 255
218 234 255
218 234 255
218 234 255
218 234 255
218 234 255
218 234 255
189 206 228
188 205 228
189 206 228
189 206 228
189 206 228
189 206 228
190 206 228
189 206 228
189 205 228
189 206 228
189 206 228
187 205 228
189 205 228
188 205 228
187 205 228
188 205 228
189 206 228
188 205 228
188 205 228
189 205 228
188 205 228
188 205 228
189 205 228
188 205 228
188 205 228
187 205 228
187 205 228
188 205 228
187 205 228
188 205 228
187 205 228
187 205 228
187 204 228
186 204 228
187 205 228
186 204 228
186 204 228
186 204 228
186 204 228
185 204 228
186 204 228
188 205 228
186 204 228
186 204 228
186 204 228
185 204 228
186 204 228
186 204 228
185 204 228
186 204 228
185 204 228
185 204 228
185 204 228
186 204 228
186 204 228
185 204 228
185 204 228
186 204 228
185 204 228
184 203 228
185 203 228
184 203 228
185 203 228
184 203 228
185 204 228
185 204 228
184 203 228
185 203 228
185 203 228
184 203 228
183 203 228
183 202 228
184 203 228
183 202 228
184 203 228
184 203 228
184 203 228
184 203 228
184 203 228
183 202 228
183 202 228
183 202 228
183 202 228
182 202 228
183 202 228
183 202 228
182 202 228
182 202 228
183 202 228
183 202 228
183 202 228
182 202 228
182 202 228
182 202 228
183 203 228
183 202 228
182 202 228
182 202 228
182 202 228
182 202 228
182 202 228
176 195 221
179 199 225
173 190 211
171 188 207
169 187 206
168 184 199
169 184 198
163 176 183
158 171 182
159 172 177
154 165 172
148 157 156
148 158 157
154 162 155
151 157 142
151 157 143
138 140 112
145 150 132
139 142 119
145 147 121
135 135 97
133 133 91
139 138 93
133 131 90
137 135 89
132 130 86
129 128 84
132 131 87
124 123 81
124 122 82
124 122 83
128 128 91
122 122 92
116 115 80
132 133 109
132 137 125
112 109 71
114 110 69
116 112 68
132 127 76
129 125 76
134 129 76
132 129 77
141 137 80
144 141 82
147 143 85
144 140 83
141 138 81
152 147 84
153 148 85
148 143 83
155 149 89
152 147 86
157 152 90
153 148 86
162 156 90
156 152 87
150 145 78
157 152 88
156 152 90
157 152 85
164 158 92
156 151 84
162 156 92
160 154 95
157 151 89
165 159 91
167 161 93
164 158 91
170 164 100
168 161 98
165 159 93
170 165 99
167 161 90
165 160 91
174 168 98
173 167 101
167 161 90
169 163 95
172 166 98
173 167 97
168 163 97
176 169 101
174 167 97
177 170 105
175 168 101
169 164 97
173 166 98
171 166 96
173 167 98
174 168 98
174 168 101
174 167 96
174 167 99
173 167 97
176 169 101
173 167 94
176 170 99
178 171 101
173 167 99
172 166 100
174 168 100
175 168 98
172 166 97
174 167 101
174 168 99
174 167 97
172 166 93
175 168 103
175 168 101
172 166 100
173 166 99
171 165 96
172 165 96
174 168 98
177 171 104
175 168 101
172 166 98
174 167 97
175 168 101
170 165 93
172 165 95
166 159 86
169 162 97
165 160 87
169 163 95
169 162 95
169 162 93
171 165 95
162 155 90
169 162 90
165 159 93
172 165 97
162 157 93
164 158 85
167 161 96
166 160 95
162 156 90
166 161 90
162 156 92
155 149 87
157 152 81
163 157 91
154 148 89
151 146 85
156 152 88
158 153 87
151 146 82
152 147 84
154 148 86
153 147 88
143 138 80
152 147 88
147 142 79
145 140 76
146 141 79
132 128 73
146 142 81
135 130 78
132 127 73
141 137 79
137 134 95
214 231 252
217 233 255
217 233 255
217 233 255
217 233 255
217 233 255
217 233 255
217 233 255
217 233 255
217 233 255
217 233 255
217 233 255
217 233 255
217 233 255
217 233 255
217 233 255
217 233 255
217 233 255
217 233 255
217 233 255
217 233 255
217 233 255
217 233 255
217 233 255
217 233 255
217 233 255
217 233 255
217 233 255
217 233 255
217 233 255
217 233 255
217 233 255
217 233 255
217 233 255
217 233 255
217 233 255
217 233 255
217 233 255
217 233 255
217 233 255
217 233 255
217 233 255
217 233 255
217 233 255
217 233 255
217 233 255
217 233 255
217 233 255
217 233 255
217 233 255
217 233 255
217 233 255
218 233 255
218 233 255
218 233 255
218 233 255
218 233 255
218 233 255
218 234 255
218 234 255
218 234 255
218 234 255
218 234 255
218 234 255
218 234 255
218 234 255
218 234 255
218 234 255
218 234 255
218 234 255
218 234 255
218 234 255
218 234 255
218 234 255
218 234 255
218 234 255
218 234 255
218 234 255
218 234 255
218 234 255
218 234 255
218 234 255
218 234 255
218 234 255
218 234 255
218 234 255
218 234 255
218 234 255
218 234 255
218 234 255
218 234 255
218 234 255
218 234 255
218 234 255
218 234 255
218 234 255
218 234 255
218 234 255
218 234 255
218 234 255
218 234 255
218 234 255
218 234 255
218 234 255
218 234 255
218 234 255
218 234 255
218 234 255
218 234 255
218 234 255
218 234 255
218 234 255
218 234 255
218 234 255
218 234 255
218 234 255
218 234 255
218 234 255
218 234 255
218 234 255
218 234 255
218 234 255
218 234 255
218 234 255
218 234 255
219 234 255
219 234 255
219 234 255
219 234 255
219 234 255
219 234 255
219 234 255
219 234 255
219 234 255
219 234 255
219 234 255
219 234 255
191 207 228
189 206 228
189 206 228
190 206 228
190 206 228
189 206 228
189 206 228
189 206 228
190 206 228
189 206 228
190 206 228
189 206 228
190 206 228
189 206 228
189 206 228
189 206 228
189 206 228
188 205 228
190 206 228
188 205 228
189 205 228
189 205 228
189 206 228
188 205 228
188 205 228
188 205 228
189 205 228
187 205 228
188 205 228
188 205 228
188 205 228
188 205 228
189 206 228
188 205 228
187 204 228
187 205 228
188 205 228
187 205 228
187 205 228
187 205 228
187 205 228
187 205 228
188 205 228
187 205 228
187 204 228
187 205 228
186 204 228
186 204 228
187 205 228
187 204 228
185 204 228
187 204 228
187 204 228
187 204 228
185 204 228
187 204 228
187 204 228
185 203 228
186 204 228
185 204 228
186 204 228
186 204 228
185 203 228
185 203 228
185 203 228
185 204 228
186 204 228
184 203 228
185 204 228
184 203 228
185 204 228
185 203 228
185 204 228
184 203 228
184 203 228
184 203 228
184 203 228
184 203 228
184 203 228
183 203 228
183 202 228
183 203 228
184 203 228
184 203 228
184 203 228
184 203 228
183 202 228
184 203 228
183 203 228
184 203 228
183 202 228
184 203 228
182 202 228
183 203 228
183 202 228
183 202 228
184 203 228
183 203 228
183 202 228
183 202 228
177 196 221
178 196 220
174 192 216
174 192 214
172 189 207
171 187 205
167 182 195
169 184 198
164 177 184
167 180 190
157 171 181
150 161 164
151 160 157
150 158 148
155 160 145
148 150 125
145 149 130
145 146 114
150 149 112
134 134 96
139 136 94
134 133 87
140 137 88
129 127 83
130 129 83
133 131 85
132 130 87
133 130 87
128 126 83
135 133 89
127 125 82
125 123 82
123 121 79
127 124 82
123 121 80
119 117 81
118 117 89
120 115 70
125 120 72
122 118 70
129 125 78
131 127 75
125 122 71
138 133 78
138 134 79
141 136 76
137 132 77
142 137 83
145 140 79
155 150 90
148 144 84
150 146 86
153 147 84
153 149 87
153 148 85
154 148 90
154 149 79
155 151 92
152 146 83
162 156 92
161 155 93
165 159 92
160 155 88
157 152 88
159 154 86
165 159 95
158 154 82
162 156 89
166 161 91
164 158 91
163 157 89
163 158 92
170 163 97
169 163 94
169 164 94
169 163 97
168 162 96
170 164 95
174 167 98
168 161 93
170 164 97
174 168 101
175 168 99
171 165 94
171 164 94
170 165 98
173 167 94
174 168 97
172 165 94
172 167 99
176 169 101
176 169 99
172 167 95
173 167 98
172 166 97
176 169 97
173 167 97
176 169 95
174 169 99
177 170 101
172 166 95
175 168 97
175 168 97
171 166 95
173 168 97
174 167 99
174 168 98
175 168 99
170 164 93
176 170 99
171 165 98
176 169 101
173 166 93
172 166 93
171 165 94
172 165 92
170 165 97
172 165 95
169 162 97
170 164 97
171 165 95
172 166 99
167 162 95
165 159 93
171 166 97
168 162 91
171 165 94
168 161 94
166 159 92
173 166 97
163 157 89
166 160 92
169 163 96
160 155 85
166 161 91
165 159 93
163 157 88
159 154 87
168 162 93
157 152 85
164 158 94
155 150 90
163 157 83
158 153 84
160 154 90
153 147 81
156 151 84
150 144 82
148 142 79
150 144 86
161 154 85
157 151 89
148 143 79
153 147 87
156 151 90
149 143 80
138 132 75
139 134 73
147 142 78
143 139 79
139 133 76
131 126 74
134 130 70
200 214 230
217 233 255
217 233 255
217 233 255
217 233 255
217 233 255
217 233 255
217 233 255
217 233 255
217 233 255
217 233 255
217 233 255
217 233 255
217 233 255
217 233 255
217 233 255
217 233 255
217 233 255
217 233 255
217 233 255
217 233 255
217 233 255
217 233 255
217 233 255
217 233 255
217 233 255
217 233 255
217 233 255
217 233 255
217 233 255
217 233 255
217 233 255
217 233 255
217 233 255
217 233 255
217 233 255
217 233 255
218 233 255
218 233 255
218 233 255
218 233 255
218 233 255
218 233 255
218 234 255
218 234 255
218 234 255
218 234 255
218 234 255
218 234 255
218 234 255
218 234 255
218 234 255
218 234 255
218 234 255
218 234 255
218 234 255
218 234 255
218 234 255
218 234 255
218 234 255
218 234 255
218 234 255
218 234 255
218 234 255
218 234 255
218 234 255
218 234 255
218 234 255
218 234 255
218 234 255
218 234 255
218 234 255
218 234 255
218 234 255
218 234 255
218 234 255
218 234 255
218 234 255
218 234 255
218 234 255
218 234 255
218 234 255
218 234 255
218 234 255
218 234 255
218 234 255
218 234 255
218 234 255
218 234 255
218 234 255
218 234 255
218 234 255
218 234 255
218 234 255
218 234 255
218 234 255
218 234 255
218 234 255
218 234 255
218 234 255
218 234 255
218 234 255
218 234 255
218 234 255
218 234 255
218 234 255
218 234 255
218 234 255
218 234 255
218 234 255
219 234 255
219 234 255
219 234 255
219 234 255
219 234 255
219 234 255
219 234 255
219 234 255
219 234 255
219 234 255
219 234 255
219 234 255
219 234 255
219 234 255
219 234 255
219 234 255
219 234 255
219 234 255
219 234 255
219 234 255
219 234 255
219 234 255
219 234 255
219 234 255
219 234 255
219 234 255
219 234 255
191 207 228
191 207 228
190 206 228
191 207 228
191 207 228
190 206 228
190 206 228
189 206 228
190 206 228
189 206 228
191 207 228
190 206 228
191 207 228
190 206 228
190 206 228
190 206 228
190 206 228
190 206 228
189 206 228
190 206 228
189 206 228
188 205 228
188 205 228
190 206 228
189 206 228
189 206 228
190 206 228
189 206 228
187 205 228
189 206 228
188 205 228
189 205 228
188 205 228
188 205 228
188 205 228
189 206 228
187 205 228
188 205 228
187 205 228
189 206 228
188 205 228
188 205 228
188 205 228
188 205 228
187 205 228
188 205 228
187 205 228
188 205 228
187 204 228
187 205 228
188 205 228
187 205 228
187 205 228
186 204 228
187 204 228
187 204 228
186 204 228
186 204 228
185 204 228
187 204 228
186 204 228
187 205 228
186 204 228
187 205 228
185 204 228
185 204 228
185 203 228
186 204 228
187 204 228
186 204 228
185 204 228
185 204 228
185 203 228
184 203 228
186 204 228
185 204 228
186 204 228
185 204 228
185 203 228
185 204 228
185 203 228
185 203 228
184 203 228
185 203 228
185 203 228
185 203 228
184 203 228
184 203 228
184 203 228
185 203 228
184 203 228
184 203 228
183 203 228
185 203 228
185 203 228
185 203 228
183 203 228
184 203 228
184 203 228
183 201 225
182 201 226
178 196 220
175 192 212
171 188 207
168 182 194
167 180 191
162 177 192
162 176 187
161 173 182
167 179 185
160 170 171
156 166 166
158 166 161
146 151 137
140 144 126
142 146 127
144 146 115
145 146 112
138 136 90
138 135 90
139 136 89
139 135 87
139 136 89
140 137 89
135 133 87
133 130 86
137 134 87
133 130 85
132 129 84
130 127 84
134 132 86
126 123 81
124 121 80
120 118 78
122 119 78
113 111 73
116 113 73
120 115 66
117 114 67
117 114 67
128 124 75
131 127 74
132 128 75
128 124 70
138 133 82
147 142 80
133 128 75
152 147 87
148 142 80
152 147 88
148 143 80
157 151 91
154 149 86
149 145 80
142 137 78
158 153 88
162 155 90
157 152 90
163 158 92
155 149 85
160 154 91
160 154 83
166 159 96
159 153 89
163 157 88
162 157 93
158 153 91
164 158 93
169 162 97
162 157 86
164 158 93
162 156 88
162 157 90
169 162 96
167 161 95
166 160 89
170 164 94
169 164 93
171 164 96
172 166 94
165 160 86
173 167 100
172 167 99
171 164 93
173 166 99
168 163 94
170 165 93
170 164 93
174 168 100
175 168 97
173 167 99
173 167 93
172 165 96
172 166 95
173 166 97
177 170 101
174 168 101
177 170 100
175 168 101
176 169 99
175 169 95
172 167 99
174 168 97
174 167 95
173 167 95
174 168 101
173 167 95
171 166 95
170 164 97
169 163 94
171 165 96
175 169 103
169 163 97
174 167 100
174 167 97
176 168 97
173 167 93
175 168 101
169 164 88
170 163 95
170 164 95
174 168 97
166 160 90
170 163 95
167 163 91
170 163 97
167 161 93
172 165 95
168 163 93
166 160 93
163 157 90
164 158 89
163 157 86
167 160 93
167 161 96
159 155 82
164 159 90
163 158 89
165 159 95
162 156 84
160 154 87
163 157 90
154 149 79
157 151 87
160 154 85
157 152 85
153 148 80
167 162 88
156 150 85
158 151 87
155 149 81
150 145 81
152 145 82
153 148 78
150 146 87
150 144 83
145 139 84
140 135 75
132 128 70
137 132 79
132 128 76
133 129 74
127 122 73
185 195 204
217 233 255
217 233 255
217 233 255
217 233 255
217 233 255
217 233 255
217 233 255
217 233 255
217 233 255
217 233 255
217 233 255
217 233 255
217 233 255
217 233 255
217 233 255
217 233 255
217 233 255
217 233 255
217 233 255
218 233 255
218 233 255
218 233 255
218 233 255
218 233 255
218 233 255
218 233 255
218 233 255
218 234 255
218 234 255
218 234 255
218 234 255
218 234 255
218 234 255
218 234 255
218 234 255
218 234 255
218 234 255
218 234 255
218 234 255
218 234 255
218 234 255
218 234 255
218 234 255
218 234 255
218 234 255
218 234 255
218 234 255
218 234 255
218 234 255
218 234 255
218 234 255
218 234 255
218 234 255
218 234 255
218 234 255
218 234 255
218 234 255
218 234 255
218 234 255
218 234 255
218 234 255
218 234 255
218 234 255
218 234 255
218 234 255
218 234 255
218 234 255
218 234 255
218 234 255
218 234 255
218 234 255
218 234 255
218 234 255
218 234 255
218 234 255
218 234 255
218 234 255
218 234 255
218 234 255
218 234 255
218 234 255
218 234 255
218 234 255
218 234 255
218 234 255
218 234 255
218 234 255
218 234 255
218 234 255
218 234 255
218 234 255
218 234 255
219 234 255
219 234 255
219 234 255
219 234 255
219 234 255
219 234 255
219 234 255
219 234 255
219 234 255
219 234 255
219 234 255
219 234 255
219 234 255
219 234 255
219 234 255
219 234 255
219 234 255
219 234 255
219 234 255
219 234 255
219 234 255
219 234 255
219 234 255
219 234 255
219 234 255
219 234 255
219 234 255
219 234 255
219 234 255
219 234 255
219 234 255
219 234 255
219 234 255
219 234 255
219 234 255
219 234 255
219 234 255
219 234 255
219 234 255
219 234 255
219 234 255
219 234 255
219 234 255
219 234 255
191 207 228
192 207 228
191 207 228
190 206 228
190 206 228
190 206 228
191 207 228
190 206 228
190 206 228
190 206 228
190 206 228
190 206 228
190 206 228
189 206 228
191 207 228
189 206 228
189 206 228
190 206 228
190 206 228
190 206 228
191 207 228
190 206 228
190 206 228
190 206 228
189 206 228
189 206 228
189 206 228
189 206 228
189 205 228
190 206 228
189 206 228
189 206 228
189 206 228
189 205 228
189 206 228
189 206 228
188 205 228
189 206 228
188 205 228
188 205 228
188 205 228
189 206 228
189 206 228
188 205 228
189 206 228
189 206 228
189 206 228
188 205 228
187 205 228
188 205 228
188 205 228
187 204 228
187 205 228
187 205 228
187 205 228
188 205 228
187 204 228
187 204 228
187 205 228
187 205 228
187 205 228
187 205 228
187 205 228
186 204 228
187 205 228
187 204 228
187 205 228
186 204 228
187 205 228
186 204 228
187 204 228
186 204 228
187 204 228
186 204 228
187 205 228
186 204 228
186 204 228
186 204 228
186 204 228
186 204 228
185 204 228
185 204 228
186 204 228
187 204 228
185 203 228
185 203 228
186 204 228
185 204 228
186 204 228
184 203 228
185 203 228
185 203 228
185 203 228
185 204 228
185 203 228
185 204 228
185 204 228
185 203 228
184 203 227
183 201 225
184 202 225
180 197 218
176 193 213
169 184 201
170 185 199
171 185 198
163 176 188
162 172 177
158 169 173
161 172 175
157 165 161
150 156 148
147 151 134
149 152 134
151 154 133
142 142 107
134 134 103
141 140 102
145 141 91
140 136 87
138 134 87
137 134 85
145 142 92
137 134 87
138 136 89
141 139 90
141 138 90
139 136 89
133 129 84
131 128 84
127 125 82
128 125 82
124 120 76
122 119 76
117 115 75
118 115 75
116 111 68
112 110 66
116 112 65
130 126 75
131 126 71
135 131 79
138 134 79
140 135 78
133 129 72
134 130 78
144 138 78
147 142 82
148 144 82
153 148 87
150 145 83
151 146 81
150 145 83
152 146 87
152 147 84
159 153 90
155 150 86
162 157 92
156 150 85
162 156 89
161 155 88
162 156 89
159 153 89
161 155 83
162 156 90
159 154 90
165 160 97
166 159 88
167 161 92
167 160 93
161 155 86
169 162 92
170 164 94
168 163 93
170 164 91
169 163 96
169 163 88
170 165 94
170 163 93
168 163 92
170 164 88
169 162 91
170 164 96
173 167 99
174 168 99
173 168 98
171 165 95
172 166 97
174 167 93
172 166 95
176 169 100
173 167 97
174 167 97
175 168 100
176 169 96
173 167 95
174 168 101
176 169 101
176 169 97
174 167 94
177 170 101
173 167 94
177 169 95
175 169 97
175 169 101
175 168 98
177 171 103
174 167 95
170 164 91
173 167 92
175 168 98
174 167 97
172 166 95
173 166 96
169 163 93
175 169 99
172 165 97
171 165 95
172 166 94
171 165 95
173 166 99
175 168 99
168 163 93
167 161 89
164 159 90
169 163 94
169 162 93
164 159 87
167 161 93
171 165 95
165 161 92
170 163 92
159 152 86
158 153 86
163 157 90
162 157 89
166 161 91
168 160 90
157 153 82
163 157 90
162 156 93
161 155 88
152 147 80
159 153 84
160 155 86
160 153 90
159 153 87
153 147 82
162 155 84
152 147 82
147 142 81
151 146 77
148 143 76
154 150 85
144 138 75
144 139 75
146 141 80
139 134 76
155 149 87
150 145 79
145 139 80
141 136 75
126 120 66
174 180 172
217 233 255
218 233 255
218 233 255
218 233 255
218 233 255
218 233 255
218 233 255
218 233 255
218 233 255
218 234 255
218 234 255
218 234 255
218 234 255
218 234 255
218 234 255
218 234 255
218 234 255
218 234 255
218 234 255
218 234 255
218 234 255
218 234 255
218 234 255
218 234 255
218 234 255
218 234 255
218 234 255
218 234 255
218 234 255
218 234 255
218 234 255
218 234 255
218 234 255
218 234 255
218 234 255
218 234 255
218 234 255
218 234 255
218 234 255
218 234 255
218 234 255
218 234 255
218 234 255
218 234 255
218 234 255
218 234 255
218 234 255
218 234 255
218 234 255
218 234 255
218 234 255
218 234 255
218 234 255
218 234 255
218 234 255
218 234 255
218 234 255
218 234 255
218 234 255
218 234 255
218 234 255
218 234 255
218 234 255
218 234 255
218 234 255
218 234 255
218 234 255
218 234 255
218 234 255
218 234 255
218 234 255
218 234 255
218 234 255
218 234 255
218 234 255
219 234 255
219 234 255
219 234 255
219 234 255
219 234 255
219 234 255
219 234 255
219 234 255
219 234 255
219 234 255
219 234 255
219 234 255
219 234 255
219 234 255
219 234 255
219 234 255
219 234 255
219 234 255
219 234 255
219 234 255
219 234 255
219 234 255
219 234 255
219 234 255
219 234 255
219 234 255
219 234 255
219 234 255
219 234 255
219 234 255
219 234 255
219 234 255
219 234 255
219 234 255
219 234 255
219 234 255
219 234 255
219 234 255
219 234 255
219 234 255
219 234 255
219 234 255
219 234 255
219 234 255
219 234 255
219 234 255
219 234 255
219 234 255
219 234 255
219 234 255
219 234 255
219 234 255
219 234 255
219 234 255
219 234 255
219 234 255
219 234 255
219 234 255
219 234 255
219 234 255
219 234 255
192 207 228
191 207 228
192 208 228
192 207 228
192 207 228
192 207 228
190 206 228
191 207 228
191 207 228
191 207 228
190 206 228
190 206 228
191 207 228
190 206 228
190 206 228
192 207 228
190 206 228
192 207 228
191 207 228
190 206 228
191 207 228
190 207 228
191 207 228
190 206 228
189 206 228
190 206 228
190 207 228
191 207 228
190 206 228
189 206 228
189 206 228
190 206 228
190 206 228
190 206 228
190 206 228
190 206 228
190 206 228
190 206 228
190 206 228
189 206 228
190 206 228
189 206 228
189 206 228
188 205 228
188 205 228
190 206 228
188 205 228
188 205 228
189 206 228
190 206 228
188 205 228
187 205 228
188 205 228
188 205 228
189 206 228
188 205 228
188 205 228
189 206 228
189 206 228
189 205 228
188 205 228
187 204 228
188 205 228
188 205 228
187 205 228
187 204 228
188 205 228
187 204 228
188 205 228
187 205 228
189 206 228
188 205 228
188 205 228
187 205 228
187 204 228
188 205 228
187 204 228
186 204 228
187 205 228
186 204 228
187 205 228
188 205 228
187 204 228
187 205 228
187 205 228
187 205 228
187 205 228
187 204 228
186 204 228
186 204 228
186 204 228
187 205 228
186 204 228
186 204 228
187 205 228
186 204 228
184 203 228
186 204 228
185 203 226
183 200 221
181 198 219
179 195 213
178 196 218
174 188 203
170 183 194
165 177 184
171 183 193
160 170 170
160 168 166
155 163 161
151 158 152
155 161 146
148 152 136
150 155 141
142 145 121
144 144 111
145 142 101
138 134 85
131 128 81
141 137 88
142 137 87
139 136 87
137 134 86
134 132 84
138 135 85
143 140 91
134 132 86
140 137 88
135 131 84
132 129 83
130 127 82
129 126 81
122 119 77
116 111 68
124 119 76
121 118 76
117 113 63
120 116 64
120 115 66
125 120 72
133 128 77
139 134 73
137 133 77
142 137 80
144 139 79
145 139 80
137 133 75
152 146 82
145 141 81
146 140 81
139 135 74
149 144 82
151 145 83
154 148 86
145 141 78
148 144 78
150 145 81
159 154 84
156 151 87
157 153 88
164 158 95
155 149 86
160 156 86
163 158 92
156 151 82
158 152 85
162 157 89
164 158 93
165 159 92
167 161 93
168 163 90
167 161 95
168 162 92
169 162 94
166 160 87
166 160 89
169 163 95
170 165 94
165 159 91
175 167 100
169 162 90
172 165 99
171 164 95
174 168 99
170 163 88
171 165 92
175 168 97
173 167 95
173 167 96
173 167 96
172 165 90
172 166 89
174 168 95
169 164 90
171 165 96
175 168 100
172 166 93
175 168 97
175 169 98
175 169 99
172 166 96
174 167 95
171 165 90
173 168 97
172 167 98
173 167 95
174 167 95
173 167 93
174 167 95
176 169 96
177 170 101
173 167 95
170 164 91
174 167 99
172 166 96
174 167 95
170 163 95
171 164 96
175 168 98
173 166 95
174 168 96
175 168 96
172 165 97
175 167 95
169 163 93
167 162 94
175 168 97
167 161 92
168 162 95
167 160 90
173 167 98
171 165 93
167 161 88
166 159 90
166 160 89
164 158 90
166 161 91
169 163 91
169 162 95
163 157 91
154 149 82
164 158 89
165 159 93
166 159 91
156 150 82
162 156 86
161 154 87
162 156 87
155 149 82
155 149 79
143 137 72
149 143 79
150 144 80
143 137 78
154 148 87
148 142 80
145 139 81
153 147 80
147 142 84
144 139 79
129 125 68
144 138 79
138 133 73
151 150 114
218 234 255
218 234 255
218 234 255
218 234 255
218 234 255
218 234 255
218 234 255
218 234 255
218 234 255
218 234 255
218 234 255
218 234 255
218 234 255
218 234 255
218 234 255
218 234 255
218 234 255
218 234 255
218 234 255
218 234 255
218 234 255
218 234 255
218 234 255
218 234 255
218 234 255
218 234 255
218 234 255
218 234 255
218 234 255
218 234 255
218 234 255
218 234 255
218 234 255
218 234 255
218 234 255
218 234 255
218 234 255
218 234 255
218 234 255
218 234 255
218 234 255
218 234 255
218 234 255
218 234 255
218 234 255
218 234 255
218 234 255
218 234 255
218 234 255
218 234 255
218 234 255
218 234 255
218 234 255
218 234 255
218 234 255
218 234 255
219 234 255
219 234 255
219 234 255
219 234 255
219 234 255
219 234 255
219 234 255
219 234 255
219 234 255
219 234 255
219 234 255
219 234 255
219 234 255
219 234 255
219 234 255
219 234 255
219 234 255
219 234 255
219 234 255
219 234 255
219 234 255
219 234 255
219 234 255
219 234 255
219 234 255
219 234 255
219 234 255
219 234 255
219 234 255
219 234 255
219 234 255
219 234 255
219 234 255
219 234 255
219 234 255
219 234 255
219 234 255
219 234 255
219 234 255
219 234 255
219 234 255
219 234 255
219 234 255
219 234 255
219 234 255
219 234 255
219 234 255
219 234 255
219 234 255
219 234 255
219 234 255
219 234 255
219 234 255
219 234 255
219 234 255
219 234 255
219 234 255
219 234 255
219 234 255
219 234 255
219 234 255
219 234 255
219 234 255
219 234 255
219 234 255
219 234 255
219 234 255
219 234 255
219 234 255
219 234 255
219 234 255
219 234 255
219 234 255
219 234 255
219 234 255
219 234 255
219 234 255
219 234 255
219 234 255
219 234 255
191 207 227
190 206 224
190 206 224
192 207 226
193 208 227
192 207 228
192 207 228
191 207 227
193 208 228
191 207 228
191 207 228
192 207 228
191 207 228
191 207 228
192 207 228
191 207 228
191 207 228
192 207 228
191 207 228
191 207 228
192 207 228
191 207 228
191 207 228
191 207 228
191 207 228
190 206 228
190 206 228
191 207 228
191 207 228
191 207 228
190 206 228
191 207 228
190 206 228
191 207 228
190 206 228
190 206 228
190 206 228
190 206 228
189 205 228
190 206 228
190 206 228
189 206 228
190 206 228
190 206 228
190 206 228
190 206 228
189 206 228
190 206 228
190 206 228
189 205 228
189 206 228
190 206 228
190 206 228
190 206 228
190 206 228
189 206 228
188 205 228
189 206 228
188 205 228
189 206 228
190 206 228
188 205 228
189 206 228
190 206 228
188 205 228
187 205 228
188 205 228
187 205 228
188 205 228
188 205 228
189 206 228
188 205 228
188 205 228
188 205 228
188 205 228
188 205 228
188 205 228
189 205 228
187 205 228
187 205 228
188 205 228
187 204 228
188 205 228
187 205 228
188 205 228
187 205 228
186 204 228
187 205 228
187 205 228
187 204 228
187 205 228
188 205 228
187 205 228
186 204 228
186 204 228
187 205 228
187 205 228
186 204 228
186 203 227
185 201 222
184 201 221
175 190 207
179 194 212
171 184 196
169 182 193
167 177 181
162 174 180
158 168 171
164 172 169
160 168 162
154 160 151
152 157 145
152 153 129
148 149 114
140 140 109
139 138 101
134 130 87
140 136 84
142 139 89
136 133 84
139 135 86
147 143 92
144 140 90
138 136 86
146 141 90
140 137 89
140 136 87
132 129 84
133 131 83
133 130 85
133 129 83
129 126 81
123 119 75
128 125 80
121 116 74
113 110 71
108 103 61
121 118 69
121 117 71
122 119 69
137 132 74
126 121 65
142 137 75
142 137 79
134 129 72
149 144 80
143 138 81
146 142 81
150 147 86
146 141 83
149 145 80
153 149 78
151 146 85
152 147 81
150 144 80
156 150 84
152 147 82
154 148 81
158 152 81
157 151 84
158 153 85
156 151 83
161 155 91
161 155 88
162 156 85
163 157 88
166 159 92
158 153 81
165 160 89
162 156 90
165 159 87
171 164 96
163 158 87
169 163 91
166 158 87
165 161 85
170 164 96
172 166 94
172 165 97
169 163 95
168 162 92
170 164 93
172 165 93
166 161 90
171 164 94
173 166 97
168 163 88
170 163 87
174 167 93
172 166 96
172 167 97
172 166 90
173 166 90
173 167 94
169 163 84
174 168 95
172 166 92
171 165 90
173 167 93
175 168 97
173 166 95
172 167 95
175 168 97
174 168 96
175 168 95
174 168 96
170 165 91
176 169 99
173 167 97
170 165 93
168 162 91
178 170 98
172 166 95
175 168 96
173 166 94
175 169 94
173 166 96
167 162 90
171 165 95
170 164 90
171 166 97
170 163 93
170 163 91
174 167 97
170 164 94
171 165 91
174 167 98
169 162 92
170 163 90
163 158 85
161 155 85
166 159 91
163 156 93
166 160 93
161 156 91
160 154 81
166 159 93
168 162 96
159 153 83
162 156 87
162 156 90
157 151 84
164 158 90
156 150 80
165 159 95
155 149 82
154 149 84
164 159 89
152 147 78
157 151 86
139 135 74
164 158 91
156 151 80
156 150 90
155 150 85
141 136 76
150 144 80
137 133 72
148 142 84
146 141 80
135 130 68
137 133 77
118 113 65
133 130 75
217 233 253
218 234 255
218 234 255
218 234 255
218 234 255
218 234 255
218 234 255
218 234 255
218 234 255
218 234 255
218 234 255
218 234 255
218 234 255
218 234 255
218 234 255
218 234 255
218 234 255
218 234 255
218 234 255
218 234 255
218 234 255
218 234 255
218 234 255
218 234 255
218 234 255
218 234 255
218 234 255
218 234 255
218 234 255
218 234 255
218 234 255
218 234 255
218 234 255
218 234 255
218 234 255
218 234 255
218 234 255
219 234 255
219 234 255
219 234 255
219 234 255
219 234 255
219 234 255
219 234 255
219 234 255
219 234 255
219 234 255
219 234 255
219 234 255
219 234 255
219 234 255
219 234 255
219 234 255
219 234 255
219 234 255
219 234 255
219 234 255
219 234 255
219 234 255
219 234 255
219 234 255
219 234 255
219 234 255
219 234 255
219 234 255
219 234 255
219 234 255
219 234 255
219 234 255
219 234 255
219 234 255
219 234 255
219 234 255
219 234 255
219 234 255
219 234 255
219 234 255
219 234 255
219 234 255
219 234 255
219 234 255
219 234 255
219 234 255
219 234 255
219 234 255
219 234 255
219 234 255
219 234 255
219 234 255
219 234 255
219 234 255
219 234 255
219 234 255
219 234 255
219 234 255
219 234 255
219 234 255
219 234 255
219 234 255
219 234 255
219 234 255
219 234 255
219 234 255
219 234 255
219 234 255
219 234 255
219 234 255
219 234 255
219 234 255
219 234 255
219 234 255
219 234 255
219 234 255
219 234 255
219 234 255
219 234 255
219 234 255
219 234 255
219 234 255
219 234 255
219 234 255
219 234 255
219 234 255
219 234 255
219 234 255
219 234 255
219 234 255
219 234 255
219 234 255
219 234 255
219 234 255
219 235 255
219 235 255
219 235 255
219 235 255
219 235 255
190 205 220
189 205 220
190 206 224
190 206 224
191 206 221
190 206 221
191 206 221
193 208 227
191 206 224
191 207 226
190 206 225
191 206 224
192 207 227
191 207 227
190 206 225
191 207 227
192 207 227
191 207 227
191 207 227
191 207 228
192 207 227
192 208 228
191 207 228
192 207 228
191 207 228
191 207 228
190 207 228
192 207 228
191 207 228
192 207 228
192 207 228
190 206 228
191 207 228
191 207 228
191 207 228
191 207 228
190 206 228
191 207 228
191 207 228
189 206 228
190 206 228
191 207 228
190 206 228
190 206 228
191 207 228
190 206 228
190 206 228
191 207 228
190 206 228
191 207 228
191 207 228
190 206 228
190 206 228
190 206 228
190 206 228
191 207 228
190 207 228
190 206 228
190 206 228
190 206 228
190 206 228
189 206 228
190 206 228
190 206 228
189 206 228
188 205 228
188 205 228
189 206 228
189 206 228
189 206 228
190 206 228
188 205 228
190 206 228
189 206 228
188 205 228
189 206 228
190 206 228
187 205 228
189 206 228
189 206 228
189 205 228
189 206 228
189 206 228
188 205 228
188 205 228
188 205 228
188 205 228
189 206 228
188 205 228
189 205 228
188 205 228
188 205 228
189 205 228
188 205 228
187 205 228
188 205 228
188 205 228
188 205 228
183 200 221
182 199 220
179 195 215
179 194 212
181 196 213
171 185 197
170 183 195
170 182 192
167 177 181
163 173 176
163 171 163
154 161 154
153 158 147
154 159 141
144 145 121
145 145 110
139 137 97
129 126 78
138 135 85
145 140 84
137 132 81
140 137 86
141 137 86
144 140 90
137 132 82
142 137 85
137 132 82
143 139 88
134 130 81
135 132 83
133 129 82
128 124 79
126 121 76
130 127 80
122 118 75
123 117 71
123 118 73
117 111 70
114 110 64
120 115 67
121 117 68
124 120 68
131 127 73
131 128 72
137 132 75
136 131 72
137 133 77
147 141 78
148 143 82
143 139 77
143 139 82
160 154 89
152 147 85
152 146 85
147 142 83
154 149 83
155 149 83
157 152 85
152 147 82
160 155 90
162 157 86
164 158 91
159 154 83
158 152 85
163 158 90
171 163 94
162 156 85
161 156 85
163 158 89
168 162 94
164 159 89
161 155 87
163 157 87
165 159 86
170 163 92
174 167 97
166 161 97
168 162 94
162 156 88
168 162 87
170 163 94
175 168 96
170 165 93
169 163 95
171 164 93
173 167 94
172 166 93
172 166 92
172 166 96
173 167 92
172 164 94
174 167 96
174 167 93
175 168 95
171 165 91
173 166 94
175 167 95
175 168 96
172 166 93
173 166 90
175 169 97
174 168 96
175 168 95
172 166 93
173 167 93
177 170 97
174 167 96
176 170 98
174 168 92
175 169 98
175 169 96
173 167 101
174 168 95
173 167 95
168 163 88
174 167 99
171 165 93
173 167 96
171 165 87
171 165 87
170 165 94
172 165 91
166 161 87
173 166 98
169 163 87
166 159 86
168 161 91
172 165 94
168 161 90
169 163 91
167 161 93
170 163 93
171 165 94
168 163 90
160 154 83
160 154 84
165 158 89
167 160 86
155 149 80
167 160 91
165 159 87
163 156 87
164 158 93
155 150 79
160 154 84
157 151 82
158 152 87
166 159 87
158 153 86
153 148 83
157 153 85
154 149 85
150 144 76
158 152 87
148 144 84
154 148 84
146 141 78
155 149 84
155 148 83
146 140 78
141 136 81
140 136 74
139 133 78
137 132 75
142 137 79
135 130 74
208 222 239
218 234 255
218 234 255
218 234 255
218 234 255
218 234 255
218 234 255
218 234 255
218 234 255
218 234 255
218 234 255
218 234 255
218 234 255
218 234 255
219 234 255
219 234 255
219 234 255
219 234 255
219 234 255
219 234 255
219 234 255
219 234 255
219 234 255
219 234 255
219 234 255
219 234 255
219 234 255
219 234 255
219 234 255
219 234 255
219 234 255
219 234 255
219 234 255
219 234 255
219 234 255
219 234 255
219 234 255
219 234 255
219 234 255
219 234 255
219 234 255
219 234 255
219 234 255
219 234 255
219 234 255
219 234 255
219 234 255
219 234 255
219 234 255
219 234 255
219 234 255
219 234 255
219 234 255
219 234 255
219 234 255
219 234 255
219 234 255
219 234 255
219 234 255
219 234 255
219 234 255
219 234 255
219 234 255
219 234 255
219 234 255
219 234 255
219 234 255
219 234 255
219 234 255
219 234 255
219 234 255
219 234 255
219 234 255
219 234 255
219 234 255
219 234 255
219 234 255
219 234 255
219 234 255
219 234 255
219 234 255
219 234 255
219 234 255
219 234 255
219 234 255
219 234 255
219 234 255
219 234 255
219 234 255
219 234 255
219 234 255
219 234 255
219 234 255
219 234 255
219 234 255
219 234 255
219 234 255
219 234 255
219 234 255
219 234 255
219 234 255
219 234 255
219 234 255
219 234 255
219 234 255
219 234 255
219 234 255
219 235 255
219 235 255
219 235 255
219 235 255
219 235 255
219 235 255
219 235 255
219 235 255
219 235 255
219 235 255
219 235 255
219 235 255
219 235 255
219 235 255
219 235 255
219 235 255
220 235 255
220 235 255
220 235 255
220 235 255
220 235 255
220 235 255
220 235 255
220 235 255
220 235 255
220 235 255
220 235 255
220 235 255
220 235 255
190 205 219
192 207 225
190 206 223
191 207 226
190 206 220
189 205 218
192 207 225
190 206 221
191 206 221
190 206 223
192 207 225
190 206 225
190 206 220
191 207 224
191 206 223
190 206 224
192 207 224
190 206 221
190 206 223
191 206 226
190 205 221
191 206 224
191 207 226
192 207 227
190 206 226
191 207 226
189 205 225
191 206 225
190 206 225
192 207 228
190 206 225
191 207 227
191 207 227
191 206 226
191 207 227
190 206 226
191 207 228
192 207 227
191 207 228
192 207 228
191 207 228
192 207 228
191 207 228
191 207 228
192 207 228
192 207 228
191 207 228
190 206 228
191 207 228
191 207 228
191 207 228
191 207 228
190 206 228
190 206 228
192 207 228
190 206 228
191 207 228
190 206 228
191 207 228
191 207 228
191 207 228
190 206 228
189 206 228
190 206 228
191 207 228
190 206 228
191 207 228
190 206 228
191 207 228
190 206 228
188 205 228
191 207 228
189 206 228
189 206 228
190 206 228
189 206 228
190 206 228
190 206 228
189 206 228
190 206 228
190 206 228
190 206 228
189 206 228
190 206 228
189 206 228
190 206 228
190 206 228
188 205 228
189 206 228
188 205 228
189 206 228
189 206 228
189 206 228
190 206 228
190 206 228
189 206 228
189 206 228
188 204 226
187 202 223
185 201 219
182 196 214
175 190 208
178 192 207
173 186 194
171 185 197
164 174 175
162 172 175
156 164 162
158 167 168
160 166 155
147 151 133
154 159 143
147 148 125
146 144 104
138 135 88
141 137 79
139 135 80
133 129 77
141 137 86
142 138 84
135 132 82
138 135 84
141 137 83
139 135 84
138 134 83
139 135 83
133 128 79
137 133 83
123 120 74
128 123 74
130 124 77
131 127 80
118 113 71
118 115 74
114 108 67
106 101 60
106 100 59
116 111 67
121 117 69
134 129 77
132 129 76
121 116 65
129 125 72
144 139 78
141 136 74
143 138 79
144 140 77
138 133 73
142 138 81
146 140 76
152 145 82
143 138 75
149 144 81
151 146 80
157 151 81
157 150 83
163 156 87
153 147 82
158 152 80
145 140 79
157 151 86
162 157 89
164 158 89
161 155 84
164 157 88
160 154 86
171 163 91
165 160 91
166 159 85
168 162 88
166 160 87
165 159 85
165 159 90
168 161 91
171 164 94
166 160 92
168 162 84
167 161 89
171 164 88
168 162 88
172 166 92
173 166 92
171 164 93
172 165 94
172 165 93
173 166 95
172 166 94
168 163 87
168 162 85
172 166 91
176 170 100
176 170 97
171 166 94
172 166 93
172 167 95
174 168 93
174 168 95
174 168 95
176 170 100
170 165 92
175 169 97
176 169 96
176 169 99
177 169 93
177 171 101
171 166 91
175 168 93
175 169 97
170 165 89
174 167 98
171 165 92
170 165 90
168 162 89
174 168 92
175 169 96
174 167 94
172 166 90
171 165 93
173 166 93
172 165 91
175 168 97
168 161 84
171 164 89
168 163 93
166 161 91
170 163 89
167 162 89
172 165 93
169 162 87
166 160 91
167 161 87
160 154 86
164 158 87
166 159 86
162 156 88
165 159 92
172 166 96
154 150 81
162 156 84
165 159 87
162 155 87
166 160 91
155 149 84
161 154 86
160 154 87
160 155 85
154 148 82
161 154 88
155 150 81
156 150 87
153 147 82
155 150 84
154 149 86
148 143 82
156 150 84
142 138 77
148 143 82
147 141 72
146 141 75
138 132 75
140 134 75
141 136 75
127 121 65
140 133 75
197 209 221
219 234 255
219 234 255
219 234 255
219 234 255
219 234 255
219 234 255
219 234 255
219 234 255
219 234 255
219 234 255
219 234 255
219 234 255
219 234 255
219 234 255
219 234 255
219 234 255
219 234 255
219 234 255
219 234 255
219 234 255
219 234 255
219 234 255
219 234 255
219 234 255
219 234 255
219 234 255
219 234 255
219 234 255
219 234 255
219 234 255
219 234 255
219 234 255
219 234 255
219 234 255
219 234 255
219 234 255
219 234 255
219 234 255
219 234 255
219 234 255
219 234 255
219 234 255
219 234 255
219 234 255
219 234 255
219 234 255
219 234 255
219 234 255
219 234 255
219 234 255
219 234 255
219 234 255
219 234 255
219 234 255
219 234 255
219 234 255
219 234 255
219 234 255
219 234 255
219 234 255
219 234 255
219 234 255
219 234 255
219 234 255
219 234 255
219 234 255
219 234 255
219 234 255
219 234 255
219 234 255
219 234 255
219 234 255
219 234 255
219 234 255
219 234 255
219 234 255
219 234 255
219 234 255
219 234 255
219 234 255
219 234 255
219 235 255
219 235 255
219 235 255
219 235 255
219 235 255
219 235 255
219 235 255
219 235 255
219 235 255
219 235 255
219 235 255
219 235 255
220 235 255
219 235 255
220 235 255
220 235 255
220 235 255
220 235 255
220 235 255
220 235 255
220 235 255
220 235 255
220 235 255
220 235 255
220 235 255
220 235 255
220 235 255
220 235 255
220 235 255
220 235 255
220 235 255
220 235 255
220 235 255
220 235 255
220 235 255
220 235 255
220 235 255
220 235 255
220 235 255
220 235 255
220 235 255
220 235 255
220 235 255
220 235 255
220 235 255
220 235 255
220 235 255
220 235 255
220 235 255
220 235 255
220 235 255
220 235 255
220 235 255
220 235 255
191 206 219
189 205 217
188 204 217
187 204 213
188 204 214
189 205 218
190 205 218
191 206 223
188 204 218
189 204 213
190 205 219
188 204 213
189 205 217
190 205 220
190 205 220
191 206 224
189 205 220
191 206 220
190 206 221
190 206 220
192 207 223
187 204 217
191 206 223
190 206 223
193 208 225
191 206 220
189 204 214
191 206 223
190 206 220
190 206 223
190 206 221
191 207 226
191 207 227
190 205 217
190 206 221
192 207 226
191 207 226
191 207 226
191 206 225
191 206 224
191 207 226
189 205 220
191 207 227
190 206 223
192 207 226
191 207 227
192 207 227
190 206 225
192 207 228
191 207 226
191 207 227
191 207 228
191 207 228
191 207 227
191 207 226
191 207 227
191 207 228
191 207 228
191 207 228
191 207 228
192 207 228
191 207 228
192 207 228
191 207 228
191 207 228
190 206 228
191 207 228
191 207 228
191 207 228
191 207 228
190 206 228
191 207 228
190 206 228
191 207 228
190 206 228
191 207 228
190 206 228
191 207 228
190 206 228
190 206 228
191 207 228
190 206 228
192 207 228
189 206 228
190 206 228
190 206 228
191 207 228
190 206 228
190 207 228
191 207 228
189 206 228
190 206 228
189 206 228
190 206 228
189 206 228
189 205 228
190 206 228
188 204 225
185 200 219
179 194 213
179 194 212
179 192 207
179 191 201
174 187 199
166 176 184
172 182 186
158 167 171
164 173 170
167 174 169
154 158 144
146 148 124
148 149 120
149 149 113
147 146 109
138 135 82
139 134 81
143 138 87
142 137 85
139 135 80
144 139 84
140 137 81
141 137 83
139 135 81
146 140 86
139 134 80
137 132 82
137 132 78
136 130 82
133 128 81
130 123 73
130 124 78
120 113 68
117 110 67
119 112 67
113 105 63
108 101 57
118 112 60
122 118 66
118 114 65
129 124 68
126 121 69
127 122 72
134 129 74
134 129 70
136 132 78
142 137 76
149 143 81
150 145 84
161 154 89
147 141 79
155 149 86
149 143 77
147 141 80
158 152 84
152 147 81
153 147 86
153 147 78
158 153 83
157 151 86
159 153 83
160 155 84
161 155 84
156 150 83
162 157 90
163 157 86
166 160 85
157 152 83
164 157 87
165 160 87
165 160 87
170 164 97
164 158 85
165 159 85
169 162 89
170 163 86
165 159 82
167 161 87
169 162 89
170 164 91
171 164 94
173 166 94
170 164 90
168 162 87
168 162 86
172 165 90
169 163 92
171 165 90
171 165 93
170 164 90
172 166 92
170 165 84
176 169 95
174 168 95
172 166 90
175 167 93
175 168 94
174 168 95
178 171 103
174 167 97
173 166 93
174 167 93
172 165 87
177 170 101
172 167 95
176 169 96
172 166 90
176 169 99
172 165 93
171 165 95
171 165 90
174 168 95
173 167 92
172 166 93
174 167 95
173 167 92
172 165 89
169 163 92
167 161 89
173 166 93
170 165 90
169 162 90
171 164 92
170 164 92
173 166 90
166 160 87
165 158 90
172 166 92
169 163 87
168 161 92
166 161 86
165 158 87
160 155 82
167 160 87
169 163 94
169 163 88
164 158 87
163 157 84
167 160 87
166 159 85
165 158 83
152 147 79
159 153 82
160 154 82
166 160 90
161 156 87
158 152 83
155 149 80
162 156 89
151 145 81
150 144 80
150 144 84
146 141 79
144 140 78
151 145 85
149 143 80
143 139 70
147 142 79
147 142 80
144 140 78
133 128 68
140 135 75
135 129 73
144 138 74
126 121 60
180 190 196
219 234 255
219 234 255
219 234 255
219 234 255
219 234 255
219 234 255
219 234 255
219 234 255
219 234 255
219 234 255
219 234 255
219 234 255
219 234 255
219 234 255
219 234 255
219 234 255
219 234 255
219 234 255
219 234 255
219 234 255
219 234 255
219 234 255
219 234 255
219 234 255
219 234 255
219 234 255
219 234 255
219 234 255
219 234 255
219 234 255
219 234 255
219 234 255
219 234 255
219 234 255
219 234 255
219 234 255
219 234 255
219 234 255
219 234 255
219 234 255
219 234 255
219 234 255
219 234 255
219 234 255
219 234 255
219 234 255
219 234 255
219 234 255
219 234 255
219 234 255
219 234 255
219 234 255
219 234 255
219 235 255
219 235 255
219 235 255
219 235 255
219 235 255
219 235 255
219 235 255
219 235 255
219 235 255
219 235 255
219 235 255
219 235 255
219 235 255
219 235 255
219 235 255
220 235 255
220 235 255
220 235 255
220 235 255
220 235 255
220 235 255
220 235 255
220 235 255
220 235 255
220 235 255
220 235 255
220 235 255
220 235 255
220 235 255
220 235 255
220 235 255
220 235 255
220 235 255
220 235 255
220 235 255
220 235 255
220 235 255
220 235 255
220 235 255
220 235 255
220 235 255
220 235 255
220 235 255
220 235 255
220 235 255
220 235 255
220 235 255
220 235 255
220 235 255
220 235 255
220 235 255
220 235 255
220 235 255
220 235 255
220 235 255
220 235 255
220 235 255
220 235 255
220 235 255
220 235 255
220 235 255
220 235 255
220 235 255
220 235 255
220 235 255
220 235 255
220 235 255
220 235 255
220 235 255
220 235 255
220 235 255
220 235 255
220 235 255
220 235 255
220 235 255
220 235 255
220 235 255
220 235 255
220 235 255
220 235 255
220 235 255
220 235 255
188 204 214
186 202 203
187 203 208
189 204 216
187 203 207
188 204 212
189 205 219
189 205 216
189 204 213
190 205 218
189 205 217
190 205 220
189 204 216
191 206 221
188 204 214
188 204 212
190 206 220
189 204 211
189 205 217
187 203 211
190 205 218
191 206 224
189 205 217
191 207 225
189 205 221
190 205 219
187 203 211
190 206 223
189 204 216
190 206 224
191 206 224
190 205 218
190 206 221
189 205 217
189 205 217
190 206 220
190 206 221
191 206 224
189 204 214
191 206 224
190 206 224
189 205 219
189 205 220
191 206 224
189 205 221
189 205 219
189 205 218
190 206 223
190 206 223
189 205 218
190 205 219
188 204 218
191 207 225
192 207 227
190 206 225
190 206 224
191 207 228
191 206 224
191 207 226
189 205 224
191 206 223
190 206 220
192 207 226
191 207 226
191 206 226
191 206 226
192 207 226
191 207 227
190 206 225
191 206 224
190 206 225
191 206 223
190 206 227
191 207 227
191 206 226
190 206 228
191 207 227
190 206 226
191 207 228
191 206 225
191 207 228
192 207 227
191 207 226
191 207 228
191 207 228
192 207 228
190 206 227
190 206 226
191 207 227
190 207 228
191 207 227
190 207 228
190 206 228
192 207 227
191 207 228
191 207 228
191 207 228
191 207 228
185 200 219
181 195 210
180 195 211
181 194 209
172 184 195
172 184 193
175 185 192
163 173 177
161 168 165
168 177 180
158 164 156
156 159 145
154 157 138
147 148 123
148 147 113
143 139 88
143 138 84
134 130 77
141 137 78
147 142 83
138 134 80
138 133 83
138 133 79
145 140 84
142 137 84
147 142 88
140 135 79
135 130 79
137 133 78
133 128 76
131 125 74
131 126 77
123 118 71
125 119 71
113 105 61
118 112 68
110 101 57
110 105 61
113 108 60
117 112 61
125 120 64
132 128 76
134 129 68
140 135 74
136 132 75
140 135 75
144 139 77
140 135 78
141 136 75
140 135 72
148 142 80
150 144 81
150 145 81
149 144 73
152 147 78
153 147 80
151 146 77
153 147 82
151 147 74
157 151 81
159 153 89
158 153 77
163 158 86
161 156 83
163 158 93
164 157 85
164 158 87
163 157 84
165 159 87
159 153 84
162 155 78
163 156 84
167 160 89
168 161 90
170 164 95
170 163 92
167 161 89
168 162 90
164 157 85
166 160 86
168 162 90
167 161 87
173 167 90
170 163 89
168 161 89
172 165 89
173 166 92
165 160 80
171 165 93
174 167 95
174 167 94
172 165 94
171 165 90
170 164 84
176 169 94
174 167 91
174 168 97
172 166 87
174 167 92
172 167 93
175 168 90
174 167 94
171 165 84
174 167 93
174 167 94
170 164 83
172 166 90
175 168 90
174 167 89
176 169 92
172 166 86
169 164 87
174 167 90
174 167 90
173 166 90
170 164 92
173 167 95
173 166 93
170 164 87
175 168 99
176 170 97
172 166 91
172 166 93
171 164 90
170 163 90
169 163 87
170 164 93
171 165 92
171 164 86
167 162 87
165 158 87
175 167 93
169 163 94
160 154 80
165 159 85
167 160 88
169 162 89
162 157 83
161 154 84
164 158 84
164 158 80
158 152 80
163 157 87
164 157 85
159 153 83
162 155 85
158 153 80
151 145 75
159 153 84
157 151 83
152 146 83
146 141 74
150 143 79
145 140 76
156 150 84
164 158 93
144 138 75
153 147 79
151 146 80
146 140 74
145 139 77
148 142 76
139 133 72
138 132 74
133 128 70
130 125 68
176 182 181
219 234 255
219 234 255
219 234 255
219 234 255
219 234 255
219 234 255
219 234 255
219 234 255
219 234 255
219 234 255
219 234 255
219 234 255
219 234 255
219 234 255
219 234 255
219 234 255
219 234 255
219 234 255
219 234 255
219 234 255
219 234 255
219 234 255
219 234 255
219 235 255
219 235 255
219 235 255
219 235 255
219 235 255
219 235 255
219 235 255
219 235 255
219 235 255
219 235 255
219 235 255
219 235 255
219 235 255
219 235 255
220 235 255
219 235 255
220 235 255
220 235 255
220 235 255
220 235 255
220 235 255
220 235 255
220 235 255
220 235 255
220 235 255
220 235 255
220 235 255
220 235 255
220 235 255
220 235 255
220 235 255
220 235 255
220 235 255
220 235 255
220 235 255
220 235 255
220 235 255
220 235 255
220 235 255
220 235 255
220 235 255
220 235 255
220 235 255
220 235 255
220 235 255
220 235 255
220 235 255
220 235 255
220 235 255
220 235 255
220 235 255
220 235 255
220 235 255
220 235 255
220 235 255
220 235 255
220 235 255
220 235 255
220 235 255
220 235 255
220 235 255
220 235 255
220 235 255
220 235 255
220 235 255
220 235 255
220 235 255
220 235 255
220 235 255
220 235 255
220 235 255
220 235 255
220 235 255
220 235 255
220 235 255
220 235 255
220 235 255
220 235 255
220 235 255
220 235 255
220 235 255
220 235 255
220 235 255
220 235 255
220 235 255
220 235 255
220 235 255
220 235 255
220 235 255
220 235 255
220 235 255
220 235 255
220 235 255
220 235 255
220 235 255
220 235 255
220 235 255
220 235 255
220 235 255
220 235 255
220 235 255
220 235 255
220 235 255
220 235 255
220 235 255
220 235 255
220 235 255
220 235 255
220 235 255
220 235 255
220 235 255
220 235 255
188 203 209
188 203 211
187 203 206
189 204 214
189 204 216
189 204 214
187 203 211
188 204 209
190 205 214
188 204 212
187 203 209
188 203 211
187 202 206
187 203 207
189 204 214
188 204 216
189 204 213
190 205 217
189 204 213
190 205 218
190 205 218
188 204 212
188 203 211
189 204 216
189 205 218
188 204 217
191 206 221
189 205 214
188 204 213
189 204 213
189 204 214
190 205 218
188 204 212
190 205 218
188 204 213
190 205 218
188 204 212
189 204 216
188 204 218
188 204 211
189 204 214
189 205 217
187 203 212
188 204 214
188 204 216
190 206 221
187 203 211
190 206 223
190 205 221
190 206 221
189 205 218
189 205 218
190 206 220
189 205 216
190 206 220
190 205 219
191 206 224
190 205 219
190 206 221
190 205 220
189 205 220
190 206 221
191 207 225
189 205 219
190 205 220
191 206 223
190 206 223
188 204 218
191 207 224
190 206 221
189 205 218
190 206 223
190 206 223
191 206 226
189 205 221
190 205 223
190 206 219
190 206 224
192 207 226
190 206 221
189 205 219
191 206 226
190 206 223
191 206 224
190 206 221
191 206 224
189 205 223
190 206 221
189 205 223
191 206 224
191 206 225
191 206 223
191 207 227
191 207 224
191 206 224
191 206 226
189 205 223
187 202 219
185 199 213
178 192 206
182 196 210
178 189 194
174 185 191
173 185 192
166 174 171
169 179 181
166 173 166
156 161 150
153 158 147
153 158 145
146 147 120
141 143 115
146 145 109
133 129 79
142 138 81
135 131 74
141 136 81
143 138 82
142 138 82
146 140 81
142 138 80
141 137 82
141 136 81
140 135 82
136 132 77
142 138 81
139 133 79
131 125 76
130 122 70
128 120 71
127 120 71
119 114 67
119 113 65
121 115 69
107 99 56
108 103 62
115 110 64
128 123 71
126 122 68
127 123 70
133 128 67
137 132 74
128 124 69
140 135 74
138 134 75
143 138 76
140 136 76
143 137 74
147 141 74
153 147 78
150 145 77
145 139 78
151 145 85
154 149 83
157 151 83
148 142 76
157 153 89
152 146 85
156 152 83
159 154 83
156 151 83
164 159 90
160 152 83
158 152 85
158 153 82
162 155 83
155 150 73
167 161 91
166 160 88
168 161 91
168 162 87
163 157 86
170 163 88
164 159 87
172 165 90
166 160 80
170 164 89
168 162 84
170 163 90
167 161 90
172 166 96
170 164 90
170 164 91
170 164 89
170 164 89
172 165 87
176 168 95
171 165 88
169 163 93
170 163 86
173 167 96
171 166 92
172 166 92
176 169 97
174 167 91
172 166 93
173 166 90
172 165 90
176 169 95
176 168 93
175 168 93
176 169 94
175 169 97
171 166 92
170 165 90
173 166 89
176 169 97
169 163 86
175 168 94
171 165 88
169 163 84
172 165 88
174 167 95
172 165 93
169 164 87
172 165 93
171 165 90
171 165 88
171 165 89
175 168 97
165 160 86
171 165 92
173 167 89
170 164 87
169 162 88
169 163 87
167 161 87
170 164 88
166 159 87
167 161 90
166 160 87
168 160 84
169 161 87
168 162 90
163 156 86
171 164 94
163 157 82
164 160 84
165 158 86
163 157 88
158 152 80
164 158 86
162 155 86
156 150 75
158 152 84
158 152 80
147 142 79
156 149 79
154 148 81
149 143 78
155 149 81
147 142 75
155 150 80
152 146 80
150 144 80
146 140 77
149 142 79
146 141 79
142 137 75
144 139 76
135 131 69
144 138 74
136 131 66
120 117 60
166 172 169
219 235 255
220 235 255
220 235 255
220 235 255
220 235 255
220 235 255
220 235 255
220 235 255
220 235 255
220 235 255
220 235 255
220 235 255
220 235 255
220 235 255
220 235 255
220 235 255
220 235 255
220 235 255
220 235 255
220 235 255
220 235 255
220 235 255
220 235 255
220 235 255
220 235 255
220 235 255
220 235 255
220 235 255
220 235 255
220 235 255
220 235 255
220 235 255
220 235 255
220 235 255
220 235 255
220 235 255
220 235 255
220 235 255
220 235 255
220 235 255
220 235 255
220 235 255
220 235 255
220 235 255
220 235 255
220 235 255
220 235 255
220 235 255
220 235 255
220 235 255
220 235 255
220 235 255
220 235 255
220 235 255
220 235 255
220 235 255
220 235 255
220 235 255
220 235 255
220 235 255
220 235 255
220 235 255
220 235 255
220 235 255
220 235 255
220 235 255
220 235 255
220 235 255
220 235 255
220 235 255
220 235 255
220 235 255
220 235 255
220 235 255
220 235 255
220 235 255
220 235 255
220 235 255
220 235 255
220 235 255
220 235 255
220 235 255
220 235 255
220 235 255
220 235 255
220 235 255
220 235 255
220 235 255
220 235 255
220 235 255
220 235 255
220 235 255
220 235 255
220 235 255
220 235 255
220 235 255
220 235 255
220 235 255
220 235 255
220 235 255
220 235 255
220 235 255
220 235 255
220 235 255
220 235 255
220 235 255
220 235 255
220 235 255
220 235 255
220 235 255
220 235 255
220 235 255
220 235 255
220 235 255
220 235 255
220 235 255
220 235 255
220 235 255
220 235 255
220 235 255
220 235 255
220 235 255
220 235 255
220 235 255
220 235 255
220 235 255
220 235 255
220 235 255
220 235 255
220 235 255
220 235 255
220 235 255
220 235 255
220 235 255
220 235 255
186 202 204
188 204 209
188 204 213
188 203 208
185 201 202
185 201 200
187 203 208
183 200 194
189 204 208
187 203 212
191 206 219
186 202 206
186 202 203
191 206 217
189 204 213
186 202 202
186 202 203
189 204 211
188 204 213
188 204 212
189 204 212
190 205 214
188 203 211
191 206 219
188 204 213
188 203 208
190 205 216
188 203 208
188 203 207
188 203 208
189 205 217
188 203 209
189 205 217
189 205 217
190 205 217
186 202 204
189 204 214
188 204 213
189 205 214
189 205 216
188 204 213
188 204 212
188 204 211
188 204 214
188 204 214
189 204 214
190 205 218
189 205 219
188 203 211
189 204 214
187 203 211
184 201 199
188 204 214
189 204 214
189 205 216
190 205 217
189 204 214
188 204 216
188 204 212
190 205 219
188 204 211
189 204 216
189 204 217
189 204 214
188 204 211
189 205 214
188 203 209
188 204 213
187 203 211
190 205 219
188 204 213
190 205 216
191 206 219
189 205 220
190 205 220
189 205 218
190 206 220
188 204 214
187 203 207
189 205 219
189 204 214
190 206 218
189 205 218
190 205 217
188 204 214
189 205 217
189 205 220
188 204 211
189 205 219
191 206 221
189 205 218
187 204 214
190 206 223
191 206 223
191 206 221
190 205 219
187 203 214
186 201 211
185 200 212
180 194 200
182 196 206
174 186 192
173 184 183
169 180 184
168 179 178
160 167 156
159 163 147
159 164 151
158 160 141
150 153 134
154 157 139
146 147 116
145 143 102
136 131 74
143 137 82
145 138 82
135 131 71
142 138 82
142 137 79
142 138 79
140 136 77
141 136 78
137 131 73
139 134 76
138 134 78
139 132 78
136 130 76
129 122 69
130 123 63
131 124 71
127 120 69
122 116 67
118 111 63
112 106 63
101 92 50
110 106 62
104 99 51
125 119 64
128 124 69
128 124 71
129 125 68
131 126 69
122 117 65
137 131 75
144 139 69
141 136 73
146 141 76
151 146 80
141 136 69
146 141 78
142 137 72
147 141 75
150 145 81
153 147 79
156 151 82
158 152 86
158 153 83
162 155 86
161 156 86
157 151 81
156 151 74
161 154 85
161 155 86
160 155 84
157 150 81
162 156 86
165 159 90
159 154 82
160 153 80
163 156 77
166 160 89
161 155 80
165 158 84
169 162 88
167 160 90
169 163 91
170 163 93
168 162 87
170 163 86
167 160 84
170 163 89
170 163 90
172 165 88
170 164 90
172 165 94
169 164 87
171 165 90
170 164 86
171 165 87
173 165 90
174 167 91
174 167 90
175 168 97
170 163 85
171 165 94
172 167 93
175 168 89
175 169 95
173 166 91
175 168 95
173 167 90
171 165 87
174 168 93
174 167 88
174 167 90
173 167 91
175 168 90
176 168 93
173 167 92
173 166 94
172 166 91
169 163 87
171 164 88
173 166 93
170 164 89
170 164 87
173 165 89
175 169 97
173 168 95
169 162 85
169 163 89
170 164 91
169 163 84
167 161 85
164 159 79
170 163 92
167 161 85
167 161 84
168 161 91
169 162 86
164 158 84
166 160 86
173 165 93
160 153 88
158 152 81
167 161 84
167 161 87
168 162 86
165 159 87
166 159 90
163 156 86
152 147 79
155 150 77
162 156 83
154 149 81
152 146 80
159 153 84
152 147 80
157 151 84
159 153 83
154 148 79
154 148 80
149 143 75
149 143 76
150 145 80
140 134 73
140 135 70
134 130 70
146 140 73
143 138 74
131 126 69
136 131 68
144 136 75
137 132 68
156 160 145
220 235 255
220 235 255
220 235 255
220 235 255
220 235 255
220 235 255
220 235 255
220 235 255
220 235 255
220 235 255
220 235 255
220 235 255
220 235 255
220 235 255
220 235 255
220 235 255
220 235 255
220 235 255
220 235 255
220 235 255
220 235 255
220 235 255
220 235 255
220 235 255
220 235 255
220 235 255
220 235 255
220 235 255
220 235 255
220 235 255
220 235 255
220 235 255
220 235 255
220 235 255
220 235 255
220 235 255
220 235 255
220 235 255
220 235 255
220 235 255
220 235 255
220 235 255
220 235 255
220 235 255
220 235 255
220 235 255
220 235 255
220 235 255
220 235 255
220 235 255
220 235 255
220 235 255
220 235 255
220 235 255
220 235 255
220 235 255
220 235 255
220 235 255
220 235 255
220 235 255
220 235 255
220 235 255
220 235 255
220 235 255
220 235 255
220 235 255
220 235 255
220 235 255
220 235 255
220 235 255
220 235 255
220 235 255
220 235 255
220 235 255
220 235 255
220 235 255
220 235 255
220 235 255
220 235 255
220 235 255
220 235 255
220 235 255
220 235 255
220 235 255
220 235 255
220 235 255
220 235 255
220 235 255
220 235 255
220 235 255
220 235 255
220 235 255
220 235 255
220 235 255
220 235 255
220 235 255
220 235 255
220 235 255
220 235 255
220 235 255
220 235 255
220 235 255
220 235 255
220 235 255
220 235 255
220 235 255
220 235 255
220 235 255
220 235 255
220 235 255
220 235 255
220 235 255
220 235 255
220 235 255
220 235 255
220 235 255
220 235 255
220 235 255
220 235 255
220 235 255
220 235 255
220 235 255
220 235 255
220 235 255
220 235 255
220 235 255
220 235 255
220 235 255
220 235 255
220 235 255
220 235 255
220 235 255
220 235 255
220 235 255
220 235 255
187 203 206
185 201 199
187 202 206
186 202 203
187 203 207
184 200 196
190 205 214
185 201 196
189 204 209
185 201 195
186 202 204
184 200 194
187 203 206
186 202 204
188 203 208
186 202 202
188 203 208
187 203 207
187 203 208
188 204 209
183 200 192
185 201 198
185 201 203
187 202 203
185 201 200
187 203 208
188 203 208
190 205 214
188 203 208
189 204 212
187 203 208
187 203 208
187 203 207
186 202 202
182 199 192
190 206 219
188 204 212
187 203 207
186 202 206
188 204 209
187 203 208
188 203 209
186 202 207
189 205 217
188 203 209
189 205 214
188 204 213
186 202 208
189 205 216
186 202 207
189 205 216
190 205 218
187 203 207
189 205 216
185 201 202
190 205 216
187 203 207
186 202 206
186 202 204
186 202 204
186 202 206
188 204 209
188 203 207
188 204 212
187 203 211
187 203 207
187 203 209
187 202 206
187 203 208
190 205 217
188 203 214
185 201 199
189 205 217
190 205 218
187 203 212
187 203 208
188 203 211
188 203 209
188 204 214
188 204 214
188 204 213
186 202 209
190 205 217
191 206 220
189 205 218
190 205 214
189 204 216
187 203 208
188 204 216
187 203 208
189 204 216
188 204 213
188 204 213
187 203 209
188 204 213
187 203 208
186 202 211
185 199 208
181 196 194
173 186 183
178 192 198
180 192 189
169 180 175
172 183 176
170 179 176
169 177 172
162 170 164
154 160 141
153 156 129
150 151 122
150 151 127
144 142 100
135 132 82
135 130 70
137 132 76
142 137 79
141 137 76
148 142 79
144 137 80
142 137 79
143 139 80
142 137 76
144 139 77
136 131 74
135 130 75
138 131 71
139 133 79
128 122 66
131 124 71
123 117 65
123 115 64
117 108 62
120 112 65
110 102 58
105 99 56
102 96 57
119 115 66
114 111 60
127 121 64
126 122 66
130 125 67
130 125 68
143 138 78
145 139 84
134 129 69
139 134 70
143 138 73
139 134 70
146 140 71
153 147 83
145 140 77
152 148 79
154 149 81
148 144 76
151 146 79
158 152 77
153 147 77
155 149 77
154 149 78
159 153 85
164 158 86
163 157 89
162 155 89
161 155 82
162 156 87
163 157 83
165 159 81
163 157 86
167 160 87
160 154 78
168 161 87
163 157 78
169 162 91
166 160 90
169 162 86
162 157 77
172 165 90
169 162 90
167 161 86
167 160 86
169 163 90
169 162 87
166 160 83
171 165 89
170 164 89
169 162 86
169 163 84
171 164 87
172 166 90
171 164 88
168 163 85
172 166 88
174 168 93
172 165 87
170 164 85
173 167 90
169 163 88
169 164 80
172 166 88
173 166 90
172 167 92
177 169 95
173 166 91
172 166 90
171 165 90
171 166 84
173 167 91
172 165 88
171 164 84
171 164 87
174 167 91
170 163 87
170 163 89
172 165 83
174 167 96
171 165 87
171 164 94
172 165 93
171 165 89
169 163 87
170 164 87
168 161 88
169 163 85
164 158 78
165 159 87
164 157 80
170 163 87
171 164 91
164 158 83
164 158 84
171 164 90
165 159 86
166 159 87
166 160 87
164 158 84
168 161 90
163 158 84
165 159 84
168 162 88
163 156 84
160 153 76
160 153 80
165 159 89
155 149 85
159 152 84
161 154 81
155 150 79
151 145 75
152 147 80
156 150 84
159 153 82
156 150 86
149 143 73
144 139 72
153 147 80
153 148 80
147 141 80
154 147 80
151 145 78
142 137 75
139 133 72
141 135 71
143 137 77
126 120 64
140 141 118
220 235 255
220 235 255
220 235 255
220 235 255
220 235 255
220 235 255
220 235 255
220 235 255
220 235 255
220 235 255
220 235 255
220 235 255
220 235 255
220 235 255
220 235 255
220 235 255
220 235 255
220 235 255
220 235 255
220 235 255
220 235 255
220 235 255
220 235 255
220 235 255
220 235 255
220 235 255
220 235 255
220 235 255
220 235 255
220 235 255
220 235 255
220 235 255
220 235 255
220 235 255
220 235 255
220 235 255
220 235 255
220 235 255
220 235 255
220 235 255
220 235 255
220 235 255
220 235 255
220 235 255
220 235 255
220 235 255
220 235 255
220 235 255
220 235 255
220 235 255
220 235 255
220 235 255
220 235 255
220 235 255
220 235 255
220 235 255
220 235 255
220 235 255
220 235 255
220 235 255
220 235 255
220 235 255
220 235 255
220 235 255
220 235 255
220 235 255
220 235 255
220 235 255
220 235 255
220 235 255
220 235 255
220 235 255
220 235 255
220 235 255
220 235 255
220 235 255
220 235 255
220 235 255
220 235 255
220 235 255
220 235 255
220 235 255
220 235 255
220 235 255
220 235 255
220 235 255
220 235 255
220 235 255
220 235 255
220 235 255
220 235 255
220 235 255
220 235 255
220 235 255
220 235 255
220 235 255
220 235 255
220 235 255
220 235 255
220 235 255
220 235 255
220 235 255
220 235 255
220 235 255
220 235 255
220 235 255
220 235 255
220 235 255
220 235 255
220 235 255
220 235 255
220 235 255
221 235 255
220 235 255
221 235 255
221 235 255
221 235 255
221 235 255
221 235 255
221 235 255
221 235 255
221 235 255
221 235 255
221 235 255
221 235 255
221 235 255
221 235 255
221 235 255
221 235 255
221 235 255
221 235 255
221 235 255
221 235 255
221 235 255
221 235 255
185 201 194
188 204 209
187 203 206
189 204 209
188 204 211
188 203 207
186 202 204
188 203 206
185 201 195
184 200 194
184 200 192
183 199 190
187 203 206
188 203 208
185 201 200
186 202 202
186 202 202
187 203 204
185 201 199
187 202 204
187 203 207
188 203 208
187 202 202
187 202 202
189 204 213
187 203 206
184 200 192
185 201 200
185 201 200
185 201 196
185 201 198
188 204 209
187 202 206
185 201 198
188 204 209
186 201 199
185 201 200
188 203 209
189 204 211
183 200 194
186 202 200
185 201 199
187 203 209
187 203 208
185 201 198
188 203 207
188 203 209
186 202 203
186 202 206
185 201 202
186 202 206
186 202 202
186 201 202
189 204 213
187 203 208
184 200 194
186 202 206
185 201 199
188 203 208
190 205 216
188 204 211
188 203 206
185 201 199
188 204 211
185 201 198
186 202 206
186 202 204
187 203 209
187 203 207
185 201 200
185 201 199
188 203 211
186 201 200
187 203 209
187 203 206
186 201 200
186 202 202
186 202 206
187 202 206
188 204 212
187 203 206
188 203 208
186 202 203
186 202 206
185 201 203
187 203 206
187 203 209
187 203 203
186 202 202
186 202 203
185 201 204
186 202 200
187 203 206
184 201 198
186 202 208
188 203 209
186 201 206
182 196 200
179 194 192
179 191 190
176 189 188
174 188 177
171 182 176
165 174 163
166 175 168
168 177 166
153 157 136
157 160 138
154 156 130
158 160 136
148 148 117
139 138 106
136 131 74
137 132 74
145 140 81
143 138 78
141 136 73
135 130 66
146 139 79
143 139 77
141 136 78
143 137 78
140 133 74
145 138 79
134 128 69
139 133 75
131 124 68
137 130 70
131 124 69
123 115 66
125 117 64
119 110 56
114 106 55
118 110 56
101 91 47
92 87 48
107 103 59
117 112 58
127 122 66
117 111 57
131 124 63
131 126 67
130 125 64
131 126 68
135 130 67
138 133 75
139 133 74
147 140 78
147 142 79
145 138 70
148 143 79
151 144 81
151 146 81
149 143 74
148 143 74
155 149 77
153 148 76
153 147 79
153 147 79
158 154 83
162 156 81
154 149 78
159 153 78
161 155 82
157 151 76
164 158 83
164 158 84
166 160 84
167 161 89
161 155 80
166 160 83
169 163 87
163 157 83
169 163 87
166 159 83
169 162 88
168 162 90
167 161 82
167 162 86
167 160 79
167 162 82
175 168 95
172 166 87
171 164 87
170 163 87
169 162 87
169 163 85
172 165 93
168 163 88
168 163 86
171 164 87
172 165 86
172 166 86
173 166 88
174 166 90
175 168 91
175 168 95
173 166 84
176 169 93
172 165 87
172 166 91
174 167 93
173 167 90
174 168 91
173 166 88
170 163 84
171 164 85
171 164 87
173 167 93
171 164 86
171 164 84
173 166 91
174 166 90
173 167 90
170 164 90
170 163 87
173 167 90
170 163 84
172 165 84
173 166 97
168 161 82
169 164 89
172 165 91
165 159 81
170 163 89
175 167 96
167 160 87
168 160 87
168 161 80
166 160 84
159 154 79
167 161 84
166 160 87
168 161 88
159 153 84
155 149 75
155 149 77
154 147 80
168 161 87
161 155 86
161 154 76
155 148 81
159 153 85
160 154 80
156 150 78
160 154 85
157 150 80
155 148 84
157 151 77
147 141 75
154 146 80
153 147 78
149 143 78
150 144 74
151 145 77
149 143 75
138 133 66
148 142 77
134 129 71
143 137 71
122 117 63
141 135 77
141 135 73
126 121 63
134 132 97
220 235 255
220 235 255
220 235 255
220 235 255
220 235 255
220 235 255
220 235 255
220 235 255
220 235 255
220 235 255
220 235 255
220 235 255
220 235 255
220 235 255
220 235 255
220 235 255
220 235 255
220 235 255
220 235 255
220 235 255
220 235 255
220 235 255
220 235 255
220 235 255
220 235 255
220 235 255
220 235 255
220 235 255
220 235 255
220 235 255
220 235 255
220 235 255
220 235 255
220 235 255
220 235 255
220 235 255
220 235 255
220 235 255
220 235 255
220 235 255
220 235 255
220 235 255
220 235 255
220 235 255
220 235 255
220 235 255
221 235 255
220 235 255
221 235 255
221 235 255
221 235 255
221 235 255
221 235 255
221 235 255
221 235 255
221 235 255
221 235 255
221 235 255
221 235 255
221 235 255
221 235 255
221 235 255
221 235 255
221 235 255
221 235 255
221 235 255
221 235 255
221 235 255
221 235 255
221 235 255
221 235 255
221 235 255
221 235 255
221 235 255
221 235 255
221 235 255
221 235 255
221 235 255
221 235 255
221 235 255
221 235 255
221 235 255
221 235 255
221 235 255
221 235 255
221 235 255
221 235 255
221 235 255
221 235 255
221 235 255
221 235 255
221 235 255
221 235 255
221 235 255
221 235 255
221 235 255
221 235 255
221 235 255
221 235 255
221 235 255
221 235 255
221 235 255
221 235 255
221 235 255
221 235 255
221 235 255
221 235 255
221 235 255
221 235 255
221 235 255
221 235 255
221 235 255
221 235 255
221 235 255
221 235 255
221 235 255
221 235 255
221 235 255
221 235 255
221 235 255
221 235 255
221 235 255
221 235 255
221 235 255
221 235 255
221 235 255
221 235 255
221 235 255
221 235 255
221 235 255
221 235 255
221 235 255
221 235 255
221 235 255
221 235 255
188 203 208
187 202 199
185 201 196
182 199 190
184 200 195
184 200 195
186 201 199
186 202 200
184 200 195
184 200 191
184 200 192
185 201 198
188 203 207
184 200 192
184 200 191
184 200 192
183 199 187
187 202 200
185 201 199
188 203 204
185 201 198
185 201 198
185 201 198
185 201 196
184 200 192
187 203 207
187 203 204
184 200 195
183 199 191
188 203 208
182 198 187
188 203 207
186 201 199
185 201 196
184 200 195
185 201 196
185 201 196
186 202 202
184 200 195
185 201 200
186 201 196
185 201 199
181 198 187
187 203 204
185 201 200
186 201 199
183 199 192
186 201 199
184 200 192
182 199 190
185 201 202
186 202 202
187 202 200
188 203 208
186 202 200
186 202 200
184 200 195
185 201 198
188 203 208
186 202 203
187 203 208
187 203 204
182 198 181
184 200 192
184 200 194
184 200 195
185 201 198
186 202 202
186 201 199
186 202 202
182 198 186
185 201 195
187 202 203
187 202 204
186 202 200
183 199 191
184 200 195
184 200 192
190 205 216
186 201 198
187 202 204
186 202 204
184 200 195
185 201 202
183 200 195
184 200 195
187 203 206
186 202 204
185 201 200
186 202 206
185 201 198
184 200 198
187 203 208
185 201 199
185 201 196
186 202 200
183 199 196
180 195 197
175 190 182
176 189 183
174 186 183
171 183 170
165 175 158
166 178 170
167 178 161
163 170 151
160 167 148
153 156 131
152 154 119
153 157 131
137 136 106
135 134 97
144 140 92
137 132 71
140 135 77
147 142 74
140 134 71
139 134 76
141 135 73
144 137 73
144 138 73
140 134 76
137 132 74
139 133 70
136 129 63
140 133 72
131 126 72
130 123 66
120 113 59
126 117 66
117 110 59
114 107 53
110 103 52
110 101 50
97 86 39
103 98 53
112 107 53
128 122 67
117 112 55
125 120 62
119 115 59
135 129 68
137 131 70
137 132 65
140 135 65
136 131 72
137 133 73
142 137 71
141 136 70
146 141 69
152 147 80
149 144 76
149 143 75
151 145 73
150 145 81
148 142 78
151 145 77
154 148 78
159 154 85
155 150 77
156 150 80
161 156 83
161 156 81
164 157 82
162 155 80
158 152 76
165 158 84
164 158 83
167 161 83
171 165 87
166 160 88
166 160 79
170 164 89
171 163 84
166 159 83
168 161 84
167 160 86
171 165 89
168 162 82
167 160 80
173 165 90
168 161 90
170 163 86
168 162 84
174 166 87
169 162 86
170 164 87
172 166 89
177 169 96
172 165 84
175 168 93
169 163 85
170 164 84
173 166 87
172 166 87
172 166 90
168 162 82
170 163 84
175 168 90
172 166 89
173 166 87
170 163 81
174 167 90
171 164 84
173 166 89
169 164 82
174 167 93
170 164 83
171 164 83
171 164 88
173 167 89
172 166 90
177 169 95
168 162 84
173 166 90
172 165 87
172 166 90
171 165 88
173 166 91
173 165 88
168 163 84
168 162 87
170 163 85
167 162 90
164 158 80
172 165 92
166 159 84
172 164 93
161 155 76
169 162 83
163 157 82
165 160 80
168 162 88
164 158 83
158 152 78
166 159 90
162 155 83
162 156 79
167 159 86
159 153 81
165 159 84
162 156 80
153 148 76
163 156 83
153 148 75
163 157 85
155 149 76
155 148 82
144 139 70
152 146 77
146 141 75
151 145 76
148 142 74
151 145 80
134 129 64
152 146 76
151 146 75
145 139 74
138 133 69
145 140 75
142 136 69
144 138 75
136 132 66
120 115 64
149 148 113
221 235 255
221 235 255
221 235 255
221 235 255
221 235 255
221 235 255
221 235 255
221 235 255
221 235 255
221 235 255
221 235 255
221 235 255
221 235 255
221 235 255
221 235 255
221 235 255
221 235 255
221 235 255
221 235 255
221 235 255
221 235 255
221 235 255
221 235 255
221 235 255
221 235 255
221 235 255
221 235 255
221 235 255
221 235 255
221 235 255
221 235 255
221 235 255
221 235 255
221 235 255
221 235 255
221 235 255
221 235 255
221 235 255
221 235 255
221 235 255
221 235 255
221 235 255
221 235 255
221 235 255
221 235 255
221 235 255
221 235 255
221 235 255
221 235 255
221 235 255
221 235 255
221 235 255
221 235 255
221 235 255
221 235 255
221 235 255
221 235 255
221 235 255
221 235 255
221 235 255
221 235 255
221 235 255
221 235 255
221 235 255
221 235 255
221 235 255
221 235 255
221 235 255
221 235 255
221 235 255
221 235 255
221 235 255
221 235 255
221 235 255
221 235 255
221 235 255
221 235 255
221 235 255
221 235 255
221 235 255
221 235 255
221 235 255
221 235 255
221 235 255
221 235 255
221 235 255
221 235 255
221 235 255
221 235 255
221 235 255
221 235 255
221 235 255
221 235 255
221 235 255
221 235 255
221 235 255
221 235 255
221 235 255
221 235 255
221 235 255
221 235 255
221 235 255
221 235 255
221 235 255
221 235 255
221 235 255
221 235 255
221 235 255
221 235 255
221 235 255
221 235 255
221 235 255
221 235 255
221 235 255
221 235 255
221 235 255
221 235 255
221 235 255
221 235 255
221 235 255
221 235 255
221 235 255
221 235 255
221 235 255
221 235 255
221 235 255
221 235 255
221 235 255
221 235 255
221 235 255
221 235 255
221 235 255
221 235 255
221 235 255
221 235 255
183 199 190
187 203 204
185 201 198
186 202 200
185 201 194
184 200 191
185 201 198
185 201 198
184 200 196
183 199 190
186 202 200
184 200 192
182 198 187
183 199 187
183 199 191
182 198 183
184 200 192
185 201 194
178 195 174
185 200 192
187 202 199
185 201 199
184 200 194
183 198 186
184 200 195
184 200 195
183 199 191
185 201 199
184 200 198
186 201 198
186 202 199
185 201 196
185 201 195
184 201 196
185 201 199
183 199 192
186 202 202
187 202 202
184 200 191
186 202 200
186 202 200
185 201 196
184 200 191
181 198 184
183 200 191
184 200 195
182 199 188
182 198 184
183 199 191
187 202 200
185 201 195
185 201 199
186 201 195
184 200 194
184 200 192
185 200 192
186 202 203
180 197 183
185 201 194
183 199 188
179 196 178
184 200 191
185 201 195
183 199 188
183 200 194
184 200 191
185 201 195
185 200 194
185 201 194
184 200 194
185 201 198
182 198 187
181 197 183
182 198 183
186 202 199
184 200 195
187 202 204
188 203 206
183 199 188
184 201 198
184 200 192
182 198 184
185 201 196
184 200 194
185 200 194
183 199 187
183 199 190
183 199 186
185 201 194
183 199 194
184 200 196
188 203 208
182 198 187
184 200 191
181 198 187
184 200 190
186 201 196
178 192 184
178 193 177
179 193 183
174 188 174
170 183 169
169 180 163
164 174 154
160 170 146
164 170 147
157 164 142
151 154 123
153 157 129
148 149 113
150 150 118
142 138 89
139 134 78
140 135 74
137 131 72
143 137 72
142 135 71
139 134 67
138 132 70
138 133 72
143 136 73
137 132 67
136 132 65
139 133 72
132 126 65
136 129 67
132 126 66
132 126 65
124 118 62
119 112 56
118 109 56
110 103 51
109 100 48
104 95 46
101 88 41
111 105 52
114 110 64
125 121 63
110 107 55
124 119 67
133 128 67
127 122 65
134 130 68
141 136 71
144 138 72
138 133 67
142 137 73
141 135 76
135 130 69
150 145 72
149 143 77
153 148 82
148 142 71
148 143 74
156 150 81
161 155 85
157 150 84
154 148 79
156 151 81
156 150 81
162 155 81
160 154 82
156 151 81
160 154 84
158 153 82
159 153 78
161 155 79
162 157 81
165 158 82
165 159 84
165 159 78
162 157 82
170 163 86
164 157 78
168 162 85
167 161 79
168 162 80
167 161 83
165 159 79
169 162 84
168 162 82
168 163 84
172 165 88
170 163 85
168 162 86
172 166 89
165 160 81
168 162 83
170 164 82
168 162 80
177 170 97
172 165 88
173 165 90
174 167 90
169 163 81
171 165 82
173 166 88
168 162 82
171 164 85
171 164 82
172 166 88
173 166 88
171 164 91
168 163 82
171 164 82
172 166 87
171 164 85
172 165 87
174 166 86
171 164 85
174 166 89
168 162 80
174 166 87
169 162 81
172 165 87
172 165 90
170 163 87
174 166 86
168 161 81
174 166 90
168 162 85
165 158 82
170 163 83
166 159 74
169 163 86
170 164 84
174 166 90
170 164 88
169 163 88
164 158 82
174 167 90
172 164 87
167 160 84
166 159 87
167 159 83
166 159 84
167 160 84
166 159 80
156 149 74
164 157 87
152 147 77
156 150 81
152 147 72
161 155 77
158 151 80
162 155 87
160 154 81
159 153 79
156 150 83
153 147 75
156 151 81
155 150 80
152 147 77
151 145 78
148 142 75
146 140 70
153 147 78
144 138 70
147 141 76
139 132 70
136 130 68
135 130 66
136 129 72
137 131 68
146 144 106
221 235 255
221 235 255
221 235 255
221 235 255
221 235 255
221 235 255
221 235 255
221 235 255
221 235 255
221 235 255
221 235 255
221 235 255
221 235 255
221 235 255
221 235 255
221 235 255
221 235 255
221 235 255
221 235 255
221 235 255
221 235 255
221 235 255
221 235 255
221 235 255
221 235 255
221 235 255
221 235 255
221 235 255
221 235 255
221 235 255
221 235 255
221 235 255
221 235 255
221 235 255
221 235 255
221 235 255
221 235 255
221 235 255
221 235 255
221 235 255
221 235 255
221 235 255
221 235 255
221 235 255
221 235 255
221 235 255
221 235 255
221 235 255
221 235 255
221 235 255
221 235 255
221 235 255
221 235 255
221 235 255
221 235 255
221 235 255
221 235 255
221 235 255
221 235 255
221 235 255
221 235 255
221 235 255
221 235 255
221 235 255
221 235 255
221 235 255
221 235 255
221 235 255
221 235 255
221 235 255
221 235 255
221 235 255
221 235 255
221 235 255
221 235 255
221 235 255
221 235 255
221 235 255
221 235 255
221 235 255
221 235 255
221 235 255
221 235 255
221 235 255
221 235 255
221 235 255
221 235 255
221 235 255
221 235 255
221 235 255
221 235 255
221 235 255
221 235 255
221 235 255
221 235 255
221 235 255
221 235 255
221 235 255
221 235 255
221 235 255
221 235 255
221 235 255
221 235 255
221 235 255
221 235 255
221 235 255
221 235 255
221 235 255
221 235 255
221 235 255
221 235 255
221 235 255
221 235 255
221 235 255
221 235 255
221 235 255
221 235 255
221 235 255
221 235 255
221 235 255
221 235 255
221 235 255
221 235 255
221 235 255
221 235 255
221 235 255
221 235 255
221 235 255
221 235 255
221 235 255
221 235 255
221 235 255
221 235 255
221 235 255
221 235 255
184 200 191
184 200 194
179 196 178
184 200 194
185 200 194
184 200 196
185 201 198
186 202 199
184 200 187
185 201 196
181 197 181
180 197 180
179 196 174
184 200 191
185 200 190
184 200 191
184 200 194
185 200 194
186 202 200
181 197 183
183 199 187
185 201 195
183 199 184
185 201 195
183 199 188
184 200 191
183 199 187
184 200 190
181 198 181
184 200 192
184 200 191
181 197 181
182 198 184
184 200 194
184 200 191
182 198 183
182 198 180
185 201 194
186 201 196
183 199 188
180 196 175
182 198 184
184 200 192
185 200 192
188 203 204
182 198 188
183 199 190
183 199 190
183 199 190
184 200 192
182 198 184
183 200 191
185 201 198
184 200 191
186 202 200
184 199 191
183 199 184
180 197 184
180 197 177
179 196 175
184 200 194
184 200 195
185 201 196
181 198 181
182 198 184
183 199 191
184 200 194
181 198 180
184 200 192
181 198 184
184 200 190
182 198 183
184 200 191
183 199 190
182 199 188
181 198 181
183 200 192
185 201 196
186 202 199
182 199 186
183 199 188
184 199 191
186 201 199
184 200 190
186 202 202
183 199 190
182 198 188
182 198 183
185 201 195
181 198 181
182 198 187
185 200 191
183 199 188
184 200 195
183 199 187
183 198 186
177 194 170
176 191 174
173 186 181
175 189 177
175 189 180
171 182 168
174 186 177
163 172 144
154 161 123
163 167 142
152 157 124
152 159 130
150 155 131
147 148 101
151 151 114
144 143 91
138 134 82
133 127 66
138 133 71
144 138 77
144 138 76
144 138 72
139 133 73
131 125 63
142 136 74
131 126 64
134 129 66
133 126 59
140 133 67
131 124 62
127 121 60
128 121 60
121 112 51
124 115 57
118 108 52
108 99 43
105 96 43
103 94 42
98 87 39
99 93 43
111 107 58
124 119 66
116 112 57
124 120 59
119 115 56
124 120 64
132 128 68
135 130 67
136 132 72
134 129 64
144 138 72
141 136 75
140 135 73
146 139 73
140 135 66
146 141 72
152 147 80
150 145 76
151 145 79
147 142 72
151 146 78
163 156 85
152 146 72
161 154 79
155 148 79
160 153 82
158 152 80
161 155 87
154 148 78
165 158 82
159 152 75
165 158 81
161 155 81
168 161 91
165 159 81
158 151 74
164 157 81
161 155 78
168 161 87
164 158 82
165 159 85
163 157 82
167 161 82
169 162 80
168 162 81
169 163 87
174 167 92
166 160 84
169 163 80
172 166 87
168 161 85
169 163 83
173 166 90
165 159 74
169 164 78
170 165 89
174 167 87
174 167 91
170 165 87
174 167 85
171 165 86
170 163 78
173 166 87
167 162 79
172 166 89
170 164 81
172 165 85
170 165 84
170 163 85
170 163 82
174 167 90
174 166 89
171 165 82
170 164 84
167 161 79
168 162 77
171 164 84
171 164 84
167 161 79
173 166 87
171 165 84
168 161 78
171 165 86
166 160 85
170 163 85
169 163 84
167 161 84
169 162 84
166 161 80
165 159 84
168 161 84
169 162 84
165 159 80
161 155 75
160 155 77
165 158 85
167 160 86
161 156 80
167 160 87
162 156 79
161 156 84
161 154 79
161 155 79
160 155 76
165 159 77
156 149 77
153 146 74
158 152 78
152 145 76
160 153 77
158 152 81
153 147 70
150 144 75
154 147 79
151 146 73
150 144 72
153 146 79
146 141 75
148 142 74
145 140 66
150 144 84
144 139 76
135 130 65
136 131 64
132 127 68
141 135 68
128 124 63
133 129 61
136 133 85
221 236 255
221 236 255
221 236 255
221 236 255
221 236 255
221 236 255
221 236 255
221 236 255
221 236 255
221 236 255
221 236 255
221 236 255
221 236 255
221 236 255
221 236 255
221 236 255
221 236 255
221 236 255
221 236 255
221 236 255
221 236 255
221 236 255
221 236 255
221 236 255
221 236 255
221 236 255
221 236 255
221 236 255
221 236 255
221 236 255
221 236 255
221 236 255
221 236 255
221 236 255
221 236 255
221 236 255
221 236 255
221 236 255
221 236 255
221 236 255
221 236 255
221 236 255
221 236 255
221 236 255
221 236 255
221 236 255
221 236 255
221 236 255
221 236 255
221 236 255
221 236 255
221 236 255
221 236 255
221 236 255
221 236 255
221 236 255
221 236 255
221 236 255
221 236 255
221 236 255
221 236 255
221 236 255
221 236 255
221 236 255
221 236 255
221 236 255
221 236 255
221 236 255
221 236 255
221 236 255
221 236 255
221 236 255
221 236 255
221 236 255
221 236 255
221 236 255
221 236 255
221 236 255
221 236 255
221 236 255
221 236 255
221 236 255
221 236 255
221 236 255
221 236 255
221 236 255
221 236 255
221 236 255
221 236 255
221 236 255
221 236 255
221 236 255
221 236 255
221 236 255
221 236 255
221 236 255
221 236 255
221 236 255
221 236 255
221 236 255
221 236 255
221 236 255
221 236 255
221 236 255
221 236 255
221 236 255
221 236 255
221 236 255
221 236 255
221 236 255
221 236 255
221 236 255
221 236 255
221 236 255
221 236 255
221 236 255
221 236 255
221 236 255
221 236 255
221 236 255
221 236 255
221 236 255
221 236 255
221 236 255
221 236 255
221 236 255
221 236 255
221 236 255
221 236 255
221 236 255
221 236 255
221 236 255
221 236 255
221 236 255
221 236 255
186 201 194
180 197 177
180 197 177
183 199 186
186 201 196
179 196 177
181 198 184
182 198 184
181 198 180
183 199 186
181 198 184
182 199 186
183 199 186
185 201 195
186 201 196
181 197 184
184 200 191
181 198 181
179 196 174
182 198 187
184 200 191
185 200 192
183 199 187
179 196 177
185 200 191
182 198 183
182 198 183
182 198 183
179 196 171
182 198 184
186 202 198
183 199 187
180 196 174
183 199 187
184 199 188
180 197 178
184 200 191
182 198 183
181 197 181
180 197 177
179 195 172
181 197 178
184 200 190
181 198 180
181 197 175
183 199 190
182 198 186
182 198 184
181 197 180
178 195 171
181 197 178
183 199 190
182 198 183
183 199 186
181 197 178
181 197 177
182 198 183
182 198 183
180 197 178
180 197 178
180 197 178
180 196 178
181 197 180
183 199 187
182 198 184
182 198 187
180 197 174
182 198 183
182 198 184
185 200 192
182 198 183
180 197 178
183 198 183
182 197 180
184 199 190
181 198 181
182 198 181
181 197 178
184 199 188
180 196 175
178 195 169
182 197 180
180 196 177
181 198 183
180 196 175
180 197 177
178 194 169
183 199 190
183 199 186
184 200 190
181 198 181
184 200 191
184 199 190
183 199 187
178 194 169
180 196 175
175 191 168
175 190 167
177 192 171
176 190 171
174 188 171
165 178 139
164 176 149
154 165 136
163 172 137
155 162 129
158 164 133
143 145 94
155 160 126
142 143 94
146 147 105
135 133 85
131 127 66
139 133 66
137 130 67
139 134 66
138 132 67
141 135 66
138 133 70
139 133 66
134 128 63
134 128 66
137 132 65
135 129 63
132 126 59
131 123 59
129 122 58
125 118 63
125 117 54
120 113 49
117 108 53
115 105 46
108 99 45
100 90 38
96 87 37
108 102 50
114 108 52
121 115 54
116 112 56
124 119 57
127 122 64
127 122 63
122 118 55
130 125 67
139 134 64
141 135 69
142 136 71
138 134 70
147 143 80
150 143 78
152 146 79
152 147 75
145 139 75
141 137 66
143 138 71
151 145 72
157 152 76
150 144 72
161 155 87
159 153 84
157 152 76
159 153 79
153 148 74
160 154 80
160 154 79
165 158 84
149 144 76
165 159 86
166 160 83
159 153 81
164 158 79
163 157 79
166 159 84
170 163 83
164 158 84
166 160 85
170 163 87
168 162 82
165 159 83
168 161 81
170 163 88
170 163 83
170 164 86
170 163 87
168 161 83
170 162 84
169 162 82
174 167 93
168 163 83
171 163 87
174 166 87
171 165 84
171 165 86
172 164 82
169 162 80
172 165 87
177 169 93
170 164 82
171 164 84
174 167 90
171 164 84
170 163 84
171 164 78
173 167 86
175 167 91
166 162 78
170 164 84
172 165 85
170 164 82
170 164 80
174 167 87
170 163 86
168 162 80
172 165 83
174 165 84
168 162 78
170 165 87
171 164 84
169 163 80
168 161 77
166 160 87
168 161 82
168 161 84
168 163 80
168 162 81
170 163 84
164 157 82
167 160 81
168 162 80
171 164 88
166 159 82
161 155 74
164 158 79
169 162 83
163 158 76
159 153 80
164 157 81
160 154 75
163 156 85
166 159 84
159 153 77
157 151 77
149 144 71
161 155 74
160 154 80
153 146 72
155 149 75
160 153 77
157 150 75
150 145 73
150 145 74
159 154 79
150 143 74
146 140 66
147 141 76
149 144 69
148 142 73
158 152 79
141 135 66
141 136 67
136 130 70
149 142 77
130 127 64
133 128 63
132 129 83
221 236 255
221 236 255
221 236 255
221 236 255
221 236 255
221 236 255
221 236 255
221 236 255
221 236 255
221 236 255
221 236 255
221 236 255
221 236 255
221 236 255
221 236 255
221 236 255
221 236 255
221 236 255
221 236 255
221 236 255
221 236 255
221 236 255
221 236 255
221 236 255
221 236 255
221 236 255
221 236 255
221 236 255
221 236 255
221 236 255
221 236 255
221 236 255
221 236 255
221 236 255
221 236 255
221 236 255
221 236 255
221 236 255
221 236 255
221 236 255
221 236 255
221 236 255
221 236 255
221 236 255
221 236 255
221 236 255
221 236 255
221 236 255
221 236 255
221 236 255
221 236 255
221 236 255
221 236 255
221 236 255
221 236 255
221 236 255
221 236 255
221 236 255
221 236 255
221 236 255
221 236 255
221 236 255
221 236 255
221 236 255
221 236 255
221 236 255
221 236 255
221 236 255
221 236 255
221 236 255
221 236 255
221 236 255
221 236 255
221 236 255
221 236 255
221 236 255
221 236 255
221 236 255
221 236 255
221 236 255
221 236 255
221 236 255
221 236 255
221 236 255
221 236 255
221 236 255
221 236 255
221 236 255
221 236 255
221 236 255
221 236 255
221 236 255
221 236 255
221 236 255
221 236 255
221 236 255
221 236 255
221 236 255
221 236 255
221 236 255
221 236 255
221 236 255
221 236 255
221 236 255
221 236 255
221 236 255
221 236 255
221 236 255
221 236 255
221 236 255
221 236 255
221 236 255
221 236 255
221 236 255
221 236 255
221 236 255
221 236 255
221 236 255
221 236 255
221 236 255
221 236 255
221 236 255
221 236 255
221 236 255
221 236 255
221 236 255
221 236 255
221 236 255
221 236 255
221 236 255
221 236 255
221 236 255
221 236 255
221 236 255
221 236 255
181 197 175
183 199 184
181 198 180
182 198 183
179 196 172
181 197 183
181 197 177
178 195 171
182 198 183
183 199 187
182 197 180
180 196 172
182 197 178
178 194 168
180 196 174
180 196 174
182 198 184
181 197 180
182 198 186
182 198 180
181 197 178
179 196 172
180 197 175
179 196 174
178 195 168
181 197 180
181 197 180
180 197 180
176 193 161
182 198 183
186 201 194
183 199 188
179 195 172
183 199 184
179 195 171
181 198 183
180 196 172
180 197 177
179 196 171
182 198 184
182 198 184
180 196 175
180 196 174
181 197 175
180 197 177
184 200 190
182 198 180
180 196 174
178 195 171
182 198 181
177 194 165
181 197 180
182 198 183
181 197 177
177 194 166
177 194 166
184 199 190
181 198 181
181 197 178
180 196 171
181 197 177
181 197 178
181 197 180
182 198 178
179 196 172
182 198 181
179 196 171
180 196 177
180 196 174
179 195 169
177 194 168
182 198 181
182 198 181
182 198 181
181 197 180
178 194 169
181 197 178
180 196 181
181 197 180
181 197 178
180 196 178
180 195 171
182 198 181
176 193 165
180 197 177
179 196 171
176 192 161
182 198 180
177 194 165
182 198 178
180 196 174
181 197 177
180 196 178
180 197 177
178 194 166
176 193 161
179 195 171
172 186 162
169 184 147
164 178 139
164 178 146
161 173 147
166 178 148
149 159 120
161 170 127
150 157 105
150 157 124
151 154 108
143 144 97
142 143 108
144 144 97
137 135 79
135 131 68
134 129 65
130 125 68
139 133 72
136 130 70
136 130 63
135 131 65
132 126 57
141 135 71
145 138 71
141 134 70
132 126 63
136 130 65
129 122 58
126 119 56
123 115 49
118 111 54
125 117 51
116 107 35
112 103 38
102 92 42
104 94 39
93 85 37
98 93 46
116 110 58
113 108 58
107 103 52
124 119 63
136 131 64
131 125 66
131 128 63
132 127 65
142 138 70
137 132 70
138 132 75
147 142 75
144 138 73
143 138 69
141 137 65
154 149 76
147 142 71
145 140 77
158 151 85
153 147 75
155 148 77
155 150 80
150 144 72
153 147 75
156 151 77
159 152 82
160 154 81
164 157 82
165 158 79
166 160 85
154 148 73
162 156 78
168 161 88
163 157 79
168 161 84
164 157 80
170 163 87
166 159 84
165 159 82
168 161 87
167 162 79
161 155 74
171 164 89
169 162 86
170 164 85
171 164 90
170 163 84
163 157 76
170 162 81
169 164 80
170 162 84
172 165 81
171 164 82
171 164 84
168 162 78
172 164 81
170 164 82
171 164 80
167 160 74
168 162 80
172 164 83
171 163 81
169 163 74
174 166 84
171 164 82
170 164 87
169 162 79
171 164 81
174 167 90
173 165 83
170 164 77
170 164 86
172 165 82
173 165 84
172 165 82
172 165 87
170 163 82
166 161 80
166 161 80
169 162 84
170 163 84
169 162 80
171 165 84
169 163 84
168 161 82
171 164 84
162 157 75
171 165 85
169 163 80
164 157 78
168 162 81
167 160 79
166 159 83
165 159 78
164 158 75
159 153 70
163 157 76
166 159 78
167 160 84
166 160 83
152 147 72
161 155 79
166 159 79
161 154 80
160 154 76
162 156 84
159 152 77
152 145 74
151 145 76
160 153 79
155 148 77
152 145 72
151 147 67
154 148 75
147 142 63
153 147 78
147 142 71
145 140 68
151 143 80
145 140 70
148 142 70
156 150 78
145 139 71
144 138 74
143 137 70
139 134 66
135 129 64
134 130 66
143 139 92
222 236 255
222 236 255
222 236 255
222 236 255
222 236 255
222 236 255
222 236 255
222 236 255
222 236 255
222 236 255
222 236 255
222 236 255
222 236 255
222 236 255
222 236 255
222 236 255
222 236 255
222 236 255
222 236 255
222 236 255
222 236 255
222 236 255
222 236 255
222 236 255
222 236 255
222 236 255
222 236 255
222 236 255
222 236 255
222 236 255
222 236 255
222 236 255
222 236 255
222 236 255
222 236 255
222 236 255
222 236 255
222 236 255
222 236 255
222 236 255
222 236 255
222 236 255
222 236 255
222 236 255
222 236 255
222 236 255
222 236 255
222 236 255
222 236 255
222 236 255
222 236 255
222 236 255
222 236 255
222 236 255
222 236 255
222 236 255
222 236 255
222 236 255
222 236 255
222 236 255
222 236 255
222 236 255
222 236 255
222 236 255
222 236 255
222 236 255
222 236 255
222 236 255
222 236 255
222 236 255
222 236 255
222 236 255
222 236 255
222 236 255
222 236 255
222 236 255
222 236 255
222 236 255
222 236 255
222 236 255
222 236 255
222 236 255
222 236 255
222 236 255
222 236 255
222 236 255
222 236 255
222 236 255
222 236 255
222 236 255
222 236 255
222 236 255
222 236 255
222 236 255
222 236 255
222 236 255
222 236 255
222 236 255
222 236 255
222 236 255
222 236 255
222 236 255
222 236 255
222 236 255
222 236 255
222 236 255
222 236 255
222 236 255
222 236 255
222 236 255
222 236 255
222 236 255
222 236 255
222 236 255
222 236 255
222 236 255
222 236 255
222 236 255
222 236 255
222 236 255
222 236 255
222 236 255
222 236 255
222 236 255
222 236 255
222 236 255
222 236 255
222 236 255
222 236 255
222 236 255
222 236 255
222 236 255
222 236 255
222 236 255
222 236 255
178 194 169
182 198 186
180 197 175
182 198 184
181 197 177
180 196 177
185 200 191
179 195 171
178 195 168
176 193 156
179 195 171
178 195 166
178 194 166
176 193 160
183 199 186
180 197 175
181 197 175
183 199 187
184 200 188
180 196 180
183 199 183
178 195 169
180 196 175
179 195 165
183 198 184
181 198 180
180 196 174
178 194 165
176 193 158
181 198 183
181 197 177
183 199 183
181 197 175
181 197 174
179 196 172
178 195 168
175 192 156
179 195 168
179 196 172
182 198 183
178 195 166
177 194 165
177 194 165
182 198 184
182 198 181
180 196 175
180 196 168
180 196 175
181 197 175
178 195 169
179 196 172
180 196 174
178 195 166
176 193 160
180 196 174
182 197 181
179 195 171
172 190 144
179 195 169
176 192 160
175 193 156
180 196 172
181 197 172
180 196 172
175 192 158
178 194 163
179 196 171
180 196 177
179 195 168
180 196 178
177 194 160
178 195 168
177 194 166
178 195 166
181 197 178
179 195 168
178 195 171
177 194 163
180 196 171
180 197 175
177 194 161
177 193 160
180 196 169
177 193 158
176 193 166
174 191 155
176 193 161
180 196 174
177 194 165
180 196 174
176 192 161
177 194 163
179 195 169
176 192 165
174 191 156
178 194 165
176 192 161
169 185 155
168 183 137
167 181 138
163 177 129
165 175 140
156 166 126
160 169 120
158 167 123
154 163 122
153 158 114
159 166 124
150 154 111
145 148 106
142 141 72
131 129 72
128 124 58
134 128 65
131 125 57
131 126 58
137 131 66
138 133 62
138 132 62
130 125 60
129 123 53
136 130 61
137 131 65
133 127 64
133 127 57
128 121 62
124 116 51
127 120 59
114 107 44
114 106 49
117 109 49
107 97 39
108 99 37
100 90 32
94 85 30
97 91 43
117 112 58
114 109 56
118 112 53
120 117 55
122 117 60
137 132 63
131 126 66
137 131 64
142 136 71
135 129 68
134 130 66
149 142 78
140 135 67
139 135 63
146 141 75
147 141 72
150 144 71
148 142 72
154 149 73
153 148 80
148 142 68
154 147 77
155 150 71
156 150 77
156 150 74
158 152 77
153 148 69
161 155 79
157 151 79
162 156 81
158 152 74
164 158 88
168 161 83
168 161 84
170 163 88
166 159 82
167 161 86
166 159 81
162 156 76
167 159 84
167 161 81
164 158 74
170 162 85
170 164 88
169 162 83
164 158 79
167 161 80
166 160 78
171 164 87
170 163 82
171 164 86
174 167 91
171 164 87
174 166 90
171 164 82
169 163 81
168 161 76
170 163 83
173 167 90
171 164 80
167 162 76
171 164 80
170 163 82
172 165 84
172 165 83
168 161 76
170 162 79
173 166 85
175 167 85
169 163 80
170 163 82
170 164 78
173 165 84
173 165 84
170 163 78
168 161 75
172 164 90
170 163 86
170 163 80
172 164 80
172 164 84
171 165 87
165 159 80
167 161 77
167 160 76
170 164 84
168 162 80
167 160 80
170 163 84
163 156 77
161 155 75
169 162 82
166 160 77
161 155 80
162 156 75
165 158 82
168 161 84
159 152 79
164 158 80
164 157 79
161 155 73
163 156 81
159 154 75
164 158 79
159 153 83
158 152 80
158 153 71
151 145 72
159 152 78
151 146 75
161 155 81
157 151 75
150 144 72
147 142 70
149 143 76
154 147 79
152 146 76
148 143 69
150 144 73
143 138 70
136 131 62
139 134 68
145 140 69
144 138 66
140 136 69
127 121 62
131 125 63
129 123 63
132 130 94
222 236 255
222 236 255
222 236 255
222 236 255
222 236 255
222 236 255
222 236 255
222 236 255
222 236 255
222 236 255
222 236 255
222 236 255
222 236 255
222 236 255
222 236 255
222 236 255
222 236 255
222 236 255
222 236 255
222 236 255
222 236 255
222 236 255
222 236 255
222 236 255
222 236 255
222 236 255
222 236 255
222 236 255
222 236 255
222 236 255
222 236 255
222 236 255
222 236 255
222 236 255
222 236 255
222 236 255
222 236 255
222 236 255
222 236 255
222 236 255
222 236 255
222 236 255
222 236 255
222 236 255
222 236 255
222 236 255
222 236 255
222 236 255
222 236 255
222 236 255
222 236 255
222 236 255
222 236 255
222 236 255
222 236 255
222 236 255
222 236 255
222 236 255
222 236 255
222 236 255
222 236 255
222 236 255
222 236 255
222 236 255
222 236 255
222 236 255
222 236 255
222 236 255
222 236 255
222 236 255
222 236 255
222 236 255
222 236 255
222 236 255
222 236 255
222 236 255
222 236 255
222 236 255
222 236 255
222 236 255
222 236 255
222 236 255
222 236 255
222 236 255
222 236 255
222 236 255
222 236 255
222 236 255
222 236 255
222 236 255
222 236 255
222 236 255
222 236 255
222 236 255
222 236 255
222 236 255
222 236 255
222 236 255
222 236 255
222 236 255
222 236 255
222 236 255
222 236 255
222 236 255
222 236 255
222 236 255
222 236 255
222 236 255
222 236 255
222 236 255
222 236 255
222 236 255
222 236 255
222 236 255
222 236 255
222 236 255
222 236 255
222 236 255
222 236 255
222 236 255
222 236 255
222 236 255
222 236 255
222 236 255
222 236 255
222 236 255
222 236 255
222 236 255
222 236 255
222 236 255
222 236 255
222 236 255
222 236 255
222 236 255
222 236 255
178 195 168
179 196 174
180 196 175
180 196 174
178 195 169
178 194 165
177 194 165
177 194 160
184 200 192
180 196 174
181 197 174
175 192 155
180 196 171
181 197 180
180 196 171
176 193 158
180 196 177
182 198 181
181 197 174
182 197 181
179 195 168
177 194 161
179 195 168
179 195 171
182 198 186
177 194 163
178 195 169
178 194 163
177 194 161
180 196 172
174 191 150
178 195 166
176 193 156
177 194 166
177 194 161
175 192 153
177 194 161
177 193 158
181 197 175
177 194 165
180 196 172
178 195 169
175 192 155
178 195 166
176 193 161
179 195 165
174 191 151
177 194 165
179 195 168
180 196 172
176 193 156
176 194 161
175 193 155
175 192 153
174 192 151
176 193 156
179 195 169
178 194 168
174 192 151
174 191 150
179 195 168
175 192 153
176 193 158
179 195 168
179 195 169
177 194 161
176 193 161
176 193 160
173 190 148
176 193 156
177 194 160
177 193 156
178 193 165
172 189 151
174 191 151
175 192 153
176 193 160
180 196 169
169 187 127
175 192 155
173 191 151
171 188 133
176 193 160
171 189 139
180 196 169
181 197 177
176 192 158
178 194 161
176 192 156
176 193 161
178 194 165
175 192 151
178 195 165
175 192 153
174 191 156
175 192 153
174 191 157
169 185 141
169 184 146
167 181 145
160 173 134
160 174 129
158 168 126
159 171 122
157 166 111
153 161 117
148 154 100
147 151 88
148 153 103
148 150 95
135 137 61
142 141 77
130 128 52
127 122 56
131 126 60
131 125 59
139 133 63
137 132 59
136 130 62
132 127 57
138 132 63
130 123 55
129 123 52
122 116 50
132 126 58
128 121 51
120 113 48
126 120 53
123 116 49
114 104 37
106 96 34
109 99 42
102 95 35
96 86 31
88 80 24
96 91 43
105 98 43
115 111 54
109 104 46
125 120 60
125 119 60
136 130 69
124 120 59
129 124 59
138 133 65
134 128 67
139 134 66
137 133 59
145 140 70
146 141 77
134 128 66
144 138 68
145 139 69
152 145 78
153 147 77
148 142 70
155 149 77
148 143 72
156 150 76
154 148 69
163 156 82
164 158 81
150 143 74
155 148 74
152 146 74
158 152 72
152 145 71
156 150 65
164 157 78
164 158 82
161 155 80
166 159 79
161 155 80
169 161 84
164 159 80
168 161 80
161 156 75
165 158 78
164 158 79
160 155 74
167 161 82
164 158 73
165 158 78
168 161 82
167 161 83
169 163 82
168 161 79
167 161 78
170 162 82
166 160 79
170 162 84
169 163 84
165 159 75
173 165 85
171 164 80
169 162 76
175 167 87
168 162 74
168 162 80
169 163 83
169 162 79
169 163 76
172 165 84
175 166 84
169 162 81
175 167 90
173 165 85
164 158 75
172 165 85
168 162 82
168 162 77
170 163 80
173 165 87
169 161 81
173 166 88
170 163 82
167 160 79
173 165 85
167 161 75
166 159 79
169 163 82
168 161 86
166 158 80
165 159 80
164 158 80
165 159 77
166 159 82
168 160 84
163 156 77
166 160 73
159 153 69
166 161 81
166 159 81
167 160 80
162 155 78
161 154 74
164 157 75
161 154 81
162 155 74
160 153 76
165 157 79
156 149 75
153 148 70
153 146 73
160 153 75
158 152 77
151 145 75
157 151 75
155 149 77
152 146 70
154 147 76
160 154 75
153 147 76
153 148 77
149 143 75
141 137 64
145 139 76
147 141 74
144 138 70
141 135 71
145 139 75
134 129 64
137 132 70
140 134 71
138 136 106
222 236 255
222 236 255
222 236 255
222 236 255
222 236 255
222 236 255
222 236 255
222 236 255
222 236 255
222 236 255
222 236 255
222 236 255
222 236 255
222 236 255
222 236 255
222 236 255
222 236 255
222 236 255
222 236 255
222 236 255
222 236 255
222 236 255
222 236 255
222 236 255
222 236 255
222 236 255
222 236 255
222 236 255
222 236 255
222 236 255
222 236 255
222 236 255
222 236 255
222 236 255
222 236 255
222 236 255
222 236 255
222 236 255
222 236 255
222 236 255
222 236 255
222 236 255
222 236 255
222 236 255
222 236 255
222 236 255
222 236 255
222 236 255
222 236 255
222 236 255
222 236 255
222 236 255
222 236 255
222 236 255
222 236 255
222 236 255
222 236 255
222 236 255
222 236 255
222 236 255
222 236 255
222 236 255
222 236 255
222 236 255
222 236 255
222 236 255
222 236 255
222 236 255
222 236 255
222 236 255
222 236 255
222 236 255
222 236 255
222 236 255
222 236 255
222 236 255
222 236 255
222 236 255
222 236 255
222 236 255
222 236 255
222 236 255
222 236 255
222 236 255
222 236 255
222 236 255
222 236 255
222 236 255
222 236 255
222 236 255
222 236 255
222 236 255
222 236 255
222 236 255
222 236 255
222 236 255
222 236 255
222 236 255
222 236 255
222 236 255
222 236 255
222 236 255
222 236 255
222 236 255
222 236 255
222 236 255
222 236 255
222 236 255
222 236 255
222 236 255
222 236 255
222 236 255
222 236 255
222 236 255
222 236 255
222 236 255
222 236 255
222 236 255
222 236 255
222 236 255
222 236 255
222 236 255
222 236 255
222 236 255
222 236 255
222 236 255
222 236 255
222 236 255
222 236 255
222 236 255
222 236 255
222 236 255
222 236 255
222 236 255
222 236 255
175 192 155
180 196 174
179 195 171
178 195 169
180 196 171
179 195 166
180 197 174
180 196 174
179 195 166
177 194 163
177 194 163
178 195 165
179 195 169
179 195 168
175 192 153
181 197 177
176 193 155
179 195 166
174 191 150
175 192 155
180 196 174
178 195 165
179 196 169
177 194 163
177 193 165
177 193 156
179 195 169
176 192 158
173 190 137
175 193 156
172 190 146
179 195 168
176 193 156
174 191 150
177 193 158
179 196 171
174 190 144
179 195 166
173 190 148
178 194 165
178 194 166
177 194 163
180 196 172
176 193 158
177 194 163
175 192 155
176 193 153
178 194 165
176 192 158
173 191 146
174 190 146
179 195 171
177 194 161
174 191 148
175 192 153
180 196 174
174 191 150
174 191 144
171 188 129
175 191 155
176 193 156
176 192 158
177 193 158
174 191 153
174 191 150
175 192 153
176 193 156
176 193 153
176 193 156
173 191 146
177 193 160
176 193 158
177 193 158
177 193 158
172 189 141
175 192 153
176 193 153
171 189 135
176 192 151
174 191 151
180 196 174
173 190 144
177 193 158
176 192 158
173 190 146
171 188 144
173 189 142
176 193 156
174 190 155
176 192 156
171 188 142
175 192 158
177 193 166
177 193 163
171 189 144
174 191 153
172 190 144
171 187 146
169 184 146
160 173 133
167 180 135
161 174 117
159 170 117
151 161 118
153 162 109
149 158 97
145 150 90
140 144 91
138 143 81
141 143 85
137 138 55
132 129 57
134 132 52
136 130 62
126 121 49
136 130 60
131 126 56
131 126 59
134 128 58
134 128 59
132 125 53
136 131 53
131 125 55
132 126 60
120 114 44
128 122 54
125 118 49
126 119 47
110 105 32
115 107 38
104 97 39
106 98 36
107 97 32
95 85 24
90 79 20
96 89 42
104 100 51
107 101 52
119 115 58
122 117 59
127 121 58
136 131 69
137 132 69
142 137 72
134 129 61
137 132 68
142 137 66
146 140 73
146 141 72
149 143 76
152 147 74
151 144 70
147 142 73
148 142 75
153 147 77
155 148 79
149 143 74
160 154 78
159 153 76
147 140 67
153 148 74
152 146 71
159 154 78
163 156 78
160 154 79
153 147 67
161 154 79
159 153 75
165 159 81
163 157 74
166 159 83
159 154 74
169 161 88
162 155 71
166 160 77
166 159 83
164 158 79
170 163 87
166 159 75
170 163 86
170 163 79
168 162 83
168 161 79
168 162 75
169 162 80
171 164 83
169 162 83
167 161 78
165 158 74
171 164 76
168 162 80
167 161 79
169 163 78
173 166 85
172 165 83
167 160 76
171 163 78
169 163 76
171 164 77
170 163 81
167 161 71
171 164 79
172 165 82
169 162 76
166 160 75
172 165 84
172 164 84
169 162 80
168 161 76
171 164 80
165 160 73
172 165 85
169 162 80
170 163 80
168 161 73
171 164 89
164 158 75
168 161 78
175 168 93
166 161 75
166 160 78
169 162 80
168 161 84
172 164 90
163 157 75
173 165 86
168 161 83
168 161 83
163 157 74
163 156 78
167 160 83
161 154 77
162 156 83
159 152 75
161 155 76
165 159 79
158 152 72
154 148 70
160 154 70
151 146 71
157 151 75
155 149 68
156 149 76
161 154 72
156 149 76
161 154 81
149 143 67
149 144 65
157 151 75
152 146 74
150 144 74
149 142 75
158 151 80
148 142 68
150 143 71
151 144 73
150 143 74
139 133 65
144 138 63
146 141 71
134 128 63
130 125 64
131 126 60
141 135 65
149 150 129
223 236 255
223 236 255
223 236 255
223 236 255
223 236 255
223 236 255
223 236 255
223 236 255
223 236 255
223 236 255
223 236 255
223 236 255
223 236 255
223 236 255
223 236 255
223 236 255
223 236 255
223 236 255
223 236 255
223 236 255
223 236 255
223 236 255
222 236 255
222 236 255
222 236 255
222 236 255
222 236 255
222 236 255
222 236 255
222 236 255
222 236 255
222 236 255
222 236 255
222 236 255
222 236 255
222 236 255
222 236 255
222 236 255
222 236 255
222 236 255
222 236 255
222 236 255
222 236 255
222 236 255
222 236 255
222 236 255
222 236 255
222 236 255
222 236 255
222 236 255
222 236 255
222 236 255
222 236 255
222 236 255
222 236 255
222 236 255
222 236 255
222 236 255
222 236 255
222 236 255
222 236 255
222 236 255
222 236 255
222 236 255
222 236 255
222 236 255
222 236 255
222 236 255
222 236 255
222 236 255
222 236 255
222 236 255
222 236 255
222 236 255
222 236 255
222 236 255
222 236 255
222 236 255
222 236 255
222 236 255
222 236 255
222 236 255
222 236 255
222 236 255
222 236 255
222 236 255
222 236 255
222 236 255
222 236 255
222 236 255
222 236 255
222 236 255
222 236 255
222 236 255
222 236 255
222 236 255
222 236 255
222 236 255
222 236 255
222 236 255
222 236 255
222 236 255
222 236 255
222 236 255
222 236 255
222 236 255
222 236 255
222 236 255
222 236 255
222 236 255
222 236 255
222 236 255
222 236 255
222 236 255
222 236 255
222 236 255
222 236 255
222 236 255
222 236 255
222 236 255
222 236 255
222 236 255
222 236 255
222 236 255
222 236 255
222 236 255
222 236 255
222 236 255
222 236 255
222 236 255
222 236 255
222 236 255
222 236 255
222 236 255
222 236 255
177 194 160
176 192 155
177 193 160
177 194 163
177 194 158
177 194 158
177 193 161
177 194 160
180 196 172
177 194 161
176 193 156
179 195 168
179 195 169
177 194 165
180 196 169
178 194 161
179 195 165
176 193 158
179 195 172
177 193 158
176 193 151
175 192 153
177 194 160
177 194 165
175 192 156
177 194 160
176 193 158
176 193 153
179 195 166
173 191 146
177 194 165
175 192 153
173 191 150
176 193 155
175 192 150
180 196 169
176 193 160
174 191 150
174 191 148
174 191 146
175 192 151
177 194 161
173 190 146
173 191 146
177 193 156
176 193 155
172 190 141
175 192 151
177 194 160
174 191 144
174 191 150
170 188 129
169 188 131
179 195 165
174 191 148
174 192 148
174 191 150
171 189 133
172 189 139
169 186 135
174 191 150
177 193 158
174 191 146
173 190 153
173 190 146
173 190 142
174 192 148
172 190 142
175 192 148
173 190 150
175 192 158
171 189 135
176 192 151
173 191 144
171 188 135
174 190 148
172 189 141
172 189 141
170 188 135
171 189 137
170 188 135
174 191 146
172 189 150
169 186 129
172 189 144
168 185 127
172 189 137
172 189 144
170 188 133
171 188 135
171 188 137
172 189 144
167 185 123
169 187 133
168 186 125
171 188 133
169 187 137
169 186 139
169 186 127
167 181 142
160 174 107
158 172 114
159 171 114
153 164 113
153 165 101
149 156 92
139 146 69
151 155 89
142 148 74
139 143 77
142 144 68
136 133 57
141 137 66
134 131 54
125 121 49
132 126 57
128 123 54
131 126 59
135 130 55
133 127 61
128 121 49
131 125 51
128 123 50
127 120 44
123 117 45
124 117 48
122 115 45
118 112 38
120 111 42
111 103 40
111 104 31
104 95 36
106 97 36
99 88 25
90 79 22
94 86 31
116 110 56
113 108 53
112 107 49
132 126 57
123 118 61
132 127 63
118 114 57
130 125 60
137 131 70
144 139 70
138 131 67
144 140 71
146 139 73
143 137 74
144 137 69
148 142 78
147 141 67
142 137 67
147 141 72
146 141 61
148 142 71
151 145 70
153 147 70
159 153 80
151 145 69
159 153 78
154 149 72
154 148 74
156 151 74
162 154 84
162 156 76
161 154 74
159 153 74
158 152 71
160 154 72
166 159 83
158 153 74
163 156 76
163 157 74
160 153 76
163 157 77
167 160 79
166 158 80
165 157 80
166 160 71
166 159 75
167 160 83
166 160 79
167 160 77
164 158 74
166 161 72
168 161 79
172 165 84
171 164 80
164 158 71
169 162 78
170 163 82
166 159 78
167 161 80
173 165 87
170 163 80
171 165 86
169 163 80
169 162 76
170 163 84
166 159 72
169 162 80
169 163 81
173 166 82
167 161 75
169 162 78
170 162 78
169 162 75
168 161 80
168 161 80
173 165 86
172 165 82
166 160 77
168 161 76
170 163 83
166 160 72
171 165 85
166 160 78
164 159 78
174 166 87
166 161 79
169 162 85
164 157 76
164 158 81
166 159 79
168 161 83
161 155 80
166 160 77
162 156 67
161 155 74
160 154 74
162 154 80
166 159 80
164 156 80
161 155 81
163 157 78
158 152 68
158 151 75
157 150 77
160 153 75
164 156 79
160 153 73
146 140 67
158 152 74
159 152 70
163 155 80
151 145 73
162 155 80
156 150 74
150 144 71
156 150 75
154 148 68
152 145 71
148 141 74
144 138 65
131 127 60
143 137 67
156 149 75
142 136 66
126 121 61
131 126 59
138 131 62
136 131 65
170 174 162
223 236 255
223 236 255
223 236 255
223 236 255
223 236 255
223 236 255
223 236 255
223 236 255
223 236 255
223 236 255
223 236 255
223 236 255
223 236 255
223 236 255
223 236 255
223 236 255
223 236 255
223 236 255
223 236 255
223 236 255
223 236 255
223 236 255
223 236 255
223 236 255
223 236 255
223 236 255
223 236 255
223 236 255
223 236 255
223 236 255
223 236 255
223 236 255
223 236 255
223 236 255
223 236 255
223 236 255
223 236 255
223 236 255
223 236 255
223 236 255
223 236 255
223 236 255
223 236 255
223 236 255
223 236 255
223 236 255
223 236 255
223 236 255
223 236 255
223 236 255
223 236 255
223 236 255
223 236 255
223 236 255
223 236 255
223 236 255
223 236 255
223 236 255
223 236 255
223 236 255
223 236 255
223 236 255
223 236 255
222 236 255
222 236 255
222 236 255
222 236 255
222 236 255
222 236 255
222 236 255
222 236 255
222 236 255
222 236 255
222 236 255
222 236 255
222 236 255
222 236 255
222 236 255
222 236 255
222 236 255
222 236 255
222 236 255
222 236 255
222 236 255
222 236 255
222 236 255
222 236 255
222 236 255
222 236 255
222 236 255
222 236 255
222 236 255
222 236 255
222 236 255
222 236 255
222 236 255
222 236 255
222 236 255
222 236 255
222 236 255
222 236 255
222 236 255
222 236 255
222 236 255
222 236 255
222 236 255
222 236 255
222 236 255
222 236 255
222 236 255
222 236 255
222 236 255
222 236 255
222 236 255
222 236 255
222 236 255
222 236 255
222 236 255
222 236 255
222 236 255
222 236 255
222 236 255
222 236 255
222 236 255
222 236 255
222 236 255
222 236 255
222 236 255
222 236 255
222 236 255
222 236 255
222 236 255
222 236 255
222 236 255
222 236 255
177 194 160
175 192 151
175 192 151
177 194 163
176 193 160
175 192 153
178 195 165
181 197 175
177 194 160
180 196 171
176 193 156
175 192 156
175 192 156
174 192 150
172 190 139
177 194 160
174 191 148
177 193 158
170 188 133
170 188 127
177 193 156
177 193 163
176 193 155
174 191 144
172 189 139
177 194 161
174 191 148
174 192 150
175 193 155
177 194 163
177 193 155
176 192 151
173 189 142
171 189 137
170 188 133
176 193 156
174 191 144
171 189 137
176 192 155
176 192 153
172 189 142
175 192 146
170 188 133
176 192 148
177 193 156
167 186 127
173 191 144
173 190 146
171 189 135
178 194 158
172 190 139
172 189 144
166 185 116
172 188 135
175 192 150
172 189 139
173 190 146
175 192 144
173 191 144
172 189 139
168 186 121
170 188 131
173 190 139
172 189 139
171 189 135
172 189 142
174 191 142
171 188 129
171 188 133
173 190 148
172 189 135
171 189 137
170 188 133
169 187 131
171 189 139
171 188 135
169 187 127
169 187 141
171 188 139
173 190 139
170 188 131
171 188 133
169 187 123
167 186 121
164 183 112
166 184 116
170 188 133
172 189 133
169 186 127
171 188 133
166 183 116
172 189 142
166 185 118
168 186 127
169 187 129
165 182 114
163 180 112
167 184 124
166 180 126
161 176 102
162 176 120
155 169 99
158 170 102
152 162 102
148 158 82
145 152 92
151 159 99
143 149 92
132 138 48
141 144 60
133 136 66
132 130 57
129 127 48
125 120 56
124 118 47
128 124 45
130 125 53
132 127 48
133 127 52
126 120 41
126 120 54
133 126 61
128 122 48
128 121 50
119 112 41
124 116 50
112 105 38
113 106 41
120 113 42
115 107 44
106 99 31
108 101 29
97 88 29
99 92 26
85 78 24
94 87 38
108 103 44
124 118 61
110 105 49
122 117 53
121 116 52
122 118 55
126 121 56
128 122 58
139 133 62
136 131 60
140 134 68
132 127 60
125 121 63
141 136 59
139 135 60
144 139 70
137 131 65
144 139 64
147 141 66
142 135 66
156 151 74
149 144 65
151 146 69
155 149 74
162 155 80
148 142 67
158 151 74
160 153 77
156 150 75
161 154 78
153 149 69
160 154 76
156 149 72
160 155 79
163 156 79
160 155 75
160 153 76
162 156 74
162 155 75
162 155 70
169 163 81
162 156 69
164 159 78
168 161 78
168 161 82
164 157 72
162 156 72
169 162 77
166 159 78
169 162 79
169 162 74
174 166 86
168 161 77
169 163 80
164 157 74
167 162 74
170 163 78
166 160 68
167 161 79
166 161 76
167 160 81
172 165 80
170 163 77
167 160 80
169 162 79
168 161 79
170 163 82
167 161 72
171 163 84
172 165 82
170 163 78
169 162 82
171 164 82
169 162 79
169 163 75
169 162 76
167 160 75
163 157 69
164 157 75
165 160 71
168 161 75
170 164 81
167 160 74
169 163 77
165 158 67
166 159 75
165 158 71
166 160 72
164 158 77
167 161 78
166 160 80
164 159 80
167 160 71
169 163 85
163 156 75
161 155 74
164 158 78
162 156 77
159 154 69
165 158 80
163 156 78
160 154 73
162 154 81
160 153 73
154 149 73
158 151 75
152 147 69
158 151 75
148 142 72
155 149 75
151 145 73
154 148 74
147 141 67
153 148 70
151 145 66
145 140 63
139 133 63
145 139 66
141 135 67
137 130 61
147 141 73
136 131 60
138 133 63
140 134 64
128 123 61
136 129 64
135 128 63
129 124 60
168 172 162
223 237 255
223 237 255
223 237 255
223 237 255
223 237 255
223 237 255
223 237 255
223 237 255
223 237 255
223 237 255
223 237 255
223 237 255
223 237 255
223 237 255
223 237 255
223 237 255
223 237 255
223 237 255
223 237 255
223 237 255
223 237 255
223 237 255
223 237 255
223 237 255
223 237 255
223 237 255
223 237 255
223 237 255
223 237 255
223 237 255
223 237 255
223 236 255
223 236 255
223 236 255
223 236 255
223 236 255
223 236 255
223 236 255
223 236 255
223 236 255
223 236 255
223 236 255
223 236 255
223 236 255
223 236 255
223 236 255
223 236 255
223 236 255
223 236 255
223 236 255
223 236 255
223 236 255
223 236 255
223 236 255
223 236 255
223 236 255
223 236 255
223 236 255
223 236 255
223 236 255
223 236 255
223 236 255
223 236 255
223 236 255
223 236 255
223 236 255
223 236 255
223 236 255
223 236 255
223 236 255
223 236 255
223 236 255
223 236 255
223 236 255
223 236 255
223 236 255
223 236 255
223 236 255
223 236 255
223 236 255
223 236 255
223 236 255
223 236 255
223 236 255
223 236 255
223 236 255
223 236 255
223 236 255
223 236 255
223 236 255
223 236 255
223 236 255
223 236 255
223 236 255
223 236 255
223 236 255
223 236 255
223 236 255
223 236 255
222 236 255
222 236 255
222 236 255
222 236 255
222 236 255
222 236 255
222 236 255
222 236 255
222 236 255
222 236 255
222 236 255
222 236 255
222 236 255
222 236 255
222 236 255
222 236 255
222 236 255
222 236 255
222 236 255
222 236 255
222 236 255
222 236 255
222 236 255
222 236 255
222 236 255
222 236 255
222 236 255
222 236 255
222 236 255
222 236 255
222 236 255
222 236 255
222 236 255
222 236 255
222 236 255
222 236 255
173 190 146
175 192 153
176 193 156
173 191 144
176 193 160
173 191 146
175 193 156
176 193 158
178 195 165
180 196 171
175 192 156
175 192 153
177 193 155
175 192 161
173 191 146
174 192 153
173 190 142
174 191 148
172 190 141
174 191 146
172 190 142
173 190 144
174 191 151
176 193 165
175 192 150
173 191 144
171 189 137
172 189 142
170 187 137
176 193 156
175 192 150
175 192 146
176 192 153
173 190 142
175 192 153
171 189 135
171 188 135
176 192 150
173 190 139
172 190 139
171 189 135
171 189 139
175 192 146
174 191 144
174 191 144
173 190 144
169 187 125
172 189 139
170 188 127
171 189 139
171 188 141
168 186 125
171 189 133
171 188 129
172 190 141
170 188 127
173 190 141
168 186 123
168 186 123
170 188 131
172 189 142
173 190 135
170 188 129
169 187 125
169 187 125
166 185 109
170 188 131
170 188 125
173 189 142
171 188 133
165 183 107
170 188 135
168 186 118
170 188 129
172 188 137
169 186 129
168 186 129
165 183 109
171 188 135
165 184 107
170 187 139
166 183 127
166 184 107
167 185 116
164 182 109
165 183 116
168 184 127
166 183 114
168 186 123
167 185 118
164 182 109
166 184 109
165 183 114
167 184 123
168 186 123
166 184 112
166 183 109
161 178 114
163 179 117
166 183 114
159 173 116
153 168 97
147 160 91
147 158 78
150 161 69
153 161 90
145 152 85
145 150 64
143 149 70
139 140 63
135 137 56
135 136 44
130 129 44
126 123 48
121 116 42
128 122 48
130 124 50
131 126 51
126 119 49
126 120 50
125 120 46
129 122 48
122 115 45
125 119 46
120 115 38
123 116 42
113 105 36
118 112 38
108 102 35
111 105 32
108 101 32
113 106 28
103 96 25
87 80 22
88 81 12
77 72 15
105 100 45
101 96 46
121 115 55
121 117 59
129 124 58
129 122 61
132 127 58
125 120 53
135 128 63
136 130 63
130 125 58
139 133 60
135 131 56
154 148 75
148 142 63
145 139 71
150 144 73
143 138 65
139 134 63
155 150 75
153 147 72
151 145 70
146 141 62
149 144 68
149 143 70
153 147 72
157 151 76
156 149 71
154 148 65
161 154 75
159 153 69
161 155 76
160 153 70
153 148 70
157 151 71
156 150 73
159 153 74
165 159 81
164 157 77
162 156 74
158 151 70
161 155 72
167 160 80
162 156 75
166 159 78
165 158 76
164 158 72
167 160 76
163 158 70
167 159 78
165 158 71
166 160 76
167 161 73
169 162 80
168 161 80
170 163 81
168 163 77
168 162 75
166 160 75
170 163 80
165 159 71
169 163 79
170 163 79
171 164 81
168 161 73
172 164 80
167 160 75
172 165 80
171 163 81
172 165 81
168 161 80
168 162 74
172 164 80
167 161 75
169 162 78
172 165 81
165 157 70
169 162 78
168 162 75
166 160 70
160 153 68
169 162 78
168 162 83
164 158 74
163 157 72
167 161 80
164 157 73
164 158 77
168 161 75
170 164 80
167 160 80
160 155 74
162 155 75
160 154 70
159 154 64
161 154 73
163 156 75
162 155 75
161 155 71
150 144 70
157 151 69
159 153 74
164 156 82
158 151 70
157 150 75
160 154 76
159 152 73
153 147 68
157 150 75
154 147 74
157 151 76
151 145 72
148 141 66
151 144 68
143 138 73
150 145 66
142 135 63
151 144 75
145 139 67
150 144 70
146 139 72
144 137 67
148 142 78
138 132 61
146 140 65
129 124 63
126 121 54
112 107 52
192 201 206
223 237 255
223 237 255
223 237 255
223 237 255
223 237 255
223 237 255
223 237 255
223 237 255
223 237 255
223 237 255
223 237 255
223 237 255
223 237 255
223 237 255
223 237 255
223 237 255
223 237 255
223 237 255
223 237 255
223 237 255
223 237 255
223 237 255
223 237 255
223 237 255
223 237 255
223 237 255
223 237 255
223 237 255
223 237 255
223 237 255
223 237 255
223 237 255
223 237 255
223 237 255
223 237 255
223 237 255
223 237 255
223 237 255
223 237 255
223 237 255
223 237 255
223 237 255
223 237 255
223 237 255
223 237 255
223 237 255
223 237 255
223 237 255
223 237 255
223 237 255
223 237 255
223 237 255
223 237 255
223 237 255
223 237 255
223 237 255
223 237 255
223 237 255
223 237 255
223 237 255
223 237 255
223 236 255
223 236 255
223 236 255
223 236 255
223 236 255
223 236 255
223 236 255
223 236 255
223 236 255
223 236 255
223 236 255
223 236 255
223 236 255
223 236 255
223 236 255
223 236 255
223 236 255
223 236 255
223 236 255
223 236 255
223 236 255
223 236 255
223 236 255
223 236 255
223 236 255
223 236 255
223 236 255
223 236 255
223 236 255
223 236 255
223 236 255
223 236 255
223 236 255
223 236 255
223 236 255
223 236 255
223 236 255
223 236 255
223 236 255
223 236 255
223 236 255
223 236 255
223 236 255
223 236 255
223 236 255
223 236 255
223 236 255
223 236 255
223 236 255
223 236 255
223 236 255
223 236 255
223 236 255
223 236 255
223 236 255
223 236 255
223 236 255
223 236 255
223 236 255
223 236 255
223 236 255
223 236 255
223 236 255
223 236 255
223 236 255
223 236 255
223 236 255
223 236 255
223 236 255
223 236 255
223 236 255
223 236 255
222 236 255
222 236 255
176 192 151
173 190 141
172 189 142
175 192 151
178 194 165
176 193 155
174 191 146
171 188 135
176 192 151
175 192 148
174 191 148
175 192 153
170 188 141
169 187 127
175 192 150
180 196 166
170 187 131
174 191 146
171 189 137
170 188 133
174 191 150
174 191 155
173 191 144
172 190 142
169 187 127
173 190 142
171 189 135
173 191 144
169 187 127
173 191 141
171 189 137
173 190 135
172 189 131
174 191 148
171 189 135
168 186 123
169 187 123
167 186 125
170 188 133
169 186 125
171 188 133
171 189 133
167 186 118
171 188 133
168 186 116
171 188 135
169 188 135
171 189 133
166 184 109
171 189 131
169 187 121
169 186 123
168 186 118
173 190 146
170 187 125
170 188 127
169 186 129
168 185 121
166 184 118
162 181 94
165 184 112
166 184 116
169 187 127
168 187 125
164 183 104
170 188 129
166 185 116
165 184 112
163 181 102
168 185 123
164 183 99
168 186 121
168 186 121
165 184 109
169 186 127
170 187 131
170 187 125
168 185 123
163 182 102
169 187 123
165 183 112
168 186 121
168 185 114
163 181 94
165 183 116
162 181 99
164 183 99
165 183 109
162 181 109
165 183 107
162 181 102
163 181 97
162 180 94
163 181 104
170 187 129
164 182 109
164 182 99
165 182 109
157 174 89
154 169 84
156 169 101
150 163 88
150 162 79
141 152 77
146 156 62
149 159 77
137 144 52
140 145 44
137 142 70
135 141 54
136 137 49
130 130 45
128 127 41
131 130 39
129 125 51
125 119 50
122 116 43
119 115 44
126 119 48
124 119 42
123 118 43
126 120 49
125 120 39
121 116 45
121 116 42
117 109 33
117 110 32
116 109 38
111 103 32
100 93 23
104 99 29
103 95 27
98 90 15
90 80 20
88 80 17
85 78 24
100 96 43
109 105 49
121 117 55
123 117 56
128 122 63
119 114 51
126 121 53
137 132 67
140 134 65
141 134 66
127 123 58
136 130 64
141 136 66
140 135 60
149 144 64
144 138 69
148 142 65
144 138 62
148 142 65
146 140 65
148 141 65
154 148 72
142 138 63
154 148 70
152 145 73
148 142 67
160 154 73
159 152 74
160 154 79
150 144 66
169 161 83
164 157 80
161 155 77
155 149 66
163 157 78
165 158 77
160 154 69
163 156 76
166 159 78
159 153 69
161 154 76
162 155 78
160 153 69
165 159 78
169 162 83
163 156 73
162 157 74
168 162 80
162 156 72
164 158 70
162 155 72
167 160 71
167 160 75
165 158 73
167 160 73
164 158 63
171 163 78
168 161 80
167 160 76
168 162 75
172 164 80
170 163 74
167 160 74
165 159 71
169 162 80
169 162 74
169 163 75
164 158 63
168 161 74
168 162 76
163 157 62
169 162 76
171 164 80
165 159 69
168 161 75
170 163 82
167 161 68
162 155 68
164 157 68
165 159 71
164 158 71
164 157 77
162 156 68
169 162 75
167 160 72
164 157 71
166 159 74
158 153 65
162 155 71
162 154 76
164 156 80
167 160 77
163 156 72
167 161 77
157 151 73
165 158 75
162 155 77
165 158 76
159 153 69
159 152 70
154 149 64
163 157 76
149 143 66
159 152 73
159 153 79
156 149 70
165 158 78
158 151 74
158 152 75
155 149 70
155 149 73
158 151 74
154 148 66
150 144 70
149 144 71
138 134 65
147 141 70
146 139 66
140 134 59
147 140 71
145 140 61
143 137 72
140 135 62
134 128 66
138 132 67
126 122 56
137 131 62
130 125 63
195 203 206
224 237 255
224 237 255
224 237 255
224 237 255
224 237 255
224 237 255
224 237 255
224 237 255
224 237 255
224 237 255
224 237 255
224 237 255
224 237 255
224 237 255
224 237 255
224 237 255
224 237 255
224 237 255
224 237 255
224 237 255
224 237 255
224 237 255
224 237 255
224 237 255
224 237 255
223 237 255
223 237 255
223 237 255
223 237 255
223 237 255
223 237 255
223 237 255
223 237 255
223 237 255
223 237 255
223 237 255
223 237 255
223 237 255
223 237 255
223 237 255
223 237 255
223 237 255
223 237 255
223 237 255
223 237 255
223 237 255
223 237 255
223 237 255
223 237 255
223 237 255
223 237 255
223 237 255
223 237 255
223 237 255
223 237 255
223 237 255
223 237 255
223 237 255
223 237 255
223 237 255
223 237 255
223 237 255
223 237 255
223 237 255
223 237 255
223 237 255
223 237 255
223 237 255
223 237 255
223 237 255
223 237 255
223 237 255
223 237 255
223 237 255
223 237 255
223 237 255
223 237 255
223 237 255
223 237 255
223 237 255
223 237 255
223 237 255
223 237 255
223 237 255
223 237 255
223 237 255
223 237 255
223 237 255
223 237 255
223 237 255
223 236 255
223 236 255
223 236 255
223 236 255
223 236 255
223 236 255
223 236 255
223 236 255
223 236 255
223 236 255
223 236 255
223 236 255
223 236 255
223 236 255
223 236 255
223 236 255
223 236 255
223 236 255
223 236 255
223 236 255
223 236 255
223 236 255
223 236 255
223 236 255
223 236 255
223 236 255
223 236 255
223 236 255
223 236 255
223 236 255
223 236 255
223 236 255
223 236 255
223 236 255
223 236 255
223 236 255
223 236 255
223 236 255
223 236 255
223 236 255
223 236 255
223 236 255
223 236 255
223 236 255
223 236 255
174 191 146
175 192 153
173 191 144
175 191 146
173 191 142
171 189 135
171 189 137
173 191 146
174 191 144
174 190 144
172 189 139
174 191 150
172 189 139
172 189 137
169 187 125
172 190 139
172 189 137
173 190 141
172 189 135
172 189 133
173 190 139
174 191 144
170 188 129
169 187 129
168 186 118
173 190 139
172 189 135
166 184 114
171 189 141
173 190 137
170 188 129
170 187 127
172 190 139
171 188 135
167 186 118
173 190 142
170 187 127
168 186 121
171 189 137
170 188 131
173 190 139
171 189 133
168 186 121
167 185 116
168 186 123
171 188 127
171 188 131
169 187 125
164 183 107
169 187 125
166 183 112
172 189 131
166 184 116
170 188 125
166 184 107
168 185 116
166 184 109
168 187 121
167 185 118
167 184 104
165 184 104
164 183 107
168 186 116
168 186 121
162 181 91
164 182 107
167 185 116
169 187 123
164 182 99
164 182 107
163 181 97
165 184 107
160 179 88
163 183 99
164 182 102
163 181 107
165 184 104
167 184 114
163 182 97
162 180 97
166 184 118
164 182 99
163 181 94
162 180 99
168 187 116
160 179 91
160 179 97
162 180 85
162 179 85
160 178 85
161 179 91
162 181 94
158 177 79
161 177 104
162 178 94
157 176 79
160 177 88
160 177 88
159 176 83
156 171 85
153 169 68
153 168 88
145 158 69
143 155 55
143 154 70
148 160 60
137 144 42
135 142 69
128 133 42
134 141 39
135 140 36
134 134 39
123 126 35
134 134 45
127 123 42
128 123 44
125 121 40
127 120 46
123 118 49
112 107 34
121 117 34
122 115 43
122 116 41
122 116 34
119 112 29
115 107 34
122 115 42
107 101 24
104 99 26
112 105 24
104 98 31
103 95 27
89 82 16
95 87 14
89 82 7
91 83 18
100 95 44
108 102 42
117 112 48
132 128 61
116 110 50
134 128 59
129 122 65
129 123 59
120 117 53
132 126 54
135 129 63
137 132 62
143 137 67
134 130 56
146 141 70
143 138 62
144 140 61
148 142 66
149 144 65
146 140 61
150 144 62
154 148 71
154 148 73
149 143 65
154 148 68
156 150 71
157 151 74
156 149 74
152 147 68
163 156 71
157 152 70
158 151 68
159 152 74
156 151 73
163 156 79
161 155 70
163 156 72
157 152 74
159 153 69
159 153 72
164 158 74
157 153 67
164 158 75
162 155 71
163 157 72
165 158 74
163 156 75
168 161 78
168 161 79
163 157 69
167 161 80
167 160 79
164 157 71
170 162 80
166 160 78
162 155 69
164 158 71
169 162 80
167 159 73
167 161 68
167 160 70
169 162 78
167 160 69
168 161 76
170 163 80
167 160 76
160 155 60
168 161 77
172 164 80
169 162 77
170 163 80
170 163 78
168 161 75
167 160 73
167 160 75
163 157 73
172 165 82
165 158 76
166 159 77
168 161 75
163 156 73
167 161 75
167 160 75
161 156 69
164 158 75
163 157 75
160 153 72
163 155 76
169 162 79
158 152 68
159 154 68
158 151 71
163 156 72
170 162 83
163 157 76
163 157 75
161 154 73
160 154 72
160 153 69
159 152 71
164 157 72
161 154 75
158 152 74
157 151 70
151 146 63
155 149 73
150 144 66
158 152 77
155 148 70
152 147 70
151 146 61
142 138 61
151 145 69
148 142 73
150 144 65
148 142 64
152 147 68
138 132 66
145 140 61
149 143 68
145 139 65
143 137 63
138 132 64
137 130 62
141 134 68
149 142 74
130 125 61
130 125 60
213 224 235
224 237 255
224 237 255
224 237 255
224 237 255
224 237 255
224 237 255
224 237 255
224 237 255
224 237 255
224 237 255
224 237 255
224 237 255
224 237 255
224 237 255
224 237 255
224 237 255
224 237 255
224 237 255
224 237 255
224 237 255
224 237 255
224 237 255
224 237 255
224 237 255
224 237 255
224 237 255
224 237 255
224 237 255
224 237 255
224 237 255
224 237 255
224 237 255
224 237 255
224 237 255
224 237 255
224 237 255
224 237 255
224 237 255
224 237 255
224 237 255
224 237 255
224 237 255
224 237 255
224 237 255
224 237 255
224 237 255
224 237 255
224 237 255
224 237 255
223 237 255
223 237 255
223 237 255
223 237 255
223 237 255
223 237 255
223 237 255
223 237 255
223 237 255
223 237 255
223 237 255
223 237 255
223 237 255
223 237 255
223 237 255
223 237 255
223 237 255
223 237 255
223 237 255
223 237 255
223 237 255
223 237 255
223 237 255
223 237 255
223 237 255
223 237 255
223 237 255
223 237 255
223 237 255
223 237 255
223 237 255
223 237 255
223 237 255
223 237 255
223 237 255
223 237 255
223 237 255
223 237 255
223 237 255
223 237 255
223 237 255
223 237 255
223 237 255
223 237 255
223 237 255
223 237 255
223 237 255
223 237 255
223 237 255
223 237 255
223 237 255
223 237 255
223 237 255
223 237 255
223 237 255
223 237 255
223 237 255
223 237 255
223 237 255
223 237 255
223 237 255
223 237 255
223 237 255
223 237 255
223 237 255
223 236 255
223 236 255
223 236 255
223 236 255
223 236 255
223 236 255
223 236 255
223 236 255
223 236 255
223 236 255
223 236 255
223 236 255
223 236 255
223 236 255
223 236 255
223 236 255
223 236 255
223 236 255
223 236 255
223 236 255
223 236 255
171 189 141
172 189 135
173 190 144
172 189 139
171 189 135
168 187 125
169 187 123
171 189 137
174 191 141
170 187 129
170 188 133
171 188 135
171 188 129
173 190 141
169 187 131
172 189 131
169 187 123
168 187 123
173 190 139
168 186 121
169 187 123
171 188 131
165 184 104
167 184 118
166 184 116
172 189 139
169 186 127
166 184 118
169 187 118
166 185 112
170 188 135
168 186 116
168 185 114
168 186 123
163 182 104
165 183 109
168 186 118
168 187 123
167 185 109
165 184 104
168 186 125
170 188 125
169 187 125
168 186 116
169 187 125
166 184 114
167 184 118
165 184 112
168 186 112
168 186 118
166 184 114
169 187 121
166 185 114
166 184 112
167 185 118
164 183 112
167 184 116
163 182 102
169 187 118
161 180 88
164 182 102
166 184 107
168 186 127
162 181 88
160 180 75
161 180 85
159 179 68
163 181 102
163 181 94
159 178 82
160 179 91
164 182 94
165 183 107
160 179 85
162 181 91
158 178 68
156 176 60
162 181 85
161 179 85
159 178 75
158 177 79
162 180 85
158 178 64
159 178 85
158 176 64
160 177 79
160 180 75
161 179 85
158 176 72
155 173 68
158 177 64
158 177 72
157 176 68
156 174 79
155 173 60
155 173 75
154 171 60
154 172 56
159 176 75
154 169 63
152 169 61
146 161 54
150 165 64
147 159 62
146 158 63
139 149 36
137 149 50
136 144 45
135 139 38
129 133 32
131 133 36
134 136 32
126 127 35
120 121 27
129 125 46
121 117 35
116 111 34
119 113 43
121 117 38
126 121 38
117 112 31
118 111 38
120 114 37
117 113 28
107 100 30
119 112 34
114 109 32
108 101 22
105 98 28
101 95 28
99 94 15
104 98 14
95 91 17
92 85 17
88 81 15
80 74 11
91 85 37
88 82 33
107 101 41
118 113 49
117 111 48
117 112 51
123 119 49
140 134 63
126 121 55
135 131 59
129 123 55
141 135 61
149 143 68
142 137 62
144 138 64
139 133 61
138 133 59
149 143 70
145 140 65
149 143 67
151 145 69
153 147 70
143 137 66
153 146 68
148 142 63
151 145 67
152 146 73
152 146 67
154 148 66
159 153 69
156 150 65
160 153 72
163 155 77
169 161 83
162 155 66
155 149 64
164 158 77
160 153 64
167 161 77
169 162 80
160 153 72
164 157 72
164 157 71
162 155 71
161 156 69
158 152 70
164 156 72
163 156 63
164 156 73
164 157 69
163 156 74
170 162 80
165 159 75
167 160 73
168 161 74
165 158 72
167 160 75
166 159 71
168 161 75
165 157 73
165 158 63
164 158 65
169 162 77
169 161 72
171 164 82
166 159 73
167 161 75
165 158 71
166 159 68
167 160 72
162 156 67
168 161 75
167 161 75
165 159 73
165 160 69
166 160 68
167 161 72
169 161 76
163 157 66
164 158 71
167 160 74
169 161 76
165 158 75
164 157 71
162 155 73
161 154 71
167 160 81
165 158 70
160 156 65
162 155 66
163 157 73
157 151 65
158 152 68
160 154 71
159 153 74
155 149 69
165 158 78
156 150 66
159 152 71
153 147 64
155 148 68
151 145 69
154 147 71
159 152 72
160 154 76
148 143 66
156 149 68
156 149 75
154 147 75
150 144 67
154 148 66
150 143 69
150 145 65
152 147 60
148 142 64
130 125 61
150 144 68
147 141 72
143 137 62
136 132 63
133 127 59
128 124 57
134 127 63
143 137 68
131 125 58
141 135 63
139 133 65
120 116 64
221 234 249
224 237 255
224 237 255
224 237 255
224 237 255
224 237 255
224 237 255
224 237 255
224 237 255
224 237 255
224 237 255
224 237 255
224 237 255
224 237 255
224 237 255
224 237 255
224 237 255
224 237 255
224 237 255
224 237 255
224 237 255
224 237 255
224 237 255
224 237 255
224 237 255
224 237 255
224 237 255
224 237 255
224 237 255
224 237 255
224 237 255
224 237 255
224 237 255
224 237 255
224 237 255
224 237 255
224 237 255
224 237 255
224 237 255
224 237 255
224 237 255
224 237 255
224 237 255
224 237 255
224 237 255
224 237 255
224 237 255
224 237 255
224 237 255
224 237 255
224 237 255
224 237 255
224 237 255
224 237 255
224 237 255
224 237 255
224 237 255
224 237 255
224 237 255
224 237 255
224 237 255
224 237 255
224 237 255
224 237 255
224 237 255
224 237 255
224 237 255
224 237 255
224 237 255
224 237 255
224 237 255
224 237 255
223 237 255
223 237 255
223 237 255
223 237 255
223 237 255
223 237 255
223 237 255
223 237 255
223 237 255
223 237 255
223 237 255
223 237 255
223 237 255
223 237 255
223 237 255
223 237 255
223 237 255
223 237 255
223 237 255
223 237 255
223 237 255
223 237 255
223 237 255
223 237 255
223 237 255
223 237 255
223 237 255
223 237 255
223 237 255
223 237 255
223 237 255
223 237 255
223 237 255
223 237 255
223 237 255
223 237 255
223 237 255
223 237 255
223 237 255
223 237 255
223 237 255
223 237 255
223 237 255
223 237 255
223 237 255
223 237 255
223 237 255
223 237 255
223 237 255
223 237 255
223 237 255
223 237 255
223 237 255
223 237 255
223 237 255
223 237 255
223 237 255
223 237 255
223 237 255
223 237 255
223 237 255
223 237 255
223 237 255
223 237 255
170 188 133
169 187 127
172 189 139
172 189 139
169 187 123
171 189 131
166 184 112
168 186 121
170 188 129
172 189 139
165 184 109
173 190 142
172 189 141
170 187 133
174 191 142
166 184 112
170 188 131
165 184 109
168 187 125
171 188 129
170 188 127
170 188 127
170 187 123
171 189 133
167 185 116
171 188 129
168 186 121
168 186 116
166 184 109
168 186 118
173 190 135
162 180 99
170 187 125
166 185 107
170 188 131
166 183 104
168 186 112
164 183 99
163 181 97
164 183 99
163 182 94
168 187 121
163 181 91
166 185 109
163 182 97
162 181 102
166 184 112
169 187 121
165 183 99
162 181 88
164 183 104
163 181 99
164 183 102
161 180 88
165 184 112
162 181 91
163 181 91
163 181 88
161 180 85
162 181 82
163 182 88
160 179 102
161 180 85
162 181 88
159 177 88
163 182 94
156 176 68
162 179 91
160 180 75
160 179 85
163 181 88
161 180 88
162 179 88
160 178 75
156 173 82
159 178 75
159 179 68
157 176 72
154 174 56
154 174 64
156 176 60
157 177 56
157 176 68
156 175 60
154 174 39
156 174 60
158 175 72
157 177 60
153 171 45
156 174 60
156 175 60
157 176 56
157 175 64
155 174 39
153 171 45
150 168 32
155 174 45
154 171 60
152 168 45
155 171 62
151 168 22
153 168 69
140 153 33
144 157 38
142 154 32
146 159 42
141 149 33
134 144 25
135 144 25
135 139 27
132 136 39
132 138 22
122 125 28
125 125 38
120 118 38
125 122 41
120 115 41
118 112 38
111 106 34
121 115 34
117 112 30
116 111 36
117 112 36
115 109 29
112 106 26
110 103 26
107 100 31
106 101 27
98 92 19
104 98 27
99 92 17
104 96 10
95 90 0
92 85 5
80 72 3
92 85 17
102 98 41
110 105 43
114 109 49
108 102 46
110 105 45
116 113 43
123 118 44
132 128 58
125 121 52
138 133 54
132 127 57
135 129 59
140 134 64
135 130 57
136 131 53
142 136 68
144 138 64
154 147 73
144 138 59
143 138 63
148 142 62
143 139 52
151 144 68
155 149 73
150 144 61
155 149 65
153 147 75
154 147 66
153 147 66
149 142 63
152 146 65
157 150 66
155 148 69
156 150 69
159 152 69
161 155 69
160 153 69
159 152 63
160 153 65
161 154 65
163 156 74
162 156 75
166 159 70
165 157 68
163 157 75
163 156 72
162 155 70
166 159 70
162 156 74
164 157 73
166 159 70
165 159 73
170 162 75
166 159 70
165 157 69
164 157 72
165 159 75
167 161 73
168 162 75
164 159 67
167 161 70
163 157 68
167 160 74
164 158 66
169 163 75
165 159 72
170 163 76
169 162 75
171 163 79
167 159 80
166 159 70
172 164 80
170 163 75
167 160 70
165 159 70
165 158 69
165 158 74
162 155 71
167 160 75
165 157 74
166 159 71
170 163 75
164 158 66
165 158 75
164 158 71
166 159 75
156 150 64
165 159 71
163 157 72
161 156 65
158 151 69
160 154 68
160 154 71
156 150 67
157 150 74
159 152 68
158 152 65
161 154 69
153 148 66
154 147 67
160 152 75
157 150 75
159 152 70
158 151 70
160 152 67
151 145 64
148 142 65
154 146 68
154 147 69
151 144 67
154 148 69
151 145 66
148 141 70
147 142 63
152 147 68
134 129 62
148 141 66
146 141 61
145 138 66
138 133 61
137 130 62
138 132 65
140 135 59
140 134 66
139 133 66
135 130 61
132 126 64
134 138 69
199 217 175
197 215 165
207 223 201
206 223 196
207 223 196
206 222 196
214 229 223
216 230 230
218 232 237
218 232 236
222 235 248
224 237 255
224 237 255
224 237 255
224 237 255
224 237 255
224 237 255
224 237 255
224 237 255
224 237 255
224 237 255
224 237 255
224 237 255
224 237 255
224 237 255
224 237 255
224 237 255
224 237 255
224 237 255
224 237 255
224 237 255
224 237 255
224 237 255
224 237 255
224 237 255
224 237 255
224 237 255
224 237 255
224 237 255
224 237 255
224 237 255
224 237 255
224 237 255
224 237 255
224 237 255
224 237 255
224 237 255
224 237 255
224 237 255
224 237 255
224 237 255
224 237 255
224 237 255
224 237 255
224 237 255
224 237 255
224 237 255
224 237 255
224 237 255
224 237 255
224 237 255
224 237 255
224 237 255
224 237 255
224 237 255
224 237 255
224 237 255
224 237 255
224 237 255
224 237 255
224 237 255
224 237 255
224 237 255
224 237 255
224 237 255
224 237 255
224 237 255
224 237 255
224 237 255
224 237 255
224 237 255
224 237 255
224 237 255
224 237 255
224 237 255
224 237 255
224 237 255
224 237 255
224 237 255
224 237 255
224 237 255
224 237 255
223 237 255
223 237 255
223 237 255
223 237 255
223 237 255
223 237 255
223 237 255
223 237 255
223 237 255
223 237 255
223 237 255
223 237 255
223 237 255
223 237 255
223 237 255
223 237 255
223 237 255
223 237 255
223 237 255
223 237 255
223 237 255
223 237 255
223 237 255
223 237 255
223 237 255
223 237 255
223 237 255
223 237 255
223 237 255
223 237 255
223 237 255
223 237 255
223 237 255
223 237 255
223 237 255
223 237 255
223 237 255
223 237 255
223 237 255
223 237 255
223 237 255
223 237 255
223 237 255
223 237 255
173 190 141
170 188 133
171 189 133
171 189 135
173 190 139
170 187 123
169 187 127
167 186 118
168 186 121
169 187 125
171 189 135
171 188 127
170 187 129
168 187 123
168 186 114
166 185 114
168 186 118
172 189 137
169 187 118
170 188 127
164 182 109
168 186 118
166 185 112
165 183 102
163 182 88
164 183 99
166 185 109
166 185 112
167 185 114
166 184 116
166 184 102
161 180 94
167 185 114
165 184 102
168 186 118
165 184 104
166 184 104
164 182 107
162 182 88
163 182 102
161 180 79
164 183 102
160 180 88
160 180 82
161 180 82
164 183 97
162 181 91
166 184 107
165 183 99
161 180 75
162 181 99
162 180 88
161 179 91
165 183 99
162 181 88
162 181 82
159 179 72
161 180 85
160 179 75
162 181 85
159 179 75
159 178 82
161 181 85
157 176 68
155 175 56
158 177 60
158 178 56
158 176 75
158 178 60
157 177 45
157 177 56
159 179 68
159 178 60
158 178 64
155 175 39
157 177 51
158 178 60
156 176 51
158 176 56
155 174 32
156 176 56
155 175 22
153 173 45
153 173 39
155 174 39
153 173 32
154 173 39
155 175 56
152 170 0
152 171 39
154 173 22
153 172 0
151 169 22
148 167 0
152 171 0
150 168 0
151 169 0
148 167 0
149 167 0
148 165 0
143 159 10
147 160 14
142 157 22
139 152 20
144 156 22
142 154 22
140 151 27
134 144 22
127 134 20
126 129 27
127 132 24
130 133 30
121 124 17
120 122 25
120 118 30
121 119 35
122 117 37
111 106 26
118 112 30
115 111 33
109 105 25
115 110 32
118 113 36
120 112 37
111 106 25
108 103 28
111 106 23
107 102 15
112 106 22
104 98 11
94 89 13
95 90 10
98 92 15
88 82 11
91 84 12
80 75 10
91 86 30
99 93 39
98 93 36
109 104 48
118 113 47
117 111 50
131 125 59
127 122 55
126 120 57
137 131 66
134 129 64
136 131 54
130 124 57
131 126 52
134 129 58
147 142 67
144 138 62
147 141 68
136 132 54
145 140 61
150 143 63
145 139 64
148 142 67
153 146 63
159 152 76
151 146 65
153 146 71
150 144 63
151 144 65
157 151 66
156 150 66
152 145 65
157 149 75
156 151 72
154 148 66
158 152 70
150 143 67
161 155 73
156 150 65
156 150 66
161 154 67
167 160 74
160 153 68
156 151 58
160 153 70
168 161 76
162 156 68
160 154 64
163 155 70
164 158 73
165 158 73
166 160 75
167 160 75
163 156 68
168 161 79
171 162 78
169 161 74
166 160 67
167 160 81
165 158 69
167 160 68
167 160 75
161 155 68
164 159 73
163 157 69
165 158 68
166 159 69
165 158 72
166 158 69
162 156 65
167 160 75
172 163 84
168 161 75
168 161 74
162 155 64
167 159 72
164 157 66
166 160 72
166 159 70
170 162 76
166 159 70
165 158 67
165 158 77
160 153 70
162 156 61
162 156 67
160 155 64
164 156 73
160 154 66
163 156 77
162 155 74
158 152 64
160 154 64
167 160 77
163 156 75
165 158 75
152 146 57
157 150 70
161 153 73
157 151 64
160 153 71
155 150 62
151 146 66
154 150 67
156 149 71
151 145 62
157 151 72
153 147 63
161 155 67
158 152 74
157 150 74
156 149 74
144 138 60
148 142 61
149 143 58
137 132 52
148 142 73
140 135 61
145 139 66
149 142 71
139 134 57
135 129 58
143 137 64
137 130 60
132 127 61
132 126 59
128 122 59
147 156 44
174 197 0
174 198 0
174 198 0
173 197 0
173 197 0
173 197 0
175 198 0
176 198 0
174 198 0
175 198 0
175 198 0
176 199 36
179 202 76
181 203 92
190 210 135
190 210 137
192 211 144
193 212 147
196 215 161
197 215 167
204 221 189
211 227 215
207 223 201
215 229 226
213 228 221
216 230 230
219 233 240
222 235 249
224 237 255
224 237 255
224 237 255
224 237 255
224 237 255
224 237 255
224 237 255
224 237 255
224 237 255
224 237 255
224 237 255
224 237 255
224 237 255
224 237 255
224 237 255
224 237 255
224 237 255
224 237 255
224 237 255
224 237 255
224 237 255
224 237 255
224 237 255
224 237 255
224 237 255
224 237 255
224 237 255
224 237 255
224 237 255
224 237 255
224 237 255
224 237 255
224 237 255
224 237 255
224 237 255
224 237 255
224 237 255
224 237 255
224 237 255
224 237 255
224 237 255
224 237 255
224 237 255
224 237 255
224 237 255
224 237 255
224 237 255
224 237 255
224 237 255
224 237 255
224 237 255
224 237 255
224 237 255
224 237 255
224 237 255
224 237 255
224 237 255
224 237 255
224 237 255
224 237 255
224 237 255
224 237 255
224 237 255
224 237 255
224 237 255
224 237 255
224 237 255
224 237 255
224 237 255
224 237 255
224 237 255
224 237 255
224 237 255
224 237 255
224 237 255
224 237 255
224 237 255
224 237 255
224 237 255
224 237 255
224 237 255
224 237 255
223 237 255
223 237 255
223 237 255
223 237 255
223 237 255
223 237 255
223 237 255
223 237 255
223 237 255
223 237 255
223 237 255
223 237 255
223 237 255
223 237 255
223 237 255
223 237 255
223 237 255
223 237 255
223 237 255
223 237 255
223 237 255
223 237 255
223 237 255
223 237 255
223 237 255
223 237 255
167 185 118
168 186 114
169 187 127
170 188 131
167 185 116
168 186 125
171 188 131
173 190 141
167 185 109
169 186 118
169 187 125
169 187 118
166 185 112
167 185 118
169 187 121
167 185 114
166 184 107
167 185 114
167 186 116
162 181 94
166 185 104
165 184 102
167 185 114
164 183 97
160 180 85
164 182 102
164 183 99
163 181 88
162 182 88
162 181 94
165 183 102
164 183 94
164 183 102
161 180 82
165 183 104
162 181 79
162 181 82
165 184 104
163 182 91
162 181 91
165 183 102
161 180 82
162 181 79
161 180 82
160 180 79
160 179 75
160 179 72
159 179 68
159 178 72
158 177 60
160 179 79
158 177 64
158 178 79
157 176 75
160 179 75
159 179 72
154 175 56
157 177 56
157 176 79
158 178 75
158 179 64
158 177 60
159 178 56
160 180 72
156 176 22
154 174 51
152 172 39
157 177 51
154 175 39
153 174 39
156 174 32
153 174 0
152 172 32
156 175 39
153 174 22
155 175 0
150 169 0
153 173 0
153 172 0
156 176 39
154 174 22
151 171 0
153 172 0
152 172 0
151 172 0
154 174 0
151 170 0
151 170 0
151 171 0
150 169 0
152 171 0
153 173 0
151 170 0
151 171 0
151 169 0
151 169 0
150 169 0
153 170 0
150 168 0
150 166 0
145 163 0
144 158 10
142 155 10
142 157 17
138 149 17
137 147 22
138 149 28
136 146 14
140 148 35
128 134 25
134 138 28
125 130 28
121 122 35
128 131 27
121 118 31
117 117 32
120 116 33
122 118 36
113 109 34
110 105 27
110 105 27
112 106 28
108 102 28
108 102 30
104 98 24
103 97 24
101 97 15
104 99 10
104 99 15
107 101 6
97 91 21
103 98 14
94 88 19
86 81 11
95 90 10
86 80 18
93 89 25
94 88 31
101 97 40
112 107 48
113 108 41
109 103 45
124 120 56
128 123 61
127 122 48
128 122 50
137 132 62
135 129 59
128 124 49
152 145 71
133 128 55
138 134 62
139 134 62
138 133 57
148 142 65
145 139 63
156 149 71
147 140 63
146 140 64
148 142 60
150 144 57
160 153 78
146 140 56
154 148 66
151 144 60
153 146 66
145 140 62
161 154 72
155 149 63
155 151 63
150 144 61
158 151 72
158 153 66
164 157 78
163 156 74
160 153 63
162 155 73
159 153 67
161 153 69
167 161 72
162 156 71
165 157 72
163 157 69
166 159 74
160 154 60
167 159 74
162 156 66
163 156 65
162 156 66
164 157 72
163 156 63
164 157 71
162 156 68
167 160 70
168 161 71
165 158 71
166 159 72
166 160 74
167 159 61
170 162 77
170 162 76
165 158 76
165 159 68
168 161 76
163 157 68
162 156 67
167 159 70
166 159 72
167 160 72
166 158 77
167 160 73
164 159 72
163 156 69
160 153 62
165 157 69
164 157 68
164 157 65
166 160 74
167 161 73
157 152 56
160 154 66
161 153 62
164 156 66
163 157 68
161 154 73
164 158 73
161 154 70
156 151 60
161 154 74
155 148 67
152 147 61
159 153 59
158 152 63
155 149 67
162 155 69
160 154 71
152 147 61
159 152 71
153 148 64
162 156 77
159 153 69
150 144 62
155 148 64
159 151 73
149 144 56
158 152 73
156 149 71
148 141 70
144 138 61
145 139 60
155 149 66
148 141 62
145 140 61
149 143 70
150 143 74
147 138 71
144 138 62
130 125 54
137 131 63
125 120 56
135 129 64
124 119 56
137 130 63
148 161 37
175 198 0
174 197 0
174 198 0
172 197 0
176 199 0
174 197 0
176 198 0
175 198 0
176 199 0
173 197 0
175 198 0
174 198 0
174 198 0
173 197 0
175 198 0
175 198 0
174 198 0
174 197 0
174 197 0
174 197 0
175 198 0
173 197 0
174 197 0
173 197 0
174 198 0
173 197 0
173 197 0
175 198 0
177 200 51
176 199 62
186 206 114
188 208 122
189 209 128
195 214 157
199 217 171
202 219 186
206 223 198
211 226 214
212 227 217
214 229 224
216 230 230
216 230 231
221 235 245
224 237 255
224 237 255
224 237 255
224 237 255
224 237 255
224 237 255
224 237 255
224 237 255
224 237 255
224 237 255
224 237 255
224 237 255
224 237 255
224 237 255
224 237 255
224 237 255
224 237 255
224 237 255
224 237 255
224 237 255
224 237 255
224 237 255
224 237 255
224 237 255
224 237 255
224 237 255
224 237 255
224 237 255
224 237 255
224 237 255
224 237 255
224 237 255
224 237 255
224 237 255
224 237 255
224 237 255
224 237 255
224 237 255
224 237 255
224 237 255
224 237 255
224 237 255
224 237 255
224 237 255
224 237 255
224 237 255
224 237 255
224 237 255
224 237 255
224 237 255
224 237 255
224 237 255
224 237 255
224 237 255
224 237 255
224 237 255
224 237 255
224 237 255
224 237 255
224 237 255
224 237 255
224 237 255
224 237 255
224 237 255
224 237 255
224 237 255
224 237 255
224 237 255
224 237 255
224 237 255
224 237 255
224 237 255
224 237 255
224 237 255
224 237 255
224 237 255
224 237 255
224 237 255
224 237 255
224 237 255
224 237 255
224 237 255
224 237 255
224 237 255
224 237 255
224 237 255
223 237 255
223 237 255
223 237 255
223 237 255
223 237 255
223 237 255
223 237 255
172 189 133
164 183 104
168 186 125
167 186 118
165 183 99
170 187 131
166 184 114
167 185 114
160 179 79
166 184 107
165 184 99
165 184 107
164 183 102
166 184 109
165 183 104
163 182 97
165 184 102
166 183 97
161 181 79
163 182 94
166 184 104
162 182 88
166 184 107
164 183 99
166 184 109
163 182 91
162 181 94
164 183 97
160 179 79
161 180 91
164 182 102
163 182 99
162 181 79
159 178 64
161 181 85
163 182 91
159 179 79
162 181 85
158 178 79
160 179 79
159 179 75
160 180 68
161 180 79
160 179 68
158 178 60
159 179 68
157 176 56
156 176 45
160 180 72
159 178 68
158 178 60
153 174 45
158 178 51
154 175 45
155 176 45
157 177 45
156 176 39
156 176 39
157 177 39
153 173 22
156 176 32
154 175 45
156 175 51
155 176 22
155 176 22
154 174 22
153 173 22
154 175 22
153 173 0
153 173 0
152 172 22
152 173 0
153 174 0
152 172 0
153 173 0
154 174 0
150 170 0
153 173 0
153 173 0
155 174 0
146 165 0
152 172 0
152 170 0
151 172 0
150 168 0
153 172 0
151 170 0
152 172 0
147 166 0
150 169 0
153 171 0
148 166 0
151 169 0
148 165 0
153 173 0
148 166 0
149 167 0
148 166 0
149 168 0
148 166 0
140 157 0
143 159 10
140 156 10
147 160 14
142 155 10
140 151 17
131 139 17
137 147 22
133 141 17
131 134 30
127 130 30
124 126 30
133 133 33
121 122 25
122 122 28
115 113 22
118 116 25
114 110 30
119 112 35
119 115 33
113 108 33
111 107 24
109 103 26
110 105 19
105 99 28
104 100 14
104 99 17
105 101 13
102 96 0
92 87 9
97 92 17
87 82 16
88 82 18
90 84 7
94 88 11
84 79 14
78 75 17
100 95 38
113 106 42
118 113 51
114 110 40
115 111 42
130 125 57
125 120 54
121 116 47
132 126 58
132 127 57
132 127 54
129 122 55
139 134 55
133 127 61
134 129 53
144 138 56
141 135 60
146 141 60
144 139 64
148 141 67
145 139 54
147 141 63
146 139 66
148 141 60
150 142 71
154 147 66
152 146 65
156 150 69
150 143 58
149 143 61
152 147 63
155 149 62
161 155 74
156 149 67
153 147 60
158 152 65
158 152 64
155 149 63
162 156 69
155 149 67
161 155 71
164 157 66
166 157 78
168 161 78
158 151 61
155 149 68
162 156 71
166 159 71
160 154 62
164 158 76
168 160 80
166 159 76
166 158 71
167 160 75
167 161 70
163 156 65
161 154 60
166 160 70
164 158 66
164 158 67
166 160 65
164 157 73
163 155 65
167 160 72
164 157 72
166 158 73
162 156 71
163 156 72
165 159 68
164 158 67
168 161 72
167 160 76
162 156 61
164 158 68
161 155 66
163 155 69
163 156 65
165 159 71
161 154 66
155 148 65
167 159 69
160 153 65
160 153 69
162 156 74
160 154 74
163 155 65
151 146 52
162 155 66
162 156 72
158 151 67
158 152 61
154 147 57
162 155 65
161 155 72
163 156 70
164 157 68
160 154 69
157 151 59
150 145 69
150 145 63
159 152 65
153 146 69
156 149 65
156 150 65
153 147 65
146 140 60
150 144 64
147 141 68
151 145 64
153 147 62
153 146 67
155 148 71
152 145 70
148 141 67
133 127 48
141 135 58
143 138 62
146 140 66
142 135 60
140 135 64
150 144 62
141 134 61
129 124 57
124 119 61
137 131 64
123 119 51
165 184 28
175 198 0
174 198 0
173 197 0
173 197 0
175 198 0
174 198 0
175 198 0
173 197 0
174 198 0
175 198 0
175 198 0
175 198 0
173 197 0
175 198 0
174 197 0
174 198 0
175 198 0
174 198 0
174 198 0
175 198 0
174 197 0
175 198 0
173 197 0
175 198 0
175 198 0
172 197 0
175 198 0
172 197 0
175 198 0
174 198 0
174 198 0
174 198 0
175 198 0
175 198 0
174 198 0
174 198 0
174 197 0
173 197 0
174 197 0
174 198 0
174 198 0
174 198 0
177 199 0
174 198 44
181 203 95
185 206 108
187 207 128
195 213 155
194 212 149
196 214 161
207 224 203
207 223 201
212 227 218
218 232 234
218 232 236
219 233 240
223 236 250
225 237 255
224 237 255
224 237 255
224 237 255
224 237 255
224 237 255
224 237 255
224 237 255
224 237 255
224 237 255
224 237 255
224 237 255
224 237 255
224 237 255
224 237 255
224 237 255
224 237 255
224 237 255
224 237 255
224 237 255
224 237 255
224 237 255
224 237 255
224 237 255
224 237 255
224 237 255
224 237 255
224 237 255
224 237 255
224 237 255
224 237 255
224 237 255
224 237 255
224 237 255
224 237 255
224 237 255
224 237 255
224 237 255
224 237 255
224 237 255
224 237 255
224 237 255
224 237 255
224 237 255
224 237 255
224 237 255
224 237 255
224 237 255
224 237 255
224 237 255
224 237 255
224 237 255
224 237 255
224 237 255
224 237 255
224 237 255
224 237 255
224 237 255
224 237 255
224 237 255
224 237 255
224 237 255
224 237 255
224 237 255
224 237 255
224 237 255
224 237 255
224 237 255
224 237 255
224 237 255
224 237 255
224 237 255
224 237 255
224 237 255
224 237 255
224 237 255
224 237 255
224 237 255
224 237 255
166 184 104
167 186 118
169 186 114
170 188 125
167 185 114
164 183 94
168 185 114
165 183 109
165 184 107
167 185 116
160 179 85
163 182 97
165 183 109
159 179 82
166 185 107
167 185 109
166 184 112
162 181 91
167 185 114
163 182 88
160 180 72
163 182 91
164 183 99
162 181 97
164 183 97
163 182 88
161 180 88
161 180 75
162 181 88
162 181 91
162 181 75
162 181 85
161 179 82
159 179 68
160 179 64
159 179 68
162 181 82
161 180 72
157 177 60
157 177 51
158 178 56
156 176 51
157 177 45
157 177 60
157 177 45
157 177 45
155 175 39
152 171 0
155 173 45
156 177 45
154 173 32
153 174 39
154 174 0
156 175 22
153 174 22
154 174 0
155 175 0
155 175 0
154 175 22
153 174 0
154 174 0
155 175 0
155 176 0
155 174 0
153 172 0
151 171 0
156 176 0
153 173 0
155 174 0
153 173 0
152 173 0
155 174 0
151 170 0
150 170 0
152 171 0
151 170 0
151 170 0
152 170 0
151 171 0
152 171 0
148 168 0
150 171 0
153 172 0
153 172 0
153 173 0
152 172 0
151 170 0
149 166 0
149 168 0
150 169 0
150 169 0
149 168 0
150 169 0
150 169 0
150 170 0
147 164 0
149 166 0
151 169 0
145 163 0
148 165 0
147 163 0
149 164 10
138 151 10
142 155 14
137 150 17
130 143 10
129 138 17
130 137 20
130 137 17
128 135 10
128 135 22
125 129 20
117 119 25
114 113 22
122 120 32
122 119 27
120 119 30
117 115 17
116 113 25
106 102 17
113 107 20
105 101 24
96 92 17
99 93 20
103 98 22
102 96 17
102 96 17
101 96 13
94 90 16
94 87 10
97 92 13
96 90 15
92 87 16
92 89 17
88 85 13
88 87 22
95 96 27
97 91 31
109 104 43
108 102 41
118 112 51
124 119 50
120 115 48
121 116 62
120 114 51
123 118 55
133 128 54
127 122 46
136 131 55
141 135 55
139 133 62
138 133 49
147 141 60
139 134 57
145 140 59
143 137 64
151 143 68
148 142 63
155 150 71
145 139 62
148 142 64
151 145 61
158 152 67
156 150 67
146 141 63
154 148 65
150 145 61
155 148 62
143 138 53
150 144 58
157 150 68
155 150 67
155 148 65
156 150 59
165 158 75
162 155 70
160 153 74
159 153 65
155 150 57
161 155 70
158 152 62
157 151 59
158 153 63
162 155 71
158 151 60
163 156 63
162 155 63
167 160 73
165 158 70
163 156 62
165 158 67
162 156 63
162 156 65
164 158 71
166 160 70
162 156 60
163 157 66
162 155 67
163 156 68
165 159 69
161 154 61
165 158 71
159 154 53
162 155 68
162 156 65
162 156 65
162 156 65
162 156 61
165 158 70
162 156 63
163 156 64
160 154 64
163 156 74
160 154 63
164 158 69
161 153 69
156 150 65
162 156 65
158 151 62
161 154 72
160 154 63
161 154 75
164 157 63
157 150 61
165 159 69
156 149 69
161 156 66
160 154 64
166 159 72
155 149 63
153 148 61
158 152 64
158 152 62
159 152 69
160 154 69
160 153 66
151 145 63
155 149 63
153 147 62
157 151 65
151 144 60
154 148 60
155 149 62
152 147 69
151 145 63
145 141 59
155 150 59
144 138 64
150 144 60
147 141 64
150 143 67
141 136 58
141 135 54
139 133 61
144 138 63
148 141 60
142 135 60
149 141 73
129 123 60
134 129 56
136 130 57
137 131 61
116 114 47
173 197 0
175 198 0
175 198 0
175 198 0
175 198 0
174 197 0
175 197 0
175 198 0
173 197 0
173 196 0
173 196 0
174 198 0
175 197 0
174 197 0
173 197 0
174 197 0
174 198 0
175 198 0
173 197 0
174 198 0
175 198 0
172 196 0
175 198 0
173 197 0
174 198 0
173 196 0
173 197 0
174 198 0
174 197 0
174 197 0
175 198 0
174 198 0
174 197 0
174 198 0
175 198 0
173 197 0
174 197 0
173 197 0
173 197 0
174 198 0
175 198 0
175 198 0
176 199 0
174 198 0
174 198 0
174 198 0
174 197 0
174 198 0
175 198 0
175 198 0
176 199 0
174 198 0
176 199 0
175 198 0
175 198 0
174 198 0
176 199 0
174 198 0
176 199 36
184 205 99
187 207 114
186 207 120
194 213 155
196 214 159
204 221 189
203 220 191
209 225 206
209 225 209
213 228 221
220 234 242
222 235 248
225 237 255
225 237 255
225 237 255
224 237 255
224 237 255
224 237 255
224 237 255
224 237 255
224 237 255
224 237 255
224 237 255
224 237 255
224 237 255
224 237 255
224 237 255
224 237 255
224 237 255
224 237 255
224 237 255
224 237 255
224 237 255
224 237 255
224 237 255
224 237 255
224 237 255
224 237 255
224 237 255
224 237 255
224 237 255
224 237 255
224 237 255
224 237 255
224 237 255
224 237 255
224 237 255
224 237 255
224 237 255
224 237 255
224 237 255
224 237 255
224 237 255
224 237 255
224 237 255
224 237 255
224 237 255
224 237 255
224 237 255
224 237 255
224 237 255
224 237 255
224 237 255
224 237 255
224 237 255
224 237 255
224 237 255
224 237 255
224 237 255
224 237 255
224 237 255
224 237 255
224 237 255
224 237 255
224 237 255
224 237 255
224 237 255
224 237 255
167 185 114
167 185 114
168 186 118
164 182 107
166 184 112
160 180 68
166 184 104
166 184 107
167 185 109
162 181 88
165 184 104
162 181 82
162 181 91
163 182 91
163 181 88
161 181 85
163 181 91
163 182 91
161 181 85
160 180 72
162 182 85
160 180 68
159 179 64
163 182 88
160 180 79
160 179 75
163 181 88
159 179 75
162 180 85
159 178 68
158 177 56
159 179 68
156 176 39
157 177 51
159 178 68
157 176 45
159 179 68
156 176 39
157 178 56
153 171 56
157 177 56
154 174 22
153 173 32
153 173 32
158 177 51
154 175 32
155 175 22
153 173 22
152 173 0
154 174 22
155 176 0
154 174 0
151 172 0
154 175 0
151 171 0
153 173 0
153 173 0
154 175 0
151 171 0
155 176 0
153 174 0
153 173 0
154 175 0
153 173 0
153 173 0
152 173 0
152 173 0
153 173 0
155 175 0
154 173 0
156 174 0
152 173 0
152 173 0
153 174 0
150 170 0
152 172 0
151 170 0
154 173 0
151 171 0
151 170 0
152 171 0
146 167 0
149 169 0
148 166 0
151 170 0
148 165 0
151 170 0
151 170 0
153 172 0
146 164 0
147 164 0
150 168 0
147 163 0
145 164 0
148 165 0
148 166 0
144 161 0
146 163 0
145 161 0
149 164 0
145 160 0
145 161 0
145 159 10
141 154 10
142 154 17
136 147 17
138 147 22
129 136 17
136 145 17
132 142 10
125 130 20
118 122 22
127 129 28
114 116 17
117 119 10
117 116 27
115 115 17
113 109 22
107 104 17
101 97 26
105 98 17
100 99 10
99 95 10
93 88 19
101 95 19
97 93 10
89 84 9
100 94 0
88 82 14
96 91 14
87 82 17
89 85 14
91 86 20
76 73 0
93 92 17
92 91 0
88 92 11
86 84 24
102 98 39
105 100 45
111 107 44
117 112 46
114 110 39
120 115 52
133 127 56
128 124 51
137 131 61
127 121 48
132 126 57
137 132 57
134 130 54
143 136 62
133 128 54
141 136 56
138 132 52
137 133 57
139 133 60
149 143 62
144 137 60
146 141 59
151 144 65
146 140 58
153 147 65
150 144 64
148 141 65
156 149 74
147 142 60
153 147 67
150 144 59
157 151 66
156 149 67
155 149 60
160 153 67
154 147 62
156 150 64
161 155 67
163 156 67
158 153 65
155 149 50
161 154 70
161 154 65
162 155 69
164 157 70
160 154 63
161 155 68
162 155 64
164 157 74
167 159 69
162 155 65
163 156 64
163 156 62
164 158 66
167 159 73
161 154 64
164 157 65
166 159 69
161 154 63
166 159 73
167 159 67
159 152 63
157 152 59
163 157 67
165 157 69
165 158 68
163 156 60
168 160 69
161 155 58
159 153 60
161 154 61
160 154 60
163 155 66
162 156 69
162 155 69
165 158 67
161 154 67
161 156 65
163 157 63
165 157 67
161 154 68
163 156 67
164 157 69
159 152 66
161 155 70
160 153 68
164 158 71
162 155 68
157 150 64
156 151 64
162 155 71
156 150 64
163 156 74
159 153 65
159 153 67
154 149 64
156 149 59
160 153 69
162 155 75
158 153 65
154 148 65
154 148 65
151 145 61
153 147 68
158 152 66
156 150 68
147 142 66
152 145 63
144 139 64
150 144 65
144 138 60
142 137 56
136 130 57
151 145 69
139 133 57
146 140 65
136 130 54
135 130 57
133 128 52
137 131 57
138 132 59
125 120 49
130 125 60
127 122 57
133 141 37
173 197 0
175 198 0
174 197 0
174 198 0
174 198 0
173 197 0
176 198 0
175 198 0
174 197 0
175 198 0
175 198 0
173 197 0
174 197 0
175 198 0
173 197 0
174 198 0
174 198 0
173 197 0
173 196 0
174 197 0
175 198 0
176 199 0
174 198 0
174 198 0
175 198 0
173 197 0
175 198 0
176 199 0
175 198 0
174 197 0
174 198 0
174 197 0
173 197 0
176 199 0
175 198 0
174 198 0
175 198 0
174 198 0
175 198 0
173 197 0
173 197 0
174 197 0
174 198 0
174 197 0
175 198 0
176 199 0
174 198 0
174 197 0
173 197 0
174 197 0
175 198 0
175 198 0
175 198 0
174 198 0
174 198 0
173 197 0
175 198 0
175 198 0
173 197 0
174 198 0
176 198 0
175 198 0
172 196 0
175 198 0
175 198 0
175 198 0
175 198 0
176 199 0
175 198 0
175 198 0
175 198 0
174 198 25
180 203 88
186 207 114
186 207 122
193 212 147
198 216 169
200 218 177
205 222 196
208 224 206
210 226 211
213 228 220
219 233 240
223 236 250
225 237 255
225 237 255
225 237 255
225 237 255
224 237 255
224 237 255
224 237 255
224 237 255
224 237 255
224 237 255
224 237 255
224 237 255
224 237 255
224 237 255
224 237 255
224 237 255
224 237 255
224 237 255
224 237 255
224 237 255
224 237 255
224 237 255
224 237 255
224 237 255
224 237 255
224 237 255
224 237 255
224 237 255
224 237 255
224 237 255
224 237 255
224 237 255
224 237 255
224 237 255
224 237 255
224 237 255
224 237 255
224 237 255
224 237 255
224 237 255
224 237 255
224 237 255
224 237 255
224 237 255
224 237 255
224 237 255
224 237 255
224 237 255
224 237 255
224 237 255
224 237 255
224 237 255
224 237 255
164 183 99
163 182 94
162 181 91
165 184 99
162 182 88
164 182 107
162 182 85
161 181 82
163 182 88
160 179 72
162 181 94
161 181 85
163 182 97
162 182 91
160 179 72
160 180 72
158 179 60
161 180 79
159 178 72
161 181 79
161 180 72
161 181 75
159 178 72
160 179 82
162 180 94
160 179 72
158 178 45
157 178 56
154 175 39
155 176 45
157 176 51
157 177 56
155 175 56
158 177 56
154 175 32
156 176 39
158 178 45
154 175 22
157 177 39
155 175 32
154 175 0
154 175 0
155 176 22
153 174 0
155 175 0
156 176 0
155 176 0
155 176 0
154 174 0
153 173 0
153 174 0
154 173 0
154 174 0
153 174 0
153 173 0
152 173 0
154 173 0
154 174 0
152 173 0
154 174 0
155 175 0
155 174 0
151 172 0
155 175 0
151 173 0
153 173 0
152 172 0
152 172 0
154 174 0
152 171 0
153 172 0
154 174 0
154 174 0
155 174 0
149 168 0
152 172 0
152 172 0
151 171 0
150 169 0
151 171 0
154 174 0
148 166 0
152 170 0
152 172 0
147 165 0
150 168 0
146 165 0
148 164 0
147 167 0
145 163 0
148 165 0
145 161 0
146 164 0
151 169 0
146 163 0
142 158 0
146 163 0
148 164 0
148 165 0
145 160 0
150 165 0
146 161 0
140 154 0
130 142 0
140 154 0
132 142 0
132 140 10
130 138 17
128 136 10
128 133 17
127 134 10
123 128 17
117 120 10
115 117 20
114 115 17
116 116 14
102 99 17
118 118 19
112 109 20
104 102 14
103 99 17
106 100 14
108 104 17
93 88 10
103 100 14
95 90 14
97 93 17
96 92 17
92 90 9
98 92 14
90 85 0
89 88 14
76 75 4
89 90 9
86 87 25
80 83 10
94 100 17
86 89 32
104 96 39
113 108 48
117 112 46
115 110 44
119 114 45
121 117 47
127 121 50
122 117 48
131 126 52
122 117 48
140 134 63
138 133 57
130 124 44
134 128 52
134 129 51
147 141 60
137 131 57
142 135 60
141 135 62
144 139 62
143 138 54
143 137 55
146 141 51
152 146 61
142 138 54
151 144 64
146 140 50
149 143 66
158 152 68
152 145 65
158 151 68
154 149 63
159 152 71
155 149 64
164 156 77
158 152 67
154 147 59
164 157 68
161 152 76
156 149 59
161 155 63
155 148 56
153 148 53
160 153 71
158 150 63
162 154 69
159 153 60
160 154 62
163 157 67
158 153 60
163 157 62
162 155 63
161 153 69
163 156 65
161 155 61
158 152 61
166 158 68
160 155 58
163 157 65
157 151 53
157 150 57
160 153 57
164 158 66
165 157 70
162 156 61
160 154 60
159 153 57
165 158 63
163 156 69
164 156 64
162 155 67
161 155 65
163 158 64
159 153 63
162 155 63
164 158 73
163 156 64
163 156 64
163 156 70
158 153 61
165 159 74
157 151 59
162 156 63
161 154 66
154 147 58
162 155 68
165 158 67
160 154 69
159 152 65
163 156 69
154 148 61
165 157 69
159 153 59
158 151 68
157 150 65
155 149 62
155 149 65
159 153 62
150 144 61
150 144 53
155 148 60
150 144 61
156 148 68
157 151 63
152 147 59
150 144 65
140 135 53
146 141 58
148 142 58
153 147 64
144 138 60
149 143 64
147 141 59
144 138 67
137 132 53
142 136 59
138 134 52
137 132 56
125 121 47
133 128 58
141 135 58
130 124 60
124 119 52
114 110 42
154 167 36
174 198 0
172 196 0
174 198 0
174 198 0
175 198 0
175 198 0
174 198 0
175 198 0
174 198 0
175 198 0
175 198 0
175 198 0
174 198 0
174 198 0
174 197 0
174 198 0
173 197 0
174 198 0
175 198 0
174 197 0
174 198 0
175 198 0
175 198 0
174 198 0
174 198 0
174 198 0
173 197 0
174 197 0
173 197 0
173 196 0
174 197 0
174 198 0
174 198 0
174 198 0
175 198 0
175 198 0
173 197 0
173 197 0
175 198 0
174 198 0
173 197 0
175 198 0
172 196 0
172 197 0
175 198 0
175 198 0
176 198 0
175 198 0
173 197 0
174 197 0
174 198 0
174 198 0
173 197 0
173 197 0
174 197 0
174 197 0
175 198 0
174 197 0
175 198 0
175 198 0
173 197 0
174 197 0
175 198 0
175 198 0
174 198 0
175 198 0
174 197 0
175 198 0
175 198 0
175 198 0
175 198 0
174 197 0
175 198 0
174 197 0
174 197 0
174 198 0
176 198 0
175 198 0
174 198 0
176 199 0
174 198 0
173 197 0
174 198 0
176 198 0
176 199 44
180 202 72
189 209 135
190 210 135
194 213 153
203 220 189
205 222 194
202 219 182
210 226 209
213 228 220
221 235 246
220 234 241
224 237 254
225 237 255
225 237 255
225 237 255
225 237 255
224 237 255
224 237 255
224 237 255
224 237 255
224 237 255
224 237 255
224 237 255
224 237 255
224 237 255
224 237 255
224 237 255
224 237 255
224 237 255
224 237 255
224 237 255
224 237 255
224 237 255
224 237 255
224 237 255
224 237 255
224 237 255
224 237 255
224 237 255
224 237 255
224 237 255
224 237 255
224 237 255
224 237 255
224 237 255
224 237 255
224 237 255
224 237 255
224 237 255
224 237 255
224 237 255
224 237 255
160 179 75
163 182 85
159 180 72
162 180 82
162 181 88
160 180 75
160 180 75
160 180 68
160 180 82
159 180 72
161 181 88
159 179 68
159 178 64
162 181 85
159 180 72
162 181 82
158 178 68
159 179 68
158 177 60
158 178 60
156 175 51
160 180 72
153 174 22
156 176 56
160 179 64
156 176 32
153 174 45
158 178 45
154 175 45
155 175 32
156 177 39
155 176 22
154 174 0
155 176 0
155 175 32
153 174 0
155 177 0
155 176 0
154 175 0
154 175 0
152 173 0
152 173 0
154 174 0
153 173 0
154 175 0
153 173 0
154 175 0
153 173 0
153 173 0
154 174 0
154 174 0
153 173 0
152 171 0
152 172 0
151 170 0
152 173 0
152 172 0
152 172 0
154 174 0
149 170 0
150 171 0
151 172 0
151 171 0
153 173 0
153 172 0
149 169 0
155 175 0
151 170 0
150 169 0
150 170 0
149 169 0
152 172 0
150 170 0
152 170 0
151 171 0
145 165 0
150 169 0
151 170 0
153 173 0
151 170 0
150 169 0
149 167 0
147 166 0
150 168 0
147 166 0
150 167 0
147 164 0
146 163 0
149 167 0
146 164 0
147 164 0
150 169 0
147 164 0
146 163 0
144 160 0
148 165 0
146 162 0
146 163 0
147 163 0
144 158 0
146 159 0
142 157 0
140 153 0
144 159 0
136 146 17
139 152 17
134 142 0
136 147 10
122 128 14
129 137 22
125 132 14
121 129 0
118 121 0
122 127 0
119 121 17
120 121 20
116 117 0
114 113 17
107 107 14
109 107 14
103 100 14
106 103 14
102 99 14
95 91 10
99 95 10
103 98 17
98 94 10
94 92 10
101 99 0
83 81 14
92 90 0
94 94 0
79 79 13
80 85 14
81 86 10
87 95 10
97 105 21
92 104 25
103 98 35
101 97 31
110 105 42
111 106 38
119 114 49
115 110 35
137 130 58
122 116 48
127 122 49
133 127 55
140 135 60
129 123 46
135 130 54
139 132 54
138 133 57
142 137 63
136 130 57
149 142 66
140 136 55
143 137 55
142 137 53
142 135 61
146 140 59
147 140 66
152 146 59
145 138 61
153 146 61
149 143 61
151 146 55
156 149 68
156 150 63
157 150 69
150 145 54
156 150 59
159 152 70
151 144 56
157 150 63
156 150 60
154 148 58
161 155 67
159 154 61
153 148 53
158 152 58
162 154 65
158 151 59
157 151 64
160 153 62
160 153 67
163 156 70
161 153 65
165 157 65
158 152 63
157 150 60
158 151 60
158 151 65
163 156 67
158 151 66
160 154 57
166 158 67
157 151 56
159 153 63
157 150 61
162 157 61
164 157 68
163 156 61
159 153 62
159 153 59
161 155 60
157 150 58
162 155 62
161 155 61
161 154 63
163 156 66
157 152 61
160 154 63
157 151 60
160 154 60
157 151 57
157 151 56
165 158 66
160 154 62
165 158 68
162 155 62
156 151 58
157 151 58
161 155 66
157 152 54
160 153 67
162 155 66
158 152 63
154 149 63
153 148 57
156 150 61
154 149 57
152 145 59
155 149 56
151 145 60
150 144 58
155 149 64
155 149 61
157 151 61
147 142 60
149 143 56
152 147 57
144 139 62
146 140 59
144 139 53
147 141 60
147 141 59
147 143 60
148 142 58
139 134 57
144 137 60
141 135 57
134 129 53
145 138 61
134 130 56
137 131 52
138 132 51
137 132 54
136 130 62
129 123 54
130 124 57
124 119 49
166 187 0
174 198 0
175 198 0
174 198 0
174 197 0
176 199 0
174 198 0
173 197 0
175 198 0
174 198 0
173 197 0
175 198 0
174 198 0
174 197 0
175 198 0
174 198 0
174 197 0
175 198 0
175 198 0
175 198 0
174 198 0
174 198 0
175 198 0
176 199 0
174 198 0
172 196 0
175 198 0
174 197 0
175 198 0
175 198 0
173 197 0
173 197 0
174 197 0
174 197 0
173 197 0
173 197 0
174 198 0
174 198 0
174 198 0
173 197 0
174 197 0
174 197 0
174 198 0
174 198 0
174 198 0
175 198 0
175 198 0
175 198 0
175 198 0
174 197 0
175 198 0
174 197 0
173 197 0
175 198 0
175 198 0
173 197 0
174 198 0
174 198 0
173 197 0
175 198 0
174 198 0
176 199 0
174 198 0
173 197 0
173 197 0
175 198 0
174 198 0
173 197 0
175 198 0
175 198 0
174 198 0
173 197 0
177 199 0
174 198 0
175 198 0
175 198 0
176 199 0
174 198 0
175 198 0
173 197 0
175 198 0
175 198 0
176 199 0
174 197 0
175 198 0
174 198 0
174 198 0
176 199 0
175 198 0
174 197 0
175 198 0
174 198 0
175 198 0
174 198 0
174 198 0
174 197 0
176 199 0
173 197 25
180 202 84
187 207 120
188 208 122
193 212 144
196 215 163
202 219 182
205 222 194
206 222 198
212 227 217
218 232 237
220 234 242
224 237 254
225 237 255
225 237 255
225 237 255
225 237 255
225 237 255
225 237 255
224 237 255
224 237 255
224 237 255
224 237 255
224 237 255
224 237 255
224 237 255
224 237 255
224 237 255
224 237 255
224 237 255
224 237 255
224 237 255
224 237 255
224 237 255
224 237 255
224 237 255
224 237 255
224 237 255
224 237 255
224 237 255
224 237 255
165 183 102
160 180 79
160 180 88
162 181 85
162 181 88
158 178 64
159 179 64
159 179 64
158 178 64
159 177 64
162 181 75
158 179 51
160 180 79
158 178 60
155 176 32
162 181 72
159 179 68
158 178 60
155 176 39
156 176 45
154 175 22
155 175 32
156 176 39
156 176 51
153 175 0
154 176 22
156 176 0
152 173 0
153 174 0
154 175 0
153 175 0
154 175 0
152 173 0
152 173 0
154 174 0
155 174 0
154 174 0
154 174 0
155 176 0
154 174 0
153 174 0
153 173 0
152 172 0
152 173 0
154 174 0
153 173 0
155 175 0
154 174 0
153 173 0
153 173 0
150 168 0
152 173 0
151 171 0
151 172 0
153 173 0
151 170 0
151 172 0
152 172 0
153 172 0
151 171 0
154 174 0
150 171 0
150 169 0
152 172 0
150 169 0
150 170 0
152 171 0
152 172 0
151 171 0
146 166 0
152 172 0
154 173 0
151 168 0
151 169 0
150 169 0
149 168 0
150 169 0
144 162 0
147 166 0
151 170 0
149 167 0
151 168 0
150 169 0
151 171 0
148 165 0
151 170 0
143 160 0
148 166 0
146 163 0
145 162 0
146 163 0
150 168 0
146 161 0
145 161 0
147 162 0
146 162 0
143 159 0
146 163 0
141 155 0
142 158 0
142 157 0
136 150 0
143 156 0
137 150 0
146 159 10
139 148 0
136 146 14
131 142 0
128 137 0
134 143 14
132 139 10
128 133 0
123 129 0
121 124 0
122 124 10
115 117 14
112 115 10
110 110 10
106 106 10
112 112 17
110 108 13
97 95 10
103 101 14
95 93 0
101 97 10
96 94 9
106 104 10
87 85 0
98 99 0
81 80 10
88 86 0
94 94 10
96 99 14
94 100 10
88 93 11
82 90 17
97 108 14
104 117 11
91 91 23
96 93 36
104 100 40
120 115 44
120 114 41
115 110 47
126 120 45
122 118 50
117 112 43
118 114 46
129 123 49
120 114 48
131 126 50
141 135 59
139 133 54
136 131 54
142 136 56
134 128 50
141 137 47
147 140 64
147 141 61
147 141 59
144 137 53
152 146 63
153 147 61
147 140 60
143 138 56
151 145 55
156 149 64
150 143 62
156 149 65
149 142 60
150 144 58
153 146 62
156 150 61
154 147 64
155 149 58
155 148 56
149 143 52
157 151 60
160 153 67
156 150 64
161 155 67
161 154 63
156 150 59
157 151 55
157 150 61
166 158 72
154 148 56
157 151 62
160 154 57
161 155 61
164 158 64
160 153 61
159 153 54
163 156 65
162 155 58
159 154 60
163 158 60
159 153 59
165 158 66
166 158 71
164 156 64
161 155 57
158 152 57
166 159 65
162 154 66
159 153 54
162 155 60
161 154 66
157 151 54
159 153 63
161 154 62
162 156 60
156 149 54
160 153 64
159 153 61
165 157 68
159 152 59
163 157 67
157 150 60
154 148 62
157 152 53
161 154 66
161 154 73
156 149 62
157 151 60
150 145 52
154 148 54
161 154 62
155 149 62
158 152 63
157 150 59
152 147 59
157 150 62
154 148 58
154 147 63
157 150 65
156 150 60
154 148 64
151 145 58
151 144 66
152 145 61
155 147 66
152 146 64
152 146 59
145 138 57
148 141 63
136 130 54
150 144 62
145 139 64
152 146 60
140 134 56
147 141 66
136 130 53
140 133 60
140 134 57
140 134 54
140 135 58
135 129 62
136 130 61
122 117 47
119 115 42
142 148 47
174 197 0
173 197 0
173 197 0
172 196 0
173 197 0
173 196 0
174 197 0
175 198 0
174 198 0
174 198 0
173 197 0
175 198 0
171 194 0
173 197 0
175 198 0
174 197 0
175 198 0
174 197 0
171 195 0
174 198 0
175 198 0
172 196 0
173 197 0
173 197 0
174 198 0
174 197 0
174 198 0
174 198 0
175 198 0
173 196 0
173 196 0
174 197 0
176 199 0
174 198 0
173 197 0
173 197 0
173 197 0
175 198 0
174 197 0
175 198 0
174 197 0
174 197 0
174 197 0
174 197 0
173 197 0
173 197 0
174 198 0
172 196 0
174 198 0
175 198 0
175 198 0
173 196 0
174 198 0
173 196 0
176 198 0
174 198 0
175 198 0
174 198 0
175 198 0
173 197 0
174 198 0
174 198 0
176 199 0
173 196 0
176 198 0
173 197 0
174 197 0
175 198 0
175 198 0
172 196 0
175 198 0
174 198 0
173 197 0
173 197 0
174 197 0
174 198 0
175 198 0
176 199 0
174 197 0
174 198 0
174 197 0
174 197 0
173 197 0
174 198 0
174 197 0
173 197 0
175 198 0
174 198 0
174 197 0
176 199 0
175 198 0
174 198 0
173 197 0
175 198 0
176 198 0
174 198 0
174 198 0
175 198 0
175 198 0
174 198 0
174 198 0
173 197 0
174 198 0
173 197 0
176 199 0
173 197 0
174 198 0
174 198 0
175 198 0
177 200 44
177 200 72
185 206 108
187 207 122
189 209 130
200 218 177
203 220 188
207 223 203
212 227 217
218 232 236
218 232 237
222 235 249
225 237 255
225 237 255
225 237 255
225 237 255
225 237 255
225 237 255
225 237 255
225 237 255
224 237 255
224 237 255
224 237 255
224 237 255
224 237 255
224 237 255
224 237 255
224 237 255
224 237 255
162 181 91
158 178 68
163 182 88
160 179 68
159 179 75
156 176 60
156 176 64
158 179 72
156 177 39
156 177 45
159 179 60
158 178 60
157 177 39
155 175 32
155 176 39
156 176 51
158 177 56
155 174 22
158 179 45
157 177 45
156 176 32
153 173 32
154 175 0
155 176 22
152 173 0
153 174 0
153 175 0
153 173 0
155 176 0
155 176 0
153 173 0
153 174 0
154 175 0
154 173 0
154 174 0
153 173 0
154 174 0
154 174 0
152 172 0
153 174 0
155 176 0
152 172 0
155 175 0
150 171 0
155 175 0
154 174 0
154 175 0
152 173 0
155 175 0
155 175 0
153 173 0
152 173 0
152 172 0
151 172 0
151 171 0
152 172 0
151 172 0
152 171 0
154 175 0
151 171 0
150 169 0
153 173 0
154 173 0
151 171 0
151 171 0
152 170 0
152 172 0
153 173 0
149 169 0
152 172 0
149 170 0
151 171 0
152 172 0
150 170 0
151 171 0
152 171 0
148 167 0
150 170 0
148 168 0
149 167 0
150 168 0
146 164 0
148 165 0
151 171 0
147 166 0
149 167 0
149 169 0
148 166 0
150 168 0
147 165 0
148 164 0
142 159 0
146 163 0
143 159 0
143 160 0
144 161 0
144 161 0
144 157 0
139 153 0
142 155 0
146 158 0
135 146 0
139 151 0
133 145 0
137 149 0
135 147 0
133 142 10
134 142 10
124 132 0
126 133 14
120 126 0
120 125 10
118 120 17
121 125 10
116 121 10
120 124 0
109 109 10
111 112 10
108 109 0
99 99 0
103 101 10
107 109 0
112 112 17
98 97 0
95 93 0
96 94 14
91 89 0
88 87 10
89 87 10
93 89 17
82 85 0
97 101 17
92 99 0
78 84 27
92 101 19
97 106 24
95 110 31
106 121 16
101 108 23
100 95 33
113 108 46
114 109 42
112 107 42
124 119 53
112 106 47
132 125 53
124 120 40
122 116 50
131 125 53
120 114 43
137 131 54
136 131 55
128 122 47
132 126 60
141 135 53
135 131 51
148 141 61
143 136 58
136 130 43
136 131 52
150 143 57
139 134 52
148 142 64
145 139 59
147 141 60
154 146 66
153 147 56
150 144 54
153 146 67
155 149 63
153 147 61
148 143 54
149 143 58
151 146 58
150 145 62
161 153 73
158 151 69
154 148 58
156 150 57
161 155 63
153 147 54
162 156 61
159 152 63
151 145 51
155 148 54
154 147 61
159 151 58
158 151 56
155 149 56
157 150 57
155 150 62
155 148 54
157 152 51
162 155 65
163 156 67
155 149 52
157 151 57
156 151 56
160 153 64
155 149 56
159 153 60
152 147 44
161 154 61
158 151 56
160 153 61
156 151 57
165 159 62
158 152 60
161 153 64
162 156 62
161 155 58
160 154 58
162 157 64
164 158 67
163 156 65
161 155 60
155 148 63
161 154 70
160 153 64
163 156 66
157 150 57
162 154 65
158 151 62
152 145 56
157 150 65
153 147 58
156 150 60
152 147 59
154 148 62
150 145 58
150 144 54
150 143 56
142 136 49
159 153 60
155 148 61
153 147 57
149 143 60
150 144 63
149 143 54
153 147 62
151 145 57
153 146 60
152 146 59
145 139 62
143 137 54
143 137 49
144 137 57
140 132 60
143 136 57
150 142 63
141 135 59
138 133 47
132 127 54
146 139 62
136 130 64
135 130 57
123 119 49
132 127 52
124 118 54
126 120 49
121 117 52
153 165 36
175 198 0
175 198 0
173 197 0
173 197 0
174 198 0
174 198 0
173 197 0
173 196 0
175 198 0
175 198 0
170 193 0
174 197 0
174 198 0
171 194 0
175 197 0
174 198 0
174 198 0
173 197 0
173 196 0
174 198 0
174 198 0
172 197 0
174 198 0
174 197 0
173 197 0
173 197 0
175 198 0
174 197 0
173 197 0
173 197 0
176 199 0
176 199 0
175 198 0
175 198 0
174 198 0
174 198 0
176 198 0
175 198 0
174 198 0
176 199 0
174 197 0
173 197 0
175 198 0
174 198 0
174 197 0
175 198 0
176 198 0
174 197 0
174 197 0
174 198 0
175 198 0
173 196 0
175 198 0
175 198 0
172 196 0
174 197 0
175 198 0
175 198 0
174 198 0
172 197 0
175 198 0
175 198 0
172 196 0
173 197 0
175 198 0
176 198 0
174 198 0
175 198 0
175 198 0
174 197 0
174 198 0
173 197 0
175 198 0
175 198 0
174 198 0
175 198 0
176 199 0
175 198 0
175 198 0
174 198 0
176 199 0
174 198 0
176 199 0
172 196 0
175 198 0
174 197 0
174 197 0
175 198 0
174 198 0
173 197 0
173 197 0
175 198 0
173 197 0
174 197 0
174 198 0
175 198 0
174 197 0
175 198 0
174 197 0
175 198 0
175 198 0
175 198 0
173 197 0
174 198 0
174 197 0
174 198 0
176 199 0
173 197 0
174 197 0
176 199 0
175 198 0
175 198 0
175 198 0
174 198 0
175 198 0
175 198 0
173 197 0
174 198 0
173 197 0
175 198 0
174 197 0
177 200 72
178 201 76
184 206 108
188 208 128
197 215 159
199 217 175
205 221 193
206 222 198
211 227 215
215 230 228
219 233 238
224 237 253
225 237 255
225 237 255
225 237 255
225 237 255
225 237 255
160 180 75
159 179 64
157 177 45
159 178 64
157 176 51
158 178 64
156 176 32
157 177 56
157 178 45
156 177 51
155 176 39
152 173 0
156 177 39
154 175 32
154 174 0
153 173 39
152 173 0
155 176 0
153 174 0
154 175 0
156 177 0
153 174 0
155 175 0
154 174 0
155 175 0
154 174 0
153 173 0
155 175 0
155 175 0
153 174 0
154 175 0
154 175 0
153 173 0
151 171 0
153 174 0
154 174 0
153 173 0
154 175 0
152 174 0
153 173 0
154 175 0
153 173 0
155 175 0
153 173 0
152 173 0
150 171 0
154 174 0
152 173 0
151 171 0
152 173 0
153 173 0
150 169 0
151 171 0
150 170 0
153 173 0
152 171 0
154 174 0
152 172 0
152 172 0
154 175 0
150 169 0
151 172 0
151 171 0
149 169 0
149 169 0
150 169 0
151 170 0
152 173 0
149 167 0
152 171 0
149 168 0
150 168 0
148 167 0
153 172 0
151 170 0
149 167 0
149 167 0
145 162 0
149 166 0
149 167 0
145 161 0
150 168 0
146 164 0
146 164 0
150 166 0
149 168 0
144 161 0
145 163 0
147 165 0
151 168 0
144 161 0
145 162 0
145 163 0
141 156 0
146 162 0
145 160 0
143 159 0
142 157 0
142 158 0
140 154 0
140 154 0
138 151 0
132 142 0
136 148 0
139 151 0
136 147 0
136 146 0
126 134 0
130 136 0
132 140 0
124 129 0
115 119 0
118 122 0
116 116 20
119 122 0
111 110 0
112 114 10
111 111 0
113 116 0
102 100 0
99 98 0
102 101 0
91 91 0
97 97 14
102 102 0
95 99 0
87 86 10
90 91 10
80 84 0
89 93 10
97 101 0
93 98 14
94 102 13
98 107 10
88 99 18
91 106 27
98 113 22
104 121 16
115 131 16
90 86 26
99 94 38
103 97 26
112 108 35
119 114 39
121 117 56
119 114 41
123 117 47
126 120 56
129 123 53
131 126 58
129 124 51
134 129 38
138 132 54
139 135 50
139 133 53
141 136 46
139 134 49
132 127 48
140 134 55
146 141 57
146 141 53
144 137 60
148 141 62
150 143 56
148 141 58
146 140 51
155 149 69
150 144 60
146 141 53
145 139 56
143 137 42
149 143 56
145 139 55
149 143 64
155 149 58
157 150 67
157 149 61
160 153 63
155 149 59
154 147 59
150 144 45
157 150 53
158 152 64
163 157 64
156 150 53
160 154 64
162 155 57
158 151 56
151 145 51
159 153 59
164 157 66
155 149 57
154 148 51
162 155 65
158 151 57
157 150 58
161 155 60
159 152 54
159 151 63
158 151 56
157 150 58
157 150 51
157 151 57
164 157 65
156 150 57
155 150 52
157 151 53
164 156 65
159 152 58
163 155 65
157 149 57
159 152 60
157 152 52
158 152 60
160 154 57
162 155 67
155 147 58
155 150 56
153 148 51
161 154 70
161 156 57
158 151 60
159 152 63
157 150 61
158 151 65
154 148 56
153 147 61
153 146 59
154 147 60
154 147 60
150 143 56
151 145 56
144 138 49
151 145 58
160 152 61
152 146 59
155 150 61
153 146 65
149 142 52
156 149 70
152 147 61
146 141 51
147 141 61
143 138 51
150 142 60
150 144 60
144 139 56
150 144 63
154 147 65
144 137 49
139 133 56
141 136 67
143 136 65
146 139 62
127 123 39
134 128 52
136 130 53
129 123 59
125 119 48
128 123 51
120 115 52
167 187 30
172 196 0
173 196 0
174 197 0
172 196 0
175 198 0
173 197 0
173 197 0
173 196 0
174 197 0
175 198 0
174 197 0
172 196 0
172 196 0
175 198 0
173 197 0
174 197 0
174 198 0
172 197 0
173 196 0
174 197 0
174 197 0
173 197 0
174 197 0
173 197 0
175 198 0
174 198 0
174 198 0
175 198 0
174 197 0
172 196 0
174 198 0
174 198 0
174 198 0
175 198 0
172 196 0
173 196 0
175 198 0
174 197 0
174 198 0
174 198 0
173 197 0
175 198 0
175 198 0
172 197 0
173 197 0
174 198 0
173 197 0
175 198 0
173 197 0
174 198 0
172 196 0
173 197 0
174 198 0
176 199 0
174 198 0
174 197 0
173 197 0
175 198 0
174 197 0
175 198 0
174 198 0
175 198 0
175 198 0
172 196 0
175 198 0
176 199 0
173 197 0
174 198 0
174 198 0
175 198 0
174 198 0
174 197 0
175 198 0
173 197 0
174 198 0
174 198 0
173 197 0
174 198 0
173 197 0
175 198 0
175 198 0
174 197 0
173 197 0
175 198 0
174 197 0
176 198 0
174 198 0
173 197 0
175 198 0
174 198 0
175 198 0
173 197 0
175 198 0
176 199 0
173 197 0
174 198 0
174 197 0
176 199 0
174 197 0
174 197 0
173 197 0
175 198 0
177 199 0
175 198 0
174 198 0
175 198 0
175 198 0
174 198 0
174 197 0
174 197 0
175 198 0
175 198 0
176 199 0
175 198 0
175 198 0
174 198 0
174 198 0
175 198 0
173 197 0
175 198 0
174 198 0
174 198 0
174 197 0
175 198 0
174 197 0
174 198 0
176 199 0
174 197 0
175 198 0
174 198 0
174 198 0
174 198 0
174 198 0
178 201 62
184 205 108
183 204 102
191 211 144
194 213 155
156 177 32
157 178 51
158 177 51
157 177 39
157 177 51
157 177 45
156 176 45
155 174 39
154 175 0
156 176 32
154 175 0
155 175 22
153 174 0
153 174 0
154 174 0
153 175 0
155 176 0
154 175 0
153 174 0
152 173 0
154 175 0
154 173 0
153 174 0
153 173 0
152 173 0
152 173 0
153 173 0
153 173 0
154 174 0
153 173 0
154 174 0
153 173 0
155 175 0
153 173 0
153 174 0
154 175 0
155 175 0
154 173 0
154 174 0
150 171 0
154 173 0
153 174 0
151 171 0
153 173 0
151 172 0
149 169 0
152 171 0
153 174 0
150 170 0
152 173 0
152 173 0
152 172 0
150 169 0
152 172 0
152 172 0
153 173 0
151 171 0
152 172 0
151 171 0
148 168 0
148 167 0
150 170 0
149 168 0
152 171 0
147 166 0
151 170 0
152 171 0
149 168 0
147 167 0
151 170 0
146 166 0
148 166 0
149 168 0
148 165 0
151 169 0
148 167 0
149 167 0
151 170 0
148 167 0
149 168 0
148 165 0
149 166 0
146 163 0
147 164 0
148 166 0
144 163 0
149 166 0
148 164 0
147 165 0
147 163 0
146 162 0
143 159 0
143 160 0
142 157 0
142 156 0
139 153 0
142 157 0
143 156 0
140 154 0
138 154 0
138 151 0
142 156 0
137 152 0
143 154 0
141 153 0
139 150 0
131 142 0
131 141 0
131 140 0
125 134 0
132 139 0
115 120 0
121 126 10
122 128 14
117 121 10
115 121 0
112 114 0
120 123 10
110 112 0
104 105 0
109 109 0
104 107 0
99 98 0
94 94 0
89 89 10
91 92 0
85 88 0
91 93 0
92 92 0
75 79 10
97 101 17
78 87 22
100 109 10
87 100 0
97 112 10
93 108 22
103 119 0
115 132 0
120 139 0
101 102 21
108 101 31
110 106 33
112 105 38
114 109 36
118 112 44
121 113 48
122 117 45
117 112 43
135 129 50
128 122 53
136 129 51
118 113 45
132 126 46
131 126 49
139 134 55
140 134 51
131 125 50
139 134 52
143 136 55
139 134 50
136 131 48
140 134 46
144 138 54
148 141 58
148 141 48
147 141 54
153 147 51
149 142 61
151 144 60
147 141 52
151 146 53
157 150 60
151 143 58
145 141 39
155 149 59
149 143 53
159 152 63
154 148 60
155 149 61
150 143 54
159 152 64
158 152 60
154 148 52
157 151 59
155 150 49
158 152 59
155 148 59
160 154 60
157 150 60
160 153 60
156 149 62
162 154 61
153 147 51
161 156 62
163 156 64
157 151 56
161 154 63
162 155 61
161 155 62
156 150 51
161 155 57
156 150 51
160 155 57
159 152 58
161 154 57
155 150 45
160 153 54
157 149 56
159 151 62
158 151 54
157 151 57
155 147 59
156 149 57
161 156 58
153 148 45
162 154 62
155 149 61
158 152 60
161 154 66
156 150 59
151 146 54
153 147 52
155 149 58
151 145 57
164 157 62
157 150 59
158 151 62
158 151 63
145 139 52
152 145 58
147 141 48
154 149 58
151 144 48
150 144 56
153 147 58
147 141 54
155 149 61
150 143 62
151 144 61
149 142 51
152 145 56
150 144 53
145 139 54
151 145 59
143 136 53
141 137 49
147 140 57
142 136 54
140 135 53
143 137 61
136 131 49
140 134 52
135 129 49
138 131 54
134 129 47
133 128 44
128 122 54
136 129 58
133 128 62
121 114 52
140 144 51
173 197 0
172 196 0
172 196 0
172 196 0
173 196 0
171 194 0
171 195 0
172 195 0
172 196 0
173 196 0
174 198 0
175 198 0
174 197 0
174 197 0
173 197 0
174 198 0
172 196 0
173 196 0
175 198 0
173 196 0
174 197 0
172 196 0
175 198 0
173 196 0
172 196 0
172 196 0
175 198 0
174 197 0
174 197 0
174 197 0
174 198 0
174 197 0
172 196 0
175 198 0
175 198 0
174 198 0
173 196 0
173 197 0
176 198 0
173 196 0
174 197 0
175 198 0
174 198 0
175 198 0
174 198 0
173 197 0
174 198 0
174 197 0
176 199 0
176 199 0
175 198 0
175 198 0
173 197 0
174 198 0
174 197 0
175 198 0
173 196 0
174 197 0
175 198 0
173 197 0
171 195 0
175 198 0
175 198 0
172 196 0
174 197 0
174 198 0
174 198 0
175 197 0
175 198 0
174 198 0
174 198 0
174 197 0
173 197 0
174 198 0
175 198 0
176 199 0
174 198 0
174 198 0
174 198 0
175 198 0
174 198 0
174 198 0
174 198 0
174 197 0
174 197 0
175 198 0
176 199 0
174 198 0
174 197 0
175 198 0
175 198 0
175 198 0
173 197 0
174 197 0
174 198 0
175 198 0
174 198 0
175 198 0
175 198 0
176 199 0
175 198 0
173 197 0
174 198 0
174 198 0
176 198 0
174 197 0
174 198 0
173 197 0
173 197 0
174 198 0
174 198 0
175 198 0
175 198 0
175 198 0
176 199 0
175 198 0
174 198 0
175 198 0
176 198 0
175 198 0
174 198 0
174 197 0
174 197 0
175 198 0
175 198 0
174 198 0
175 198 0
174 198 0
175 198 0
174 197 0
174 197 0
174 197 0
176 199 0
174 198 0
173 197 0
173 197 0
174 198 0
176 198 0
174 198 0
156 176 51
154 174 39
159 179 64
157 177 51
155 176 32
153 174 22
155 175 22
154 175 0
157 177 22
153 174 0
155 175 0
153 174 0
153 174 0
154 175 0
154 175 0
153 173 0
153 174 0
154 175 0
152 173 0
154 175 0
153 173 0
154 175 0
154 173 0
153 173 0
157 177 0
150 171 0
151 173 0
153 173 0
153 173 0
155 175 0
153 172 0
153 174 0
153 173 0
154 175 0
155 175 0
153 173 0
151 172 0
154 174 0
154 174 0
152 173 0
154 175 0
153 173 0
154 174 0
152 172 0
154 175 0
152 171 0
152 172 0
152 171 0
153 173 0
150 170 0
151 173 0
151 170 0
153 172 0
152 171 0
150 171 0
152 172 0
153 173 0
149 168 0
150 168 0
152 171 0
150 170 0
150 170 0
149 168 0
149 169 0
150 169 0
148 167 0
151 171 0
150 169 0
148 168 0
147 167 0
148 165 0
145 163 0
147 165 0
148 168 0
149 166 0
147 166 0
150 168 0
149 167 0
151 169 0
149 169 0
150 167 0
148 166 0
148 165 0
146 163 0
146 162 0
146 163 0
146 164 0
146 162 0
143 160 0
146 162 0
140 155 0
143 159 0
143 155 0
139 152 0
143 157 0
145 161 0
136 148 0
140 154 0
142 157 0
140 153 0
140 152 0
137 149 0
136 149 0
135 145 0
136 149 0
137 149 0
131 141 0
135 145 0
129 138 0
124 132 0
128 136 0
124 129 0
122 128 0
117 123 0
118 122 0
118 123 0
110 110 0
117 124 0
105 104 0
109 112 0
95 96 0
110 115 0
92 92 0
101 103 10
93 94 0
85 88 0
95 97 9
90 93 0
94 98 19
78 85 10
101 106 0
82 93 0
102 114 14
95 107 0
97 114 14
108 124 0
109 126 0
118 136 0
131 149 0
116 129 15
107 101 40
105 100 38
113 108 44
109 103 39
115 109 46
125 120 43
123 117 49
134 130 46
133 127 53
134 127 47
121 116 46
131 124 49
132 126 46
137 131 46
136 129 54
135 129 45
144 138 56
141 134 59
138 132 48
139 133 56
153 146 60
143 137 53
147 140 59
149 142 55
145 140 50
146 140 53
143 136 52
150 143 55
146 141 57
145 138 54
148 141 57
151 145 57
147 141 52
143 137 51
145 139 51
155 147 54
157 150 57
153 148 52
155 149 60
154 147 55
158 151 61
152 145 54
156 148 59
161 154 63
160 153 57
154 148 56
158 152 60
157 150 58
158 152 60
159 151 61
154 148 58
155 148 52
158 151 59
153 146 53
162 155 62
161 152 64
156 150 49
157 150 62
159 153 61
154 148 49
153 147 53
158 151 49
157 150 53
156 149 58
156 149 59
155 147 59
155 149 54
158 152 61
165 158 63
158 150 51
156 150 54
154 147 51
157 150 54
151 145 53
153 147 49
159 153 60
161 153 62
154 147 52
159 153 53
157 150 56
157 151 59
152 146 51
150 144 52
157 150 56
158 152 60
157 150 59
154 148 57
155 149 54
159 152 62
154 147 57
154 147 60
155 148 58
162 156 65
157 151 52
153 146 59
148 142 56
156 149 61
145 139 57
150 143 61
155 149 58
156 150 63
141 134 58
148 141 54
145 138 54
136 131 48
145 138 54
137 131 57
147 141 60
139 133 54
142 136 52
134 129 51
145 138 64
137 131 52
140 133 53
139 134 57
120 117 30
123 120 48
133 127 53
130 125 44
126 121 48
154 169 30
172 196 0
173 197 0
171 194 0
173 197 0
173 196 0
173 195 0
175 198 0
173 197 0
174 197 0
173 197 0
174 198 0
171 194 0
174 197 0
173 197 0
172 196 0
176 198 0
175 198 0
172 196 0
172 195 0
173 196 0
173 196 0
173 197 0
173 197 0
173 197 0
174 197 0
176 198 0
173 196 0
173 197 0
172 195 0
174 197 0
175 198 0
173 197 0
172 196 0
173 197 0
176 198 0
176 199 0
175 198 0
176 198 0
175 198 0
174 197 0
174 197 0
175 197 0
174 197 0
175 198 0
174 197 0
174 197 0
174 198 0
175 198 0
174 198 0
174 197 0
174 198 0
173 197 0
174 197 0
173 197 0
174 198 0
175 198 0
175 198 0
174 197 0
175 198 0
175 198 0
175 198 0
174 198 0
175 198 0
176 199 0
173 197 0
176 199 0
174 198 0
174 197 0
173 197 0
175 198 0
175 198 0
173 197 0
175 198 0
173 197 0
174 197 0
175 198 0
173 197 0
175 198 0
173 197 0
175 198 0
175 198 0
174 198 0
173 197 0
173 197 0
173 197 0
173 197 0
175 198 0
175 198 0
174 197 0
174 198 0
174 197 0
172 197 0
174 198 0
174 197 0
174 197 0
174 197 0
175 198 0
174 198 0
175 198 0
174 198 0
174 198 0
175 198 0
174 198 0
175 198 0
173 197 0
174 198 0
176 198 0
174 198 0
173 197 0
175 198 0
173 197 0
176 199 0
174 198 0
175 198 0
174 198 0
174 197 0
174 198 0
174 198 0
173 197 0
174 198 0
176 199 0
175 198 0
174 198 0
173 197 0
174 198 0
175 198 0
175 198 0
174 197 0
174 198 0
174 197 0
175 198 0
175 198 0
175 198 0
174 197 0
177 199 0
174 197 0
173 197 0
175 198 0
174 197 0
154 175 32
155 175 32
155 176 32
154 175 0
152 173 22
154 174 0
155 175 0
155 176 0
155 177 0
153 174 0
154 174 0
153 174 0
156 176 0
152 174 0
154 174 0
155 176 0
154 174 0
153 173 0
152 174 0
155 176 0
154 174 0
154 174 0
153 174 0
151 172 0
153 173 0
154 174 0
152 172 0
152 172 0
154 175 0
154 175 0
153 174 0
153 173 0
153 174 0
153 174 0
155 176 0
152 173 0
151 172 0
151 172 0
155 175 0
152 173 0
153 173 0
152 171 0
154 174 0
153 173 0
150 170 0
154 174 0
151 171 0
154 173 0
153 173 0
152 172 0
151 170 0
150 170 0
152 172 0
150 170 0
151 169 0
155 175 0
148 168 0
150 170 0
149 168 0
154 172 0
152 172 0
149 169 0
148 168 0
146 166 0
147 166 0
148 167 0
152 171 0
150 169 0
147 164 0
151 169 0
149 166 0
150 170 0
147 167 0
149 167 0
148 167 0
150 168 0
145 163 0
145 166 0
146 164 0
143 158 0
147 164 0
146 163 0
146 164 0
145 161 0
143 159 0
146 163 0
142 159 0
143 158 0
142 159 0
143 159 0
144 162 0
141 155 0
146 163 0
144 160 0
143 155 0
141 156 0
142 155 0
143 157 0
137 153 0
137 150 0
137 151 0
133 145 0
138 151 0
130 142 0
136 146 0
136 148 0
136 148 0
129 139 0
131 139 0
130 139 0
124 132 0
121 127 0
124 129 0
110 115 0
117 123 0
113 116 0
118 126 0
116 119 0
104 105 0
113 114 0
100 101 0
101 102 10
102 104 0
98 100 0
101 102 0
100 104 10
94 99 0
90 94 0
94 102 0
91 98 14
96 106 10
101 113 16
103 116 0
102 114 27
99 114 16
121 139 0
121 138 0
126 143 0
128 146 0
125 143 0
96 95 29
105 99 32
105 100 34
107 102 33
127 121 50
110 103 34
122 117 43
119 113 40
128 122 50
125 120 40
123 117 38
118 114 33
136 130 51
138 132 50
139 133 50
137 131 54
140 133 51
133 127 47
135 129 52
145 139 50
139 133 48
138 133 49
146 141 54
145 139 49
146 141 50
142 137 44
142 136 51
146 141 54
150 143 54
148 141 55
149 143 48
145 140 47
152 144 52
155 148 54
150 144 47
145 138 48
157 150 60
154 148 54
155 149 58
154 148 57
155 148 53
151 145 52
155 148 54
153 148 44
157 151 56
152 146 53
155 147 62
154 147 56
153 147 52
158 153 51
155 149 51
155 149 41
157 149 56
154 147 56
150 143 52
155 149 51
155 148 52
151 145 49
162 155 59
160 154 59
155 149 53
157 151 58
155 148 51
155 149 51
158 152 51
161 152 62
154 147 57
152 147 47
158 151 58
156 151 49
152 145 45
157 151 61
162 155 58
155 149 54
160 153 57
151 145 49
159 152 53
156 150 57
159 153 60
152 146 56
155 149 54
155 149 53
157 150 63
147 140 44
156 150 59
150 144 49
154 148 63
154 146 61
161 153 59
154 148 59
149 143 51
154 148 60
158 151 61
151 145 59
146 141 39
151 145 63
153 148 56
154 147 57
151 144 65
154 147 56
147 141 53
145 138 56
148 141 61
144 137 54
149 143 60
142 136 59
145 139 58
146 140 60
136 130 47
148 142 60
144 138 56
123 118 39
131 124 51
134 130 44
139 133 47
130 124 48
136 130 48
134 129 56
125 120 45
132 129 51
167 190 11
172 196 0
171 195 0
171 194 0
172 196 0
173 196 0
173 196 0
173 197 0
173 196 0
174 197 0
174 197 0
173 197 0
173 196 0
172 195 0
175 198 0
173 196 0
175 198 0
173 197 0
172 196 0
175 198 0
173 196 0
172 196 0
172 196 0
174 197 0
170 194 0
172 196 0
173 196 0
174 196 0
175 197 0
172 196 0
173 197 0
173 196 0
173 196 0
174 198 0
173 196 0
172 196 0
174 197 0
172 196 0
174 197 0
171 195 0
173 197 0
173 197 0
173 197 0
174 197 0
174 198 0
173 197 0
173 197 0
174 197 0
174 197 0
173 197 0
174 198 0
174 197 0
174 198 0
174 198 0
172 196 0
173 197 0
172 197 0
174 197 0
174 197 0
174 197 0
176 198 0
173 197 0
174 198 0
174 198 0
175 198 0
176 198 0
173 197 0
174 197 0
174 198 0
175 198 0
175 198 0
175 198 0
176 198 0
175 198 0
175 198 0
174 197 0
175 198 0
173 197 0
175 198 0
175 198 0
174 198 0
174 198 0
174 198 0
173 197 0
173 197 0
173 197 0
174 198 0
175 198 0
175 198 0
175 198 0
175 198 0
173 196 0
176 198 0
173 196 0
174 197 0
175 198 0
175 198 0
174 198 0
174 197 0
174 197 0
175 198 0
174 197 0
173 197 0
176 198 0
177 199 0
174 198 0
174 198 0
175 198 0
174 198 0
174 197 0
175 198 0
173 197 0
174 198 0
175 198 0
175 198 0
175 198 0
173 197 0
174 197 0
175 198 0
174 198 0
173 197 0
175 198 0
174 197 0
174 197 0
173 197 0
176 199 0
175 198 0
173 197 0
174 198 0
173 197 0
176 199 0
176 199 0
175 198 0
174 198 0
173 197 0
175 198 0
177 199 0
174 198 0
175 198 0
175 198 0
154 175 22
154 174 0
155 176 0
155 176 0
154 174 0
154 175 0
154 175 0
154 175 0
154 174 0
153 174 0
155 176 0
152 173 0
154 176 0
155 175 0
152 173 0
154 175 0
153 174 0
154 174 0
153 174 0
155 175 0
154 174 0
153 173 0
153 173 0
153 174 0
151 171 0
152 172 0
152 172 0
150 171 0
153 173 0
154 173 0
153 173 0
154 174 0
153 174 0
151 171 0
152 173 0
154 174 0
152 172 0
152 172 0
149 169 0
151 171 0
152 172 0
152 172 0
152 173 0
152 172 0
152 172 0
150 170 0
153 173 0
150 170 0
150 168 0
154 173 0
151 172 0
152 172 0
151 170 0
149 168 0
149 167 0
154 174 0
154 174 0
149 168 0
154 173 0
148 167 0
151 171 0
150 169 0
152 171 0
148 168 0
148 166 0
147 165 0
149 167 0
145 164 0
147 166 0
147 165 0
150 167 0
148 166 0
149 169 0
149 169 0
146 163 0
147 165 0
150 169 0
148 166 0
147 165 0
149 168 0
150 168 0
142 160 0
145 162 0
144 160 0
144 161 0
146 164 0
142 158 0
148 165 0
141 158 0
144 160 0
145 164 0
139 154 0
144 162 0
138 154 0
141 157 0
134 146 0
137 151 0
140 153 0
133 143 0
132 145 0
140 153 0
137 149 0
134 144 0
133 145 0
133 144 0
130 137 0
135 145 0
131 138 0
132 140 0
127 136 0
128 137 0
122 131 0
122 129 0
123 128 0
116 120 0
113 117 0
121 127 0
108 113 0
102 105 0
99 101 0
109 114 0
105 108 0
100 104 0
101 106 0
92 96 0
96 101 0
93 98 0
105 112 0
109 117 0
101 112 0
83 93 0
97 109 16
111 124 0
100 115 0
108 122 0
117 132 0
116 133 0
127 144 0
133 152 0
119 136 0
104 112 11
103 96 21
99 95 26
100 95 30
113 107 41
115 110 38
126 122 49
134 128 46
125 120 35
121 115 39
124 119 44
121 117 38
130 125 43
133 127 49
128 123 41
125 121 46
128 122 46
137 130 50
144 138 57
132 125 45
142 136 48
145 139 57
135 130 46
143 138 50
146 140 54
152 145 60
145 139 52
147 140 58
150 143 54
155 149 55
148 142 56
147 141 51
145 140 47
152 146 54
150 145 54
152 144 59
147 141 53
149 143 44
151 143 53
153 146 57
150 144 49
150 144 48
151 145 53
156 150 54
157 151 55
153 147 49
152 146 46
158 151 54
158 152 57
148 142 47
156 150 52
158 151 54
160 153 59
154 149 44
154 149 42
158 151 59
154 148 53
154 148 47
162 155 57
158 152 56
155 149 48
150 145 47
152 147 44
164 157 67
156 150 53
154 148 49
157 150 51
151 146 48
160 155 59
158 151 49
158 150 57
156 150 51
156 151 56
153 148 48
151 145 53
154 147 54
154 147 49
150 145 42
155 149 48
155 150 58
156 150 51
151 145 48
152 147 44
156 150 56
154 148 58
159 152 61
155 148 52
145 139 47
148 141 51
147 141 45
153 146 57
147 142 44
151 144 56
147 141 53
148 142 47
148 141 57
152 147 52
139 134 41
143 138 54
149 143 57
152 146 57
154 147 61
142 136 52
141 136 48
138 132 48
150 143 60
142 135 54
141 135 54
145 139 59
139 132 47
140 134 54
143 136 62
138 132 52
134 128 48
133 127 51
137 130 49
137 130 57
138 132 51
130 124 48
156 166 37
173 197 0
174 197 0
172 196 0
175 198 0
174 198 0
173 196 0
168 191 0
174 197 0
175 198 0
171 195 0
173 196 0
174 197 0
172 195 0
174 198 0
174 198 0
172 196 0
173 197 0
174 196 0
174 196 0
174 197 0
174 197 0
174 197 0
174 196 0
175 198 0
173 196 0
173 197 0
172 196 0
173 196 0
171 195 0
174 198 0
173 196 0
173 197 0
174 197 0
173 196 0
174 197 0
174 197 0
173 197 0
172 196 0
173 197 0
173 196 0
174 198 0
173 197 0
174 198 0
173 197 0
172 196 0
175 198 0
176 199 0
174 197 0
173 196 0
173 197 0
174 197 0
173 196 0
173 197 0
170 195 0
175 198 0
174 197 0
173 196 0
175 197 0
176 198 0
175 198 0
173 197 0
173 197 0
174 198 0
175 198 0
173 196 0
174 197 0
173 197 0
175 198 0
175 198 0
174 197 0
173 197 0
175 198 0
174 197 0
173 197 0
175 198 0
174 197 0
176 199 0
175 198 0
175 198 0
174 198 0
174 197 0
173 197 0
174 198 0
175 198 0
173 197 0
174 197 0
175 198 0
174 198 0
173 197 0
173 197 0
176 199 0
175 198 0
172 196 0
174 198 0
174 197 0
174 198 0
176 198 0
175 198 0
176 198 0
175 198 0
175 198 0
176 199 0
174 198 0
174 198 0
175 198 0
174 198 0
175 198 0
174 197 0
175 198 0
176 198 0
174 197 0
174 198 0
175 198 0
175 198 0
173 197 0
175 198 0
174 197 0
175 198 0
175 198 0
176 199 0
175 198 0
175 198 0
173 197 0
175 198 0
174 198 0
174 197 0
176 199 0
172 196 0
175 198 0
176 199 0
174 197 0
174 198 0
174 197 0
175 198 0
177 199 0
173 197 0
174 198 0
176 199 0
175 198 0
175 198 0
155 175 0
153 174 0
154 175 0
153 173 0
154 175 0
153 174 0
151 173 0
155 176 0
152 173 0
154 175 0
154 173 0
153 173 0
154 175 0
154 174 0
154 174 0
154 175 0
152 172 0
151 171 0
154 175 0
154 174 0
152 172 0
151 172 0
154 174 0
153 173 0
154 173 0
151 172 0
153 173 0
151 171 0
154 174 0
153 173 0
152 172 0
153 174 0
153 173 0
154 174 0
154 173 0
154 174 0
152 172 0
152 172 0
152 173 0
150 170 0
152 172 0
153 172 0
150 170 0
151 170 0
152 172 0
150 170 0
150 170 0
150 169 0
149 169 0
150 171 0
152 171 0
151 170 0
149 169 0
151 172 0
148 167 0
150 168 0
150 169 0
151 170 0
151 171 0
150 169 0
146 164 0
149 169 0
147 166 0
148 166 0
146 166 0
147 166 0
148 168 0
151 170 0
151 171 0
149 167 0
149 168 0
142 159 0
145 163 0
146 164 0
146 165 0
148 165 0
149 168 0
148 167 0
146 164 0
149 166 0
147 164 0
144 161 0
144 160 0
144 160 0
144 160 0
143 160 0
145 162 0
146 163 0
148 163 0
141 158 0
138 152 0
140 154 0
142 157 0
139 154 0
141 154 0
140 155 0
139 156 0
133 145 0
135 148 0
136 148 0
140 152 0
138 150 0
137 150 0
136 148 0
140 150 0
134 142 0
130 142 0
127 137 0
123 132 0
128 137 0
123 133 0
124 132 0
127 135 0
118 124 0
112 116 0
115 119 0
110 116 0
108 111 0
111 114 0
104 109 0
105 110 0
100 104 0
105 111 0
96 98 0
98 102 0
94 97 0
98 105 0
97 107 0
96 104 0
98 107 0
85 98 14
104 117 0
105 120 0
105 120 0
100 115 0
115 130 0
124 140 0
119 136 0
120 137 0
115 132 22
151 169 23
93 88 14
105 100 33
109 103 30
106 102 28
112 106 37
119 114 44
127 123 43
121 116 51
124 117 42
132 126 49
125 118 44
130 125 48
127 121 46
135 129 45
130 125 44
138 132 55
143 137 50
135 131 46
149 143 59
139 132 55
137 131 49
138 131 56
147 141 53
142 137 44
145 138 51
143 137 50
144 138 46
146 141 55
147 141 50
144 138 48
149 144 50
145 139 52
147 141 53
150 144 55
145 140 37
150 144 52
150 143 44
150 143 53
155 148 58
153 147 52
155 149 51
151 146 52
154 147 54
154 147 51
146 139 45
150 143 57
147 142 42
158 152 57
157 150 61
158 152 62
153 147 48
150 144 42
156 150 58
157 150 51
150 145 42
152 146 42
160 153 56
149 143 41
159 153 64
155 150 54
152 146 48
156 150 56
156 150 51
155 149 51
158 151 54
160 153 57
154 147 51
152 146 49
153 147 49
150 143 48
151 145 52
161 154 63
159 153 51
156 148 54
157 151 62
155 149 51
157 151 56
156 149 56
148 142 51
156 149 57
152 146 51
155 148 48
149 143 51
149 144 48
151 145 51
156 149 60
147 141 52
152 146 49
149 143 53
148 141 45
153 146 57
152 147 51
148 142 52
151 145 49
142 136 54
146 141 48
151 145 58
148 142 58
145 140 48
151 143 58
150 143 51
144 138 52
141 135 52
144 137 61
138 132 51
148 141 52
135 130 42
146 139 62
131 126 42
135 131 47
142 136 53
132 126 47
138 131 63
130 125 58
122 117 45
127 122 51
129 122 48
114 110 49
169 189 16
173 196 0
174 197 0
172 195 0
172 195 0
174 197 0
173 197 0
172 196 0
171 195 0
171 195 0
172 196 0
173 196 0
171 195 0
174 196 0
173 196 0
172 196 0
172 196 0
174 198 0
174 197 0
171 195 0
171 195 0
175 198 0
173 196 0
172 196 0
172 195 0
175 198 0
174 197 0
173 196 0
170 194 0
172 195 0
174 197 0
173 196 0
172 195 0
173 196 0
175 197 0
174 197 0
175 198 0
173 196 0
174 197 0
174 198 0
172 196 0
172 195 0
171 195 0
172 196 0
173 197 0
173 197 0
175 197 0
172 196 0
173 197 0
173 196 0
174 198 0
174 198 0
174 198 0
173 197 0
172 196 0
174 197 0
175 198 0
173 197 0
175 197 0
172 196 0
175 198 0
173 197 0
172 196 0
174 198 0
175 198 0
174 197 0
174 197 0
174 198 0
173 197 0
174 197 0
171 195 0
173 197 0
173 196 0
173 197 0
174 197 0
174 197 0
175 198 0
174 198 0
175 198 0
172 196 0
173 196 0
174 197 0
173 197 0
175 198 0
175 198 0
174 197 0
174 197 0
174 197 0
174 197 0
175 198 0
174 198 0
173 197 0
175 198 0
174 198 0
175 198 0
173 197 0
173 196 0
176 199 0
176 198 0
175 198 0
175 198 0
175 198 0
174 198 0
174 197 0
175 198 0
174 197 0
175 198 0
174 197 0
174 198 0
173 197 0
175 198 0
176 199 0
175 198 0
173 197 0
175 198 0
173 197 0
174 198 0
174 198 0
174 197 0
173 197 0
175 198 0
174 198 0
174 198 0
175 198 0
174 198 0
176 199 0
173 197 0
175 198 0
174 198 0
174 198 0
174 198 0
174 197 0
175 198 0
175 198 0
172 196 0
174 197 0
174 198 0
174 197 0
173 197 0
175 198 0
174 197 0
154 174 0
154 174 0
154 175 0
153 173 0
155 176 0
153 173 0
152 172 0
155 175 0
153 174 0
153 174 0
152 173 0
153 173 0
153 174 0
151 171 0
153 174 0
155 174 0
152 172 0
154 175 0
152 173 0
154 175 0
153 173 0
153 173 0
151 171 0
154 174 0
152 172 0
153 173 0
153 174 0
153 173 0
151 172 0
152 173 0
149 169 0
153 173 0
153 173 0
150 170 0
153 174 0
149 168 0
149 169 0
152 171 0
151 172 0
151 171 0
151 171 0
146 166 0
150 169 0
149 169 0
150 170 0
152 171 0
145 163 0
151 171 0
151 170 0
153 172 0
151 170 0
147 164 0
148 168 0
150 169 0
146 166 0
153 172 0
147 166 0
149 168 0
151 170 0
150 169 0
152 173 0
152 171 0
148 166 0
149 167 0
149 168 0
145 164 0
146 166 0
146 165 0
147 166 0
149 165 0
149 167 0
147 165 0
143 161 0
145 164 0
144 162 0
149 169 0
151 169 0
146 163 0
144 162 0
145 163 0
147 165 0
143 160 0
144 160 0
142 159 0
147 164 0
143 159 0
144 160 0
144 159 0
144 161 0
136 151 0
145 160 0
140 153 0
143 159 0
141 156 0
137 152 0
137 151 0
138 152 0
142 157 0
139 153 0
135 149 0
132 142 0
128 138 0
131 144 0
138 151 0
128 139 0
128 137 0
127 139 0
127 137 0
126 136 0
128 136 0
128 137 0
128 135 0
121 129 0
121 127 0
120 128 0
114 121 0
113 120 0
111 118 0
118 124 0
113 118 0
110 116 0
109 116 0
111 118 0
106 112 0
97 103 0
103 110 0
106 116 0
105 116 0
102 112 0
93 103 0
99 112 0
110 123 0
106 120 0
111 127 0
107 121 0
121 137 0
120 136 0
127 143 0
118 135 0
144 164 22
170 194 0
126 134 6
103 97 36
106 101 27
104 97 25
112 108 34
117 111 39
125 120 44
123 118 40
120 113 38
129 124 44
122 117 36
123 118 45
135 129 46
134 128 53
131 127 40
142 135 53
132 127 43
137 132 45
134 127 47
133 127 49
143 137 58
143 137 46
135 130 41
144 137 57
139 133 50
147 142 49
137 131 48
143 136 50
142 137 43
150 144 56
158 151 59
146 139 46
149 143 50
151 144 62
142 137 46
148 142 52
145 140 45
150 143 57
151 146 46
156 149 58
149 143 46
150 143 49
153 146 56
156 149 53
154 148 52
155 148 52
150 145 47
156 150 48
148 143 42
154 147 56
152 146 45
156 150 51
156 148 53
151 145 52
150 144 48
157 150 63
152 146 51
156 150 51
158 151 54
158 151 54
157 150 58
159 152 48
153 148 49
154 148 53
153 146 48
154 148 53
156 150 51
156 151 58
156 151 51
156 150 57
154 147 49
151 144 44
150 143 47
155 150 52
148 141 48
158 152 58
150 145 44
152 145 49
153 145 52
150 145 53
151 145 47
151 145 49
154 147 51
154 147 56
149 142 53
153 148 49
149 142 51
149 143 49
154 148 48
147 142 53
142 137 49
156 149 58
155 149 57
147 141 51
137 132 42
145 140 52
142 135 39
144 138 51
144 138 57
149 143 51
137 130 47
154 147 60
135 129 45
145 140 51
131 125 30
144 139 47
129 126 34
139 133 47
133 128 48
137 131 54
139 132 51
137 131 53
134 128 53
129 123 51
127 121 53
127 122 41
122 116 48
152 164 32
173 195 0
174 198 0
171 194 0
172 195 0
172 196 0
172 196 0
174 197 0
172 195 0
169 191 0
170 194 0
173 196 0
173 196 0
173 197 0
169 193 0
168 193 0
171 195 0
173 196 0
173 195 0
172 195 0
169 193 0
175 198 0
168 192 0
174 198 0
174 197 0
171 195 0
173 196 0
173 196 0
172 197 0
170 194 0
172 196 0
172 196 0
174 198 0
175 197 0
173 196 0
172 196 0
175 197 0
172 196 0
173 197 0
169 193 0
174 197 0
171 195 0
174 198 0
172 195 0
173 197 0
174 198 0
174 197 0
172 196 0
173 196 0
173 196 0
172 195 0
173 197 0
173 197 0
172 196 0
174 198 0
173 196 0
174 197 0
173 196 0
174 198 0
174 197 0
174 198 0
173 197 0
175 198 0
174 197 0
174 197 0
174 198 0
173 197 0
172 196 0
173 196 0
173 197 0
173 197 0
171 195 0
173 197 0
175 198 0
173 197 0
174 196 0
172 196 0
172 196 0
173 197 0
173 196 0
174 197 0
174 197 0
174 197 0
174 197 0
174 197 0
174 197 0
174 197 0
173 197 0
174 197 0
176 198 0
173 197 0
173 196 0
176 199 0
173 196 0
172 196 0
174 198 0
174 198 0
175 198 0
173 197 0
174 198 0
173 197 0
175 198 0
176 198 0
173 197 0
175 198 0
173 197 0
173 197 0
175 198 0
176 199 0
174 198 0
175 198 0
172 197 0
174 198 0
175 198 0
173 197 0
176 198 0
174 198 0
174 197 0
175 198 0
173 197 0
177 199 0
172 196 0
175 198 0
174 198 0
174 198 0
173 197 0
174 197 0
175 198 0
174 197 0
172 196 0
174 197 0
174 197 0
175 198 0
175 198 0
175 198 0
175 198 0
175 198 0
173 197 0
174 198 0
175 198 0
175 198 0
175 198 0
153 174 0
152 173 0
154 174 0
154 174 0
151 172 0
156 176 0
152 173 0
153 175 0
154 174 0
154 174 0
153 174 0
153 173 0
155 175 0
153 173 0
153 173 0
154 174 0
154 175 0
152 172 0
153 173 0
153 174 0
151 172 0
152 172 0
152 172 0
152 173 0
152 172 0
150 171 0
152 172 0
152 173 0
152 172 0
150 171 0
153 173 0
153 172 0
152 173 0
152 173 0
151 172 0
153 173 0
155 174 0
151 171 0
149 168 0
151 170 0
150 169 0
153 173 0
152 172 0
151 171 0
152 172 0
149 169 0
152 173 0
149 169 0
151 171 0
151 170 0
151 171 0
153 171 0
149 168 0
150 169 0
148 166 0
150 169 0
147 165 0
153 172 0
149 167 0
151 171 0
149 168 0
151 169 0
148 167 0
150 169 0
148 167 0
147 166 0
147 164 0
147 167 0
150 167 0
147 165 0
148 166 0
149 167 0
143 161 0
147 165 0
147 164 0
147 165 0
151 169 0
143 160 0
146 163 0
144 162 0
145 162 0
142 158 0
142 158 0
140 156 0
146 164 0
145 162 0
139 155 0
137 152 0
143 159 0
147 164 0
137 152 0
138 153 0
137 152 0
139 154 0
139 154 0
140 153 0
138 153 0
132 145 0
137 150 0
137 149 0
134 146 0
132 144 0
132 145 0
132 142 0
134 144 0
134 144 0
131 143 0
128 139 0
131 141 0
126 135 0
131 143 0
120 128 0
126 133 0
124 129 0
119 127 0
107 112 0
114 119 0
117 125 0
114 120 0
112 119 0
118 126 0
115 122 0
100 106 0
110 115 0
109 117 0
98 105 0
110 120 0
102 111 0
98 110 0
104 117 0
100 114 0
98 111 0
104 119 0
115 132 0
121 139 0
120 137 0
122 137 0
119 135 0
130 147 22
167 191 0
169 192 0
158 178 10
101 97 26
107 101 26
99 94 31
110 104 35
116 110 32
120 115 41
114 109 36
109 104 39
129 124 43
118 112 37
120 114 33
126 120 44
134 129 48
123 117 44
139 132 51
136 130 51
131 126 39
137 132 42
137 132 46
140 133 50
136 129 39
142 136 45
142 136 55
141 135 49
143 138 42
140 132 51
135 129 42
141 135 49
145 139 49
152 146 54
150 144 54
149 142 49
148 141 52
146 140 42
151 145 53
148 142 52
145 140 42
150 143 51
155 148 59
153 148 52
151 145 53
153 146 52
154 146 49
154 147 52
150 142 45
151 146 45
151 146 44
155 148 47
154 147 52
153 146 51
160 153 58
148 141 51
153 147 44
155 148 56
152 146 47
156 150 56
151 144 53
158 151 58
157 149 54
151 144 47
144 139 37
154 148 44
156 151 49
157 150 57
153 146 49
155 147 53
148 143 41
151 145 44
152 144 52
152 146 34
152 146 51
153 147 52
155 149 56
154 148 57
153 147 51
148 142 34
149 143 45
152 145 51
150 145 42
154 147 59
152 146 42
146 139 49
153 146 59
148 141 41
149 143 49
150 143 54
150 143 54
148 142 52
154 148 51
151 145 49
147 141 48
148 143 47
139 133 47
147 141 39
136 132 34
148 141 48
142 135 45
148 142 54
151 144 57
143 136 52
148 142 61
142 136 48
141 135 47
143 137 49
141 135 54
137 131 45
132 127 41
131 126 37
127 122 45
131 126 47
127 122 47
126 121 48
126 121 45
119 115 37
129 123 47
128 122 54
157 178 0
172 195 0
168 191 0
170 193 0
168 191 0
170 193 0
173 197 0
170 193 0
173 196 0
173 196 0
174 197 0
173 197 0
170 194 0
173 196 0
174 197 0
173 195 0
168 193 0
174 197 0
170 194 0
174 197 0
170 193 0
171 194 0
173 196 0
172 196 0
170 194 0
173 196 0
172 196 0
171 194 0
171 195 0
174 198 0
173 197 0
173 196 0
172 195 0
173 196 0
171 195 0
173 196 0
175 197 0
173 196 0
174 198 0
172 195 0
171 194 0
172 196 0
175 197 0
174 198 0
172 196 0
172 196 0
171 195 0
173 196 0
171 194 0
171 195 0
174 197 0
173 196 0
174 197 0
171 195 0
173 196 0
172 196 0
175 198 0
174 197 0
173 197 0
173 196 0
174 197 0
174 197 0
173 197 0
175 198 0
174 197 0
175 198 0
172 196 0
175 198 0
175 197 0
174 197 0
174 198 0
174 198 0
173 196 0
172 196 0
174 198 0
173 197 0
174 198 0
174 198 0
175 198 0
173 196 0
173 197 0
172 196 0
172 197 0
174 197 0
174 198 0
175 198 0
177 199 0
176 198 0
174 198 0
173 197 0
174 197 0
173 197 0
174 197 0
173 196 0
175 198 0
174 197 0
174 197 0
174 198 0
174 197 0
174 197 0
174 198 0
173 197 0
172 196 0
174 198 0
175 198 0
175 198 0
175 198 0
174 198 0
174 197 0
175 198 0
174 198 0
174 197 0
173 197 0
175 198 0
174 198 0
173 197 0
175 198 0
174 198 0
172 196 0
175 198 0
175 198 0
173 197 0
173 197 0
174 197 0
174 198 0
173 196 0
174 197 0
175 198 0
174 198 0
173 197 0
173 197 0
174 198 0
173 197 0
176 199 0
172 196 0
174 198 0
174 197 0
174 198 0
174 198 0
175 198 0
175 198 0
175 198 0
154 173 0
154 174 0
154 175 0
155 175 0
156 176 0
152 172 0
153 173 0
153 174 0
154 174 0
154 174 0
151 173 0
152 172 0
152 173 0
154 174 0
156 175 0
152 172 0
154 173 0
152 172 0
152 172 0
153 174 0
154 174 0
153 173 0
151 172 0
152 172 0
151 171 0
152 172 0
151 170 0
152 173 0
154 174 0
153 172 0
152 172 0
155 175 0
149 169 0
150 171 0
154 174 0
150 171 0
150 171 0
151 170 0
151 170 0
154 173 0
150 170 0
151 170 0
150 170 0
149 169 0
153 173 0
152 172 0
150 169 0
149 168 0
147 166 0
152 172 0
151 170 0
149 168 0
146 163 0
148 168 0
145 164 0
149 168 0
149 168 0
149 167 0
147 167 0
145 164 0
148 168 0
149 168 0
145 163 0
148 166 0
149 167 0
150 168 0
148 166 0
146 166 0
146 166 0
148 167 0
146 164 0
143 158 0
146 164 0
143 161 0
143 161 0
143 161 0
143 160 0
146 163 0
141 157 0
143 159 0
142 159 0
143 159 0
146 162 0
149 165 0
146 162 0
142 158 0
141 157 0
140 154 0
137 152 0
144 159 0
143 159 0
138 154 0
137 151 0
134 148 0
134 146 0
139 154 0
136 150 0
135 149 0
132 145 0
135 149 0
136 146 0
130 142 0
137 150 0
131 142 0
129 140 0
130 143 0
129 138 0
128 137 0
131 142 0
127 136 0
126 135 0
124 133 0
120 129 0
126 135 0
116 121 0
113 119 0
116 123 0
115 123 0
117 122 0
113 118 0
103 107 0
102 109 0
103 109 0
107 114 0
98 107 0
103 111 0
102 113 0
101 110 0
118 130 0
104 115 0
114 129 0
106 119 0
110 125 0
116 132 0
117 133 0
123 139 0
117 133 0
120 136 0
158 181 0
165 188 0
166 189 0
164 186 0
133 143 15
104 98 31
105 100 32
106 100 31
121 115 37
119 114 35
119 113 43
125 120 49
117 112 35
132 126 54
121 117 41
129 124 39
123 117 38
131 125 45
133 127 39
132 126 44
131 126 40
135 128 51
140 133 49
133 128 33
133 129 42
141 136 49
141 134 48
126 121 35
137 132 42
147 140 54
135 128 37
139 133 48
144 139 46
146 139 50
146 138 57
142 136 44
147 141 47
150 144 47
152 144 59
145 139 42
148 141 48
149 142 47
149 142 45
154 147 48
152 146 51
147 140 44
150 144 49
149 143 44
149 146 41
151 144 49
145 140 42
158 151 57
151 144 47
145 140 36
151 145 45
155 148 53
151 144 48
151 145 47
150 143 44
149 143 42
154 147 51
150 145 39
156 149 52
161 154 62
156 150 51
149 143 45
150 143 48
145 140 44
155 148 47
153 147 54
155 149 51
151 144 49
149 141 45
150 145 47
152 145 47
150 144 44
155 149 54
154 146 45
148 143 41
152 147 45
155 148 54
154 147 57
141 137 30
150 143 51
147 142 44
148 142 45
152 146 56
147 142 49
151 144 56
139 133 39
151 145 44
143 138 44
145 140 36
145 137 49
146 140 51
135 128 39
146 138 56
136 130 39
145 139 53
143 136 56
145 139 52
141 135 52
148 141 51
137 132 41
137 131 47
139 133 52
143 137 53
138 132 49
131 126 44
142 136 52
133 127 52
143 136 54
137 131 48
121 116 42
133 127 51
128 122 42
129 124 42
119 113 41
130 125 57
139 150 30
170 194 0
171 194 0
167 190 0
169 193 0
173 196 0
171 195 0
171 195 0
172 195 0
170 194 0
170 194 0
170 194 0
170 194 0
170 193 0
171 194 0
171 194 0
172 195 0
169 192 0
172 196 0
173 197 0
172 196 0
169 191 0
175 198 0
173 196 0
171 195 0
168 192 0
174 197 0
174 197 0
171 195 0
172 196 0
172 196 0
174 197 0
173 196 0
170 195 0
173 196 0
174 198 0
175 198 0
174 198 0
173 197 0
172 196 0
173 196 0
172 196 0
175 198 0
173 197 0
174 197 0
175 198 0
171 195 0
171 195 0
173 196 0
174 197 0
174 197 0
174 197 0
172 195 0
173 196 0
174 197 0
173 197 0
174 197 0
173 196 0
173 196 0
174 197 0
170 194 0
175 198 0
172 196 0
173 197 0
173 196 0
173 196 0
174 197 0
173 197 0
173 197 0
172 196 0
173 197 0
173 197 0
173 196 0
172 196 0
176 199 0
174 198 0
176 198 0
173 196 0
173 196 0
174 197 0
175 198 0
173 197 0
173 196 0
175 198 0
173 197 0
174 198 0
177 199 0
174 198 0
175 198 0
175 198 0
174 197 0
174 197 0
174 198 0
175 198 0
174 197 0
176 199 0
173 197 0
173 197 0
174 197 0
174 198 0
173 196 0
175 198 0
174 198 0
174 198 0
173 197 0
174 198 0
175 197 0
174 198 0
173 197 0
174 197 0
175 198 0
174 198 0
174 197 0
172 196 0
174 197 0
173 196 0
174 198 0
175 198 0
175 198 0
175 198 0
174 197 0
174 197 0
173 196 0
174 197 0
175 198 0
174 197 0
174 198 0
175 198 0
172 197 0
174 198 0
174 198 0
173 197 0
174 198 0
175 198 0
174 198 0
176 199 0
173 197 0
174 198 0
174 198 0
175 198 0
175 198 0
174 198 0
173 197 0
154 174 0
155 176 0
152 173 0
153 174 0
153 174 0
152 171 0
152 172 0
152 173 0
153 173 0
153 174 0
153 174 0
152 173 0
153 174 0
155 175 0
152 173 0
153 173 0
151 172 0
154 174 0
151 172 0
153 171 0
152 172 0
151 172 0
153 174 0
151 170 0
151 170 0
150 171 0
152 171 0
151 171 0
150 171 0
149 169 0
153 172 0
150 169 0
153 173 0
153 173 0
153 171 0
151 171 0
149 168 0
152 171 0
153 173 0
151 169 0
149 168 0
150 167 0
150 170 0
151 170 0
150 169 0
146 166 0
147 167 0
154 174 0
149 169 0
150 169 0
148 166 0
149 168 0
151 170 0
151 170 0
148 167 0
148 168 0
150 170 0
150 168 0
148 167 0
145 164 0
147 166 0
150 168 0
149 167 0
150 169 0
149 168 0
150 168 0
146 163 0
151 169 0
148 166 0
149 168 0
145 163 0
146 162 0
146 163 0
148 166 0
147 163 0
144 162 0
146 161 0
143 159 0
142 159 0
139 155 0
143 158 0
148 166 0
141 158 0
144 161 0
142 158 0
140 156 0
141 156 0
141 157 0
141 157 0
143 159 0
141 155 0
140 156 0
139 152 0
139 154 0
138 152 0
140 152 0
136 150 0
139 153 0
134 146 0
132 144 0
135 148 0
129 141 0
130 141 0
138 151 0
128 138 0
135 148 0
127 138 0
130 140 0
122 129 0
126 138 0
125 135 0
124 134 0
128 139 0
120 130 0
119 125 0
108 116 0
118 126 0
125 134 0
116 122 0
111 118 0
102 109 0
113 121 0
113 118 0
108 116 0
99 107 0
112 122 0
99 108 0
111 121 0
106 117 0
102 114 0
112 124 0
116 131 0
121 137 0
111 127 0
120 136 0
120 135 0
114 131 0
153 174 0
168 192 0
166 189 0
161 184 0
164 188 0
160 181 0
84 82 19
101 95 30
103 98 32
112 106 41
111 107 31
115 110 35
123 117 31
123 118 45
122 116 39
129 123 41
120 114 39
115 111 40
126 121 38
139 134 48
123 117 40
128 120 42
138 131 47
141 134 49
144 139 50
139 133 49
134 128 35
140 134 48
139 134 46
145 138 48
138 133 40
147 141 51
144 137 46
139 132 39
136 133 36
145 139 45
147 139 53
148 143 51
149 143 49
147 142 42
144 138 35
146 139 45
144 139 44
150 144 39
149 144 47
149 143 46
147 141 42
150 144 54
149 142 42
146 140 51
146 141 44
148 141 45
155 149 47
150 144 52
149 143 47
150 145 44
153 146 52
145 140 36
153 146 47
146 140 41
149 144 42
154 147 54
152 145 48
152 145 48
154 148 44
150 144 44
151 145 39
158 152 51
149 144 37
152 146 42
153 146 47
150 144 48
148 142 39
152 146 41
154 148 48
144 139 41
146 140 41
153 147 51
154 147 53
149 142 37
156 149 48
150 143 42
152 145 51
148 142 51
146 140 49
149 143 47
148 142 49
148 142 41
143 138 41
144 139 44
144 138 42
152 146 49
140 133 47
145 139 44
143 136 47
144 138 49
143 138 42
151 144 47
148 142 45
144 138 52
141 136 48
144 137 49
141 135 45
142 136 45
142 136 47
131 126 36
145 139 52
135 130 42
144 138 54
139 132 42
126 121 42
132 127 36
131 126 48
139 133 53
134 128 53
139 131 44
124 120 45
127 121 47
126 120 45
126 122 44
164 184 11
171 195 0
171 194 0
167 191 0
168 191 0
170 194 0
171 194 0
175 198 0
169 192 0
169 193 0
173 196 0
170 194 0
169 192 0
169 193 0
171 195 0
171 194 0
168 192 0
168 192 0
170 193 0
170 194 0
169 192 0
172 194 0
172 195 0
173 196 0
172 195 0
167 191 0
174 197 0
172 196 0
173 197 0
170 194 0
172 196 0
172 196 0
172 196 0
173 196 0
170 194 0
174 197 0
171 194 0
172 196 0
173 196 0
171 195 0
172 196 0
171 195 0
173 196 0
175 197 0
172 196 0
174 197 0
174 198 0
172 196 0
174 197 0
173 196 0
172 195 0
174 197 0
171 194 0
172 195 0
173 196 0
175 198 0
174 198 0
175 198 0
173 197 0
174 197 0
172 195 0
174 198 0
173 196 0
173 197 0
172 196 0
173 195 0
171 196 0
177 199 0
173 197 0
175 197 0
175 198 0
173 197 0
172 196 0
176 198 0
173 196 0
174 197 0
174 197 0
174 197 0
173 197 0
174 197 0
174 197 0
173 197 0
176 199 0
174 197 0
172 196 0
173 197 0
175 198 0
173 197 0
171 195 0
174 198 0
174 197 0
174 197 0
176 199 0
173 197 0
175 198 0
174 197 0
175 198 0
174 198 0
174 198 0
174 197 0
172 195 0
175 198 0
174 198 0
174 198 0
174 197 0
173 197 0
175 198 0
175 198 0
173 197 0
174 197 0
173 197 0
174 197 0
175 198 0
172 196 0
174 198 0
173 196 0
172 196 0
173 196 0
175 198 0
174 197 0
174 197 0
174 198 0
175 198 0
176 198 0
175 198 0
174 197 0
174 197 0
175 198 0
173 197 0
175 198 0
174 197 0
173 197 0
174 198 0
175 198 0
172 196 0
173 197 0
174 197 0
175 198 0
174 197 0
174 198 0
174 198 0
173 197 0
174 198 0
154 175 0
153 173 0
154 174 0
152 172 0
155 175 0
154 174 0
155 175 0
152 172 0
151 172 0
153 174 0
153 173 0
152 173 0
150 171 0
152 172 0
153 174 0
156 175 0
152 172 0
150 171 0
152 172 0
152 172 0
152 172 0
154 174 0
152 172 0
153 174 0
153 172 0
150 171 0
150 171 0
154 174 0
151 171 0
148 167 0
153 172 0
150 170 0
152 173 0
151 170 0
150 170 0
152 171 0
151 171 0
152 172 0
151 172 0
150 170 0
150 169 0
147 167 0
150 171 0
148 169 0
148 168 0
152 173 0
152 170 0
150 168 0
148 168 0
151 171 0
146 164 0
145 165 0
148 167 0
151 169 0
147 167 0
150 169 0
149 167 0
149 168 0
148 166 0
147 167 0
146 164 0
149 166 0
146 164 0
149 169 0
146 165 0
149 166 0
143 160 0
149 166 0
145 162 0
148 167 0
147 166 0
145 163 0
142 160 0
144 161 0
145 163 0
145 162 0
144 163 0
143 161 0
145 160 0
141 157 0
144 161 0
140 157 0
136 151 0
145 162 0
140 157 0
138 154 0
135 147 0
138 153 0
143 159 0
139 154 0
139 154 0
139 155 0
142 158 0
139 154 0
132 145 0
137 151 0
135 149 0
137 150 0
136 149 0
134 148 0
130 140 0
133 146 0
133 144 0
128 139 0
129 141 0
122 132 0
125 137 0
133 144 0
120 129 0
126 135 0
126 136 0
122 129 0
122 132 0
119 127 0
115 124 0
125 134 0
117 126 0
116 124 0
109 116 0
126 135 0
118 127 0
116 123 0
107 115 0
111 119 0
112 121 0
104 114 0
108 120 0
109 118 0
102 113 0
108 122 0
109 123 0
112 125 0
117 131 0
124 140 0
118 133 0
111 127 0
148 167 0
163 186 0
167 189 0
165 188 0
166 188 0
166 188 0
161 184 0
136 150 14
98 92 16
107 102 15
109 104 24
118 112 35
109 103 22
120 114 36
112 108 30
122 116 30
123 118 35
129 123 41
116 111 27
130 124 32
120 115 43
126 122 33
132 126 37
123 118 41
139 133 40
136 129 38
133 126 38
133 127 38
138 130 50
140 134 44
140 134 37
137 131 46
142 136 52
143 137 49
137 132 39
151 143 51
138 130 41
136 130 44
139 134 35
146 140 46
148 142 39
145 137 52
143 138 37
154 148 47
152 144 49
149 143 44
147 140 40
149 144 49
149 144 44
145 138 39
148 142 44
150 144 48
153 147 41
148 143 41
149 143 37
145 141 34
143 138 42
154 148 52
149 144 39
149 142 44
147 142 37
146 141 42
150 144 39
152 145 52
154 146 51
150 143 49
149 144 41
151 145 51
149 143 45
150 143 42
150 144 42
152 146 49
151 145 47
153 145 49
152 146 47
150 145 41
154 147 47
153 146 52
153 147 49
149 143 42
151 144 45
150 143 48
145 139 47
146 141 37
154 147 49
149 142 53
146 140 47
149 143 37
151 144 49
148 140 51
146 141 47
146 139 47
146 140 48
141 134 52
147 140 45
140 135 47
147 140 48
141 135 44
145 139 52
149 143 47
146 141 39
150 144 49
147 140 47
142 136 45
144 138 45
137 130 42
146 140 52
142 135 58
143 137 49
139 133 49
135 128 51
134 129 41
141 136 48
128 122 42
137 131 49
126 121 44
127 122 51
128 122 44
130 125 42
122 116 39
142 153 30
168 192 0
164 187 0
170 193 0
171 194 0
172 195 0
171 194 0
172 196 0
169 192 0
170 193 0
168 192 0
166 190 0
167 190 0
171 195 0
168 192 0
171 194 0
171 194 0
168 191 0
172 196 0
172 196 0
173 196 0
174 197 0
172 196 0
171 195 0
171 195 0
172 195 0
170 194 0
171 194 0
168 192 0
172 196 0
174 197 0
170 194 0
173 195 0
172 195 0
172 195 0
171 195 0
172 195 0
171 194 0
172 195 0
173 197 0
174 197 0
172 195 0
173 196 0
172 196 0
174 196 0
172 196 0
174 197 0
175 198 0
172 196 0
172 196 0
172 196 0
171 194 0
174 197 0
174 197 0
171 195 0
173 197 0
173 196 0
175 198 0
172 196 0
174 197 0
171 195 0
171 195 0
174 198 0
173 197 0
173 197 0
174 197 0
171 196 0
174 197 0
173 196 0
175 198 0
173 197 0
175 197 0
173 197 0
175 198 0
172 196 0
174 197 0
174 197 0
174 197 0
175 198 0
175 198 0
171 195 0
171 195 0
174 198 0
172 195 0
175 198 0
175 198 0
173 196 0
172 195 0
173 197 0
171 194 0
175 198 0
173 197 0
174 198 0
175 198 0
173 197 0
176 199 0
173 197 0
173 197 0
175 198 0
173 196 0
175 198 0
174 197 0
173 197 0
174 197 0
176 199 0
173 196 0
173 197 0
175 198 0
175 198 0
173 196 0
175 198 0
173 197 0
174 197 0
174 197 0
173 197 0
176 198 0
174 197 0
172 196 0
175 198 0
174 198 0
173 197 0
176 199 0
174 197 0
174 197 0
173 197 0
176 198 0
173 197 0
175 198 0
174 198 0
173 197 0
174 198 0
174 198 0
175 198 0
175 198 0
173 197 0
173 197 0
173 197 0
176 199 0
172 196 0
173 196 0
174 198 0
174 197 0
175 198 0
174 198 0
151 171 0
155 175 0
154 173 0
151 171 0
154 173 0
154 174 0
150 170 0
153 172 0
154 175 0
153 173 0
154 175 0
151 171 0
152 173 0
152 173 0
152 172 0
154 174 0
152 172 0
152 172 0
154 175 0
152 172 0
152 172 0
153 172 0
152 172 0
152 172 0
151 171 0
150 169 0
154 174 0
151 170 0
149 170 0
152 173 0
152 172 0
149 169 0
149 168 0
152 171 0
149 169 0
152 171 0
151 171 0
148 169 0
148 168 0
151 170 0
153 172 0
149 168 0
150 170 0
151 169 0
148 167 0
150 170 0
149 168 0
150 170 0
148 168 0
150 169 0
146 164 0
146 165 0
149 168 0
149 169 0
149 166 0
146 165 0
148 165 0
148 165 0
146 165 0
147 165 0
149 166 0
147 165 0
149 168 0
147 166 0
147 165 0
148 167 0
144 162 0
146 164 0
145 162 0
144 163 0
142 159 0
144 160 0
146 165 0
145 164 0
145 162 0
139 155 0
144 160 0
140 159 0
144 161 0
142 158 0
142 158 0
145 161 0
142 157 0
143 158 0
137 151 0
141 156 0
140 155 0
143 159 0
142 160 0
141 157 0
140 155 0
135 150 0
139 154 0
136 153 0
137 149 0
138 150 0
133 147 0
134 145 0
137 150 0
132 146 0
133 148 0
132 144 0
126 137 0
126 139 0
127 137 0
129 139 0
119 128 0
126 137 0
124 134 0
127 136 0
131 143 0
119 125 0
124 134 0
118 127 0
114 122 0
126 136 0
110 117 0
120 130 0
114 122 0
116 123 0
106 115 0
108 115 0
109 117 0
115 127 0
108 119 0
104 114 0
114 127 0
102 113 0
106 118 0
103 114 0
113 127 0
112 125 0
113 128 0
112 128 0
112 127 0
140 160 0
163 186 0
161 184 0
164 185 0
162 185 0
165 187 0
161 183 0
159 182 0
157 180 0
104 106 4
86 81 19
96 91 26
116 110 31
106 101 29
109 104 35
124 119 33
116 109 33
118 113 24
121 115 39
126 120 38
126 119 48
126 121 41
119 112 32
129 124 37
135 129 40
131 125 40
129 123 40
132 127 38
135 129 38
130 123 45
140 134 49
134 128 37
139 132 40
135 129 38
140 134 48
150 144 51
145 138 45
140 134 40
141 135 40
145 138 54
141 136 40
150 144 42
147 141 45
136 132 29
148 142 44
146 140 50
143 137 44
149 142 48
145 138 47
146 141 48
148 141 46
149 142 48
146 140 41
149 143 45
149 142 41
143 139 36
151 144 49
148 141 44
156 149 54
145 139 39
146 140 39
147 140 45
151 146 49
146 139 44
147 141 42
151 145 42
147 142 30
150 144 47
149 143 37
152 147 41
150 143 51
151 144 51
146 140 41
146 141 41
150 144 49
146 141 37
152 145 45
154 148 45
147 142 44
152 145 49
148 142 44
152 146 44
151 145 45
144 137 39
148 143 48
150 143 42
147 140 48
146 141 36
143 137 41
145 139 49
152 146 45
147 141 44
145 139 41
150 144 45
144 138 47
152 145 57
149 141 54
138 132 37
142 135 47
142 137 47
146 138 53
149 142 52
138 132 42
134 127 37
138 132 39
137 132 42
145 139 48
140 135 44
131 125 41
139 133 42
128 122 34
136 129 41
142 135 60
132 125 36
137 131 41
116 111 37
123 118 44
115 110 36
129 122 52
118 114 39
123 122 37
164 187 0
166 189 0
166 190 0
171 194 0
166 191 0
165 188 0
167 191 0
166 190 0
171 194 0
167 190 0
165 188 0
170 195 0
171 193 0
172 194 0
170 194 0
173 196 0
170 194 0
169 192 0
171 195 0
168 192 0
172 195 0
172 194 0
170 194 0
170 193 0
171 194 0
169 192 0
167 191 0
170 194 0
172 195 0
172 195 0
170 193 0
172 195 0
172 196 0
171 194 0
169 193 0
169 193 0
172 196 0
174 198 0
173 197 0
174 197 0
171 194 0
170 194 0
173 195 0
172 196 0
172 196 0
170 193 0
173 195 0
173 197 0
172 196 0
172 196 0
170 194 0
174 197 0
173 197 0
173 196 0
172 196 0
173 197 0
173 196 0
172 195 0
170 194 0
172 195 0
172 195 0
172 196 0
172 196 0
173 196 0
172 197 0
172 195 0
172 196 0
173 197 0
172 196 0
173 197 0
174 197 0
174 197 0
174 196 0
175 198 0
173 197 0
173 196 0
175 198 0
174 198 0
173 196 0
174 197 0
175 198 0
174 197 0
175 198 0
173 197 0
172 196 0
174 197 0
174 197 0
171 195 0
174 197 0
172 196 0
175 198 0
174 198 0
173 196 0
176 199 0
174 197 0
173 196 0
173 197 0
175 198 0
174 197 0
173 197 0
175 198 0
174 197 0
174 197 0
174 197 0
173 197 0
173 197 0
174 198 0
174 197 0
173 197 0
172 196 0
174 197 0
174 198 0
174 198 0
173 197 0
173 197 0
173 197 0
174 198 0
174 197 0
174 197 0
174 197 0
172 196 0
175 198 0
175 198 0
173 196 0
172 196 0
175 198 0
174 198 0
173 197 0
173 197 0
174 198 0
172 196 0
175 198 0
174 198 0
175 198 0
174 198 0
172 196 0
175 198 0
175 198 0
175 198 0
176 198 0
173 197 0
174 197 0
174 197 0
174 198 0
154 174 0
150 170 0
154 174 0
152 173 0
151 172 0
151 172 0
151 173 0
152 173 0
154 174 0
152 173 0
152 173 0
152 171 0
153 173 0
153 173 0
153 173 0
149 169 0
152 173 0
153 174 0
152 172 0
152 172 0
150 170 0
153 173 0
151 172 0
150 171 0
152 172 0
153 172 0
152 172 0
153 172 0
150 169 0
149 170 0
152 171 0
149 168 0
149 169 0
151 170 0
151 170 0
151 171 0
148 167 0
151 170 0
151 172 0
147 167 0
151 170 0
150 168 0
152 171 0
150 169 0
149 168 0
151 172 0
148 167 0
149 169 0
147 167 0
152 170 0
148 168 0
148 167 0
150 168 0
149 167 0
145 163 0
146 164 0
146 165 0
149 168 0
148 166 0
150 170 0
145 162 0
153 172 0
146 164 0
147 165 0
149 169 0
143 160 0
144 161 0
146 164 0
144 161 0
146 163 0
144 161 0
147 163 0
144 162 0
144 159 0
145 162 0
145 163 0
146 162 0
144 161 0
143 159 0
145 162 0
138 154 0
140 158 0
139 153 0
138 152 0
143 160 0
137 151 0
137 152 0
138 154 0
140 154 0
137 153 0
140 154 0
138 154 0
139 153 0
136 147 0
144 161 0
134 147 0
131 143 0
129 143 0
135 148 0
130 141 0
136 149 0
132 145 0
133 145 0
125 135 0
127 138 0
128 138 0
132 143 0
126 137 0
123 133 0
124 134 0
133 146 0
126 135 0
124 132 0
120 129 0
117 125 0
117 122 0
109 117 0
113 121 0
122 130 0
121 129 0
118 128 0
112 123 0
105 115 0
115 126 0
104 115 0
111 122 0
112 123 0
115 126 0
99 112 0
115 130 0
108 123 0
114 127 0
111 124 0
107 120 0
132 150 0
162 184 0
167 189 0
163 185 0
158 180 0
156 178 0
155 177 0
160 183 0
162 185 0
155 176 0
132 149 0
89 86 20
97 92 24
106 100 33
106 101 26
111 106 30
108 102 29
124 119 37
124 117 37
126 121 37
120 114 36
122 117 31
126 121 44
119 114 25
122 117 30
128 122 40
137 129 40
125 120 40
129 124 42
133 127 35
137 131 42
133 127 42
137 130 41
136 130 38
138 133 42
131 126 35
135 129 28
139 132 36
145 139 44
141 135 39
142 136 45
145 140 46
146 140 44
145 139 42
144 137 44
144 137 42
145 137 46
139 134 32
140 133 39
148 141 45
140 135 39
140 136 36
144 138 41
149 144 44
146 141 41
145 139 44
144 138 37
148 143 41
147 140 36
147 141 45
142 136 41
144 138 36
150 144 45
146 140 39
145 137 45
151 145 32
148 143 47
151 146 41
144 139 34
148 141 44
151 146 42
145 140 36
152 147 41
147 142 30
147 140 39
145 138 39
147 141 32
146 139 42
148 141 48
149 142 53
147 139 42
146 140 42
147 140 44
145 139 45
149 143 47
148 142 42
145 139 42
148 143 36
151 145 47
148 142 42
141 135 34
142 137 36
154 148 47
145 138 47
142 137 36
143 136 41
134 128 48
145 140 49
141 135 42
143 135 44
142 137 47
144 137 47
139 133 36
136 130 42
144 137 45
137 132 39
138 132 39
139 133 49
132 126 36
134 129 41
134 129 34
132 127 42
136 132 45
118 113 32
134 128 39
126 119 42
136 130 49
128 123 47
110 104 32
116 111 41
110 106 37
150 168 16
169 192 0
162 185 0
168 191 0
170 193 0
163 186 0
166 190 0
167 191 0
165 189 0
169 192 0
168 191 0
169 193 0
169 192 0
172 195 0
171 194 0
167 190 0
169 192 0
168 192 0
167 190 0
171 195 0
169 192 0
168 191 0
171 194 0
169 193 0
170 194 0
171 195 0
171 194 0
170 193 0
171 194 0
168 190 0
169 192 0
171 194 0
168 192 0
172 196 0
174 197 0
170 193 0
171 194 0
172 196 0
169 193 0
172 196 0
172 195 0
172 195 0
175 198 0
175 197 0
171 195 0
170 193 0
171 194 0
174 197 0
171 194 0
174 197 0
171 194 0
174 196 0
172 195 0
172 196 0
174 198 0
172 196 0
174 196 0
175 198 0
169 192 0
174 197 0
174 196 0
173 197 0
171 195 0
176 198 0
173 197 0
173 197 0
176 198 0
174 196 0
173 197 0
173 197 0
173 197 0
173 197 0
174 198 0
173 197 0
173 197 0
174 198 0
174 198 0
172 196 0
175 198 0
173 197 0
173 197 0
174 197 0
174 198 0
174 197 0
175 198 0
175 198 0
173 196 0
173 197 0
174 197 0
174 198 0
174 197 0
172 196 0
174 197 0
176 198 0
174 197 0
172 195 0
175 198 0
172 196 0
173 197 0
172 195 0
173 196 0
175 198 0
172 196 0
175 198 0
173 197 0
174 198 0
175 198 0
174 197 0
173 196 0
175 198 0
173 196 0
175 198 0
173 197 0
174 197 0
173 197 0
174 198 0
175 198 0
174 198 0
174 198 0
174 198 0
174 198 0
176 198 0
175 198 0
173 197 0
175 198 0
174 197 0
172 196 0
174 198 0
174 198 0
175 198 0
173 197 0
173 197 0
173 196 0
174 197 0
175 198 0
173 197 0
174 197 0
170 195 0
175 198 0
174 197 0
175 198 0
174 197 0
174 198 0
172 196 0
175 198 0
154 175 0
153 173 0
153 174 0
153 174 0
152 173 0
152 173 0
153 173 0
150 171 0
152 173 0
151 171 0
153 173 0
150 169 0
151 172 0
151 171 0
151 172 0
154 174 0
153 172 0
152 173 0
153 173 0
151 172 0
151 170 0
150 170 0
147 166 0
149 169 0
152 172 0
152 172 0
151 171 0
150 171 0
150 170 0
153 172 0
149 167 0
151 170 0
151 171 0
149 168 0
146 165 0
149 169 0
148 167 0
149 169 0
150 168 0
145 164 0
150 169 0
150 169 0
149 168 0
147 167 0
147 166 0
150 169 0
145 165 0
150 169 0
152 170 0
149 168 0
148 166 0
145 163 0
147 165 0
147 164 0
149 168 0
148 167 0
146 165 0
150 169 0
143 161 0
150 170 0
147 163 0
146 164 0
144 162 0
147 166 0
146 164 0
145 162 0
141 158 0
147 164 0
144 161 0
149 166 0
142 160 0
141 157 0
139 156 0
144 162 0
144 161 0
139 157 0
145 163 0
143 159 0
137 151 0
144 159 0
146 164 0
138 154 0
142 157 0
137 153 0
139 154 0
141 156 0
134 148 0
139 155 0
135 150 0
141 158 0
137 153 0
141 154 0
138 154 0
137 153 0
140 154 0
129 142 0
136 148 0
134 147 0
129 141 0
138 152 0
128 140 0
130 142 0
133 144 0
127 138 0
127 138 0
128 140 0
125 134 0
124 135 0
125 135 0
127 137 0
125 137 0
121 131 0
119 127 0
122 133 0
118 126 0
122 131 0
115 124 0
117 127 0
115 123 0
118 127 0
112 121 0
114 121 0
109 118 0
109 121 0
108 119 0
112 123 0
109 123 0
114 126 0
107 119 0
108 121 0
117 132 0
106 121 0
103 118 0
123 141 0
165 188 0
160 181 0
164 186 0
157 178 0
149 171 0
159 180 0
152 174 0
157 179 0
159 181 0
157 180 0
157 178 0
122 128 18
105 99 22
98 95 26
109 104 35
108 102 32
110 105 35
115 111 26
115 110 35
120 113 29
111 106 21
125 119 38
125 121 28
124 118 47
132 126 44
130 123 44
127 121 43
130 124 37
131 126 42
135 128 46
141 133 44
122 116 31
138 132 39
133 128 35
136 129 38
133 127 38
139 133 40
146 140 41
137 130 37
141 134 49
134 129 34
140 134 37
140 133 35
139 133 34
149 141 44
146 139 42
147 140 47
145 138 42
144 137 42
143 136 37
144 138 41
150 142 39
146 139 42
143 137 39
147 142 39
148 143 44
146 140 44
148 141 42
144 138 41
149 142 41
139 134 28
150 143 41
150 144 41
141 135 36
145 139 37
145 140 44
152 145 47
147 140 45
145 138 41
138 132 22
141 135 32
146 141 28
147 141 45
146 139 39
149 144 36
149 144 39
142 136 44
144 138 36
138 133 34
145 139 34
146 138 42
150 145 34
146 141 42
144 138 47
142 136 30
140 135 30
138 134 28
149 144 39
146 140 42
142 136 34
144 137 39
144 137 45
144 139 41
145 139 52
138 132 41
143 137 41
146 140 49
145 138 44
143 137 42
147 143 36
137 130 42
140 134 41
140 135 37
136 129 49
141 134 47
141 135 42
131 125 39
131 124 45
139 133 44
120 114 34
131 126 39
131 124 42
129 123 37
130 125 45
131 126 41
124 119 48
123 118 41
125 119 41
120 115 37
121 115 45
132 139 30
168 191 0
167 191 0
167 190 0
166 189 0
168 191 0
166 190 0
167 190 0
170 193 0
167 190 0
164 187 0
173 197 0
167 190 0
168 191 0
164 187 0
171 194 0
166 190 0
168 191 0
169 193 0
168 192 0
166 189 0
171 196 0
168 191 0
170 194 0
170 193 0
168 191 0
166 189 0
172 195 0
168 192 0
172 195 0
169 192 0
170 193 0
166 190 0
171 194 0
170 193 0
172 196 0
171 195 0
172 196 0
172 195 0
169 194 0
166 190 0
172 196 0
170 193 0
174 196 0
172 195 0
173 196 0
171 194 0
175 198 0
173 196 0
174 197 0
174 197 0
174 197 0
172 196 0
172 195 0
173 197 0
173 197 0
174 197 0
173 197 0
173 197 0
175 198 0
173 197 0
173 196 0
172 196 0
174 197 0
173 197 0
172 195 0
173 196 0
173 197 0
173 197 0
171 195 0
175 198 0
174 198 0
171 194 0
173 196 0
173 197 0
171 195 0
172 195 0
174 197 0
174 197 0
173 196 0
176 199 0
173 196 0
172 196 0
174 197 0
175 198 0
173 196 0
174 197 0
173 196 0
170 195 0
174 197 0
174 197 0
172 195 0
173 197 0
173 196 0
174 198 0
174 197 0
173 196 0
174 198 0
173 197 0
174 197 0
173 197 0
174 196 0
173 197 0
173 196 0
173 197 0
175 198 0
174 198 0
174 198 0
172 196 0
174 197 0
174 197 0
174 198 0
174 198 0
173 196 0
173 197 0
173 197 0
174 198 0
173 197 0
174 197 0
173 197 0
174 198 0
174 198 0
174 198 0
175 197 0
174 198 0
173 197 0
174 197 0
174 197 0
174 197 0
175 198 0
172 197 0
174 197 0
176 198 0
174 198 0
173 196 0
173 196 0
175 198 0
176 198 0
174 197 0
173 197 0
174 197 0
174 197 0
173 197 0
174 198 0
173 197 0
175 198 0
153 173 0
154 174 0
153 173 0
153 173 0
151 171 0
152 170 0
152 172 0
152 172 0
152 172 0
151 170 0
152 171 0
151 171 0
152 172 0
149 169 0
153 173 0
151 171 0
155 175 0
151 171 0
150 169 0
153 173 0
152 172 0
154 174 0
152 172 0
150 169 0
150 171 0
152 172 0
152 171 0
150 169 0
150 170 0
151 170 0
150 170 0
148 168 0
151 170 0
152 172 0
153 173 0
154 173 0
150 169 0
150 171 0
149 168 0
148 168 0
149 169 0
148 167 0
146 165 0
150 169 0
150 169 0
151 171 0
148 168 0
148 167 0
147 166 0
144 162 0
149 168 0
149 166 0
148 167 0
146 166 0
145 164 0
147 165 0
143 162 0
147 165 0
150 169 0
147 166 0
146 165 0
145 164 0
148 166 0
148 165 0
145 163 0
147 165 0
144 160 0
144 162 0
147 166 0
141 157 0
144 161 0
141 158 0
146 163 0
140 157 0
142 158 0
146 164 0
143 161 0
142 160 0
139 155 0
140 154 0
145 161 0
135 150 0
137 153 0
143 156 0
143 158 0
141 158 0
137 153 0
139 153 0
140 156 0
139 154 0
135 148 0
140 153 0
136 149 0
136 150 0
133 145 0
122 133 0
132 146 0
137 152 0
129 143 0
137 150 0
126 138 0
130 141 0
127 139 0
129 140 0
130 141 0
132 144 0
123 134 0
121 131 0
124 133 0
122 131 0
120 130 0
122 133 0
117 125 0
125 135 0
117 125 0
108 118 0
119 129 0
112 120 0
107 115 0
118 129 0
110 120 0
108 117 0
108 118 0
115 124 0
103 112 0
109 120 0
105 116 0
101 113 0
120 133 0
112 126 0
115 128 0
106 119 0
131 148 0
153 173 0
157 178 0
158 179 0
161 182 0
158 179 0
154 175 0
156 178 0
157 178 0
148 169 0
151 171 0
149 169 0
153 175 0
142 162 0
92 91 17
101 96 31
105 101 18
112 107 31
109 104 25
117 112 29
114 108 35
116 110 36
116 112 22
110 105 31
122 116 31
122 116 29
128 122 45
135 128 40
132 127 38
127 121 44
128 122 32
142 137 44
131 125 34
136 129 46
131 126 41
139 132 51
138 131 44
144 137 44
145 139 48
142 135 42
135 130 35
144 138 44
135 130 39
144 137 42
137 130 44
138 131 30
143 137 39
141 134 39
145 139 36
142 134 37
143 137 41
142 138 39
146 139 42
143 137 41
147 141 49
145 139 35
145 137 34
138 133 25
146 141 30
141 134 39
144 138 30
147 141 36
150 146 39
149 142 41
148 142 36
148 142 39
146 140 36
151 145 48
151 145 42
144 137 34
146 141 32
148 142 37
148 141 34
141 134 34
144 139 32
153 146 47
147 141 34
144 138 37
147 142 34
145 138 42
143 137 36
153 146 37
145 140 30
151 144 39
143 137 45
141 135 41
147 141 39
140 135 36
143 136 37
149 143 45
148 142 42
150 143 44
142 137 37
142 136 37
142 136 44
147 142 37
144 137 44
140 134 41
147 141 51
145 138 49
141 134 39
138 133 42
141 135 42
139 132 41
139 132 44
138 133 45
142 136 42
134 129 37
135 130 30
136 130 37
139 133 52
133 126 44
130 125 45
131 125 41
125 120 41
123 117 34
133 127 45
136 129 52
119 115 34
121 116 37
118 112 41
112 112 37
163 183 16
169 191 0
161 184 0
166 189 0
162 184 0
164 187 0
161 184 0
168 192 0
161 184 0
167 189 0
165 189 0
165 188 0
163 187 0
165 189 0
168 191 0
167 190 0
165 189 0
168 191 0
168 192 0
169 193 0
173 195 0
171 194 0
166 190 0
169 192 0
171 195 0
169 193 0
170 194 0
171 194 0
171 195 0
169 193 0
168 192 0
171 194 0
167 191 0
172 194 0
173 197 0
171 194 0
170 192 0
169 193 0
171 194 0
173 196 0
169 192 0
169 193 0
173 196 0
173 196 0
170 194 0
173 196 0
170 193 0
171 195 0
172 195 0
173 196 0
170 194 0
170 194 0
173 196 0
172 195 0
171 194 0
174 197 0
172 195 0
173 195 0
174 198 0
175 198 0
174 197 0
169 192 0
174 197 0
172 196 0
173 196 0
173 196 0
174 198 0
172 196 0
172 195 0
172 195 0
172 195 0
175 198 0
174 197 0
173 197 0
172 196 0
171 195 0
172 195 0
174 197 0
172 195 0
173 197 0
171 195 0
175 198 0
173 196 0
174 197 0
174 197 0
171 195 0
172 196 0
174 198 0
174 197 0
173 197 0
173 196 0
175 198 0
173 196 0
174 197 0
175 198 0
174 197 0
173 197 0
173 196 0
174 197 0
173 196 0
174 197 0
175 198 0
173 196 0
174 198 0
175 198 0
173 196 0
174 197 0
173 197 0
175 198 0
173 197 0
176 199 0
174 197 0
174 198 0
173 196 0
173 197 0
174 197 0
173 197 0
175 198 0
173 197 0
173 197 0
173 197 0
173 197 0
172 196 0
173 197 0
173 197 0
172 196 0
174 197 0
173 197 0
175 198 0
174 198 0
175 198 0
173 197 0
170 195 0
174 198 0
177 199 0
174 197 0
174 198 0
175 198 0
174 197 0
174 197 0
174 197 0
175 198 0
175 198 0
176 199 0
171 196 0
175 198 0
155 175 0
152 172 0
153 174 0
152 172 0
152 172 0
152 172 0
151 172 0
153 173 0
152 172 0
152 171 0
155 174 0
152 173 0
150 171 0
153 172 0
148 169 0
153 173 0
150 171 0
151 171 0
150 170 0
153 172 0
151 171 0
150 169 0
151 171 0
147 166 0
151 171 0
153 173 0
151 171 0
149 169 0
151 171 0
151 172 0
151 171 0
150 170 0
146 165 0
150 168 0
152 172 0
149 168 0
148 167 0
151 170 0
149 167 0
148 167 0
150 168 0
148 167 0
148 168 0
146 165 0
148 167 0
148 167 0
148 166 0
147 164 0
152 171 0
147 166 0
151 170 0
147 166 0
146 165 0
146 164 0
147 165 0
148 167 0
145 164 0
148 166 0
149 166 0
145 161 0
143 161 0
147 165 0
143 161 0
145 162 0
144 161 0
143 160 0
146 163 0
142 159 0
145 162 0
142 159 0
144 162 0
144 159 0
141 159 0
142 157 0
139 154 0
138 153 0
141 157 0
141 157 0
136 150 0
140 157 0
142 158 0
140 156 0
137 154 0
136 151 0
142 157 0
134 148 0
139 153 0
141 155 0
135 150 0
137 151 0
139 155 0
136 151 0
133 146 0
134 147 0
138 151 0
135 149 0
135 147 0
133 146 0
127 140 0
131 142 0
133 145 0
122 132 0
129 141 0
123 133 0
125 136 0
133 144 0
131 142 0
127 138 0
126 137 0
127 138 0
126 138 0
122 132 0
118 127 0
118 129 0
117 124 0
119 128 0
117 127 0
113 121 0
111 120 0
118 126 0
115 126 0
111 121 0
104 115 0
103 112 0
111 122 0
111 124 0
106 118 0
110 122 0
109 122 0
112 125 0
105 118 0
135 153 0
159 180 0
160 182 0
156 176 0
157 178 0
156 176 0
154 175 0
149 169 0
151 172 0
149 170 0
152 172 0
157 178 0
145 165 0
151 172 0
148 169 0
133 147 14
100 94 28
98 93 21
108 102 26
103 98 26
111 105 31
117 110 22
116 110 31
116 111 28
117 112 27
125 120 35
124 119 35
119 114 30
125 118 29
137 132 40
128 123 33
135 129 35
120 115 27
129 123 41
135 129 28
138 134 34
132 126 44
130 124 41
132 125 18
136 130 39
135 129 41
141 135 37
137 130 32
138 134 37
137 132 37
141 135 37
144 137 33
144 136 42
139 133 35
140 134 34
136 130 33
146 140 44
140 135 33
144 139 36
142 136 34
148 140 39
142 136 34
147 140 36
148 142 39
151 144 37
148 143 37
146 139 42
149 143 44
149 142 39
136 130 30
142 136 37
142 136 28
146 140 36
142 136 32
146 139 42
145 138 28
145 138 41
143 138 32
147 142 39
152 146 41
149 142 41
144 139 32
138 133 30
146 140 32
149 143 42
142 137 34
144 137 44
146 139 37
139 132 36
145 139 44
142 135 39
143 136 34
146 140 39
138 132 37
140 136 32
137 132 37
142 137 42
148 143 42
145 138 45
145 137 39
136 131 30
149 142 52
141 135 34
137 131 37
141 135 36
145 139 42
136 131 41
139 132 44
140 135 39
131 125 42
139 132 44
131 123 34
141 134 51
123 117 41
134 128 41
130 124 37
140 134 39
135 127 44
132 126 39
131 125 39
132 125 47
133 127 42
123 117 41
122 118 37
128 122 47
119 114 30
114 108 32
155 170 25
161 183 0
165 189 0
162 184 0
160 183 0
165 188 0
166 189 0
165 188 0
165 188 0
164 186 0
167 190 0
164 186 0
162 187 0
162 185 0
169 191 0
163 186 0
169 193 0
166 189 0
164 186 0
165 189 0
168 191 0
166 190 0
167 190 0
167 191 0
167 191 0
171 194 0
168 192 0
171 194 0
173 196 0
171 194 0
170 193 0
167 191 0
172 195 0
169 192 0
173 197 0
171 195 0
171 194 0
169 192 0
172 195 0
173 196 0
172 195 0
171 194 0
170 194 0
169 193 0
169 193 0
167 191 0
172 195 0
173 195 0
171 194 0
174 197 0
174 196 0
170 194 0
174 197 0
176 199 0
172 196 0
172 195 0
173 197 0
172 196 0
171 195 0
175 198 0
172 196 0
172 196 0
171 195 0
173 197 0
172 195 0
173 197 0
173 196 0
171 194 0
175 198 0
173 196 0
175 198 0
174 197 0
174 197 0
173 196 0
175 198 0
174 197 0
174 197 0
172 196 0
173 197 0
173 197 0
171 195 0
173 197 0
173 196 0
172 195 0
173 195 0
174 197 0
174 197 0
175 198 0
172 196 0
173 196 0
169 193 0
175 198 0
173 197 0
173 197 0
174 197 0
174 197 0
173 196 0
171 195 0
173 197 0
174 198 0
174 197 0
175 198 0
171 196 0
174 197 0
174 198 0
175 198 0
173 196 0
174 198 0
172 196 0
173 196 0
173 197 0
172 196 0
173 197 0
176 198 0
174 198 0
175 198 0
170 194 0
173 196 0
174 197 0
173 197 0
173 197 0
174 197 0
174 198 0
175 198 0
174 197 0
173 197 0
174 197 0
173 197 0
174 198 0
175 197 0
174 197 0
175 198 0
174 197 0
173 196 0
173 197 0
173 196 0
175 198 0
174 197 0
174 198 0
173 197 0
175 198 0
175 197 0
172 196 0
174 197 0
174 197 0
176 199 0
174 198 0
153 173 0
154 174 0
152 172 0
152 171 0
152 172 0
150 170 0
152 172 0
151 172 0
152 173 0
151 171 0
151 171 0
150 171 0
152 172 0
154 173 0
151 171 0
151 172 0
153 172 0
148 168 0
152 172 0
152 172 0
153 172 0
150 169 0
151 170 0
149 169 0
152 172 0
152 173 0
150 169 0
151 170 0
151 170 0
151 170 0
150 168 0
150 170 0
150 170 0
148 168 0
149 169 0
148 167 0
150 168 0
147 166 0
145 165 0
150 169 0
147 166 0
147 165 0
146 164 0
148 168 0
149 168 0
148 166 0
145 164 0
147 166 0
149 168 0
143 161 0
149 166 0
145 162 0
146 164 0
147 166 0
143 161 0
146 163 0
149 166 0
145 162 0
145 162 0
142 159 0
146 164 0
144 161 0
140 158 0
142 159 0
144 162 0
145 163 0
144 161 0
148 165 0
144 160 0
144 162 0
145 163 0
145 161 0
140 155 0
139 154 0
143 158 0
141 158 0
141 157 0
138 155 0
139 155 0
138 154 0
144 160 0
141 156 0
142 157 0
137 152 0
139 154 0
137 151 0
135 148 0
138 154 0
135 150 0
137 151 0
132 146 0
134 148 0
136 151 0
130 143 0
129 141 0
132 146 0
128 140 0
130 142 0
136 148 0
125 138 0
129 141 0
131 143 0
125 137 0
124 135 0
129 139 0
125 134 0
126 137 0
119 129 0
123 133 0
123 133 0
123 135 0
114 122 0
130 141 0
106 115 0
121 131 0
120 131 0
112 121 0
110 119 0
116 127 0
119 128 0
117 126 0
117 129 0
107 117 0
105 116 0
107 118 0
114 124 0
111 124 0
110 123 0
99 111 0
96 109 0
133 150 0
151 171 0
154 175 0
150 170 0
152 172 0
156 176 0
160 180 0
153 174 0
147 167 0
151 172 0
146 166 0
153 174 0
150 170 0
148 169 0
150 171 0
150 170 0
151 171 0
114 122 14
89 84 21
114 109 21
107 102 32
110 103 25
110 104 31
114 109 34
112 108 24
121 114 35
119 111 30
116 110 22
121 114 29
130 124 33
125 119 36
115 110 19
128 122 22
126 122 35
133 128 33
129 123 33
137 129 43
139 133 38
130 124 39
131 124 39
131 125 30
135 128 32
140 133 34
135 129 37
138 132 28
141 136 37
146 139 39
147 140 49
143 136 37
145 140 42
138 132 37
140 133 34
140 135 22
146 139 42
140 133 37
153 146 52
148 141 47
142 135 34
145 140 41
139 133 32
139 135 22
142 136 32
144 138 34
136 130 19
140 135 28
144 138 36
146 140 25
141 136 30
139 134 41
151 145 39
141 134 37
144 139 36
150 144 37
146 139 28
145 139 34
147 140 32
141 136 36
146 139 39
144 139 25
146 139 30
141 135 37
141 135 25
141 135 36
150 145 44
142 137 34
142 137 22
144 136 37
146 140 42
142 135 36
146 139 45
139 134 34
145 138 41
139 131 36
147 141 41
142 134 42
141 135 39
140 133 42
140 133 36
136 129 36
140 133 42
143 136 44
146 140 41
139 134 44
136 130 36
142 137 39
135 130 25
126 122 36
139 132 44
135 129 32
133 127 39
133 128 41
135 128 44
129 123 41
126 122 32
130 124 45
129 121 41
139 131 42
133 127 45
115 110 34
127 121 41
119 114 42
111 106 32
137 144 32
167 190 0
160 183 0
163 186 0
161 183 0
162 184 0
167 190 0
167 190 0
159 182 0
164 187 0
162 186 0
160 183 0
163 186 0
169 192 0
159 181 0
163 187 0
169 192 0
168 191 0
163 185 0
167 190 0
165 189 0
166 189 0
165 189 0
169 192 0
170 193 0
171 195 0
169 193 0
171 194 0
172 195 0
170 193 0
168 192 0
171 195 0
169 190 0
171 194 0
168 192 0
166 190 0
168 192 0
169 192 0
167 191 0
171 194 0
169 192 0
172 196 0
173 196 0
168 192 0
172 195 0
169 192 0
168 191 0
173 195 0
169 192 0
171 195 0
171 194 0
172 196 0
174 198 0
171 194 0
171 195 0
174 196 0
169 192 0
172 195 0
171 193 0
174 197 0
172 195 0
172 196 0
172 196 0
172 195 0
174 196 0
173 197 0
173 196 0
172 196 0
172 197 0
173 197 0
173 196 0
174 196 0
172 195 0
174 197 0
174 197 0
172 196 0
171 195 0
172 196 0
175 198 0
174 197 0
169 193 0
173 196 0
173 196 0
173 196 0
173 196 0
174 196 0
175 198 0
175 198 0
174 197 0
173 196 0
173 197 0
174 197 0
172 195 0
173 196 0
174 197 0
173 197 0
174 198 0
172 196 0
171 195 0
174 196 0
174 197 0
173 196 0
174 197 0
173 197 0
175 198 0
172 196 0
173 196 0
171 196 0
175 198 0
173 197 0
174 197 0
174 198 0
173 196 0
174 198 0
173 196 0
175 198 0
173 196 0
174 198 0
174 198 0
173 197 0
172 196 0
175 198 0
174 197 0
174 197 0
174 197 0
173 197 0
174 197 0
173 197 0
172 196 0
173 197 0
172 197 0
174 197 0
173 197 0
175 198 0
175 198 0
174 198 0
173 197 0
173 197 0
175 198 0
175 198 0
174 197 0
173 197 0
173 196 0
173 196 0
172 196 0
174 198 0
175 198 0
173 197 0
152 172 0
154 174 0
152 172 0
153 174 0
150 169 0
152 172 0
150 169 0
150 170 0
152 171 0
152 172 0
154 174 0
151 170 0
153 172 0
152 172 0
152 173 0
152 171 0
151 171 0
151 170 0
151 171 0
151 171 0
150 169 0
151 171 0
151 171 0
148 168 0
151 170 0
150 169 0
148 168 0
148 167 0
147 167 0
149 169 0
150 170 0
152 172 0
148 167 0
150 169 0
152 172 0
150 169 0
150 168 0
147 165 0
148 167 0
148 168 0
148 168 0
149 168 0
148 167 0
148 166 0
148 167 0
146 165 0
147 166 0
149 167 0
149 167 0
149 167 0
146 164 0
150 169 0
147 166 0
147 164 0
144 163 0
144 160 0
148 166 0
144 162 0
140 155 0
145 163 0
140 158 0
148 165 0
144 160 0
144 162 0
143 160 0
144 161 0
148 164 0
145 162 0
143 159 0
141 158 0
144 161 0
140 155 0
140 156 0
139 156 0
139 154 0
143 159 0
143 158 0
146 163 0
141 158 0
138 153 0
139 153 0
136 150 0
142 158 0
139 153 0
142 157 0
137 153 0
140 155 0
138 153 0
139 154 0
140 155 0
134 147 0
132 144 0
133 145 0
128 141 0
137 150 0
130 143 0
127 139 0
133 146 0
131 144 0
128 141 0
129 142 0
132 144 0
131 142 0
124 135 0
128 139 0
125 137 0
114 125 0
124 136 0
125 135 0
116 126 0
128 141 0
119 129 0
115 123 0
109 117 0
120 130 0
108 117 0
111 120 0
119 128 0
107 115 0
113 123 0
110 120 0
106 117 0
107 118 0
120 133 0
112 124 0
109 121 0
103 116 0
104 118 0
106 119 0
131 148 0
154 174 0
151 170 0
148 168 0
149 169 0
155 176 0
155 176 0
153 173 0
150 169 0
145 165 0
151 170 0
143 162 0
141 159 0
142 162 0
149 169 0
151 171 0
152 172 0
147 166 0
141 159 1
91 90 18
93 87 21
104 100 26
105 99 22
116 110 39
112 107 33
115 109 32
117 111 37
115 110 31
125 120 26
124 117 37
124 118 34
127 121 31
116 110 30
127 120 31
125 119 35
122 116 36
130 123 32
131 126 22
126 119 25
127 122 37
133 127 39
128 121 37
136 131 25
131 126 28
128 123 28
131 126 28
136 130 30
137 131 29
136 131 34
133 126 31
132 126 32
142 135 36
140 133 34
131 125 36
133 127 30
136 129 36
140 135 39
136 130 25
137 131 36
139 131 28
142 137 30
149 143 37
134 128 34
138 133 25
153 147 48
144 137 32
145 137 41
143 137 36
148 142 30
148 142 37
141 134 32
146 140 39
143 136 37
141 136 28
146 140 37
141 135 36
143 137 36
143 135 37
146 139 41
141 137 30
138 133 30
144 138 36
142 136 36
138 132 37
143 137 32
142 138 22
143 137 34
142 134 32
147 140 34
141 133 30
138 132 32
144 138 45
137 131 36
137 132 36
138 133 36
131 125 32
137 131 37
144 139 28
139 132 37
139 133 42
144 137 49
132 127 30
134 128 39
143 137 52
137 131 42
133 127 34
126 121 36
131 126 41
130 124 37
136 130 41
139 133 47
130 124 42
141 133 45
128 122 45
124 118 39
131 124 39
127 121 42
121 115 39
126 120 42
130 123 41
129 123 49
118 113 39
118 116 37
160 181 19
157 180 0
156 178 0
163 185 0
157 181 0
166 189 0
163 186 0
160 182 0
152 176 0
161 184 0
161 184 0
163 185 0
163 185 0
165 187 0
160 183 0
169 193 0
164 186 0
167 190 0
163 185 0
171 193 0
169 192 0
166 190 0
162 186 0
165 187 0
169 192 0
171 195 0
171 193 0
166 188 0
168 192 0
168 191 0
170 193 0
170 194 0
170 193 0
171 194 0
167 189 0
170 193 0
170 193 0
170 193 0
168 191 0
170 193 0
171 194 0
174 197 0
171 194 0
170 194 0
169 193 0
167 190 0
171 194 0
171 194 0
172 195 0
172 196 0
169 192 0
172 195 0
170 194 0
168 190 0
172 195 0
170 194 0
169 193 0
172 195 0
172 195 0
171 194 0
170 194 0
173 196 0
171 194 0
170 194 0
173 196 0
171 195 0
173 196 0
174 197 0
174 197 0
175 197 0
173 196 0
175 198 0
173 196 0
174 198 0
174 197 0
172 196 0
170 193 0
172 195 0
171 194 0
172 196 0
170 194 0
173 197 0
172 195 0
173 196 0
172 196 0
173 196 0
172 194 0
174 197 0
173 197 0
173 196 0
173 196 0
175 198 0
173 197 0
173 197 0
172 195 0
173 197 0
173 197 0
173 196 0
174 197 0
174 198 0
173 197 0
173 196 0
173 196 0
173 196 0
175 198 0
173 197 0
173 196 0
174 196 0
173 197 0
173 197 0
174 197 0
174 197 0
173 197 0
171 195 0
174 197 0
173 197 0
174 197 0
174 198 0
173 196 0
174 197 0
173 196 0
174 197 0
176 199 0
174 197 0
172 196 0
176 199 0
172 195 0
173 197 0
173 196 0
174 197 0
175 198 0
174 197 0
174 198 0
174 198 0
174 197 0
173 197 0
174 197 0
173 197 0
173 196 0
173 196 0
173 197 0
174 198 0
173 196 0
175 198 0
174 197 0
174 197 0
175 197 0
174 198 0
151 171 0
152 173 0
154 174 0
152 172 0
152 172 0
153 172 0
151 170 0
152 172 0
152 172 0
151 171 0
151 171 0
152 171 0
150 170 0
151 171 0
153 173 0
147 167 0
149 170 0
152 171 0
149 169 0
147 167 0
152 171 0
150 170 0
149 168 0
147 166 0
149 169 0
148 167 0
153 173 0
147 166 0
150 169 0
150 168 0
150 168 0
152 172 0
149 169 0
150 169 0
149 167 0
147 167 0
151 170 0
148 168 0
147 166 0
150 169 0
147 166 0
147 166 0
146 164 0
147 166 0
145 163 0
146 164 0
151 169 0
147 165 0
145 164 0
148 166 0
146 165 0
149 167 0
148 166 0
141 159 0
149 167 0
143 160 0
145 162 0
147 165 0
147 165 0
143 161 0
142 160 0
143 162 0
148 167 0
142 160 0
143 160 0
143 160 0
145 162 0
144 161 0
144 160 0
138 155 0
139 154 0
142 159 0
145 162 0
141 156 0
143 159 0
143 159 0
137 151 0
139 156 0
139 154 0
140 154 0
138 153 0
135 148 0
138 153 0
141 155 0
135 148 0
137 151 0
143 158 0
135 148 0
136 150 0
136 150 0
138 152 0
132 145 0
133 147 0
128 139 0
131 143 0
130 143 0
133 146 0
131 145 0
131 143 0
127 139 0
132 142 0
123 132 0
122 134 0
124 134 0
124 133 0
124 137 0
125 136 0
122 132 0
116 124 0
121 132 0
126 137 0
120 130 0
117 127 0
118 128 0
108 118 0
118 128 0
107 116 0
115 126 0
108 118 0
110 121 0
116 125 0
96 105 0
113 123 0
107 116 0
111 123 0
110 121 0
100 112 0
100 113 0
141 158 0
150 170 0
147 167 0
146 164 0
151 169 0
151 169 0
145 166 0
151 170 0
145 164 0
145 164 0
150 170 0
145 164 0
138 156 0
152 172 0
142 161 0
138 157 0
138 157 0
133 152 0
150 170 0
147 166 0
131 147 10
97 93 19
108 104 21
100 97 22
106 101 18
106 101 0
112 105 21
115 109 22
119 113 36
124 118 35
118 113 31
107 103 22
124 117 29
124 117 31
123 118 37
128 122 36
118 113 16
129 123 31
131 126 33
125 118 28
129 123 27
128 123 30
120 115 22
136 129 35
139 133 36
139 132 44
134 126 45
137 131 25
128 124 29
139 134 34
137 133 31
134 128 28
136 130 30
129 124 19
138 130 30
148 141 44
136 131 30
132 124 25
142 136 36
143 138 28
140 133 28
139 133 30
139 132 37
144 136 41
130 123 30
138 133 22
135 128 28
142 134 36
138 133 22
141 137 34
133 126 22
138 131 28
141 136 25
140 134 25
145 137 30
144 137 36
137 131 28
139 133 30
148 141 34
138 134 19
147 140 36
139 133 22
144 138 34
139 132 30
138 131 30
134 129 25
141 134 25
135 130 16
139 132 39
139 132 28
133 128 25
138 133 30
142 136 32
144 138 36
143 137 36
140 133 39
147 139 47
136 129 37
133 127 22
144 137 42
142 135 34
141 135 37
144 138 41
136 130 25
135 129 37
135 129 37
131 126 30
136 130 39
131 125 36
136 131 36
131 124 25
131 125 36
126 120 30
131 124 44
125 120 34
125 121 41
130 125 37
123 116 41
119 113 37
122 116 36
116 110 37
116 110 39
123 120 22
148 167 11
155 177 0
163 186 0
159 182 0
159 181 0
163 185 0
156 178 0
163 186 0
155 178 0
162 185 0
160 183 0
157 180 0
162 185 0
164 187 0
166 189 0
164 187 0
167 190 0
158 180 0
163 187 0
159 182 0
163 186 0
169 191 0
167 191 0
167 190 0
165 188 0
167 190 0
162 185 0
170 193 0
166 189 0
167 191 0
165 187 0
168 191 0
169 192 0
164 187 0
169 192 0
169 192 0
170 193 0
168 193 0
165 187 0
167 190 0
172 196 0
171 194 0
166 190 0
169 192 0
171 195 0
170 193 0
171 194 0
172 195 0
173 196 0
172 195 0
170 193 0
169 193 0
168 192 0
168 192 0
167 191 0
174 196 0
168 192 0
171 195 0
170 193 0
171 194 0
172 196 0
173 195 0
174 197 0
172 195 0
173 196 0
170 193 0
170 193 0
175 197 0
173 196 0
174 197 0
173 196 0
172 195 0
171 194 0
172 196 0
172 196 0
173 196 0
171 196 0
172 196 0
169 193 0
172 196 0
172 195 0
173 197 0
172 194 0
173 196 0
173 197 0
171 195 0
171 194 0
169 193 0
174 197 0
175 198 0
174 198 0
174 198 0
173 195 0
175 198 0
171 194 0
172 196 0
171 194 0
172 196 0
175 198 0
173 197 0
172 195 0
173 197 0
174 196 0
174 197 0
175 198 0
172 195 0
174 197 0
174 197 0
173 196 0
172 195 0
172 195 0
173 197 0
176 198 0
175 198 0
174 198 0
174 197 0
173 197 0
173 197 0
175 198 0
171 194 0
175 198 0
172 196 0
173 196 0
173 196 0
173 197 0
175 198 0
173 197 0
173 197 0
175 198 0
173 196 0
175 198 0
173 196 0
175 198 0
174 197 0
173 197 0
175 198 0
176 198 0
174 197 0
173 197 0
172 196 0
172 196 0
175 198 0
173 196 0
175 198 0
176 198 0
176 199 0
172 197 0
176 199 0
173 197 0
150 170 0
152 172 0
151 171 0
151 170 0
151 172 0
153 173 0
151 171 0
151 171 0
151 171 0
152 172 0
152 172 0
154 173 0
152 172 0
152 172 0
150 170 0
150 170 0
151 169 0
151 170 0
152 172 0
150 168 0
151 171 0
150 170 0
152 172 0
147 167 0
147 165 0
150 169 0
147 167 0
151 170 0
149 167 0
146 165 0
149 168 0
150 169 0
147 165 0
150 169 0
150 169 0
148 167 0
148 167 0
147 166 0
148 167 0
149 167 0
149 167 0
150 169 0
145 164 0
147 165 0
149 167 0
149 167 0
147 164 0
143 162 0
145 163 0
146 165 0
144 162 0
143 159 0
145 163 0
145 163 0
150 168 0
148 165 0
145 163 0
146 163 0
146 165 0
144 162 0
143 161 0
138 156 0
143 159 0
141 157 0
145 163 0
140 156 0
144 162 0
146 163 0
141 155 0
145 160 0
143 160 0
142 158 0
140 155 0
144 160 0
138 153 0
139 154 0
138 154 0
136 150 0
140 155 0
140 155 0
137 153 0
138 154 0
144 161 0
141 155 0
134 147 0
133 147 0
132 146 0
132 146 0
135 149 0
137 152 0
129 145 0
137 151 0
135 149 0
122 133 0
129 140 0
124 136 0
127 138 0
133 146 0
125 137 0
128 140 0
118 127 0
128 141 0
123 133 0
123 132 0
122 132 0
119 128 0
123 134 0
122 132 0
121 132 0
120 131 0
119 128 0
115 125 0
121 132 0
114 122 0
123 133 0
117 127 0
111 119 0
108 117 0
112 122 0
114 124 0
112 121 0
102 111 0
105 116 0
110 122 0
98 108 0
105 117 0
106 118 0
143 161 0
153 172 0
143 162 0
147 166 0
148 166 0
146 165 0
148 166 0
150 169 0
138 156 0
138 156 0
145 163 0
146 163 0
147 166 0
141 161 0
136 155 0
140 159 0
141 160 0
143 161 0
137 156 0
134 152 0
135 154 0
136 154 0
113 122 14
111 102 17
97 92 18
107 101 19
104 101 14
100 94 27
109 103 26
115 109 26
115 109 24
110 106 19
119 113 27
119 113 25
124 117 35
114 107 33
119 115 27
132 124 31
129 123 35
133 125 39
134 127 38
127 121 33
134 128 21
133 127 33
132 127 19
123 116 25
129 123 24
130 124 28
132 125 28
137 131 25
133 124 25
138 132 32
139 132 28
141 136 30
137 130 32
139 133 25
139 133 30
134 129 25
133 128 32
134 129 16
143 137 32
141 133 30
139 134 25
140 134 30
146 139 34
136 130 28
138 133 32
137 131 19
140 134 25
141 136 30
137 131 25
143 136 28
136 131 28
135 130 25
140 133 34
139 133 19
146 141 19
135 130 28
137 131 22
142 137 22
131 126 28
138 132 30
141 135 25
135 130 28
142 135 34
139 133 32
136 130 28
144 136 34
141 135 30
138 131 37
141 135 34
138 132 32
135 129 30
139 132 34
142 135 32
141 134 37
136 130 36
143 137 30
134 129 34
139 133 28
128 122 22
144 138 34
139 133 39
141 135 39
132 126 30
137 131 32
127 121 34
139 133 36
128 123 19
133 126 32
126 120 37
125 120 28
134 127 37
128 123 37
127 121 36
128 120 28
135 129 41
125 119 32
121 115 37
122 115 32
126 121 28
121 115 30
113 107 36
142 158 22
153 176 0
146 169 0
160 181 0
159 181 0
160 183 0
156 178 0
163 186 0
158 179 0
159 180 0
155 178 0
166 189 0
156 179 0
159 181 0
160 183 0
164 187 0
159 181 0
159 181 0
166 188 0
164 186 0
166 187 0
164 187 0
166 188 0
166 190 0
163 185 0
165 187 0
166 190 0
165 187 0
167 190 0
166 189 0
169 191 0
168 190 0
167 189 0
169 193 0
167 190 0
171 192 0
169 191 0
167 190 0
173 196 0
168 191 0
171 194 0
170 193 0
168 191 0
168 192 0
167 190 0
168 191 0
168 191 0
173 196 0
171 194 0
167 190 0
169 193 0
167 190 0
173 196 0
172 195 0
170 193 0
171 195 0
170 193 0
168 191 0
168 191 0
169 191 0
172 196 0
169 192 0
173 196 0
171 196 0
172 196 0
174 197 0
172 195 0
173 196 0
171 194 0
174 197 0
173 196 0
172 195 0
172 195 0
173 197 0
174 196 0
173 196 0
173 196 0
172 195 0
172 195 0
173 197 0
172 194 0
173 196 0
174 197 0
173 196 0
174 197 0
169 192 0
173 196 0
171 195 0
173 196 0
173 196 0
175 197 0
172 196 0
173 196 0
173 197 0
172 195 0
173 197 0
175 198 0
173 197 0
175 197 0
174 198 0
174 197 0
171 195 0
173 197 0
174 197 0
173 197 0
175 198 0
174 197 0
174 197 0
173 196 0
173 197 0
175 197 0
174 197 0
173 196 0
174 197 0
172 195 0
173 196 0
173 197 0
171 195 0
174 197 0
175 198 0
174 197 0
172 196 0
172 196 0
173 196 0
174 197 0
172 196 0
174 197 0
174 197 0
174 197 0
173 196 0
172 197 0
172 196 0
174 198 0
175 198 0
174 197 0
175 198 0
174 197 0
173 196 0
173 196 0
172 196 0
174 197 0
173 196 0
175 198 0
174 197 0
174 197 0
175 198 0
173 197 0
174 197 0
176 199 0
175 198 0
153 173 0
149 168 0
150 169 0
152 171 0
151 171 0
152 172 0
154 174 0
151 170 0
153 173 0
150 169 0
151 169 0
151 171 0
148 169 0
151 171 0
149 169 0
149 169 0
151 170 0
151 170 0
151 170 0
151 170 0
152 172 0
149 169 0
146 166 0
150 170 0
151 171 0
148 167 0
149 169 0
151 170 0
146 165 0
151 170 0
151 169 0
151 170 0
149 169 0
150 170 0
147 166 0
146 165 0
148 167 0
146 164 0
148 167 0
147 166 0
148 167 0
151 170 0
147 165 0
147 166 0
148 166 0
147 167 0
145 162 0
143 162 0
147 165 0
141 157 0
147 163 0
145 163 0
146 163 0
143 160 0
145 162 0
146 164 0
147 165 0
143 161 0
146 164 0
145 163 0
145 161 0
145 163 0
146 163 0
144 161 0
146 161 0
145 164 0
137 153 0
140 156 0
143 160 0
144 163 0
142 156 0
139 155 0
141 155 0
140 155 0
144 160 0
142 158 0
138 152 0
137 152 0
135 151 0
138 153 0
141 155 0
140 156 0
131 146 0
138 154 0
135 149 0
136 149 0
134 147 0
133 147 0
127 142 0
129 142 0
133 147 0
136 148 0
130 142 0
128 140 0
130 141 0
131 145 0
129 142 0
131 144 0
126 136 0
126 137 0
127 139 0
132 144 0
123 136 0
121 132 0
121 131 0
126 136 0
121 131 0
123 135 0
123 133 0
114 123 0
115 126 0
114 123 0
117 126 0
109 118 0
112 122 0
106 115 0
106 115 0
112 123 0
112 121 0
100 110 0
118 128 0
96 107 0
101 110 0
107 119 0
92 102 0
110 124 0
141 158 0
148 166 0
139 156 0
142 160 0
144 162 0
138 156 0
140 158 0
133 151 0
135 152 0
148 166 0
146 164 0
148 166 0
134 152 0
141 159 0
132 150 0
143 163 0
138 155 0
139 158 0
137 154 0
139 157 0
138 157 0
133 153 0
139 156 0
129 147 0
109 118 14
90 83 14
93 88 12
104 99 21
99 94 27
111 105 22
117 111 33
119 112 33
116 110 34
119 113 21
113 108 25
113 106 22
122 115 32
124 118 22
120 115 29
127 120 30
131 125 37
119 112 22
132 125 30
135 130 35
121 116 30
127 120 27
131 125 31
138 132 28
127 120 27
130 126 25
136 131 28
136 130 28
138 132 30
140 134 25
140 134 41
139 132 34
134 128 19
135 129 25
134 127 25
137 130 34
138 131 37
141 135 25
139 133 22
139 134 0
140 136 16
131 125 22
136 129 39
137 130 22
136 129 22
143 137 32
134 128 19
138 132 19
138 133 28
135 130 22
140 134 37
141 135 22
133 128 28
140 133 22
137 132 22
138 133 28
144 137 25
132 127 22
145 139 36
145 139 37
139 133 34
137 132 22
138 132 34
140 134 32
135 127 30
134 129 30
135 127 34
131 124 22
136 128 28
139 133 22
134 127 34
144 138 36
130 124 34
137 132 25
132 125 30
132 125 30
137 132 36
136 129 37
132 128 28
122 116 19
138 131 39
132 125 22
143 137 41
133 128 32
132 126 34
141 135 39
133 127 42
132 125 37
125 120 30
129 124 39
135 130 41
121 115 30
115 110 32
123 117 36
118 113 34
122 116 34
125 119 37
124 117 34
114 108 41
124 134 22
149 169 0
156 178 0
153 175 0
158 179 0
157 180 0
151 172 0
162 184 0
160 183 0
157 181 0
161 183 0
162 184 0
159 182 0
155 177 0
163 186 0
159 181 0
163 186 0
161 184 0
164 186 0
164 187 0
160 182 0
163 185 0
160 183 0
165 187 0
162 186 0
169 192 0
163 186 0
166 189 0
165 187 0
164 187 0
170 193 0
165 188 0
168 190 0
170 192 0
166 189 0
166 189 0
169 191 0
167 191 0
170 193 0
169 192 0
167 190 0
168 191 0
170 194 0
165 189 0
170 193 0
166 190 0
169 193 0
170 193 0
168 190 0
170 193 0
172 195 0
173 196 0
170 194 0
171 194 0
169 192 0
169 193 0
170 193 0
170 194 0
171 194 0
170 193 0
170 194 0
171 195 0
170 193 0
169 193 0
175 196 0
171 194 0
170 193 0
169 193 0
171 195 0
172 196 0
172 195 0
171 195 0
167 191 0
170 193 0
174 197 0
174 197 0
174 197 0
171 194 0
173 197 0
171 194 0
170 193 0
173 197 0
170 194 0
174 197 0
171 195 0
173 196 0
170 193 0
173 197 0
173 196 0
171 196 0
171 195 0
173 197 0
174 198 0
173 196 0
170 195 0
174 197 0
174 197 0
174 197 0
174 198 0
174 197 0
172 196 0
174 198 0
173 197 0
174 197 0
173 196 0
172 196 0
173 196 0
173 197 0
174 197 0
172 196 0
175 198 0
172 196 0
172 196 0
173 197 0
174 197 0
172 195 0
172 196 0
175 197 0
172 196 0
172 196 0
174 197 0
176 199 0
172 195 0
172 196 0
176 199 0
172 197 0
173 196 0
175 198 0
173 197 0
175 198 0
173 197 0
174 197 0
171 195 0
173 197 0
174 198 0
173 196 0
173 197 0
170 194 0
174 197 0
174 197 0
175 198 0
174 198 0
174 197 0
172 195 0
174 198 0
174 198 0
174 197 0
173 197 0
174 197 0
172 196 0
174 197 0
153 174 0
153 173 0
151 170 0
151 171 0
152 171 0
151 171 0
151 171 0
149 168 0
151 171 0
150 170 0
150 170 0
150 169 0
151 171 0
150 170 0
150 169 0
149 169 0
149 169 0
152 172 0
151 170 0
148 167 0
149 167 0
153 171 0
150 170 0
148 168 0
150 168 0
149 168 0
149 168 0
149 168 0
148 167 0
149 168 0
149 168 0
148 167 0
149 168 0
148 166 0
150 169 0
149 167 0
149 167 0
147 166 0
150 170 0
146 164 0
145 163 0
147 165 0
143 161 0
146 164 0
148 166 0
146 163 0
142 158 0
146 164 0
145 162 0
144 161 0
147 165 0
143 160 0
148 165 0
146 164 0
143 160 0
146 163 0
146 164 0
147 165 0
143 160 0
142 158 0
143 161 0
145 161 0
144 161 0
142 158 0
144 162 0
141 157 0
147 163 0
146 163 0
140 156 0
138 154 0
143 159 0
141 156 0
138 153 0
138 152 0
141 155 0
132 144 0
143 159 0
138 154 0
136 149 0
139 154 0
141 155 0
137 151 0
134 149 0
142 157 0
135 150 0
136 150 0
133 146 0
133 147 0
135 148 0
130 143 0
133 148 0
127 138 0
133 146 0
130 143 0
128 139 0
134 149 0
127 139 0
130 142 0
122 134 0
122 131 0
126 138 0
128 140 0
128 139 0
122 131 0
127 138 0
117 126 0
117 127 0
122 131 0
120 131 0
120 130 0
122 132 0
117 126 0
104 113 0
115 124 0
118 129 0
115 124 0
117 129 0
104 114 0
101 110 0
111 122 0
109 120 0
103 114 0
104 114 0
103 113 0
124 140 0
145 162 0
141 158 0
147 164 0
132 149 0
139 156 0
134 151 0
137 155 0
146 164 0
138 155 0
127 144 0
140 158 0
142 160 0
135 153 0
141 158 0
134 150 0
131 149 0
132 148 0
140 157 0
133 152 0
133 150 0
136 154 0
135 153 0
128 143 0
138 155 0
130 148 0
134 151 0
102 107 0
99 92 19
103 98 24
104 99 11
102 95 17
108 101 19
117 111 29
114 108 15
123 117 30
119 113 22
119 113 33
123 118 33
124 117 34
130 124 33
126 121 25
122 114 33
118 112 35
130 125 33
120 114 15
132 124 22
121 116 28
123 118 25
134 128 31
128 122 25
138 132 30
128 121 28
127 120 25
132 125 31
136 129 22
138 131 37
129 124 27
135 129 30
128 123 25
127 120 25
134 130 25
134 128 30
141 132 30
133 126 25
136 130 34
136 131 19
133 128 22
135 128 22
141 134 32
139 133 22
147 140 32
137 132 19
138 130 25
143 137 25
142 137 22
138 133 22
142 136 19
135 130 22
145 139 36
138 133 22
141 133 22
127 121 25
139 134 28
140 133 34
132 125 22
133 127 25
137 129 34
138 134 28
139 133 28
134 128 25
138 131 28
135 130 19
132 126 22
142 135 36
134 128 22
131 125 28
130 124 25
135 130 34
132 125 22
138 132 22
131 125 22
139 133 30
132 127 41
136 130 30
130 125 34
133 128 25
131 125 25
132 126 28
135 131 37
135 130 37
132 126 37
130 122 37
130 125 28
127 120 32
120 114 36
130 123 34
132 125 37
114 109 32
121 115 22
121 115 30
129 121 41
121 114 39
112 107 36
124 126 34
154 176 0
152 173 0
153 176 0
151 173 0
157 179 0
155 177 0
154 175 0
158 179 0
161 182 0
155 177 0
163 185 0
162 183 0
153 175 0
160 183 0
157 179 0
163 184 0
165 188 0
164 187 0
159 182 0
163 184 0
166 188 0
166 189 0
160 182 0
166 188 0
166 189 0
169 191 0
163 185 0
165 188 0
168 190 0
166 188 0
166 189 0
164 186 0
164 187 0
164 186 0
168 191 0
168 190 0
169 190 0
166 188 0
168 190 0
164 188 0
170 193 0
169 192 0
169 192 0
168 192 0
168 191 0
171 194 0
172 196 0
170 194 0
168 190 0
166 189 0
168 190 0
172 194 0
172 194 0
170 193 0
172 195 0
170 193 0
169 192 0
172 195 0
169 192 0
171 195 0
166 189 0
173 196 0
172 195 0
172 195 0
172 196 0
174 197 0
174 196 0
174 197 0
169 192 0
172 195 0
172 195 0
171 194 0
172 196 0
169 193 0
173 197 0
172 195 0
172 195 0
170 194 0
172 195 0
171 195 0
175 197 0
172 196 0
169 193 0
172 195 0
173 196 0
172 196 0
172 195 0
172 195 0
172 195 0
172 196 0
172 195 0
172 195 0
173 197 0
172 196 0
170 194 0
172 195 0
175 198 0
173 197 0
173 196 0
176 199 0
174 197 0
173 197 0
173 197 0
170 193 0
173 196 0
174 197 0
174 197 0
175 198 0
174 198 0
172 196 0
174 197 0
174 197 0
173 196 0
174 197 0
173 197 0
173 197 0
172 196 0
171 195 0
174 198 0
173 197 0
173 197 0
173 197 0
173 197 0
173 196 0
173 197 0
172 195 0
175 198 0
174 197 0
174 198 0
173 197 0
174 197 0
175 198 0
174 198 0
171 195 0
172 196 0
172 196 0
175 198 0
174 198 0
175 198 0
175 198 0
174 197 0
172 194 0
174 197 0
174 197 0
175 198 0
174 197 0
171 195 0
173 197 0
174 197 0
173 197 0
174 198 0
149 168 0
150 170 0
150 170 0
149 169 0
153 173 0
150 169 0
151 170 0
152 171 0
152 172 0
148 167 0
147 167 0
151 170 0
153 173 0
152 172 0
154 173 0
152 170 0
149 168 0
148 168 0
151 170 0
145 164 0
149 168 0
148 168 0
149 168 0
147 166 0
147 166 0
149 168 0
148 167 0
147 166 0
152 171 0
147 166 0
146 165 0
152 171 0
148 166 0
150 168 0
148 164 0
146 164 0
146 163 0
150 169 0
148 167 0
146 164 0
147 165 0
147 166 0
148 167 0
145 163 0
145 163 0
149 167 0
149 167 0
140 158 0
146 164 0
144 162 0
144 162 0
145 162 0
140 158 0
145 162 0
147 166 0
144 162 0
141 160 0
144 160 0
146 165 0
146 163 0
138 155 0
146 163 0
140 156 0
142 158 0
142 158 0
137 153 0
137 152 0
140 156 0
143 159 0
144 160 0
136 152 0
139 155 0
139 155 0
139 155 0
134 148 0
139 154 0
139 154 0
136 150 0
134 149 0
135 149 0
136 150 0
139 151 0
142 158 0
135 150 0
130 144 0
131 143 0
134 148 0
135 149 0
135 148 0
128 140 0
119 130 0
134 148 0
121 134 0
128 139 0
131 144 0
128 141 0
129 141 0
127 138 0
128 139 0
123 133 0
127 140 0
127 138 0
124 137 0
122 132 0
121 131 0
117 128 0
131 142 0
119 129 0
122 132 0
115 126 0
121 131 0
118 128 0
111 119 0
108 118 0
104 113 0
108 117 0
111 122 0
105 114 0
106 114 0
102 113 0
108 118 0
93 103 0
94 105 0
128 143 0
135 151 0
134 150 0
137 153 0
133 149 0
132 149 0
132 147 0
139 156 0
135 150 0
138 155 0
126 144 0
131 147 0
134 150 0
136 152 0
126 142 0
129 145 0
134 150 0
125 143 0
144 162 0
130 148 0
127 141 0
128 145 0
139 157 0
130 146 0
119 135 0
132 149 0
129 145 0
128 144 0
119 137 0
105 109 0
90 85 11
84 80 10
103 99 21
102 94 21
113 104 30
107 101 11
106 100 25
115 108 27
114 107 10
123 118 33
117 111 22
125 117 25
131 124 30
119 114 30
111 105 11
134 127 31
125 118 34
126 120 24
128 122 22
132 125 22
123 116 25
117 113 16
130 124 29
121 115 31
132 125 30
127 120 19
129 123 30
138 133 22
137 131 19
130 124 22
131 123 25
138 130 30
134 127 28
125 119 16
136 130 28
139 131 25
128 123 25
133 127 16
138 133 30
130 123 19
132 127 16
133 127 30
133 127 19
133 126 16
136 129 22
127 121 11
136 130 22
129 125 11
134 130 19
137 131 28
145 138 25
134 129 19
142 136 25
135 129 19
132 124 19
139 133 19
137 130 22
137 130 19
139 131 25
137 131 32
141 134 34
143 137 30
135 129 25
131 125 32
136 130 16
140 133 34
141 135 19
135 128 22
133 128 28
138 130 37
137 131 34
134 127 39
132 126 30
133 126 16
143 137 34
137 132 36
132 123 30
124 118 32
128 122 25
130 122 37
129 122 22
131 124 39
135 130 37
127 121 37
129 122 34
120 115 22
121 115 41
132 125 22
120 114 34
125 119 36
117 110 28
112 107 25
115 108 32
108 103 25
126 130 25
153 172 11
138 158 0
146 166 0
147 168 0
149 169 0
159 180 0
154 176 0
151 173 0
153 174 0
154 174 0
158 179 0
153 174 0
160 182 0
160 182 0
154 177 0
158 180 0
160 183 0
162 183 0
157 178 0
164 185 0
166 187 0
164 186 0
170 193 0
161 183 0
167 189 0
163 187 0
164 187 0
163 185 0
162 183 0
162 184 0
167 191 0
167 190 0
166 190 0
170 193 0
166 189 0
164 187 0
167 189 0
169 191 0
168 190 0
169 191 0
171 194 0
165 188 0
166 189 0
166 188 0
168 191 0
167 189 0
169 193 0
169 192 0
169 192 0
163 186 0
169 192 0
167 190 0
171 194 0
171 194 0
168 191 0
169 192 0
171 194 0
172 195 0
170 193 0
170 193 0
169 193 0
169 191 0
171 194 0
171 193 0
169 192 0
169 192 0
171 194 0
170 192 0
172 195 0
172 195 0
174 196 0
170 192 0
171 193 0
173 195 0
170 192 0
172 195 0
172 195 0
172 195 0
172 195 0
171 194 0
172 195 0
171 194 0
171 194 0
171 195 0
170 194 0
174 196 0
172 194 0
172 195 0
174 197 0
174 197 0
170 193 0
174 197 0
173 197 0
173 196 0
172 195 0
173 196 0
173 197 0
173 197 0
170 194 0
176 198 0
174 197 0
172 196 0
174 197 0
169 193 0
172 195 0
172 195 0
174 197 0
173 196 0
173 196 0
172 195 0
174 197 0
173 197 0
173 196 0
172 196 0
171 195 0
175 198 0
174 196 0
174 197 0
174 197 0
175 198 0
174 197 0
172 196 0
174 196 0
173 195 0
173 196 0
174 197 0
172 196 0
174 198 0
174 197 0
172 196 0
175 198 0
175 198 0
174 197 0
172 195 0
173 197 0
172 195 0
173 197 0
173 196 0
174 197 0
173 196 0
172 196 0
175 198 0
175 198 0
174 198 0
174 197 0
173 196 0
175 198 0
171 194 0
174 197 0
174 198 0
174 197 0
174 197 0
150 170 0
151 171 0
153 173 0
151 170 0
154 174 0
149 169 0
152 171 0
149 169 0
150 169 0
149 169 0
152 171 0
153 172 0
151 171 0
150 170 0
150 170 0
147 167 0
148 166 0
149 168 0
151 170 0
149 168 0
150 169 0
149 167 0
148 165 0
148 167 0
150 169 0
145 164 0
148 167 0
148 167 0
148 167 0
147 166 0
145 165 0
146 165 0
151 169 0
146 164 0
148 166 0
144 161 0
149 169 0
148 165 0
145 163 0
145 162 0
144 161 0
148 166 0
145 164 0
145 161 0
149 167 0
146 164 0
148 166 0
146 163 0
147 165 0
147 164 0
144 162 0
146 164 0
145 164 0
145 162 0
141 158 0
145 162 0
139 155 0
145 162 0
142 158 0
146 164 0
142 159 0
145 163 0
142 159 0
140 156 0
139 155 0
141 158 0
144 160 0
137 153 0
144 160 0
137 152 0
140 156 0
140 157 0
139 155 0
139 154 0
138 154 0
142 156 0
131 146 0
138 154 0
139 153 0
136 150 0
133 146 0
140 155 0
139 153 0
136 150 0
134 146 0
128 142 0
130 142 0
130 143 0
129 141 0
123 135 0
130 143 0
128 140 0
126 138 0
127 139 0
130 142 0
122 133 0
124 135 0
124 136 0
132 142 0
129 141 0
123 134 0
123 133 0
121 132 0
128 140 0
120 129 0
123 135 0
116 126 0
115 123 0
113 123 0
117 126 0
124 135 0
111 120 0
120 131 0
114 124 0
113 121 0
108 119 0
109 117 0
97 106 0
104 112 0
89 97 0
100 110 0
110 124 0
128 142 0
135 150 0
145 162 0
133 150 0
122 138 0
129 146 0
132 146 0
133 148 0
127 143 0
134 150 0
127 142 0
127 143 0
133 149 0
139 154 0
137 154 0
130 145 0
136 152 0
128 144 0
134 149 0
131 147 0
127 142 0
131 147 0
127 143 0
127 143 0
129 145 0
131 149 0
135 152 0
128 143 0
127 142 0
130 148 0
120 135 0
103 103 11
92 87 10
103 96 15
103 98 24
102 97 19
111 105 27
100 94 19
105 100 0
121 113 25
119 111 28
109 104 19
110 104 22
124 117 25
124 118 31
112 106 22
119 113 22
124 119 30
130 124 32
129 122 25
121 115 19
125 117 24
123 116 25
120 115 22
131 125 30
133 126 28
136 130 25
131 124 22
140 133 35
127 122 22
129 122 19
120 112 11
128 123 25
132 126 25
130 122 22
129 122 25
128 122 28
132 127 32
129 122 16
130 125 19
133 127 19
139 131 25
133 125 30
134 127 11
131 126 19
138 130 30
140 134 30
131 125 16
133 128 19
137 129 19
132 127 22
139 133 16
126 121 11
133 126 22
124 118 16
135 128 30
127 120 25
136 130 16
137 131 32
136 129 28
134 128 22
132 124 28
142 135 30
141 134 32
141 136 34
135 130 22
131 126 16
134 127 22
135 128 16
135 128 28
133 128 25
137 129 32
135 128 30
136 130 37
125 119 28
132 127 32
128 122 16
136 129 22
120 114 28
134 128 37
128 122 28
120 114 25
126 120 28
135 128 34
124 119 30
126 120 32
124 118 32
123 118 16
122 115 25
121 115 25
114 108 25
120 115 36
127 120 37
108 101 32
120 124 25
148 168 0
150 170 0
152 173 0
146 168 0
147 168 0
152 173 0
143 164 0
152 174 0
152 174 0
160 181 0
158 179 0
157 179 0
156 177 0
161 182 0
162 184 0
166 188 0
150 169 0
159 181 0
157 179 0
157 180 0
164 187 0
159 181 0
164 186 0
162 185 0
166 188 0
157 178 0
160 183 0
165 186 0
166 189 0
164 186 0
169 192 0
164 187 0
168 191 0
165 186 0
166 189 0
166 188 0
169 192 0
167 189 0
163 185 0
166 190 0
166 188 0
168 191 0
167 190 0
169 191 0
165 187 0
169 191 0
165 189 0
166 189 0
168 192 0
167 190 0
169 192 0
170 193 0
172 195 0
165 188 0
170 193 0
167 191 0
168 191 0
167 189 0
169 192 0
167 189 0
168 192 0
170 193 0
170 193 0
169 191 0
169 192 0
173 197 0
170 193 0
170 192 0
171 193 0
172 196 0
168 193 0
170 193 0
169 191 0
172 196 0
170 194 0
168 191 0
171 195 0
174 197 0
169 192 0
172 194 0
169 192 0
172 195 0
172 196 0
172 196 0
174 198 0
170 193 0
170 193 0
173 196 0
174 197 0
174 197 0
173 196 0
171 195 0
172 196 0
171 195 0
173 197 0
170 193 0
173 195 0
172 195 0
173 197 0
172 195 0
171 195 0
173 196 0
173 196 0
171 195 0
173 195 0
172 196 0
172 196 0
175 198 0
172 195 0
173 196 0
172 196 0
173 196 0
173 197 0
174 197 0
172 196 0
172 195 0
173 197 0
173 196 0
171 195 0
172 196 0
174 197 0
173 197 0
173 196 0
173 196 0
173 196 0
173 196 0
171 193 0
174 197 0
171 195 0
173 197 0
175 197 0
175 198 0
171 194 0
175 198 0
173 196 0
173 197 0
173 196 0
173 195 0
174 197 0
173 196 0
172 196 0
175 198 0
174 197 0
172 196 0
175 198 0
174 197 0
173 197 0
172 195 0
176 198 0
173 197 0
173 197 0
174 197 0
172 196 0
151 170 0
152 172 0
149 169 0
154 173 0
151 171 0
150 170 0
153 172 0
150 169 0
149 167 0
151 171 0
149 169 0
150 170 0
152 171 0
150 170 0
145 164 0
152 170 0
150 169 0
149 168 0
149 168 0
150 167 0
149 169 0
148 167 0
147 166 0
150 168 0
149 168 0
150 169 0
147 165 0
144 163 0
147 166 0
147 166 0
146 164 0
148 168 0
148 167 0
146 165 0
146 165 0
146 163 0
148 165 0
144 161 0
151 170 0
147 165 0
145 162 0
145 164 0
140 157 0
145 161 0
145 163 0
147 164 0
143 161 0
146 165 0
142 160 0
141 158 0
146 163 0
145 163 0
142 158 0
147 164 0
145 162 0
146 163 0
144 160 0
141 157 0
143 159 0
142 158 0
142 158 0
143 159 0
142 158 0
140 157 0
139 154 0
138 155 0
140 156 0
141 157 0
142 160 0
140 156 0
139 153 0
142 157 0
144 160 0
137 152 0
139 154 0
136 151 0
139 153 0
136 150 0
134 149 0
133 146 0
134 147 0
138 152 0
133 146 0
135 149 0
137 152 0
131 144 0
131 146 0
128 141 0
125 137 0
130 142 0
126 136 0
131 143 0
129 142 0
127 139 0
127 140 0
131 142 0
132 144 0
125 137 0
128 140 0
120 130 0
122 133 0
124 135 0
122 132 0
115 125 0
127 138 0
124 135 0
112 123 0
111 119 0
115 125 0
115 125 0
111 120 0
109 119 0
113 122 0
116 127 0
111 120 0
112 120 0
102 111 0
103 113 0
85 94 0
102 112 0
121 136 0
135 151 0
128 143 0
129 144 0
133 148 0
120 135 0
128 142 0
133 148 0
137 153 0
131 146 0
132 147 0
122 138 0
117 131 0
136 151 0
135 150 0
133 148 0
131 148 0
130 144 0
125 140 0
127 143 0
126 140 0
131 146 0
134 150 0
126 143 0
122 138 0
136 153 0
128 145 0
127 143 0
126 142 0
123 137 0
124 139 0
121 137 0
117 131 0
114 128 0
101 102 0
92 86 0
100 93 15
103 97 15
116 109 28
112 105 16
109 103 19
110 103 19
116 108 22
105 99 16
120 113 22
118 112 36
119 112 16
114 108 16
123 118 22
118 112 11
116 111 25
115 109 25
115 108 19
123 117 22
116 111 15
128 121 19
129 122 27
120 114 25
124 118 22
129 122 27
124 116 19
129 123 22
136 130 25
135 127 22
130 124 19
124 120 11
133 126 22
132 127 22
131 124 28
137 130 19
128 122 16
137 131 11
130 125 19
136 131 22
139 133 30
132 125 25
133 127 11
140 134 22
128 121 11
139 133 22
139 133 25
143 137 16
133 127 11
134 129 19
129 123 16
138 133 22
129 122 19
137 131 25
127 121 25
137 131 22
135 128 19
130 124 16
132 125 30
136 129 19
133 127 22
128 121 28
130 124 22
131 124 19
130 124 19
129 122 28
128 122 19
134 129 19
127 122 22
136 131 16
129 122 25
134 127 22
133 127 30
129 122 28
125 120 19
127 122 25
124 117 32
129 122 32
127 120 30
128 121 36
131 122 25
125 119 28
124 118 28
127 121 28
130 123 39
121 115 34
117 111 32
116 110 22
125 117 34
115 109 41
118 112 22
118 122 28
137 155 11
142 161 0
147 168 0
149 168 0
152 172 0
145 166 0
144 165 0
154 174 0
158 179 0
156 177 0
152 173 0
156 176 0
161 183 0
153 174 0
158 179 0
159 181 0
153 174 0
164 187 0
161 183 0
167 190 0
160 181 0
156 177 0
162 184 0
165 186 0
159 182 0
163 184 0
166 188 0
160 182 0
165 189 0
159 180 0
161 185 0
164 186 0
162 183 0
160 182 0
164 185 0
166 189 0
165 187 0
167 189 0
168 191 0
170 192 0
168 192 0
167 189 0
169 191 0
168 191 0
164 186 0
169 191 0
165 187 0
166 189 0
169 193 0
169 191 0
164 186 0
168 191 0
170 192 0
167 190 0
170 192 0
167 190 0
170 193 0
171 194 0
169 192 0
172 196 0
165 189 0
171 194 0
173 195 0
168 192 0
169 192 0
171 195 0
172 195 0
172 195 0
173 195 0
171 194 0
171 194 0
171 194 0
171 194 0
170 193 0
173 195 0
173 196 0
169 193 0
172 195 0
169 193 0
168 192 0
171 194 0
169 193 0
171 194 0
171 194 0
171 193 0
174 197 0
171 193 0
171 194 0
171 194 0
171 193 0
174 197 0
171 194 0
173 196 0
172 195 0
174 197 0
168 192 0
173 196 0
173 196 0
174 197 0
173 196 0
172 196 0
172 196 0
173 196 0
173 195 0
173 197 0
170 193 0
175 198 0
173 196 0
174 197 0
169 192 0
170 195 0
172 196 0
174 198 0
174 197 0
171 194 0
173 197 0
173 196 0
174 197 0
173 197 0
172 196 0
174 197 0
174 197 0
173 195 0
174 197 0
173 197 0
174 197 0
172 196 0
175 198 0
172 196 0
172 196 0
172 196 0
175 197 0
175 198 0
176 198 0
172 196 0
173 196 0
172 196 0
173 196 0
173 196 0
173 197 0
175 197 0
172 196 0
176 198 0
174 197 0
173 197 0
174 197 0
174 198 0
174 197 0
175 198 0
174 197 0
174 198 0
174 198 0
175 198 0
174 196 0
152 172 0
152 172 0
152 171 0
151 171 0
153 174 0
154 173 0
151 170 0
147 166 0
148 167 0
148 167 0
149 167 0
149 168 0
151 171 0
149 169 0
150 169 0
149 168 0
147 165 0
145 164 0
146 164 0
151 169 0
148 167 0
147 166 0
149 168 0
148 167 0
149 167 0
149 168 0
147 166 0
144 162 0
150 169 0
149 169 0
150 168 0
146 163 0
151 169 0
151 170 0
147 166 0
145 163 0
145 164 0
146 164 0
146 165 0
143 161 0
144 162 0
145 162 0
147 165 0
146 164 0
144 162 0
144 161 0
144 162 0
147 165 0
147 164 0
146 163 0
143 160 0
145 162 0
143 159 0
141 158 0
144 160 0
143 161 0
141 156 0
143 160 0
141 158 0
140 155 0
142 159 0
141 158 0
143 159 0
144 161 0
142 158 0
144 159 0
139 152 0
140 155 0
141 157 0
140 157 0
140 156 0
136 151 0
139 155 0
141 158 0
139 153 0
132 146 0
130 143 0
134 148 0
137 152 0
130 144 0
132 146 0
133 149 0
128 142 0
133 147 0
128 142 0
137 149 0
128 141 0
136 150 0
125 137 0
130 143 0
126 138 0
124 135 0
126 138 0
123 136 0
123 133 0
129 142 0
127 138 0
119 129 0
128 140 0
122 131 0
122 133 0
129 142 0
119 127 0
118 127 0
122 133 0
106 115 0
113 123 0
119 129 0
111 120 0
114 124 0
109 119 0
112 119 0
113 122 0
103 112 0
97 107 0
103 112 0
93 102 0
83 90 0
107 119 0
123 136 0
129 143 0
133 147 0
123 137 0
121 135 0
125 139 0
128 143 0
120 133 0
129 143 0
132 146 0
125 139 0
136 150 0
121 135 0
118 131 0
129 144 0
121 136 0
131 145 0
126 139 0
133 147 0
123 135 0
120 134 0
122 136 0
134 148 0
121 136 0
135 151 0
121 136 0
121 136 0
132 147 0
130 146 0
120 135 0
130 146 0
123 136 0
123 136 0
115 129 0
121 137 0
113 128 0
100 99 10
97 91 10
102 96 17
107 100 22
104 97 16
103 98 0
113 105 22
105 99 16
105 101 16
115 108 11
118 110 32
119 114 19
119 112 26
123 117 25
128 122 32
125 119 19
114 107 19
121 115 19
122 117 19
124 119 11
124 119 25
121 115 22
126 121 22
129 124 16
123 116 27
128 121 16
124 120 10
130 124 30
126 118 19
128 123 19
131 124 22
129 122 19
130 124 19
130 123 22
129 122 16
129 124 22
129 122 28
129 123 11
130 124 11
144 137 30
135 129 22
136 131 19
134 127 0
123 117 16
133 126 11
134 129 19
131 124 11
135 129 22
138 131 16
132 125 22
133 128 22
132 125 25
134 127 11
133 128 19
132 125 11
138 132 19
132 127 19
127 120 19
134 127 16
131 121 16
127 121 19
141 135 22
125 119 30
136 129 19
130 123 19
128 122 11
129 122 22
125 120 19
131 124 25
123 118 28
137 131 22
132 126 22
115 108 19
124 117 25
134 128 30
133 126 28
128 121 28
131 124 36
119 113 19
127 121 22
126 117 25
122 116 25
115 108 25
118 111 25
118 112 28
117 110 34
114 108 22
123 117 34
108 101 34
124 125 39
131 148 11
140 159 0
149 167 0
152 171 0
152 173 0
148 167 0
152 172 0
147 166 0
151 171 0
156 176 0
156 174 0
155 175 0
157 179 0
155 175 0
162 184 0
159 180 0
161 184 0
154 176 0
154 174 0
156 177 0
161 182 0
157 177 0
152 174 0
166 187 0
163 185 0
160 183 0
163 185 0
161 183 0
165 188 0
162 183 0
163 183 0
164 186 0
163 186 0
165 188 0
165 187 0
161 184 0
164 187 0
166 188 0
166 186 0
163 185 0
164 187 0
165 188 0
167 190 0
165 186 0
163 186 0
164 187 0
167 188 0
169 192 0
171 192 0
169 191 0
166 188 0
168 190 0
165 188 0
171 193 0
166 189 0
170 192 0
170 192 0
171 195 0
169 192 0
169 193 0
172 195 0
167 190 0
168 191 0
170 193 0
169 192 0
168 191 0
167 192 0
165 189 0
172 195 0
169 190 0
171 194 0
171 194 0
171 195 0
173 196 0
171 193 0
171 195 0
172 195 0
171 194 0
171 195 0
171 194 0
171 195 0
173 197 0
173 196 0
173 196 0
172 194 0
172 195 0
170 193 0
172 195 0
171 194 0
171 195 0
172 196 0
175 198 0
170 193 0
172 196 0
172 195 0
172 196 0
173 196 0
172 195 0
174 197 0
175 197 0
169 193 0
169 192 0
169 193 0
172 196 0
172 196 0
172 195 0
173 196 0
173 196 0
175 198 0
173 195 0
173 195 0
173 197 0
173 195 0
175 197 0
174 196 0
171 195 0
172 195 0
173 196 0
171 195 0
171 195 0
169 193 0
172 196 0
174 196 0
175 198 0
176 198 0
174 197 0
173 196 0
174 197 0
173 196 0
173 195 0
172 196 0
171 195 0
175 198 0
172 196 0
172 196 0
175 198 0
174 197 0
173 196 0
173 197 0
171 195 0
173 197 0
174 197 0
173 196 0
174 198 0
172 196 0
174 197 0
174 197 0
174 198 0
175 198 0
173 197 0
173 196 0
173 196 0
174 197 0
174 197 0
170 195 0
149 169 0
153 173 0
150 169 0
150 170 0
151 172 0
151 170 0
149 168 0
148 168 0
150 169 0
149 169 0
154 173 0
151 171 0
149 168 0
153 173 0
149 167 0
149 168 0
150 169 0
149 168 0
148 168 0
148 166 0
147 166 0
149 169 0
148 167 0
146 165 0
148 166 0
148 165 0
147 165 0
146 165 0
146 163 0
148 167 0
148 168 0
148 167 0
148 166 0
144 162 0
146 165 0
146 164 0
148 166 0
147 164 0
147 164 0
146 163 0
146 164 0
144 163 0
147 164 0
147 165 0
144 161 0
139 156 0
145 163 0
144 161 0
141 158 0
141 157 0
144 160 0
140 156 0
143 160 0
143 160 0
141 158 0
142 159 0
138 153 0
141 157 0
139 155 0
144 160 0
141 157 0
144 160 0
137 153 0
140 154 0
138 153 0
142 159 0
143 160 0
140 155 0
135 151 0
134 147 0
137 152 0
133 147 0
137 151 0
133 148 0
137 150 0
136 151 0
133 146 0
139 152 0
132 146 0
131 145 0
136 151 0
133 147 0
126 138 0
131 144 0
133 147 0
132 142 0
130 144 0
127 140 0
130 142 0
126 140 0
130 142 0
135 147 0
131 144 0
126 137 0
129 141 0
124 137 0
118 129 0
124 135 0
124 136 0
118 128 0
119 129 0
122 133 0
114 123 0
114 123 0
106 114 0
111 121 0
115 125 0
115 124 0
115 125 0
109 117 0
116 125 0
107 116 0
96 102 0
99 107 0
94 102 0
93 102 0
93 102 0
124 136 0
111 122 0
119 132 0
123 137 0
122 135 0
124 138 0
119 132 0
127 141 0
122 137 0
120 132 0
120 132 0
122 136 0
123 137 0
126 141 0
118 131 0
127 140 0
131 144 0
133 149 0
122 136 0
126 141 0
124 140 0
122 136 0
123 138 0
121 134 0
120 134 0
126 139 0
124 138 0
126 138 0
126 140 0
117 130 0
122 136 0
103 115 0
117 130 0
115 130 0
130 146 0
124 140 0
126 141 0
115 127 0
108 120 0
101 104 0
101 94 14
102 95 22
97 89 19
106 100 19
107 100 19
107 101 17
107 103 15
109 104 15
119 112 22
110 104 19
118 112 19
117 111 22
112 107 16
122 116 25
119 113 22
127 120 32
114 109 11
125 117 25
116 111 16
129 121 25
128 121 33
125 119 11
124 118 11
123 120 16
124 116 19
122 116 19
119 111 16
132 126 19
125 117 11
127 122 19
134 127 11
135 126 19
126 121 16
128 122 11
135 129 19
121 113 16
124 116 0
126 120 0
134 128 11
130 123 0
128 121 11
122 117 0
131 125 11
137 131 11
126 119 11
124 119 0
135 130 16
133 128 16
129 126 11
131 126 11
136 128 19
126 121 16
130 124 22
134 127 11
138 131 19
119 113 19
136 130 16
129 123 11
134 126 25
128 121 16
126 122 22
127 122 16
129 123 19
131 125 16
136 128 22
130 124 19
133 126 22
122 117 19
118 113 19
120 114 25
126 120 28
124 116 19
129 122 19
121 115 22
129 122 19
127 121 32
128 123 28
125 119 25
128 122 36
120 114 32
113 107 30
121 114 30
119 114 28
121 113 30
106 101 28
104 96 32
118 121 28
133 152 0
142 160 0
143 160 0
143 165 0
146 165 0
147 168 0
144 164 0
151 170 0
150 170 0
158 177 0
148 166 0
151 170 0
158 178 0
154 174 0
151 170 0
153 173 0
153 173 0
156 176 0
155 176 0
153 173 0
163 182 0
158 179 0
157 177 0
156 178 0
157 178 0
161 183 0
161 184 0
161 182 0
161 183 0
160 182 0
161 184 0
161 183 0
158 178 0
163 185 0
164 188 0
162 184 0
166 189 0
167 190 0
161 184 0
162 184 0
165 188 0
164 186 0
167 190 0
169 191 0
166 188 0
165 188 0
171 194 0
167 188 0
167 190 0
164 186 0
166 190 0
173 196 0
168 189 0
168 191 0
170 192 0
168 191 0
163 186 0
167 190 0
169 192 0
166 189 0
169 190 0
168 192 0
169 192 0
170 193 0
167 189 0
168 192 0
169 193 0
167 190 0
170 193 0
169 192 0
171 194 0
168 191 0
173 197 0
167 191 0
167 191 0
170 194 0
168 191 0
169 191 0
173 196 0
170 193 0
172 196 0
171 194 0
171 194 0
171 194 0
172 194 0
173 196 0
171 194 0
167 190 0
171 193 0
172 195 0
172 194 0
174 197 0
171 195 0
171 194 0
173 197 0
170 194 0
172 196 0
171 195 0
170 194 0
174 197 0
174 196 0
171 194 0
173 196 0
172 196 0
172 195 0
172 194 0
171 195 0
171 195 0
173 196 0
172 196 0
173 197 0
172 195 0
173 197 0
171 194 0
174 197 0
173 197 0
172 195 0
174 198 0
174 196 0
171 195 0
174 196 0
171 195 0
174 197 0
174 198 0
172 196 0
174 197 0
173 197 0
173 196 0
171 194 0
173 196 0
174 197 0
171 195 0
173 196 0
174 197 0
173 197 0
175 198 0
172 196 0
172 195 0
172 195 0
175 197 0
174 197 0
173 197 0
174 197 0
174 198 0
173 196 0
173 196 0
174 197 0
172 195 0
173 197 0
173 197 0
174 197 0
173 196 0
173 196 0
172 195 0
173 197 0
174 198 0
152 172 0
148 167 0
152 172 0
153 173 0
152 172 0
150 170 0
150 170 0
148 167 0
153 171 0
152 171 0
149 169 0
147 167 0
150 169 0
147 166 0
151 169 0
147 167 0
146 163 0
149 168 0
146 165 0
150 169 0
150 169 0
145 164 0
150 167 0
148 167 0
148 166 0
150 168 0
147 166 0
153 171 0
147 166 0
147 164 0
145 164 0
144 162 0
148 166 0
147 165 0
146 163 0
148 167 0
146 164 0
150 168 0
148 165 0
143 160 0
142 159 0
145 163 0
146 164 0
145 162 0
145 163 0
138 153 0
139 155 0
145 163 0
144 161 0
143 159 0
142 157 0
136 153 0
140 156 0
143 159 0
142 158 0
142 158 0
137 152 0
145 161 0
145 161 0
137 151 0
143 160 0
141 158 0
139 155 0
140 155 0
138 153 0
139 153 0
136 151 0
139 155 0
137 154 0
137 152 0
143 160 0
134 149 0
138 154 0
133 148 0
134 149 0
134 148 0
134 149 0
136 149 0
135 149 0
129 142 0
134 147 0
137 151 0
125 137 0
132 144 0
126 139 0
134 148 0
132 145 0
128 141 0
130 143 0
126 138 0
130 142 0
128 140 0
122 132 0
123 133 0
123 134 0
126 139 0
122 133 0
119 128 0
125 137 0
120 130 0
119 128 0
110 121 0
109 117 0
124 135 0
118 127 0
112 120 0
109 117 0
108 116 0
113 121 0
104 111 0
109 119 0
101 109 0
98 106 0
92 98 0
94 102 0
106 116 0
113 126 0
111 124 0
123 134 0
117 129 0
124 137 0
117 129 0
114 127 0
122 134 0
114 128 0
129 142 0
128 143 0
123 137 0
122 136 0
132 146 0
124 138 0
118 131 0
123 136 0
128 142 0
123 136 0
121 135 0
119 133 0
123 137 0
119 133 0
124 136 0
116 129 0
117 130 0
126 138 0
120 131 0
123 138 0
117 130 0
127 140 0
123 137 0
123 135 0
122 135 0
116 130 0
114 127 0
127 139 0
113 126 0
123 137 0
110 123 0
112 126 0
104 107 0
91 84 11
104 95 11
95 90 0
107 101 21
106 99 25
106 100 0
104 98 19
105 98 16
107 102 11
101 97 11
111 105 18
117 111 19
118 112 11
113 106 16
118 112 11
120 114 22
125 118 11
135 129 25
121 115 16
131 124 31
128 121 22
124 117 22
127 121 0
133 126 30
120 114 19
132 126 19
122 116 11
133 126 16
127 120 11
124 115 19
123 117 0
117 110 0
128 122 0
123 115 0
117 111 16
127 120 16
129 122 11
136 128 19
120 112 11
131 125 19
127 121 0
128 123 0
133 126 28
128 122 0
131 125 16
122 116 11
132 125 19
129 122 0
130 124 19
130 123 11
130 125 16
119 112 19
133 125 11
133 126 22
126 119 16
124 119 16
123 117 16
129 123 11
122 116 0
128 122 11
124 117 22
122 117 16
133 126 22
128 122 25
129 121 28
123 117 16
126 120 19
129 121 28
122 116 28
129 123 25
132 126 25
120 114 19
119 112 25
123 117 19
131 124 34
124 117 28
117 111 19
124 118 30
118 112 22
115 110 32
110 103 32
105 100 25
120 114 25
114 108 28
113 118 22
137 152 0
135 151 0
137 155 0
149 167 0
140 160 0
146 161 0
148 168 0
147 163 0
152 171 0
156 176 0
152 172 0
150 169 0
155 175 0
151 172 0
148 168 0
157 176 0
152 171 0
159 177 0
159 179 0
156 174 0
158 179 0
163 185 0
162 182 0
161 183 0
157 178 0
161 183 0
154 176 0
160 181 0
162 184 0
157 179 0
160 182 0
164 186 0
158 179 0
156 177 0
164 186 0
158 179 0
161 184 0
164 186 0
166 189 0
165 187 0
161 185 0
158 180 0
167 189 0
169 192 0
166 188 0
167 190 0
170 193 0
168 190 0
165 187 0
166 189 0
167 190 0
167 190 0
168 191 0
166 189 0
167 191 0
169 192 0
169 191 0
171 192 0
165 188 0
170 192 0
170 193 0
166 189 0
166 188 0
173 196 0
169 191 0
169 190 0
170 194 0
171 194 0
170 192 0
171 194 0
168 191 0
169 192 0
170 193 0
173 196 0
171 194 0
168 192 0
172 195 0
169 193 0
173 196 0
168 191 0
172 194 0
167 190 0
173 196 0
171 195 0
168 192 0
173 196 0
170 193 0
168 192 0
170 193 0
170 194 0
170 193 0
172 194 0
171 195 0
173 196 0
173 196 0
172 195 0
169 193 0
170 192 0
174 197 0
172 194 0
173 196 0
173 196 0
171 194 0
172 196 0
174 196 0
173 196 0
173 197 0
171 195 0
174 197 0
173 197 0
171 195 0
172 195 0
172 196 0
173 196 0
173 196 0
172 195 0
173 197 0
173 196 0
173 196 0
175 197 0
172 195 0
172 194 0
172 195 0
174 197 0
173 196 0
172 195 0
172 196 0
174 197 0
175 198 0
173 196 0
174 197 0
174 197 0
172 195 0
172 195 0
172 196 0
174 196 0
174 197 0
176 199 0
173 197 0
174 197 0
175 197 0
175 198 0
175 198 0
172 196 0
173 197 0
173 196 0
171 194 0
173 197 0
174 197 0
171 194 0
173 197 0
173 196 0
174 198 0
172 196 0
173 197 0
175 198 0
173 196 0
154 174 0
153 173 0
148 168 0
149 168 0
149 169 0
152 171 0
152 171 0
150 170 0
150 168 0
150 170 0
152 171 0
148 167 0
148 166 0
150 169 0
148 167 0
149 167 0
151 169 0
149 168 0
146 164 0
146 165 0
150 170 0
148 166 0
144 163 0
149 167 0
144 163 0
148 167 0
148 166 0
146 164 0
147 166 0
150 168 0
145 162 0
146 163 0
143 160 0
143 160 0
146 163 0
144 161 0
147 165 0
145 162 0
144 161 0
145 163 0
143 160 0
143 159 0
143 159 0
147 165 0
147 164 0
141 157 0
144 160 0
138 154 0
147 166 0
143 160 0
142 158 0
144 161 0
146 164 0
140 155 0
142 158 0
141 158 0
141 158 0
142 158 0
135 151 0
143 159 0
142 157 0
138 153 0
141 156 0
139 155 0
138 154 0
141 157 0
131 147 0
136 150 0
135 151 0
137 152 0
138 154 0
138 153 0
136 150 0
137 151 0
131 147 0
132 145 0
135 149 0
138 153 0
133 145 0
131 145 0
132 146 0
136 150 0
132 146 0
132 144 0
132 144 0
132 144 0
135 148 0
125 138 0
135 146 0
119 130 0
126 137 0
117 127 0
115 124 0
125 137 0
117 126 0
120 131 0
125 136 0
123 134 0
118 128 0
118 129 0
115 124 0
116 125 0
115 125 0
111 120 0
99 108 0
110 119 0
108 117 0
104 115 0
99 107 0
102 111 0
98 106 0
94 103 0
83 92 0
99 107 0
117 129 0
111 123 0
114 125 0
117 128 0
115 128 0
125 138 0
110 120 0
123 135 0
122 132 0
122 133 0
128 139 0
121 134 0
110 121 0
112 123 0
121 134 0
121 132 0
117 128 0
129 143 0
131 144 0
128 142 0
129 142 0
119 132 0
125 138 0
127 140 0
116 126 0
131 144 0
126 140 0
122 134 0
127 139 0
125 136 0
116 128 0
132 147 0
117 129 0
121 132 0
116 127 0
117 130 0
122 136 0
122 133 0
110 121 0
117 129 0
121 133 0
118 130 0
117 129 0
121 134 0
104 110 11
86 80 11
90 85 0
95 89 18
91 85 0
107 100 10
114 108 16
101 95 18
115 109 21
110 105 16
111 104 19
111 106 11
107 102 19
126 120 25
120 114 19
119 112 11
122 114 19
120 114 22
132 125 22
113 105 16
123 116 19
122 114 11
127 120 22
125 119 11
125 117 19
119 113 19
122 115 11
119 112 11
126 121 16
128 122 11
126 119 10
119 113 0
118 111 15
123 117 16
117 110 16
133 127 0
121 114 0
128 122 11
123 116 19
130 123 19
130 122 11
118 114 0
121 116 0
128 122 0
119 113 11
127 119 11
124 118 0
127 121 0
131 125 16
134 129 11
128 121 19
127 120 11
134 127 19
131 124 16
134 129 11
126 121 19
120 115 16
132 124 19
131 125 22
129 121 22
127 119 16
136 130 19
129 122 25
126 118 25
127 120 19
118 112 0
124 117 11
122 115 22
122 115 16
116 110 22
125 119 16
131 124 36
126 119 30
118 110 19
124 116 25
124 117 28
124 117 36
122 114 34
119 112 30
112 105 19
115 108 19
106 100 22
113 107 25
130 135 16
131 147 0
146 163 0
141 157 0
140 157 0
148 165 0
143 158 0
145 163 0
138 157 0
149 168 0
156 175 0
140 158 0
151 169 0
153 172 0
153 173 0
148 166 0
153 172 0
150 169 0
148 168 0
152 172 0
156 177 0
160 180 0
157 177 0
157 176 0
160 181 0
162 183 0
158 179 0
159 180 0
162 182 0
156 176 0
160 182 0
169 190 0
160 181 0
163 184 0
163 184 0
157 178 0
165 183 0
158 179 0
164 187 0
167 190 0
160 182 0
163 185 0
167 190 0
166 188 0
167 188 0
167 190 0
163 185 0
163 187 0
163 184 0
168 189 0
166 189 0
169 192 0
169 190 0
166 188 0
167 188 0
164 186 0
168 191 0
163 185 0
168 191 0
165 188 0
164 187 0
170 193 0
171 192 0
169 192 0
169 193 0
166 188 0
167 189 0
170 192 0
166 189 0
170 193 0
169 192 0
165 189 0
167 191 0
169 191 0
171 193 0
171 193 0
170 194 0
170 193 0
170 193 0
167 191 0
171 194 0
171 194 0
168 192 0
172 195 0
171 193 0
167 190 0
170 194 0
170 193 0
172 195 0
170 193 0
173 196 0
174 197 0
173 196 0
171 194 0
173 196 0
170 193 0
168 192 0
175 198 0
172 195 0
168 191 0
171 195 0
174 196 0
173 195 0
174 198 0
168 191 0
171 194 0
170 194 0
171 194 0
173 196 0
172 195 0
175 198 0
174 197 0
172 195 0
171 195 0
172 195 0
171 194 0
172 196 0
176 198 0
174 197 0
171 195 0
173 196 0
173 196 0
173 196 0
172 196 0
171 194 0
173 196 0
170 193 0
173 196 0
174 198 0
171 194 0
172 195 0
173 197 0
173 196 0
173 196 0
174 196 0
173 196 0
171 194 0
173 197 0
174 197 0
174 198 0
172 196 0
170 195 0
174 197 0
172 195 0
171 196 0
173 197 0
172 196 0
173 197 0
172 196 0
172 195 0
172 196 0
171 195 0
168 192 0
172 195 0
172 195 0
174 197 0
173 196 0
174 197 0
170 194 0
144 162 0
150 168 0
147 166 0
152 172 0
149 169 0
151 171 0
151 171 0
152 171 0
150 169 0
149 167 0
151 170 0
150 169 0
147 166 0
147 166 0
150 170 0
152 171 0
146 164 0
147 165 0
150 168 0
146 166 0
148 167 0
146 165 0
150 168 0
149 167 0
146 164 0
145 163 0
146 163 0
146 163 0
148 166 0
145 163 0
144 162 0
141 159 0
147 165 0
145 163 0
145 164 0
145 163 0
144 162 0
146 163 0
144 162 0
141 157 0
146 163 0
139 155 0
146 162 0
147 163 0
144 160 0
142 158 0
145 162 0
142 158 0
143 160 0
149 166 0
148 164 0
142 159 0
141 158 0
145 161 0
142 159 0
140 155 0
142 158 0
139 153 0
137 152 0
140 155 0
141 156 0
136 151 0
138 153 0
138 153 0
131 146 0
141 157 0
139 154 0
141 156 0
131 144 0
137 152 0
142 157 0
134 148 0
132 146 0
132 146 0
133 146 0
138 154 0
133 146 0
129 144 0
135 149 0
132 145 0
130 143 0
129 141 0
134 147 0
131 143 0
131 143 0
136 149 0
128 139 0
125 139 0
131 144 0
127 138 0
119 129 0
123 134 0
124 136 0
121 131 0
121 131 0
119 130 0
119 128 0
122 132 0
124 135 0
112 121 0
113 121 0
109 118 0
103 110 0
108 116 0
108 118 0
95 104 0
105 113 0
103 113 0
95 103 0
90 97 0
82 89 0
90 99 0
113 125 0
110 121 0
103 113 0
114 125 0
112 123 0
108 118 0
109 121 0
121 130 0
119 130 0
112 122 0
126 138 0
122 134 0
114 126 0
120 133 0
126 139 0
115 127 0
115 126 0
113 124 0
125 138 0
120 131 0
111 123 0
110 122 0
123 132 0
129 141 0
113 122 0
123 137 0
107 118 0
113 125 0
123 132 0
111 122 0
125 136 0
126 139 0
116 128 0
124 136 0
119 130 0
122 132 0
120 133 0
119 132 0
128 140 0
128 141 0
125 139 0
128 141 0
114 126 0
122 134 0
110 123 0
106 116 0
111 121 0
117 123 0
87 82 11
99 93 11
109 102 0
105 96 19
104 97 19
112 105 27
107 98 22
113 106 10
110 103 0
118 111 11
111 104 11
114 107 22
118 111 0
121 113 22
120 115 22
113 108 11
113 107 10
124 116 19
124 115 16
121 113 11
124 117 22
125 117 22
124 117 0
120 114 11
117 112 0
119 112 16
127 119 16
130 123 11
123 118 11
117 111 11
127 119 0
119 112 0
129 122 11
124 117 0
132 125 0
122 117 0
131 124 0
120 113 11
129 123 0
122 115 0
123 117 11
122 115 0
121 117 0
131 124 11
131 125 11
125 118 16
133 127 11
125 118 11
130 124 0
124 117 11
131 124 0
118 112 11
125 118 11
125 117 0
124 119 11
134 128 11
124 119 11
120 114 19
128 121 22
124 115 11
123 117 11
113 108 0
120 114 22
122 115 16
124 118 16
124 117 16
122 115 25
114 108 22
123 118 11
126 119 32
118 111 22
121 114 37
124 117 32
117 111 22
126 118 34
105 98 11
117 109 28
114 107 22
112 107 19
118 113 32
136 147 11
138 153 0
139 155 0
142 157 0
131 146 0
140 156 0
147 163 0
147 163 0
145 165 0
142 159 0
142 160 0
147 165 0
141 159 0
153 174 0
152 171 0
151 171 0
149 166 0
147 164 0
155 174 0
157 177 0
161 181 0
159 180 0
158 180 0
160 179 0
155 174 0
154 173 0
156 175 0
157 177 0
154 175 0
156 177 0
156 176 0
162 181 0
159 180 0
157 176 0
159 180 0
161 182 0
163 184 0
166 188 0
163 184 0
163 183 0
163 185 0
158 179 0
168 188 0
163 185 0
164 185 0
164 185 0
165 187 0
165 186 0
166 188 0
166 187 0
169 192 0
165 186 0
165 188 0
164 186 0
165 188 0
163 184 0
166 188 0
164 185 0
164 186 0
168 190 0
165 188 0
164 187 0
164 187 0
166 188 0
174 195 0
165 188 0
167 191 0
167 190 0
171 194 0
171 194 0
169 192 0
173 196 0
170 192 0
169 192 0
173 196 0
170 193 0
169 191 0
170 192 0
169 191 0
168 190 0
170 192 0
170 194 0
168 192 0
174 196 0
170 193 0
167 191 0
170 193 0
170 193 0
171 194 0
166 190 0
171 194 0
169 193 0
171 193 0
173 196 0
171 194 0
172 196 0
174 197 0
171 194 0
173 196 0
174 196 0
169 192 0
172 195 0
172 195 0
172 195 0
169 192 0
172 195 0
173 195 0
173 196 0
173 196 0
173 195 0
171 194 0
171 196 0
171 195 0
173 195 0
172 195 0
172 196 0
173 196 0
171 194 0
171 194 0
174 197 0
172 195 0
170 194 0
174 196 0
172 196 0
171 194 0
174 197 0
175 198 0
175 197 0
173 196 0
171 194 0
174 198 0
174 198 0
171 194 0
172 196 0
174 197 0
171 195 0
172 195 0
174 197 0
173 197 0
171 194 0
172 196 0
171 195 0
172 195 0
174 197 0
174 198 0
173 196 0
174 197 0
172 197 0
169 193 0
173 197 0
172 196 0
172 196 0
174 197 0
174 197 0
175 197 0
173 196 0
173 196 0
174 197 0
175 198 0
173 196 0
144 162 0
141 159 0
146 165 0
148 167 0
148 167 0
146 165 0
152 171 0
151 170 0
147 166 0
151 171 0
148 167 0
148 167 0
150 169 0
147 165 0
147 166 0
150 169 0
149 167 0
149 166 0
151 169 0
147 166 0
152 169 0
146 165 0
147 165 0
148 167 0
147 165 0
145 164 0
142 159 0
143 159 0
148 167 0
146 164 0
146 164 0
148 165 0
145 163 0
146 163 0
145 162 0
146 164 0
144 161 0
145 163 0
146 163 0
145 162 0
143 158 0
143 159 0
143 160 0
138 155 0
149 166 0
141 158 0
145 162 0
145 162 0
144 160 0
139 155 0
139 155 0
140 154 0
139 155 0
141 158 0
143 159 0
143 160 0
138 153 0
141 156 0
138 153 0
136 152 0
133 148 0
137 153 0
141 156 0
136 151 0
144 160 0
136 151 0
137 151 0
139 153 0
130 143 0
132 145 0
136 151 0
139 154 0
135 150 0
137 151 0
133 147 0
140 154 0
131 144 0
131 144 0
132 145 0
129 144 0
135 150 0
130 142 0
130 142 0
131 143 0
129 142 0
128 141 0
124 136 0
128 141 0
129 143 0
128 139 0
130 142 0
125 137 0
120 131 0
117 128 0
116 125 0
117 127 0
114 125 0
115 125 0
108 118 0
114 126 0
120 128 0
111 120 0
106 114 0
97 105 0
102 111 0
92 99 0
95 101 0
96 104 0
90 98 0
102 110 0
101 111 0
104 112 0
106 116 0
107 117 0
115 126 0
113 123 0
117 128 0
126 138 0
102 113 0
121 131 0
113 124 0
115 128 0
117 129 0
127 139 0
118 130 0
112 122 0
114 126 0
116 125 0
127 139 0
116 129 0
121 134 0
127 140 0
124 135 0
121 133 0
121 134 0
129 141 0
118 129 0
123 135 0
122 134 0
126 140 0
121 132 0
119 130 0
119 129 0
120 133 0
133 146 0
122 134 0
112 123 0
120 130 0
130 142 0
124 136 0
123 134 0
119 129 0
123 131 0
116 125 0
111 121 0
113 123 0
118 128 0
106 117 0
104 116 0
120 129 0
113 121 0
93 91 0
97 90 16
99 91 11
101 95 15
103 96 15
106 100 0
114 107 19
97 91 0
104 97 16
114 106 22
111 104 11
114 108 16
112 105 10
111 105 15
115 110 11
121 113 22
118 112 11
117 111 16
114 107 22
105 101 16
119 113 16
117 110 11
125 119 11
129 122 11
129 122 16
121 114 11
124 117 11
120 113 0
125 118 0
125 118 11
121 114 0
122 114 11
128 122 16
129 122 0
119 112 11
127 119 19
124 119 0
126 117 11
117 112 0
123 116 0
125 120 0
129 122 16
127 119 0
129 123 16
120 113 11
122 116 0
123 117 16
126 121 11
130 124 19
126 119 0
123 116 11
122 116 0
117 111 11
124 115 22
117 109 11
122 115 11
119 111 0
123 116 11
122 116 19
121 115 0
120 114 16
112 106 0
115 108 16
121 113 25
125 119 22
122 115 25
124 117 22
123 115 25
110 104 16
129 120 32
111 105 16
118 112 19
107 101 11
115 109 22
114 108 19
110 103 34
103 97 22
109 108 16
140 148 19
144 159 0
149 162 0
126 140 0
147 161 0
144 158 0
144 155 0
146 161 0
150 166 0
147 164 0
150 167 0
156 174 0
149 166 0
147 165 0
154 171 0
147 163 0
147 164 0
156 174 0
150 168 0
154 173 0
158 177 0
153 172 0
156 175 0
148 168 0
156 175 0
162 182 0
157 176 0
154 172 0
162 182 0
165 187 0
159 180 0
162 183 0
154 175 0
162 182 0
160 182 0
162 183 0
163 184 0
162 182 0
163 185 0
159 181 0
167 189 0
164 186 0
161 184 0
161 183 0
168 189 0
165 186 0
168 189 0
169 190 0
160 182 0
161 184 0
167 188 0
164 186 0
169 191 0
165 186 0
162 183 0
164 185 0
168 191 0
166 187 0
168 190 0
168 190 0
167 189 0
167 189 0
169 191 0
164 185 0
164 187 0
168 190 0
167 189 0
170 193 0
170 193 0
169 191 0
168 192 0
166 189 0
169 192 0
164 187 0
173 196 0
167 191 0
170 193 0
171 194 0
169 192 0
170 192 0
166 189 0
169 191 0
170 193 0
169 191 0
169 193 0
170 192 0
170 193 0
173 196 0
170 194 0
167 190 0
169 191 0
172 195 0
169 192 0
171 194 0
171 194 0
170 194 0
173 196 0
172 194 0
174 196 0
173 196 0
171 194 0
172 195 0
173 196 0
171 193 0
172 195 0
172 195 0
173 196 0
171 195 0
170 193 0
170 193 0
172 196 0
171 196 0
173 196 0
173 196 0
172 195 0
172 194 0
173 196 0
171 195 0
172 195 0
170 193 0
175 198 0
172 194 0
172 195 0
167 190 0
172 195 0
171 195 0
175 197 0
170 193 0
172 195 0
175 198 0
174 197 0
172 196 0
173 196 0
172 196 0
172 196 0
173 196 0
171 195 0
170 194 0
172 195 0
171 195 0
171 193 0
174 197 0
175 198 0
174 198 0
174 197 0
173 197 0
173 197 0
174 197 0
172 195 0
174 197 0
173 196 0
174 197 0
174 197 0
174 197 0
172 195 0
172 196 0
173 197 0
174 197 0
175 198 0
173 195 0
173 196 0
141 159 0
142 160 0
146 165 0
144 162 0
149 168 0
147 166 0
148 168 0
151 171 0
146 165 0
151 170 0
151 170 0
148 167 0
151 170 0
152 172 0
149 168 0
149 167 0
147 165 0
143 161 0
146 164 0
150 169 0
146 166 0
147 165 0
147 165 0
146 164 0
148 166 0
147 165 0
145 163 0
147 164 0
148 166 0
143 159 0
147 165 0
147 165 0
145 163 0
146 164 0
144 161 0
144 162 0
145 161 0
146 165 0
145 163 0
139 156 0
142 158 0
143 159 0
148 165 0
144 160 0
143 161 0
143 159 0
140 156 0
144 162 0
142 158 0
135 151 0
136 152 0
142 158 0
136 151 0
138 154 0
140 156 0
143 158 0
140 155 0
135 150 0
139 155 0
140 155 0
141 156 0
138 153 0
140 155 0
137 150 0
132 147 0
142 158 0
135 149 0
129 141 0
131 145 0
137 152 0
128 142 0
136 151 0
139 154 0
129 143 0
131 145 0
128 142 0
131 144 0
133 147 0
125 138 0
132 146 0
132 146 0
127 139 0
123 135 0
131 144 0
129 140 0
115 126 0
126 139 0
129 142 0
127 140 0
126 138 0
120 133 0
127 139 0
120 131 0
111 120 0
107 117 0
111 120 0
109 118 0
114 124 0
111 119 0
109 119 0
114 123 0
111 120 0
111 120 0
99 109 0
88 95 0
87 94 0
83 89 0
97 106 0
96 104 0
109 119 0
112 120 0
108 119 0
107 116 0
111 119 0
109 120 0
114 123 0
119 130 0
119 130 0
115 124 0
118 129 0
112 120 0
124 134 0
122 133 0
114 124 0
118 129 0
119 129 0
120 129 0
118 130 0
110 120 0
115 126 0
115 127 0
116 127 0
124 135 0
123 135 0
115 125 0
122 134 0
117 127 0
117 128 0
132 144 0
128 141 0
127 142 0
121 131 0
122 135 0
120 131 0
123 134 0
119 131 0
124 133 0
107 115 0
129 138 0
116 125 0
117 127 0
123 135 0
121 129 0
115 123 0
111 121 0
121 132 0
117 128 0
126 136 0
118 128 0
125 135 0
112 121 0
120 130 0
111 113 0
92 87 0
86 79 0
104 97 11
103 97 18
100 95 0
93 86 0
108 100 11
102 94 0
105 98 16
109 102 0
106 99 16
122 113 0
117 110 11
104 98 0
123 116 16
114 107 11
119 111 16
121 115 16
117 110 16
116 109 0
125 117 16
112 105 0
117 109 16
121 115 0
115 109 16
118 111 0
126 118 11
127 118 0
123 116 11
121 115 0
135 128 11
127 121 0
119 111 0
119 111 0
128 121 0
123 114 0
130 122 11
119 112 0
126 118 0
124 117 11
122 113 0
121 116 0
127 120 0
126 118 11
119 114 11
123 117 0
123 117 0
122 115 0
117 110 11
121 116 11
129 123 0
120 112 16
129 123 0
126 118 19
119 113 11
128 122 16
122 115 16
124 117 11
126 120 25
121 113 19
111 103 11
114 107 16
115 108 19
113 106 19
105 99 19
114 109 16
113 105 19
114 108 19
121 113 28
114 106 28
123 115 22
115 107 25
111 103 28
105 98 28
115 116 19
142 153 0
140 151 0
141 154 0
148 162 0
141 155 0
145 156 0
142 157 0
146 157 0
138 151 0
144 160 0
150 167 0
143 159 0
150 166 0
149 165 0
147 162 0
157 174 0
148 162 0
157 176 0
151 170 0
153 171 0
154 172 0
158 176 0
153 172 0
143 162 0
153 171 0
157 175 0
160 181 0
158 178 0
162 181 0
157 178 0
160 180 0
163 181 0
157 178 0
166 186 0
158 177 0
160 181 0
164 186 0
166 186 0
165 185 0
163 182 0
162 182 0
162 183 0
167 186 0
165 186 0
164 183 0
166 184 0
165 187 0
166 187 0
163 185 0
162 182 0
163 182 0
168 189 0
165 187 0
169 191 0
170 191 0
168 191 0
170 190 0
164 186 0
168 191 0
166 187 0
164 187 0
168 191 0
165 187 0
169 191 0
165 187 0
167 188 0
169 192 0
168 191 0
171 194 0
169 191 0
170 193 0
165 187 0
169 190 0
169 191 0
173 196 0
173 196 0
169 190 0
170 191 0
172 195 0
169 192 0
168 191 0
172 195 0
170 193 0
170 194 0
169 192 0
170 193 0
172 195 0
170 192 0
169 192 0
172 194 0
169 192 0
168 191 0
171 193 0
166 189 0
170 193 0
168 192 0
167 189 0
173 195 0
172 195 0
172 194 0
172 195 0
173 196 0
170 193 0
171 193 0
173 195 0
171 195 0
172 196 0
171 195 0
172 196 0
170 193 0
172 194 0
172 196 0
169 191 0
173 197 0
174 197 0
174 197 0
171 195 0
175 197 0
172 194 0
172 195 0
174 197 0
172 195 0
171 194 0
172 195 0
175 198 0
175 198 0
172 196 0
171 194 0
173 197 0
174 197 0
173 197 0
172 195 0
172 195 0
173 197 0
172 196 0
172 196 0
174 196 0
175 198 0
172 196 0
174 196 0
173 196 0
174 197 0
173 196 0
171 194 0
173 197 0
171 195 0
174 197 0
172 195 0
175 197 0
173 197 0
172 195 0
173 196 0
173 195 0
174 197 0
174 198 0
174 197 0
175 198 0
172 195 0
175 198 0
174 197 0
174 197 0
172 195 0
132 149 0
130 147 0
140 158 0
138 156 0
138 156 0
142 160 0
147 165 0
147 165 0
148 166 0
146 165 0
146 164 0
147 166 0
149 167 0
148 167 0
146 164 0
146 164 0
147 165 0
144 162 0
147 165 0
149 167 0
149 166 0
145 162 0
150 168 0
148 166 0
143 160 0
147 165 0
147 165 0
145 163 0
146 164 0
146 163 0
145 163 0
145 163 0
142 160 0
143 160 0
145 163 0
144 160 0
143 160 0
143 160 0
146 165 0
142 158 0
145 163 0
141 158 0
146 162 0
144 161 0
146 164 0
143 158 0
144 160 0
141 157 0
140 155 0
137 153 0
140 157 0
142 158 0
138 154 0
137 153 0
135 150 0
140 155 0
135 150 0
140 156 0
137 153 0
138 154 0
137 153 0
138 154 0
132 147 0
135 148 0
132 144 0
136 151 0
138 152 0
137 151 0
136 150 0
126 139 0
132 146 0
135 149 0
133 148 0
135 147 0
131 145 0
130 143 0
133 146 0
130 144 0
131 143 0
129 142 0
127 140 0
127 138 0
124 137 0
130 142 0
125 137 0
128 140 0
125 138 0
124 136 0
126 137 0
120 130 0
118 129 0
121 132 0
123 134 0
111 120 0
116 126 0
112 121 0
104 112 0
117 126 0
113 122 0
96 103 0
101 110 0
98 104 0
95 104 0
85 92 0
67 73 0
100 108 0
92 100 0
91 98 0
109 118 0
108 117 0
101 110 0
105 115 0
100 110 0
116 127 0
114 123 0
117 128 0
116 126 0
108 118 0
118 128 0
113 124 0
110 120 0
120 131 0
115 124 0
116 127 0
125 136 0
124 135 0
116 126 0
125 136 0
114 124 0
127 137 0
128 139 0
123 134 0
125 136 0
130 143 0
118 129 0
131 142 0
126 136 0
118 127 0
114 125 0
117 128 0
122 131 0
122 132 0
131 142 0
125 135 0
113 123 0
115 125 0
123 131 0
125 136 0
121 128 0
119 128 0
121 133 0
123 132 0
120 130 0
127 138 0
123 135 0
107 114 0
104 110 0
123 130 0
119 128 0
111 117 0
121 127 0
121 129 0
117 121 0
108 112 0
99 92 11
98 92 0
91 84 0
106 98 15
103 96 0
95 87 11
100 93 0
95 88 11
108 99 11
117 109 11
115 109 19
109 103 11
123 116 16
107 99 16
116 108 11
125 117 16
117 109 16
122 115 11
107 100 11
113 106 11
121 114 11
119 112 0
126 117 19
121 114 0
120 114 0
121 113 11
117 110 0
124 117 0
128 120 0
112 105 0
127 119 0
123 116 0
125 118 0
123 115 0
127 120 0
121 114 0
126 118 0
114 108 0
125 118 11
119 112 0
122 116 0
126 120 0
121 115 19
123 115 16
122 117 0
121 113 11
123 117 11
124 117 11
126 119 11
121 115 11
128 122 11
119 112 11
123 115 19
124 117 16
126 118 16
110 102 11
122 115 11
125 118 11
124 118 19
120 111 11
113 106 19
123 114 28
119 113 0
119 113 16
114 106 22
121 114 16
114 106 19
122 114 22
123 115 16
107 99 19
111 104 30
103 97 19
129 136 11
133 142 0
134 144 0
145 155 0
145 158 0
149 163 0
145 157 0
153 166 0
140 153 0
149 162 0
146 160 0
153 169 0
149 163 0
147 160 0
155 170 0
149 166 0
151 166 0
154 171 0
153 169 0
153 168 0
148 164 0
155 176 0
153 172 0
154 171 0
152 169 0
155 172 0
161 181 0
153 172 0
156 175 0
156 176 0
153 169 0
155 171 0
159 179 0
163 183 0
158 178 0
156 176 0
162 184 0
160 179 0
157 177 0
160 181 0
164 185 0
160 179 0
168 188 0
163 184 0
161 182 0
161 183 0
160 182 0
166 187 0
166 185 0
163 182 0
166 186 0
165 186 0
168 189 0
165 186 0
164 186 0
165 187 0
162 184 0
168 189 0
165 188 0
171 192 0
164 186 0
169 191 0
169 190 0
171 194 0
166 187 0
170 191 0
170 192 0
163 184 0
169 191 0
170 192 0
164 186 0
169 192 0
172 194 0
168 191 0
169 191 0
168 190 0
167 189 0
165 189 0
169 192 0
171 194 0
167 189 0
171 193 0
171 194 0
168 189 0
169 192 0
169 191 0
171 194 0
170 192 0
163 186 0
169 191 0
169 191 0
172 194 0
172 194 0
169 190 0
172 194 0
173 197 0
170 193 0
169 193 0
171 195 0
167 190 0
171 194 0
171 195 0
169 191 0
171 194 0
172 195 0
171 194 0
172 195 0
169 192 0
171 194 0
171 195 0
170 193 0
173 195 0
172 195 0
173 196 0
172 194 0
172 195 0
170 192 0
172 195 0
174 197 0
172 195 0
173 196 0
172 195 0
174 196 0
172 195 0
173 196 0
170 194 0
174 197 0
170 193 0
172 194 0
169 194 0
173 196 0
174 196 0
172 196 0
170 193 0
172 196 0
172 196 0
173 196 0
174 196 0
172 195 0
170 193 0
171 194 0
169 193 0
171 195 0
172 194 0
169 193 0
172 195 0
175 198 0
174 197 0
172 195 0
173 196 0
173 196 0
173 197 0
171 195 0
175 196 0
173 195 0
172 196 0
175 198 0
174 197 0
172 196 0
173 197 0
172 195 0
172 196 0
171 194 0
174 197 0
120 135 0
130 147 0
131 148 0
138 156 0
141 159 0
138 156 0
137 155 0
135 152 0
145 163 0
147 165 0
140 157 0
147 166 0
145 163 0
152 172 0
149 168 0
147 165 0
149 167 0
148 165 0
148 167 0
149 168 0
149 167 0
150 168 0
149 167 0
145 163 0
149 166 0
144 161 0
144 161 0
146 163 0
144 161 0
145 162 0
144 162 0
145 161 0
146 163 0
147 163 0
145 162 0
144 160 0
144 160 0
144 161 0
142 159 0
140 156 0
141 157 0
141 159 0
143 159 0
137 151 0
145 162 0
142 158 0
140 155 0
142 159 0
139 154 0
136 152 0
139 155 0
138 154 0
140 156 0
133 148 0
140 156 0
138 152 0
137 153 0
144 161 0
136 151 0
137 151 0
136 151 0
136 151 0
136 151 0
136 151 0
141 157 0
134 149 0
138 152 0
130 144 0
136 149 0
136 149 0
134 148 0
131 146 0
128 140 0
129 143 0
132 146 0
133 147 0
134 147 0
128 140 0
132 146 0
123 134 0
125 139 0
126 137 0
131 142 0
128 139 0
124 135 0
125 137 0
120 132 0
128 141 0
112 121 0
118 129 0
121 132 0
120 131 0
117 128 0
114 124 0
110 118 0
106 115 0
108 117 0
106 115 0
95 104 0
98 106 0
92 99 0
73 80 0
85 92 0
91 97 0
92 101 0
97 103 0
106 115 0
99 106 0
105 114 0
106 114 0
102 111 0
111 119 0
100 109 0
112 123 0
94 101 0
107 116 0
111 119 0
115 126 0
111 122 0
115 125 0
123 135 0
114 125 0
128 139 0
125 136 0
124 135 0
125 136 0
112 121 0
113 124 0
123 133 0
123 132 0
126 138 0
122 134 0
116 128 0
128 139 0
121 133 0
117 126 0
127 139 0
122 133 0
122 131 0
130 143 0
114 122 0
129 140 0
114 124 0
110 121 0
120 128 0
119 128 0
129 140 0
131 141 0
116 125 0
124 135 0
127 137 0
116 126 0
118 124 0
120 129 0
119 126 0
121 129 0
113 122 0
122 128 0
121 129 0
129 136 0
118 125 0
112 117 0
112 117 0
120 123 0
110 113 0
105 105 0
99 93 0
93 86 11
104 97 0
102 97 0
112 104 11
97 90 0
101 95 10
107 99 0
118 109 11
113 106 11
114 107 11
110 103 0
122 116 16
109 102 0
112 107 11
116 110 0
118 111 0
115 109 11
118 109 11
120 113 0
120 112 11
120 112 16
120 113 0
120 112 19
124 117 0
117 109 11
123 116 0
125 117 0
124 117 16
121 113 11
117 111 0
124 116 0
120 114 0
121 112 0
128 119 0
121 115 0
123 117 0
125 119 0
124 115 0
116 111 0
120 113 11
118 111 0
105 100 0
123 114 11
129 121 11
120 112 11
117 111 19
118 110 0
123 116 11
123 117 0
122 115 16
126 120 25
115 108 11
117 109 11
116 110 16
122 113 25
114 108 0
117 110 11
109 102 0
112 107 11
115 105 19
118 111 19
118 111 16
113 106 22
114 107 19
99 93 16
101 93 19
109 102 16
124 127 16
132 139 0
138 147 0
135 141 0
142 155 0
148 160 0
145 155 0
142 154 0
141 152 0
148 159 0
144 156 0
155 169 0
147 161 0
151 166 0
146 160 0
158 173 0
145 159 0
151 166 0
153 169 0
149 163 0
153 169 0
157 173 0
153 170 0
149 163 0
154 172 0
154 173 0
148 166 0
158 177 0
153 170 0
161 181 0
161 180 0
161 179 0
161 179 0
153 169 0
157 176 0
162 180 0
159 178 0
157 177 0
162 182 0
159 179 0
163 181 0
160 179 0
162 182 0
165 184 0
163 183 0
157 177 0
168 189 0
162 183 0
164 185 0
159 180 0
160 180 0
171 192 0
164 186 0
158 180 0
165 187 0
169 189 0
168 190 0
166 188 0
166 188 0
168 190 0
165 187 0
161 182 0
161 185 0
169 190 0
159 181 0
168 190 0
165 186 0
166 187 0
167 189 0
164 187 0
167 188 0
164 187 0
165 187 0
169 191 0
168 189 0
165 187 0
168 190 0
170 192 0
163 186 0
168 191 0
169 191 0
166 188 0
168 191 0
166 188 0
170 193 0
174 197 0
172 194 0
169 190 0
170 193 0
169 192 0
173 195 0
167 189 0
171 193 0
171 195 0
169 192 0
170 193 0
173 196 0
174 196 0
173 196 0
173 195 0
172 195 0
170 191 0
170 193 0
172 195 0
170 193 0
169 192 0
172 195 0
172 195 0
170 193 0
170 193 0
175 197 0
170 192 0
170 193 0
171 195 0
171 194 0
173 196 0
169 192 0
171 194 0
171 195 0
174 197 0
172 196 0
174 197 0
172 195 0
173 196 0
172 194 0
170 193 0
174 197 0
173 196 0
172 195 0
171 194 0
174 196 0
172 195 0
174 197 0
171 194 0
172 195 0
173 196 0
170 194 0
173 196 0
175 198 0
172 196 0
171 194 0
172 196 0
172 195 0
173 197 0
171 195 0
173 196 0
173 197 0
173 196 0
173 196 0
172 196 0
172 195 0
173 196 0
171 195 0
171 195 0
173 196 0
173 197 0
175 197 0
173 196 0
172 196 0
172 196 0
174 198 0
173 197 0
173 197 0
173 196 0
172 195 0
174 198 0
129 146 0
131 147 0
113 127 0
128 144 0
129 146 0
132 149 0
136 153 0
137 155 0
138 155 0
139 156 0
143 161 0
142 161 0
141 159 0
143 161 0
146 163 0
141 159 0
147 165 0
148 165 0
149 167 0
145 163 0
148 168 0
147 165 0
147 165 0
148 166 0
145 163 0
144 162 0
144 160 0
147 165 0
146 164 0
141 158 0
143 160 0
142 159 0
140 157 0
142 158 0
143 161 0
142 159 0
143 160 0
145 162 0
145 162 0
139 157 0
141 156 0
146 163 0
139 154 0
146 164 0
141 157 0
138 153 0
142 159 0
144 160 0
138 155 0
139 155 0
135 151 0
137 152 0
140 155 0
139 155 0
139 155 0
142 157 0
138 153 0
138 154 0
136 150 0
136 151 0
137 151 0
135 151 0
135 150 0
134 150 0
135 150 0
131 145 0
133 147 0
131 144 0
132 146 0
136 149 0
133 146 0
126 139 0
133 146 0
125 138 0
122 135 0
121 133 0
130 143 0
128 141 0
129 142 0
119 130 0
130 142 0
124 136 0
122 134 0
124 136 0
117 127 0
116 127 0
119 130 0
119 128 0
117 127 0
112 123 0
110 119 0
110 119 0
107 115 0
113 122 0
100 109 0
96 104 0
103 110 0
98 106 0
95 103 0
86 93 0
88 95 0
91 99 0
91 98 0
111 119 0
102 110 0
102 110 0
107 116 0
108 117 0
111 119 0
109 117 0
108 117 0
120 129 0
115 124 0
120 131 0
115 123 0
123 133 0
113 121 0
109 118 0
118 129 0
112 121 0
116 125 0
127 137 0
121 130 0
117 127 0
126 135 0
124 132 0
125 135 0
125 136 0
129 141 0
115 127 0
137 149 0
124 132 0
121 132 0
117 127 0
120 130 0
121 131 0
113 123 0
136 147 0
123 133 0
132 146 0
123 135 0
127 137 0
129 139 0
129 140 0
125 135 0
124 133 0
116 124 0
115 124 0
127 135 0
125 135 0
127 134 0
130 140 0
117 124 0
123 131 0
127 136 0
124 132 0
119 125 0
119 125 0
120 127 0
129 133 0
117 123 0
116 125 0
126 131 0
108 114 0
119 125 0
111 116 0
103 105 0
96 92 0
90 82 11
106 98 11
100 93 0
102 96 0
102 97 0
110 104 11
112 105 0
110 103 11
111 104 0
100 92 0
114 108 11
109 101 11
116 108 16
113 105 11
113 107 11
108 102 0
114 108 0
121 114 0
120 110 0
114 107 11
118 110 11
117 111 0
105 97 0
119 113 0
112 104 0
119 112 0
114 107 0
107 99 0
104 96 11
125 117 0
117 109 0
124 116 0
110 105 0
117 109 0
114 106 0
116 108 11
124 116 0
126 120 0
116 110 0
122 113 0
122 115 0
118 107 0
116 108 0
119 111 0
123 116 16
122 115 0
128 121 22
116 110 16
119 112 0
114 106 11
118 111 19
109 103 11
114 105 0
116 108 11
112 104 16
110 103 11
104 97 0
111 105 19
106 99 16
111 104 11
110 103 16
107 100 16
112 105 16
106 98 16
110 108 19
128 129 0
140 149 0
141 149 0
138 146 0
137 144 0
135 147 0
141 151 0
148 158 0
150 161 0
152 162 0
145 156 0
140 153 0
153 166 0
151 164 0
151 163 0
150 166 0
146 160 0
146 158 0
149 164 0
154 170 0
152 166 0
148 159 0
153 169 0
156 170 0
159 174 0
148 166 0
154 172 0
148 167 0
162 179 0
157 173 0
156 173 0
157 174 0
160 180 0
158 178 0
158 176 0
160 179 0
163 181 0
158 177 0
161 180 0
160 180 0
157 176 0
161 181 0
162 182 0
160 181 0
155 173 0
162 183 0
167 187 0
161 181 0
162 181 0
161 182 0
165 186 0
165 186 0
159 181 0
163 183 0
166 188 0
164 185 0
164 185 0
163 183 0
163 184 0
162 183 0
163 184 0
172 194 0
166 186 0
167 188 0
166 188 0
167 188 0
167 188 0
165 187 0
165 186 0
167 188 0
164 186 0
164 186 0
164 185 0
169 192 0
169 191 0
170 191 0
161 183 0
168 190 0
172 195 0
165 187 0
166 189 0
172 195 0
170 193 0
172 195 0
168 190 0
168 189 0
170 192 0
172 194 0
171 192 0
170 193 0
172 195 0
172 196 0
166 189 0
171 193 0
169 191 0
172 195 0
169 193 0
168 191 0
170 193 0
171 194 0
172 194 0
170 193 0
170 191 0
170 192 0
172 194 0
170 193 0
172 195 0
172 196 0
167 189 0
171 194 0
173 195 0
170 193 0
173 196 0
171 193 0
172 195 0
171 194 0
171 194 0
173 196 0
171 194 0
170 193 0
171 194 0
171 194 0
173 196 0
172 196 0
172 195 0
172 195 0
172 195 0
173 197 0
171 195 0
170 193 0
168 192 0
171 194 0
171 194 0
172 195 0
172 196 0
171 195 0
172 196 0
173 196 0
170 194 0
172 196 0
173 196 0
171 194 0
173 195 0
169 192 0
174 197 0
169 192 0
173 196 0
173 196 0
172 195 0
173 196 0
172 195 0
172 196 0
172 195 0
174 197 0
174 196 0
174 196 0
173 196 0
173 197 0
174 196 0
173 197 0
175 198 0
173 197 0
172 196 0
175 198 0
174 197 0
172 196 0
173 195 0
172 195 0
161 182 0
146 165 0
126 142 0
126 141 0
133 149 0
130 147 0
121 136 0
135 153 0
134 151 0
131 148 0
139 156 0
138 156 0
136 153 0
143 160 0
142 159 0
139 155 0
149 167 0
144 161 0
147 164 0
146 164 0
150 167 0
143 161 0
145 162 0
143 160 0
146 163 0
147 165 0
145 163 0
144 160 0
141 156 0
143 159 0
146 162 0
142 159 0
147 163 0
147 164 0
145 161 0
143 161 0
142 158 0
142 159 0
141 158 0
140 157 0
142 158 0
139 153 0
140 157 0
141 157 0
144 159 0
138 154 0
138 154 0
142 158 0
139 155 0
142 159 0
141 157 0
135 150 0
141 157 0
136 151 0
133 148 0
137 151 0
138 153 0
138 152 0
133 145 0
138 153 0
127 141 0
138 152 0
133 147 0
133 147 0
127 139 0
133 146 0
133 148 0
137 151 0
130 144 0
127 140 0
127 139 0
127 139 0
128 140 0
130 143 0
129 142 0
124 136 0
130 141 0
127 140 0
123 135 0
119 131 0
119 130 0
117 127 0
121 133 0
127 139 0
112 121 0
114 123 0
108 118 0
109 119 0
109 120 0
115 125 0
109 118 0
94 102 0
103 112 0
89 97 0
79 86 0
85 91 0
80 86 0
83 90 0
83 90 0
91 99 0
89 95 0
101 109 0
100 107 0
96 102 0
104 112 0
109 118 0
106 115 0
111 120 0
113 121 0
112 123 0
100 108 0
111 121 0
121 130 0
125 134 0
121 131 0
113 122 0
117 126 0
121 130 0
116 126 0
118 129 0
125 137 0
127 136 0
125 136 0
124 135 0
124 133 0
123 132 0
117 126 0
117 125 0
126 137 0
135 148 0
117 127 0
124 133 0
126 137 0
123 132 0
130 143 0
125 137 0
126 138 0
117 127 0
130 140 0
123 132 0
132 145 0
125 136 0
128 139 0
126 136 0
124 132 0
121 130 0
134 144 0
126 136 0
123 131 0
121 131 0
126 133 0
128 138 0
131 140 0
122 129 0
122 130 0
124 131 0
128 135 0
111 115 0
120 126 0
110 115 0
124 131 0
118 123 0
112 115 0
121 126 0
115 118 0
118 123 0
111 114 0
106 106 0
95 90 10
89 83 10
96 88 0
100 91 0
102 94 0
108 100 0
98 91 10
102 94 0
104 95 11
107 100 11
106 99 16
102 97 0
107 100 11
105 99 0
108 100 0
116 108 11
110 104 11
109 102 0
120 113 0
113 107 0
115 109 11
117 110 0
118 111 0
110 104 0
113 105 0
115 107 0
117 110 0
122 116 0
120 113 11
117 108 0
119 113 0
115 109 0
116 109 0
113 105 0
112 105 0
121 112 0
119 113 0
132 125 11
120 113 0
123 115 11
114 105 0
118 109 11
115 109 16
111 103 0
106 96 0
114 107 11
113 107 0
119 112 11
117 109 0
99 92 11
117 108 11
113 102 11
109 101 16
116 110 19
113 104 19
123 115 22
114 106 30
103 96 16
109 101 0
100 92 0
101 93 11
117 113 22
128 130 0
139 145 0
145 150 0
136 143 0
133 142 0
139 144 0
140 150 0
152 162 0
136 144 0
150 160 0
139 151 0
146 157 0
145 157 0
147 157 0
143 155 0
149 160 0
153 165 0
152 166 0
150 163 0
151 165 0
155 169 0
145 160 0
152 166 0
152 167 0
151 168 0
157 172 0
151 164 0
155 171 0
156 173 0
161 176 0
153 166 0
154 170 0
163 181 0
158 175 0
159 178 0
160 179 0
160 178 0
161 178 0
160 178 0
162 179 0
164 183 0
161 180 0
161 180 0
161 180 0
155 174 0
159 178 0
160 179 0
166 187 0
164 183 0
168 188 0
162 180 0
162 183 0
167 186 0
161 181 0
164 186 0
163 184 0
164 184 0
163 186 0
167 189 0
161 180 0
160 181 0
165 185 0
168 189 0
163 184 0
168 189 0
166 189 0
167 188 0
165 188 0
167 188 0
169 190 0
164 186 0
162 182 0
166 188 0
162 183 0
167 190 0
164 185 0
172 193 0
169 191 0
168 189 0
168 190 0
165 187 0
169 191 0
166 187 0
171 193 0
167 188 0
167 189 0
170 192 0
168 191 0
169 192 0
168 189 0
171 193 0
163 185 0
169 192 0
168 190 0
165 186 0
172 194 0
171 193 0
171 193 0
169 191 0
172 193 0
169 193 0
169 191 0
169 192 0
172 194 0
168 191 0
169 192 0
169 192 0
169 192 0
173 196 0
173 195 0
172 195 0
168 191 0
172 195 0
173 195 0
168 191 0
170 193 0
172 196 0
170 194 0
172 193 0
169 192 0
173 196 0
173 196 0
172 195 0
171 194 0
171 194 0
171 195 0
171 194 0
173 197 0
171 194 0
174 197 0
173 196 0
170 194 0
170 193 0
172 195 0
172 196 0
172 195 0
171 195 0
172 195 0
172 195 0
170 193 0
171 194 0
173 197 0
170 193 0
175 198 0
171 195 0
171 194 0
173 196 0
172 195 0
175 198 0
173 197 0
173 195 0
171 195 0
174 197 0
171 195 0
173 196 0
170 194 0
172 195 0
175 197 0
172 196 0
172 195 0
171 195 0
174 197 0
173 196 0
173 197 0
173 197 0
172 196 0
175 198 0
173 195 0
171 195 0
172 195 0
173 195 0
169 192 0
167 190 0
162 184 0
140 158 0
126 142 0
122 137 0
122 137 0
129 145 0
126 141 0
130 146 0
132 148 0
132 149 0
140 156 0
137 153 0
136 153 0
135 151 0
138 154 0
143 160 0
136 152 0
145 162 0
143 160 0
146 163 0
144 160 0
147 164 0
141 158 0
143 160 0
142 159 0
142 159 0
138 154 0
145 162 0
142 159 0
144 160 0
142 159 0
147 163 0
139 155 0
144 161 0
144 162 0
137 153 0
134 149 0
141 157 0
140 156 0
139 156 0
142 159 0
139 155 0
144 159 0
141 156 0
137 152 0
139 154 0
138 153 0
140 156 0
133 148 0
139 155 0
135 149 0
136 150 0
132 147 0
138 152 0
141 156 0
134 148 0
134 148 0
132 146 0
127 140 0
138 154 0
133 146 0
134 148 0
127 139 0
130 142 0
131 145 0
127 141 0
124 137 0
130 144 0
125 137 0
127 140 0
126 137 0
125 137 0
126 138 0
126 137 0
119 131 0
120 132 0
128 139 0
117 128 0
117 128 0
114 125 0
114 124 0
106 114 0
109 117 0
109 117 0
108 117 0
98 107 0
104 114 0
99 107 0
88 94 0
90 98 0
97 104 0
83 89 0
91 98 0
94 101 0
86 93 0
101 110 0
94 103 0
103 110 0
102 111 0
107 116 0
102 110 0
116 127 0
108 117 0
108 117 0
104 112 0
109 119 0
120 130 0
115 125 0
110 119 0
117 127 0
128 139 0
117 127 0
121 131 0
124 131 0
117 126 0
133 144 0
121 131 0
122 131 0
118 128 0
128 138 0
121 130 0
124 134 0
127 137 0
126 137 0
120 129 0
126 135 0
127 136 0
118 128 0
125 135 0
128 136 0
128 137 0
138 149 0
121 132 0
134 145 0
121 133 0
122 133 0
129 140 0
125 135 0
130 140 0
139 149 0
134 144 0
132 142 0
120 126 0
137 146 0
127 136 0
125 134 0
117 124 0
126 134 0
126 134 0
123 130 0
122 130 0
126 132 0
113 121 0
130 135 0
120 124 0
123 130 0
122 129 0
121 125 0
126 132 0
115 118 0
120 123 0
118 121 0
116 119 0
115 119 0
120 121 0
116 118 0
98 95 0
102 95 0
87 79 0
103 95 11
91 82 0
99 92 0
95 87 0
103 96 15
112 103 16
102 94 0
102 96 0
109 102 0
107 99 16
103 96 11
115 109 0
120 110 0
115 108 11
103 96 0
112 104 0
106 98 11
111 103 0
97 90 0
110 101 0
116 108 0
107 98 0
117 108 0
116 109 0
109 100 0
103 95 0
121 114 0
107 100 0
111 106 0
124 115 0
116 110 0
112 103 0
105 99 0
116 107 11
118 111 0
113 105 0
114 108 11
121 112 16
119 111 0
121 110 0
109 101 0
112 106 11
112 104 11
115 107 11
112 105 11
112 102 11
111 103 19
107 100 0
107 98 19
112 103 16
116 108 0
105 99 11
100 94 11
107 99 11
105 96 16
104 100 19
125 125 11
133 136 0
132 136 0
134 140 0
137 144 0
134 137 0
138 146 0
144 152 0
138 145 0
146 150 0
137 146 0
143 153 0
149 162 0
148 157 0
150 163 0
150 160 0
147 159 0
149 160 0
147 158 0
152 163 0
156 168 0
152 167 0
145 157 0
157 173 0
160 175 0
152 165 0
158 172 0
157 174 0
160 175 0
156 173 0
158 171 0
156 172 0
155 171 0
161 176 0
156 172 0
160 178 0
163 181 0
163 182 0
153 170 0
159 177 0
159 177 0
158 176 0
161 181 0
162 179 0
155 173 0
160 178 0
162 183 0
159 178 0
162 183 0
162 181 0
165 184 0
162 182 0
165 185 0
162 183 0
162 182 0
170 191 0
168 189 0
164 185 0
158 179 0
165 186 0
168 189 0
170 191 0
165 186 0
167 188 0
163 182 0
168 190 0
171 193 0
165 186 0
166 188 0
169 189 0
166 186 0
168 190 0
167 188 0
167 189 0
166 187 0
164 186 0
168 191 0
160 181 0
165 187 0
167 188 0
167 189 0
169 191 0
167 189 0
173 195 0
170 192 0
168 190 0
166 188 0
173 195 0
169 191 0
168 191 0
168 191 0
170 193 0
169 192 0
166 188 0
167 190 0
170 193 0
169 192 0
171 194 0
171 193 0
167 189 0
167 191 0
172 193 0
172 194 0
170 193 0
172 195 0
172 195 0
170 193 0
170 193 0
170 193 0
169 193 0
171 194 0
172 194 0
172 195 0
169 192 0
173 197 0
167 190 0
169 191 0
171 193 0
172 195 0
169 191 0
172 195 0
171 194 0
173 196 0
170 194 0
172 195 0
171 194 0
173 196 0
168 192 0
173 196 0
169 192 0
171 194 0
174 196 0
171 195 0
172 195 0
169 193 0
170 193 0
174 197 0
172 194 0
170 194 0
167 190 0
170 194 0
174 197 0
173 196 0
174 197 0
172 194 0
171 194 0
170 193 0
172 195 0
170 193 0
171 195 0
172 196 0
173 195 0
172 196 0
171 194 0
173 196 0
172 196 0
174 197 0
170 194 0
172 195 0
174 198 0
173 196 0
174 197 0
171 195 0
173 195 0
172 196 0
172 195 0
170 193 0
175 198 0
173 197 0
172 196 0
171 194 0
174 196 0
170 193 0
172 194 0
168 191 0
169 192 0
169 191 0
169 191 0
155 174 0
141 159 0
134 151 0
120 135 0
129 145 0
120 134 0
127 143 0
128 143 0
131 148 0
126 141 0
133 149 0
137 153 0
139 155 0
140 156 0
135 151 0
135 151 0
137 153 0
140 158 0
142 158 0
138 154 0
141 158 0
137 154 0
139 155 0
146 163 0
136 150 0
140 156 0
141 157 0
144 160 0
142 158 0
144 160 0
143 158 0
143 159 0
137 153 0
136 150 0
144 160 0
138 154 0
136 151 0
136 152 0
140 155 0
141 156 0
140 156 0
135 150 0
140 155 0
134 149 0
134 148 0
132 146 0
133 147 0
133 148 0
139 154 0
139 153 0
138 153 0
134 148 0
130 144 0
136 150 0
130 144 0
135 149 0
130 143 0
128 141 0
133 148 0
127 140 0
127 139 0
128 142 0
132 145 0
124 136 0
131 144 0
127 140 0
120 130 0
125 137 0
125 137 0
122 134 0
119 131 0
114 124 0
116 128 0
110 120 0
119 129 0
106 115 0
105 114 0
111 120 0
101 110 0
103 113 0
91 100 0
87 95 0
82 89 0
76 82 0
85 91 0
72 77 0
89 96 0
94 101 0
95 102 0
85 93 0
105 113 0
101 108 0
107 116 0
95 103 0
114 124 0
112 119 0
114 123 0
105 114 0
127 137 0
118 129 0
118 127 0
117 128 0
112 121 0
120 129 0
123 132 0
117 124 0
122 134 0
124 134 0
129 139 0
123 132 0
123 134 0
134 145 0
131 144 0
129 141 0
123 132 0
124 134 0
128 139 0
129 140 0
130 138 0
136 148 0
125 134 0
125 135 0
128 138 0
125 134 0
126 137 0
125 134 0
119 127 0
129 141 0
129 140 0
134 145 0
125 135 0
128 138 0
126 134 0
136 148 0
127 137 0
127 138 0
129 139 0
133 142 0
127 137 0
124 132 0
134 142 0
121 128 0
130 138 0
121 129 0
130 137 0
123 132 0
129 135 0
131 138 0
120 127 0
119 125 0
130 138 0
126 132 0
117 119 0
124 128 0
125 130 0
126 131 0
123 127 0
122 128 0
118 123 0
112 116 0
117 118 0
114 115 0
120 120 0
121 125 0
106 105 0
106 106 0
95 92 0
96 87 0
95 87 11
101 93 0
93 85 0
107 97 11
104 96 0
95 87 0
101 94 0
104 95 0
113 106 0
106 99 0
114 108 0
109 102 11
104 96 0
115 107 0
100 94 0
104 98 0
105 97 0
108 100 0
115 108 0
110 102 0
113 104 0
116 107 0
114 106 0
109 100 0
114 105 0
113 106 11
114 107 0
122 113 0
109 100 0
114 106 0
116 108 0
114 106 0
110 103 0
114 106 0
110 103 0
115 106 11
108 101 0
114 105 11
106 98 0
112 105 0
115 107 0
112 104 11
108 102 0
105 94 16
115 105 0
99 92 0
107 97 16
103 95 11
99 92 16
106 96 16
110 101 11
102 94 16
127 128 11
138 141 0
139 144 0
134 135 0
134 136 0
143 151 0
140 145 0
136 143 0
143 147 0
145 155 0
140 146 0
147 158 0
145 155 0
142 148 0
152 158 0
150 159 0
146 157 0
156 167 0
150 163 0
156 172 0
159 172 0
153 165 0
154 168 0
155 169 0
154 170 0
154 167 0
151 165 0
149 160 0
159 174 0
150 166 0
159 174 0
155 170 0
151 166 0
154 170 0
162 180 0
157 173 0
163 181 0
151 167 0
154 173 0
160 178 0
160 179 0
153 171 0
155 172 0
155 171 0
160 181 0
159 178 0
162 178 0
160 179 0
166 183 0
157 173 0
162 180 0
154 173 0
162 184 0
159 180 0
163 182 0
161 181 0
164 182 0
163 183 0
160 180 0
163 185 0
168 188 0
164 185 0
160 180 0
160 179 0
167 186 0
166 185 0
168 189 0
166 186 0
166 188 0
162 182 0
166 187 0
167 188 0
163 183 0
167 189 0
167 188 0
167 187 0
164 185 0
168 191 0
165 187 0
171 191 0
165 187 0
162 184 0
168 189 0
167 189 0
168 190 0
166 190 0
166 189 0
168 190 0
164 187 0
173 195 0
171 193 0
172 194 0
169 191 0
167 189 0
170 193 0
169 191 0
169 192 0
166 187 0
173 195 0
167 189 0
170 193 0
170 193 0
171 193 0
170 193 0
170 193 0
170 193 0
167 190 0
168 189 0
172 195 0
170 193 0
172 194 0
170 193 0
171 193 0
170 193 0
169 192 0
170 193 0
172 194 0
168 190 0
172 195 0
169 192 0
170 192 0
169 193 0
171 194 0
172 196 0
172 195 0
172 195 0
171 195 0
171 193 0
173 196 0
172 195 0
169 191 0
172 195 0
166 189 0
171 194 0
172 195 0
169 193 0
171 194 0
172 195 0
169 193 0
171 195 0
172 196 0
172 195 0
171 194 0
173 196 0
173 196 0
173 196 0
174 197 0
169 193 0
174 197 0
171 194 0
173 197 0
172 195 0
174 197 0
172 194 0
173 197 0
173 196 0
172 195 0
173 196 0
170 193 0
169 192 0
170 193 0
172 195 0
173 196 0
173 197 0
173 196 0
174 197 0
173 196 0
173 196 0
172 195 0
174 197 0
172 196 0
173 196 0
172 196 0
168 191 0
168 190 0
170 192 0
171 194 0
169 191 0
169 191 0
168 190 0
172 194 0
168 190 0
170 191 0
161 182 0
146 165 0
138 156 0
113 127 0
118 133 0
116 131 0
128 143 0
129 144 0
125 140 0
122 137 0
136 152 0
131 148 0
135 151 0
134 149 0
133 149 0
135 151 0
138 155 0
135 151 0
139 155 0
136 152 0
130 145 0
139 154 0
138 154 0
140 156 0
141 157 0
138 154 0
145 162 0
141 157 0
140 155 0
139 155 0
140 155 0
135 151 0
139 154 0
135 151 0
138 154 0
137 152 0
138 153 0
140 154 0
140 155 0
144 159 0
137 152 0
128 141 0
135 150 0
139 155 0
130 144 0
133 148 0
134 148 0
124 138 0
133 147 0
133 146 0
132 146 0
135 148 0
130 143 0
125 138 0
130 144 0
125 137 0
127 140 0
126 138 0
119 130 0
119 130 0
124 136 0
120 131 0
121 132 0
113 123 0
126 138 0
117 127 0
113 124 0
118 129 0
113 124 0
104 114 0
103 113 0
108 117 0
99 108 0
95 104 0
81 88 0
87 93 0
87 95 0
78 85 0
78 84 0
89 97 0
96 104 0
93 100 0
88 94 0
91 98 0
92 99 0
100 108 0
102 110 0
106 115 0
102 110 0
97 105 0
108 115 0
114 124 0
119 130 0
111 120 0
111 121 0
114 123 0
121 132 0
122 131 0
120 129 0
114 123 0
119 130 0
124 133 0
127 138 0
130 142 0
131 141 0
118 129 0
119 127 0
122 133 0
133 142 0
122 131 0
124 134 0
127 136 0
131 141 0
120 129 0
132 142 0
125 135 0
132 141 0
125 135 0
119 128 0
131 143 0
127 138 0
127 137 0
128 141 0
126 133 0
126 136 0
127 138 0
131 142 0
130 142 0
134 144 0
125 134 0
122 129 0
128 131 0
133 143 0
115 122 0
124 135 0
128 135 0
123 129 0
131 139 0
128 135 0
127 136 0
120 127 0
136 145 0
133 141 0
126 134 0
128 137 0
134 139 0
135 143 0
128 135 0
122 129 0
122 128 0
134 140 0
115 119 0
124 129 0
119 123 0
124 126 0
116 120 0
113 115 0
118 119 0
113 115 0
127 129 0
118 119 0
114 115 0
121 125 0
117 118 0
103 101 0
91 84 0
81 74 0
89 81 0
95 86 0
97 88 0
96 87 0
98 92 0
112 105 0
100 91 0
98 90 0
105 96 11
112 103 0
106 98 0
104 94 0
100 91 0
99 89 11
106 98 0
103 95 0
103 95 0
111 103 0
107 99 0
118 111 0
110 102 0
109 101 0
112 103 0
105 96 0
109 102 0
105 96 0
110 104 0
105 97 0
105 97 0
106 98 0
117 110 0
106 99 0
108 100 0
112 106 0
109 101 0
101 94 0
110 101 0
103 93 0
110 102 11
113 106 0
111 104 11
100 92 11
107 99 0
106 99 0
101 93 11
100 94 11
97 88 11
99 94 0
115 114 11
132 132 0
136 141 0
138 141 0
135 139 0
133 136 0
133 135 0
140 144 0
142 148 0
145 152 0
137 143 0
138 141 0
145 152 0
141 150 0
138 145 0
147 160 0
152 162 0
145 155 0
149 158 0
150 161 0
149 161 0
147 160 0
147 158 0
151 163 0
152 166 0
154 167 0
147 160 0
154 166 0
151 166 0
158 174 0
152 166 0
160 175 0
153 166 0
156 171 0
151 167 0
158 173 0
154 172 0
152 169 0
161 177 0
156 173 0
166 181 0
155 172 0
163 181 0
164 181 0
157 174 0
159 176 0
166 185 0
160 178 0
161 180 0
160 178 0
163 181 0
166 186 0
161 180 0
163 182 0
162 180 0
166 186 0
164 185 0
166 184 0
166 185 0
164 184 0
164 185 0
168 190 0
163 183 0
166 186 0
165 186 0
163 184 0
167 187 0
166 188 0
161 180 0
164 183 0
166 186 0
164 187 0
166 188 0
169 189 0
166 186 0
168 189 0
166 187 0
166 188 0
165 186 0
166 187 0
168 188 0
168 190 0
169 191 0
171 192 0
167 190 0
168 190 0
169 191 0
167 189 0
169 190 0
167 189 0
169 191 0
166 187 0
170 193 0
170 191 0
167 189 0
163 187 0
168 189 0
165 188 0
167 189 0
170 192 0
169 192 0
170 193 0
165 187 0
167 190 0
169 192 0
172 194 0
169 192 0
168 190 0
169 192 0
167 189 0
169 192 0
171 193 0
169 191 0
167 189 0
167 189 0
168 190 0
170 193 0
169 192 0
171 193 0
168 191 0
172 195 0
171 194 0
171 194 0
171 195 0
168 191 0
172 195 0
172 194 0
173 196 0
171 194 0
174 196 0
171 193 0
172 194 0
171 194 0
172 195 0
169 192 0
171 193 0
174 198 0
170 194 0
173 195 0
171 194 0
173 196 0
171 194 0
170 193 0
172 195 0
171 193 0
172 195 0
172 196 0
174 196 0
173 196 0
174 197 0
174 197 0
174 197 0
170 192 0
172 194 0
171 195 0
173 196 0
172 195 0
174 197 0
170 194 0
174 196 0
172 195 0
173 197 0
171 194 0
173 196 0
173 196 0
173 196 0
173 196 0
175 198 0
170 194 0
174 197 0
172 195 0
176 199 0
173 196 0
174 196 0
172 195 0
168 192 0
169 190 0
169 190 0
168 190 0
168 190 0
170 192 0
169 191 0
170 193 0
168 190 0
171 192 0
167 188 0
167 189 0
166 187 0
167 188 0
161 181 0
149 168 0
139 156 0
127 143 0
118 131 0
129 144 0
126 142 0
122 136 0
123 137 0
126 140 0
128 143 0
131 146 0
126 142 0
136 152 0
130 146 0
130 145 0
132 147 0
134 149 0
134 149 0
136 151 0
136 152 0
136 151 0
132 147 0
131 145 0
134 151 0
133 149 0
137 152 0
137 151 0
137 151 0
131 145 0
133 149 0
138 153 0
136 150 0
131 144 0
131 145 0
138 152 0
137 151 0
137 151 0
129 142 0
132 145 0
129 142 0
130 144 0
132 146 0
133 147 0
135 149 0
130 143 0
128 141 0
131 144 0
134 147 0
128 140 0
122 133 0
124 136 0
120 132 0
127 139 0
122 134 0
121 133 0
112 123 0
111 122 0
112 122 0
117 128 0
109 120 0
111 122 0
107 117 0
108 118 0
103 112 0
101 111 0
97 105 0
86 94 0
86 92 0
86 94 0
91 99 0
79 86 0
87 95 0
97 105 0
94 101 0
91 98 0
107 116 0
111 120 0
100 107 0
112 121 0
101 108 0
111 120 0
104 113 0
113 123 0
119 128 0
107 117 0
110 117 0
111 119 0
117 126 0
121 132 0
112 122 0
127 136 0
131 142 0
123 134 0
120 130 0
112 120 0
131 143 0
117 126 0
123 131 0
134 144 0
125 137 0
122 135 0
134 146 0
129 140 0
133 143 0
122 132 0
121 133 0
123 133 0
122 132 0
137 149 0
124 132 0
124 135 0
132 143 0
130 141 0
131 142 0
134 146 0
125 135 0
135 147 0
132 141 0
133 145 0
135 144 0
141 152 0
134 145 0
137 147 0
134 145 0
124 133 0
126 137 0
132 141 0
136 145 0
128 140 0
132 141 0
131 141 0
137 147 0
133 142 0
124 131 0
123 131 0
120 127 0
126 132 0
129 138 0
122 128 0
120 128 0
131 138 0
129 136 0
116 119 0
116 121 0
129 135 0
120 124 0
115 117 0
126 132 0
137 141 0
134 141 0
122 124 0
114 114 0
113 116 0
115 118 0
112 113 0
118 121 0
118 120 0
117 119 0
119 120 0
117 118 0
112 111 0
117 117 0
101 95 0
100 94 0
96 86 0
89 81 0
100 91 0
85 78 0
101 94 0
99 90 0
97 90 0
110 101 0
104 96 0
97 89 0
94 85 0
103 96 0
106 97 0
111 103 0
103 91 0
107 97 0
108 101 0
102 94 0
105 96 0
107 97 0
105 95 0
104 93 0
111 103 0
111 103 0
114 104 0
114 107 0
112 105 0
106 97 0
106 96 0
98 90 0
104 95 0
102 94 0
109 101 11
105 94 0
108 100 0
104 95 11
102 93 0
118 109 22
98 91 0
95 85 16
104 91 19
104 94 16
105 100 0
120 114 0
113 110 0
128 127 0
126 125 0
137 139 0
134 136 0
135 138 0
138 140 0
128 129 0
139 143 0
146 151 0
146 152 0
143 150 0
142 150 0
147 159 0
137 142 0
136 143 0
139 145 0
141 150 0
147 156 0
145 154 0
152 164 0
145 153 0
140 149 0
148 159 0
150 161 0
148 156 0
148 160 0
150 161 0
147 160 0
153 165 0
156 169 0
160 174 0
159 174 0
155 168 0
159 175 0
157 172 0
160 175 0
158 172 0
160 176 0
157 173 0
159 176 0
158 175 0
156 172 0
154 169 0
157 175 0
158 175 0
155 173 0
159 177 0
158 176 0
161 179 0
163 180 0
163 182 0
159 177 0
162 182 0
163 183 0
159 179 0
163 179 0
165 185 0
161 180 0
165 184 0
160 179 0
162 181 0
166 187 0
161 183 0
167 188 0
155 174 0
157 176 0
166 187 0
169 188 0
169 189 0
168 188 0
164 184 0
164 186 0
163 184 0
166 189 0
166 185 0
168 189 0
168 188 0
167 189 0
168 190 0
164 186 0
172 192 0
164 187 0
166 189 0
165 186 0
166 187 0
168 190 0
167 190 0
165 185 0
169 192 0
168 191 0
165 187 0
169 192 0
168 191 0
167 189 0
170 192 0
170 191 0
167 189 0
168 191 0
170 191 0
169 192 0
170 193 0
167 190 0
169 191 0
170 192 0
171 194 0
171 192 0
171 193 0
169 193 0
169 192 0
171 192 0
171 194 0
169 192 0
168 191 0
167 190 0
167 189 0
169 192 0
171 193 0
173 196 0
168 191 0
174 197 0
169 191 0
166 189 0
171 192 0
174 198 0
169 192 0
172 195 0
172 195 0
173 195 0
170 192 0
167 190 0
169 191 0
173 195 0
170 192 0
170 192 0
173 196 0
170 193 0
171 194 0
173 197 0
173 195 0
170 193 0
171 194 0
174 198 0
171 193 0
171 194 0
171 194 0
171 194 0
172 195 0
170 194 0
172 195 0
171 194 0
174 197 0
172 195 0
173 197 0
169 191 0
173 197 0
171 194 0
170 193 0
175 198 0
173 196 0
174 197 0
173 195 0
173 196 0
173 197 0
174 197 0
174 196 0
172 195 0
172 194 0
172 196 0
174 196 0
170 194 0
173 197 0
172 195 0
175 198 0
174 198 0
173 196 0
171 195 0
170 192 0
170 192 0
168 190 0
170 192 0
168 190 0
169 190 0
168 189 0
170 191 0
166 187 0
165 186 0
170 191 0
169 190 0
170 191 0
166 187 0
165 186 0
171 192 0
168 189 0
167 188 0
163 182 0
154 173 0
147 164 0
128 144 0
118 132 0
113 127 0
118 131 0
120 135 0
126 140 0
127 143 0
127 141 0
122 137 0
129 144 0
132 148 0
125 140 0
125 139 0
130 144 0
128 143 0
135 150 0
123 137 0
125 139 0
134 149 0
130 144 0
125 139 0
119 132 0
132 146 0
131 145 0
134 149 0
132 146 0
127 140 0
128 142 0
130 143 0
124 137 0
136 150 0
131 145 0
128 142 0
128 141 0
130 142 0
122 135 0
124 137 0
133 147 0
123 135 0
124 136 0
123 137 0
116 128 0
121 133 0
115 126 0
115 126 0
107 118 0
114 126 0
114 125 0
109 120 0
110 120 0
98 107 0
106 115 0
96 106 0
99 108 0
98 107 0
102 111 0
93 101 0
95 103 0
95 103 0
89 96 0
96 103 0
92 100 0
92 99 0
95 102 0
99 108 0
99 108 0
99 108 0
107 115 0
99 107 0
109 118 0
104 111 0
107 117 0
116 126 0
108 117 0
118 127 0
116 126 0
109 118 0
117 125 0
111 120 0
124 134 0
118 128 0
115 126 0
120 129 0
118 129 0
119 130 0
117 128 0
122 131 0
119 130 0
127 137 0
123 134 0
132 143 0
126 134 0
129 140 0
128 138 0
129 139 0
122 132 0
126 136 0
128 140 0
135 145 0
133 143 0
131 141 0
136 145 0
126 135 0
131 142 0
139 150 0
135 145 0
125 136 0
134 144 0
129 140 0
133 142 0
124 135 0
141 152 0
129 140 0
136 149 0
125 137 0
135 145 0
136 149 0
129 139 0
137 146 0
131 142 0
133 143 0
134 145 0
123 131 0
127 134 0
129 138 0
136 143 0
132 141 0
130 137 0
131 137 0
126 132 0
123 131 0
130 140 0
120 128 0
120 125 0
129 136 0
135 143 0
129 137 0
134 142 0
126 131 0
120 127 0
127 132 0
135 137 0
127 132 0
128 133 0
122 126 0
119 123 0
125 132 0
126 129 0
127 130 0
111 114 0
124 126 0
120 121 0
108 107 0
120 118 0
126 127 0
122 122 0
111 110 0
111 109 0
113 110 0
98 97 0
93 85 0
89 80 0
88 78 0
91 83 0
99 89 11
92 83 0
103 94 0
103 94 0
102 93 0
95 86 0
97 90 0
97 90 0
96 87 0
99 90 0
105 99 0
91 81 0
96 88 0
112 102 0
107 98 0
110 102 0
112 102 11
101 93 0
110 102 0
112 102 0
105 96 0
99 90 0
117 104 0
104 95 11
100 91 0
93 84 16
106 98 11
103 95 0
101 91 0
101 91 0
101 90 0
110 100 19
94 83 0
103 96 0
104 100 0
125 123 11
124 123 0
119 118 0
129 129 0
129 130 0
131 134 0
138 141 0
133 136 0
125 126 0
129 132 0
133 136 0
141 145 0
144 149 0
139 143 0
147 151 0
143 148 0
149 157 0
139 145 0
149 156 0
147 156 0
151 162 0
153 163 0
156 168 0
147 156 0
153 166 0
145 154 0
147 159 0
148 159 0
153 164 0
154 169 0
141 154 0
151 162 0
155 166 0
155 168 0
154 167 0
147 160 0
157 167 0
153 167 0
156 171 0
150 166 0
155 172 0
163 178 0
158 174 0
161 178 0
156 173 0
167 185 0
163 179 0
163 178 0
160 176 0
159 177 0
154 171 0
159 178 0
158 175 0
156 173 0
164 181 0
161 179 0
164 182 0
165 185 0
162 181 0
162 181 0
163 180 0
165 185 0
166 186 0
163 183 0
169 190 0
160 180 0
161 179 0
163 183 0
161 182 0
171 191 0
162 181 0
165 186 0
165 183 0
163 184 0
162 181 0
167 188 0
160 179 0
163 184 0
160 181 0
166 188 0
161 182 0
168 188 0
167 189 0
165 186 0
167 188 0
169 191 0
169 192 0
166 188 0
164 185 0
161 181 0
165 187 0
169 190 0
168 189 0
166 187 0
171 193 0
165 187 0
166 189 0
168 190 0
168 190 0
168 191 0
168 187 0
166 187 0
170 193 0
170 192 0
168 191 0
168 190 0
167 190 0
169 191 0
167 190 0
171 194 0
171 193 0
171 194 0
169 192 0
170 192 0
170 192 0
171 195 0
167 190 0
170 193 0
171 193 0
167 190 0
165 188 0
166 189 0
170 193 0
171 194 0
170 192 0
174 196 0
172 196 0
170 193 0
171 194 0
170 194 0
172 194 0
169 192 0
173 195 0
171 193 0
168 191 0
172 195 0
171 194 0
170 193 0
171 194 0
168 190 0
172 195 0
173 194 0
168 192 0
171 193 0
172 193 0
169 192 0
173 196 0
174 197 0
169 192 0
172 195 0
172 195 0
170 193 0
172 196 0
172 195 0
172 195 0
172 196 0
172 195 0
174 198 0
175 197 0
174 196 0
172 196 0
175 197 0
171 194 0
170 194 0
172 195 0
175 198 0
168 192 0
170 194 0
170 193 0
173 196 0
171 194 0
173 195 0
173 197 0
171 194 0
170 192 0
170 193 0
173 196 0
173 196 0
172 195 0
171 194 0
168 191 0
170 192 0
168 190 0
169 192 0
166 188 0
167 188 0
167 188 0
166 187 0
167 189 0
168 189 0
166 188 0
169 191 0
167 188 0
167 188 0
165 186 0
166 187 0
164 184 0
165 186 0
164 184 0
163 183 0
165 185 0
163 183 0
161 180 0
159 179 0
152 170 0
137 153 0
134 150 0
123 139 0
132 148 0
112 124 0
120 133 0
116 130 0
115 128 0
120 133 0
122 136 0
124 137 0
118 132 0
127 141 0
125 138 0
124 139 0
125 140 0
121 134 0
121 135 0
125 139 0
118 130 0
117 129 0
128 142 0
125 138 0
120 133 0
121 134 0
122 135 0
116 128 0
122 135 0
124 137 0
124 137 0
115 128 0
113 125 0
116 127 0
117 130 0
118 130 0
119 132 0
113 124 0
113 124 0
111 122 0
103 113 0
103 113 0
102 113 0
101 110 0
99 108 0
92 101 0
103 113 0
93 101 0
96 104 0
99 108 0
95 104 0
94 102 0
105 113 0
101 110 0
98 106 0
102 111 0
99 107 0
96 105 0
105 113 0
107 116 0
107 116 0
94 101 0
114 124 0
105 114 0
115 126 0
113 123 0
115 124 0
117 126 0
110 119 0
120 130 0
115 124 0
111 120 0
123 133 0
115 124 0
121 131 0
127 138 0
123 134 0
118 125 0
117 125 0
124 135 0
112 121 0
120 130 0
134 145 0
124 134 0
129 140 0
128 139 0
134 145 0
125 136 0
138 149 0
125 135 0
128 138 0
126 135 0
125 135 0
125 133 0
125 136 0
124 135 0
125 135 0
135 146 0
135 147 0
131 142 0
128 139 0
133 143 0
122 132 0
135 146 0
135 146 0
132 142 0
134 145 0
123 133 0
129 138 0
139 152 0
122 131 0
134 146 0
138 149 0
135 148 0
137 148 0
133 144 0
137 149 0
131 139 0
138 149 0
127 137 0
126 136 0
136 144 0
124 134 0
138 148 0
121 128 0
135 145 0
130 137 0
129 135 0
128 135 0
129 134 0
126 133 0
128 131 0
132 140 0
129 134 0
119 121 0
131 138 0
130 135 0
126 129 0
121 126 0
125 128 0
126 129 0
123 125 0
115 114 0
127 131 0
126 127 0
124 125 0
128 129 0
128 129 0
116 116 0
124 125 0
119 119 0
116 116 0
116 114 0
121 120 0
110 108 0
110 108 0
117 117 0
103 100 0
103 101 0
109 105 0
96 87 0
96 89 0
101 89 0
83 73 0
87 78 0
93 83 0
105 94 0
95 83 0
98 89 0
98 91 0
103 93 0
104 92 0
96 87 0
92 83 0
92 84 0
103 92 0
95 87 0
100 89 0
98 87 0
106 98 0
102 95 0
97 86 0
115 105 0
92 83 11
100 90 11
98 90 11
90 81 0
92 82 0
98 89 0
81 73 0
100 92 0
108 104 0
110 104 0
126 123 0
120 115 0
122 121 0
121 117 0
123 124 0
118 117 0
130 129 0
136 138 0
128 129 0
134 135 0
140 144 0
143 148 0
137 141 0
131 133 0
143 148 0
145 150 0
137 143 0
141 146 0
150 157 0
140 143 0
139 145 0
147 153 0
144 151 0
146 151 0
145 154 0
153 163 0
159 168 0
150 161 0
150 160 0
154 162 0
151 161 0
155 167 0
152 164 0
153 164 0
150 164 0
152 163 0
148 161 0
157 173 0
159 171 0
156 170 0
149 163 0
156 171 0
158 173 0
156 171 0
158 175 0
155 169 0
160 177 0
157 173 0
158 174 0
157 173 0
157 174 0
158 175 0
157 174 0
161 178 0
160 176 0
157 174 0
160 180 0
164 182 0
159 177 0
158 174 0
159 177 0
163 181 0
161 180 0
167 183 0
166 185 0
162 181 0
166 185 0
163 182 0
163 182 0
162 180 0
162 182 0
161 180 0
163 183 0
167 189 0
168 189 0
165 185 0
162 180 0
163 184 0
165 186 0
169 188 0
165 185 0
165 185 0
166 187 0
165 185 0
164 185 0
167 187 0
167 188 0
170 193 0
169 192 0
167 188 0
169 190 0
165 188 0
166 187 0
168 189 0
164 185 0
168 190 0
166 186 0
167 190 0
168 189 0
167 189 0
168 188 0
170 191 0
167 189 0
168 190 0
170 192 0
168 191 0
169 190 0
171 193 0
170 192 0
169 190 0
169 190 0
166 188 0
168 190 0
168 191 0
169 193 0
168 191 0
171 194 0
171 194 0
168 189 0
172 195 0
169 192 0
170 193 0
171 193 0
167 191 0
170 192 0
172 194 0
169 192 0
171 193 0
173 196 0
165 188 0
169 191 0
172 196 0
170 192 0
169 192 0
171 194 0
171 193 0
172 195 0
170 192 0
173 196 0
173 196 0
171 195 0
173 196 0
172 195 0
168 192 0
171 194 0
170 193 0
171 193 0
170 194 0
172 195 0
172 194 0
172 195 0
169 192 0
174 196 0
172 196 0
174 196 0
174 197 0
175 198 0
171 194 0
171 195 0
173 196 0
171 194 0
171 194 0
174 196 0
173 195 0
173 196 0
174 196 0
173 196 0
173 197 0
172 195 0
173 195 0
171 195 0
170 194 0
170 193 0
169 193 0
172 195 0
174 198 0
171 195 0
173 196 0
172 195 0
173 196 0
173 195 0
172 195 0
173 197 0
167 189 0
171 193 0
166 187 0
169 191 0
167 188 0
166 188 0
169 191 0
170 192 0
168 190 0
166 187 0
168 190 0
169 191 0
167 188 0
163 183 0
165 186 0
165 186 0
167 187 0
160 181 0
166 186 0
166 186 0
161 180 0
162 182 0
163 183 0
165 185 0
163 183 0
167 186 0
159 179 0
160 179 0
162 181 0
152 169 0
153 171 0
148 166 0
139 155 0
136 153 0
133 148 0
124 138 0
120 133 0
111 123 0
107 119 0
103 114 0
123 137 0
108 119 0
114 126 0
111 123 0
104 116 0
119 131 0
120 133 0
122 135 0
111 122 0
110 121 0
110 121 0
112 124 0
113 126 0
106 117 0
106 118 0
115 128 0
108 120 0
106 118 0
101 111 0
119 131 0
105 115 0
99 109 0
102 112 0
103 112 0
109 120 0
108 118 0
106 116 0
104 114 0
110 120 0
103 112 0
110 119 0
121 131 0
101 110 0
106 115 0
103 112 0
106 116 0
98 106 0
106 115 0
94 103 0
100 108 0
114 123 0
103 112 0
117 127 0
113 122 0
111 120 0
125 136 0
112 122 0
124 134 0
116 124 0
119 129 0
117 127 0
122 131 0
110 118 0
121 131 0
122 132 0
119 129 0
122 132 0
113 123 0
120 129 0
128 137 0
125 136 0
135 146 0
118 127 0
121 132 0
126 137 0
125 135 0
124 136 0
132 144 0
126 137 0
126 137 0
127 138 0
124 134 0
133 144 0
132 142 0
123 132 0
129 138 0
135 144 0
129 140 0
134 148 0
131 141 0
140 152 0
117 127 0
133 144 0
134 144 0
137 149 0
134 146 0
129 140 0
140 152 0
136 146 0
134 143 0
136 148 0
121 130 0
141 150 0
137 147 0
135 145 0
132 142 0
137 147 0
136 147 0
126 136 0
140 150 0
132 140 0
131 138 0
132 142 0
138 150 0
125 134 0
139 147 0
133 141 0
126 135 0
136 147 0
128 136 0
130 137 0
135 143 0
139 149 0
130 138 0
126 135 0
132 138 0
136 143 0
129 135 0
130 130 0
131 137 0
139 143 0
129 134 0
131 136 0
120 121 0
130 133 0
122 125 0
118 121 0
137 141 0
123 125 0
130 134 0
123 122 0
121 121 0
123 125 0
113 113 0
130 132 0
114 113 0
119 118 0
117 119 0
113 112 0
120 118 0
113 112 0
116 114 0
112 110 0
114 113 0
118 116 0
113 109 0
93 89 0
103 97 0
90 86 0
95 86 0
99 91 0
95 85 0
91 81 0
89 83 0
90 78 0
92 82 0
100 87 0
95 85 0
87 78 0
100 91 0
91 82 0
100 91 0
94 85 0
86 75 0
90 80 0
101 90 0
82 74 0
88 79 0
91 83 0
107 98 0
100 94 0
103 97 0
114 110 0
121 115 0
111 106 0
114 109 0
116 111 0
119 116 0
130 128 0
126 124 0
130 130 0
118 115 0
128 127 0
117 117 0
136 139 0
130 133 0
141 143 0
132 136 0
136 141 0
142 146 0
139 143 0
133 134 0
145 151 0
138 143 0
142 148 0
151 159 0
149 156 0
143 149 0
142 149 0
147 153 0
154 162 0
142 148 0
144 152 0
144 152 0
148 160 0
153 163 0
150 161 0
151 164 0
157 170 0
153 165 0
155 168 0
156 167 0
157 172 0
148 157 0
153 166 0
165 181 0
150 160 0
155 168 0
155 171 0
159 174 0
154 170 0
158 173 0
156 169 0
163 180 0
155 169 0
158 173 0
153 169 0
160 177 0
161 179 0
157 174 0
155 172 0
154 174 0
163 178 0
155 172 0
157 173 0
159 173 0
162 180 0
163 181 0
160 177 0
163 182 0
162 181 0
164 184 0
162 181 0
160 177 0
166 186 0
166 186 0
164 183 0
163 183 0
160 181 0
167 188 0
164 183 0
165 186 0
167 189 0
166 186 0
164 184 0
165 182 0
166 185 0
167 187 0
163 181 0
168 188 0
173 194 0
163 182 0
166 187 0
164 186 0
169 191 0
164 186 0
168 189 0
167 189 0
164 186 0
169 190 0
167 188 0
167 189 0
166 186 0
164 185 0
165 186 0
169 191 0
166 187 0
169 190 0
166 188 0
167 190 0
165 186 0
170 192 0
169 191 0
164 186 0
166 189 0
169 192 0
165 187 0
170 192 0
169 190 0
173 195 0
171 193 0
170 192 0
169 192 0
173 195 0
171 194 0
168 192 0
165 188 0
167 189 0
169 192 0
169 191 0
171 194 0
168 192 0
171 194 0
170 193 0
165 187 0
170 193 0
170 194 0
168 191 0
173 196 0
170 194 0
172 193 0
172 194 0
167 190 0
172 196 0
172 195 0
171 193 0
170 193 0
172 195 0
175 197 0
170 194 0
171 193 0
172 195 0
170 194 0
171 194 0
170 194 0
171 194 0
172 196 0
171 193 0
170 193 0
172 194 0
170 193 0
173 195 0
171 194 0
172 195 0
172 195 0
172 195 0
171 193 0
174 197 0
173 196 0
173 196 0
172 195 0
172 196 0
174 197 0
174 197 0
174 198 0
172 196 0
173 196 0
170 193 0
173 195 0
170 194 0
173 197 0
171 194 0
172 194 0
172 195 0
174 197 0
172 195 0
174 196 0
173 196 0
173 197 0
171 194 0
171 193 0
169 189 0
168 190 0
165 185 0
167 187 0
169 190 0
167 189 0
166 187 0
167 189 0
166 187 0
164 186 0
166 187 0
166 187 0
167 187 0
167 189 0
165 184 0
161 181 0
164 183 0
163 183 0
162 181 0
164 183 0
165 184 0
161 180 0
165 184 0
162 181 0
158 177 0
159 177 0
162 181 0
157 176 0
165 184 0
156 174 0
155 174 0
153 171 0
155 172 0
161 179 0
156 174 0
160 177 0
161 180 0
151 168 0
147 163 0
150 167 0
143 159 0
142 157 0
134 148 0
130 144 0
134 148 0
123 136 0
127 140 0
128 142 0
120 132 0
128 142 0
130 143 0
128 141 0
122 133 0
115 126 0
116 128 0
121 133 0
117 129 0
119 130 0
119 131 0
123 134 0
125 136 0
119 130 0
122 134 0
116 126 0
114 124 0
124 136 0
117 128 0
119 130 0
120 131 0
122 133 0
112 122 0
114 125 0
114 124 0
118 129 0
98 107 0
120 130 0
115 126 0
110 120 0
131 143 0
117 128 0
108 118 0
121 131 0
121 131 0
112 122 0
115 125 0
113 123 0
116 125 0
124 135 0
115 125 0
125 135 0
128 138 0
129 140 0
116 126 0
130 141 0
129 140 0
131 142 0
130 140 0
130 141 0
127 137 0
123 134 0
133 145 0
130 140 0
131 143 0
134 146 0
134 145 0
133 145 0
131 142 0
129 141 0
134 145 0
132 144 0
130 140 0
139 151 0
129 141 0
134 145 0
133 144 0
135 144 0
140 153 0
136 149 0
143 155 0
133 143 0
127 136 0
136 150 0
138 151 0
135 146 0
129 139 0
132 144 0
122 131 0
131 142 0
131 142 0
135 146 0
132 142 0
134 146 0
131 141 0
133 142 0
125 133 0
137 150 0
139 150 0
138 149 0
128 139 0
134 145 0
132 141 0
139 150 0
124 131 0
130 139 0
132 143 0
142 150 0
128 136 0
136 145 0
132 139 0
141 154 0
139 150 0
136 146 0
129 136 0
128 133 0
130 140 0
133 141 0
129 135 0
124 127 0
131 136 0
124 128 0
118 121 0
125 131 0
133 139 0
127 132 0
125 128 0
125 125 0
125 128 0
123 125 0
126 127 0
127 130 0
123 126 0
123 122 0
122 124 0
113 115 0
128 130 0
122 124 0
113 110 0
125 124 0
123 121 0
112 111 0
114 112 0
116 114 0
112 113 0
111 112 0
110 109 0
107 103 0
119 119 0
108 104 0
108 103 0
118 114 0
103 97 0
99 93 0
108 104 0
96 88 0
99 93 0
102 95 0
92 85 0
92 82 0
99 94 0
103 96 0
95 88 0
104 97 0
102 94 0
91 86 0
96 91 0
105 98 0
108 104 0
109 105 0
109 105 0
120 118 0
121 115 0
112 107 0
118 114 0
123 120 0
124 122 0
123 119 0
129 126 0
127 127 0
127 126 0
131 131 0
137 138 0
127 128 0
130 130 0
130 130 0
137 138 0
137 137 0
130 129 0
144 147 0
143 148 0
143 148 0
142 147 0
145 150 0
142 148 0
145 152 0
150 155 0
150 158 0
145 152 0
145 151 0
148 155 0
152 158 0
146 152 0
149 159 0
151 158 0
153 165 0
145 153 0
147 159 0
157 168 0
152 163 0
148 159 0
155 170 0
156 169 0
153 165 0
158 170 0
153 166 0
154 166 0
151 163 0
160 173 0
152 165 0
162 180 0
158 174 0
152 167 0
158 170 0
157 174 0
160 175 0
158 174 0
163 179 0
158 174 0
156 172 0
160 176 0
157 176 0
161 178 0
164 180 0
163 179 0
159 176 0
165 183 0
165 183 0
163 181 0
159 175 0
160 179 0
160 179 0
165 184 0
161 177 0
164 182 0
161 179 0
158 177 0
161 180 0
162 182 0
167 188 0
168 188 0
162 181 0
165 184 0
163 183 0
168 188 0
167 187 0
163 182 0
163 183 0
167 187 0
165 185 0
162 183 0
165 185 0
170 188 0
163 183 0
169 191 0
169 190 0
163 183 0
167 188 0
164 184 0
167 186 0
172 193 0
167 189 0
167 189 0
169 191 0
164 185 0
170 191 0
168 190 0
164 186 0
174 195 0
167 189 0
168 190 0
168 190 0
171 193 0
170 191 0
166 188 0
168 191 0
168 191 0
167 189 0
172 195 0
170 192 0
169 190 0
168 191 0
171 193 0
172 193 0
171 194 0
172 194 0
169 191 0
169 191 0
167 190 0
171 193 0
167 190 0
168 190 0
169 190 0
172 195 0
170 191 0
169 192 0
171 193 0
173 196 0
172 195 0
168 191 0
171 192 0
173 195 0
171 194 0
172 195 0
170 193 0
172 195 0
174 196 0
169 192 0
172 195 0
171 195 0
170 193 0
173 195 0
171 194 0
172 196 0
171 194 0
173 194 0
168 191 0
172 194 0
170 194 0
169 192 0
176 197 0
171 193 0
174 197 0
170 193 0
173 197 0
174 196 0
172 194 0
172 194 0
169 192 0
173 195 0
171 194 0
173 196 0
171 194 0
172 195 0
173 196 0
174 197 0
173 196 0
173 195 0
173 196 0
174 196 0
172 196 0
171 194 0
168 191 0
171 194 0
173 195 0
173 196 0
172 195 0
172 195 0
173 197 0
171 194 0
172 195 0
168 190 0
168 189 0
166 187 0
168 189 0
167 189 0
166 187 0
167 188 0
167 188 0
166 187 0
163 183 0
160 181 0
165 186 0
166 186 0
164 185 0
162 182 0
162 182 0
166 186 0
165 184 0
163 183 0
164 183 0
161 180 0
164 183 0
159 178 0
159 178 0
161 179 0
164 183 0
160 180 0
154 172 0
161 180 0
162 181 0
153 171 0
155 173 0
150 166 0
154 171 0
158 175 0
156 174 0
152 168 0
158 176 0
159 177 0
152 170 0
144 159 0
147 162 0
147 162 0
148 163 0
147 163 0
146 161 0
147 162 0
137 152 0
145 160 0
145 160 0
138 151 0
138 152 0
135 148 0
137 150 0
140 153 0
134 147 0
143 157 0
126 139 0
124 135 0
132 145 0
124 136 0
126 138 0
128 140 0
126 137 0
127 138 0
123 134 0
123 134 0
118 129 0
114 124 0
120 131 0
117 127 0
116 127 0
118 128 0
122 133 0
120 131 0
121 133 0
113 123 0
108 117 0
128 140 0
119 130 0
121 134 0
124 135 0
119 130 0
123 134 0
128 139 0
125 135 0
128 139 0
123 133 0
125 136 0
125 135 0
126 137 0
122 133 0
129 142 0
133 145 0
131 143 0
124 135 0
138 150 0
131 141 0
127 138 0
126 137 0
125 135 0
126 139 0
132 143 0
131 143 0
132 143 0
133 145 0
129 141 0
131 141 0
135 147 0
128 138 0
120 131 0
129 141 0
131 141 0
134 145 0
133 145 0
124 134 0
139 149 0
136 147 0
135 146 0
134 147 0
139 151 0
137 150 0
137 147 0
127 137 0
136 149 0
136 147 0
134 145 0
133 143 0
131 142 0
126 135 0
145 157 0
135 145 0
144 154 0
142 153 0
137 149 0
140 151 0
134 146 0
136 149 0
132 143 0
131 138 0
133 142 0
130 141 0
135 143 0
135 146 0
135 145 0
132 142 0
147 159 0
143 154 0
128 136 0
132 139 0
128 137 0
139 146 0
133 138 0
137 145 0
133 141 0
142 150 0
135 141 0
126 131 0
130 135 0
131 138 0
132 138 0
131 137 0
126 131 0
131 136 0
129 133 0
126 131 0
131 136 0
126 131 0
119 122 0
134 139 0
119 120 0
121 122 0
125 124 0
124 126 0
113 112 0
122 123 0
113 113 0
117 117 0
118 115 0
119 121 0
120 121 0
119 120 0
104 103 0
124 122 0
132 131 0
106 104 0
110 109 0
110 108 0
114 113 0
124 119 0
100 95 0
103 99 0
111 107 0
110 105 0
105 101 0
110 106 0
115 110 0
114 110 0
103 96 0
116 113 0
103 96 0
101 94 0
105 101 0
100 93 0
110 104 0
114 112 0
113 108 0
108 101 0
113 107 0
126 129 0
120 116 0
104 100 0
121 117 0
117 111 0
121 115 0
112 104 0
128 128 0
128 129 0
120 119 0
129 130 0
125 127 0
121 121 0
130 131 0
133 134 0
134 136 0
143 148 0
142 147 0
141 145 0
138 142 0
142 145 0
143 145 0
142 146 0
147 153 0
143 148 0
145 152 0
146 150 0
145 153 0
137 143 0
146 154 0
141 147 0
144 151 0
152 160 0
149 158 0
150 162 0
152 163 0
148 159 0
157 168 0
144 155 0
155 165 0
157 170 0
151 165 0
149 162 0
153 161 0
159 173 0
154 168 0
154 168 0
156 171 0
162 178 0
163 177 0
156 171 0
154 167 0
159 178 0
159 175 0
156 171 0
157 173 0
160 172 0
159 175 0
163 180 0
156 173 0
159 175 0
159 175 0
158 176 0
158 176 0
159 175 0
159 178 0
162 178 0
168 187 0
159 175 0
168 186 0
164 182 0
165 184 0
163 181 0
164 182 0
164 184 0
168 188 0
164 185 0
164 183 0
164 184 0
166 187 0
166 185 0
166 185 0
166 185 0
167 187 0
166 185 0
164 183 0
164 185 0
160 181 0
162 182 0
166 186 0
164 184 0
167 188 0
169 191 0
169 190 0
165 185 0
170 191 0
165 184 0
160 181 0
162 182 0
166 188 0
167 189 0
163 183 0
166 186 0
167 189 0
167 188 0
166 188 0
170 193 0
169 190 0
163 185 0
166 188 0
170 191 0
164 185 0
167 189 0
169 191 0
172 195 0
166 187 0
172 194 0
167 188 0
168 190 0
170 192 0
168 190 0
170 192 0
169 191 0
171 194 0
170 192 0
169 192 0
166 189 0
171 194 0
173 195 0
171 194 0
170 193 0
165 188 0
166 189 0
167 188 0
170 193 0
168 191 0
166 188 0
172 194 0
172 193 0
168 190 0
171 193 0
171 193 0
169 191 0
171 192 0
172 194 0
170 192 0
168 192 0
170 193 0
167 188 0
172 194 0
173 195 0
171 195 0
170 193 0
170 193 0
167 190 0
173 195 0
167 189 0
173 196 0
169 193 0
170 192 0
170 194 0
170 194 0
170 193 0
174 197 0
173 196 0
172 195 0
170 193 0
172 195 0
169 193 0
171 193 0
172 196 0
171 193 0
172 195 0
172 194 0
170 194 0
171 194 0
171 194 0
171 194 0
175 197 0
173 196 0
172 195 0
173 197 0
174 197 0
171 195 0
170 193 0
171 194 0
172 196 0
173 195 0
172 195 0
172 195 0
170 194 0
166 187 0
163 184 0
172 193 0
166 187 0
169 190 0
166 188 0
167 187 0
167 187 0
164 185 0
165 184 0
168 188 0
164 185 0
164 184 0
161 182 0
162 182 0
156 175 0
165 186 0
165 185 0
162 182 0
162 182 0
164 183 0
159 178 0
160 179 0
164 183 0
160 179 0
161 180 0
159 178 0
157 174 0
160 178 0
151 168 0
157 174 0
160 177 0
154 171 0
153 169 0
153 171 0
152 168 0
148 165 0
151 166 0
152 168 0
153 169 0
144 160 0
152 168 0
138 153 0
147 162 0
144 160 0
141 156 0
148 163 0
140 155 0
140 155 0
142 156 0
144 159 0
137 150 0
136 150 0
133 147 0
130 143 0
133 147 0
129 140 0
127 139 0
131 144 0
135 147 0
123 135 0
126 137 0
127 139 0
128 140 0
124 136 0
128 139 0
120 132 0
123 134 0
117 128 0
129 141 0
126 138 0
113 123 0
123 135 0
116 126 0
128 140 0
121 134 0
122 132 0
128 139 0
123 133 0
120 130 0
130 142 0
129 141 0
122 133 0
124 136 0
128 140 0
117 129 0
130 142 0
127 138 0
123 133 0
129 141 0
131 142 0
133 145 0
132 144 0
135 147 0
135 148 0
131 142 0
132 142 0
138 150 0
130 143 0
134 146 0
130 141 0
135 147 0
138 150 0
135 146 0
135 147 0
130 141 0
139 150 0
133 144 0
125 136 0
140 152 0
126 137 0
135 145 0
136 148 0
138 148 0
138 151 0
135 147 0
136 149 0
140 152 0
139 147 0
145 156 0
134 145 0
143 155 0
139 151 0
148 161 0
139 150 0
140 153 0
143 155 0
139 151 0
136 147 0
137 148 0
134 145 0
146 157 0
132 141 0
134 146 0
141 153 0
135 144 0
132 143 0
139 147 0
139 150 0
135 146 0
133 141 0
134 146 0
131 141 0
137 147 0
138 146 0
130 139 0
131 139 0
138 149 0
135 143 0
132 139 0
129 138 0
132 140 0
141 149 0
131 139 0
138 144 0
128 133 0
128 137 0
133 142 0
132 140 0
138 146 0
135 139 0
121 125 0
130 135 0
128 131 0
129 135 0
129 131 0
127 130 0
135 136 0
118 122 0
129 132 0
124 126 0
127 129 0
111 113 0
131 132 0
131 134 0
130 132 0
123 125 0
121 123 0
120 119 0
118 117 0
126 124 0
109 109 0
125 126 0
122 122 0
119 121 0
114 111 0
116 114 0
111 109 0
125 126 0
109 105 0
107 104 0
117 114 0
117 116 0
102 100 0
109 104 0
111 108 0
111 107 0
114 108 0
117 112 0
124 119 0
109 104 0
110 105 0
112 107 0
115 110 0
111 107 0
115 108 0
116 111 0
123 119 0
118 115 0
120 115 0
125 122 0
125 124 0
116 114 0
123 121 0
121 121 0
121 119 0
133 134 0
129 127 0
132 129 0
129 127 0
132 134 0
133 132 0
134 135 0
137 137 0
147 149 0
133 133 0
133 131 0
144 148 0
134 137 0
133 135 0
140 146 0
145 151 0
143 148 0
148 157 0
141 148 0
141 147 0
152 159 0
142 148 0
147 153 0
144 151 0
143 151 0
145 152 0
153 160 0
152 162 0
151 161 0
156 165 0
156 165 0
153 162 0
153 164 0
161 175 0
144 155 0
157 170 0
151 163 0
152 162 0
152 163 0
154 165 0
160 173 0
156 166 0
165 178 0
156 170 0
156 170 0
159 172 0
157 170 0
153 170 0
164 179 0
161 176 0
159 177 0
163 179 0
158 174 0
161 177 0
157 172 0
162 179 0
163 181 0
164 182 0
156 172 0
165 183 0
160 178 0
160 176 0
163 177 0
159 177 0
162 178 0
159 177 0
160 178 0
164 183 0
162 180 0
167 186 0
167 185 0
163 183 0
164 182 0
162 183 0
165 184 0
163 183 0
165 185 0
163 184 0
162 182 0
162 182 0
168 188 0
165 187 0
164 186 0
161 180 0
165 187 0
166 185 0
161 181 0
167 187 0
167 188 0
168 189 0
166 186 0
168 189 0
164 185 0
164 185 0
166 186 0
163 183 0
164 186 0
168 189 0
164 184 0
168 188 0
169 190 0
169 191 0
170 192 0
169 191 0
169 191 0
168 189 0
173 195 0
168 190 0
169 191 0
167 188 0
168 191 0
170 193 0
171 192 0
173 194 0
168 189 0
172 195 0
170 192 0
166 189 0
168 191 0
169 192 0
168 190 0
169 191 0
173 195 0
170 192 0
170 193 0
170 193 0
170 193 0
172 195 0
171 195 0
169 191 0
169 192 0
169 191 0
170 192 0
170 192 0
171 193 0
172 193 0
170 193 0
168 189 0
170 193 0
173 195 0
168 192 0
169 192 0
173 196 0
172 194 0
168 191 0
171 194 0
173 195 0
170 193 0
174 197 0
172 194 0
173 196 0
169 192 0
171 193 0
172 194 0
172 195 0
169 192 0
172 196 0
168 192 0
171 194 0
172 194 0
174 196 0
170 193 0
172 195 0
171 194 0
173 195 0
170 193 0
174 196 0
174 196 0
172 195 0
170 193 0
172 196 0
172 195 0
173 196 0
174 197 0
170 193 0
174 196 0
172 196 0
172 195 0
171 193 0
173 196 0
171 194 0
170 193 0
175 197 0
174 197 0
167 188 0
165 186 0
167 188 0
168 187 0
165 186 0
167 188 0
163 184 0
170 190 0
167 186 0
167 189 0
165 185 0
164 184 0
164 184 0
167 187 0
162 181 0
157 177 0
164 183 0
163 182 0
165 184 0
159 178 0
156 176 0
162 181 0
159 178 0
165 184 0
163 182 0
159 177 0
162 180 0
156 174 0
155 172 0
158 176 0
158 176 0
159 177 0
154 171 0
155 173 0
154 171 0
150 167 0
149 166 0
149 165 0
148 164 0
158 175 0
145 160 0
146 161 0
145 160 0
150 166 0
140 154 0
147 162 0
144 159 0
140 155 0
144 159 0
140 154 0
148 162 0
130 144 0
139 152 0
132 145 0
138 152 0
129 142 0
129 142 0
135 148 0
128 140 0
126 137 0
131 143 0
128 140 0
121 133 0
134 146 0
128 140 0
124 135 0
130 142 0
131 144 0
127 138 0
131 142 0
125 136 0
125 137 0
128 140 0
127 139 0
133 145 0
127 139 0
122 133 0
130 141 0
132 145 0
118 129 0
128 140 0
135 147 0
132 142 0
130 143 0
124 135 0
120 131 0
126 137 0
126 136 0
138 149 0
136 149 0
130 142 0
130 141 0
135 147 0
139 152 0
138 150 0
138 149 0
131 143 0
137 148 0
135 148 0
136 149 0
141 153 0
132 144 0
141 153 0
138 150 0
133 145 0
137 147 0
136 147 0
138 150 0
142 156 0
134 147 0
133 144 0
132 142 0
138 149 0
133 144 0
139 152 0
139 150 0
140 151 0
129 138 0
137 148 0
135 147 0
136 147 0
138 150 0
137 150 0
136 149 0
140 152 0
142 156 0
139 150 0
139 151 0
136 147 0
139 148 0
139 152 0
145 157 0
130 139 0
139 150 0
143 153 0
154 167 0
141 154 0
138 145 0
132 141 0
141 151 0
135 141 0
131 141 0
137 148 0
135 144 0
132 140 0
137 147 0
138 148 0
132 141 0
138 148 0
136 142 0
132 140 0
132 139 0
134 142 0
131 137 0
132 139 0
139 146 0
138 144 0
132 139 0
135 144 0
130 136 0
134 140 0
126 131 0
131 134 0
135 142 0
131 138 0
129 134 0
133 138 0
120 123 0
130 131 0
128 128 0
132 134 0
127 130 0
117 117 0
123 124 0
111 114 0
124 125 0
134 139 0
124 121 0
124 124 0
121 122 0
119 121 0
125 125 0
120 121 0
118 118 0
125 127 0
119 115 0
114 111 0
124 124 0
118 114 0
118 117 0
121 121 0
112 106 0
119 116 0
120 116 0
116 109 0
118 118 0
109 107 0
114 112 0
116 114 0
126 122 0
107 103 0
120 116 0
116 114 0
116 111 0
109 107 0
114 109 0
113 109 0
119 114 0
129 130 0
125 123 0
123 120 0
119 116 0
123 122 0
127 128 0
135 139 0
135 138 0
125 122 0
137 139 0
137 136 0
140 142 0
135 134 0
135 138 0
125 128 0
144 148 0
145 148 0
137 138 0
143 148 0
145 151 0
146 151 0
141 146 0
143 147 0
139 143 0
148 154 0
142 149 0
148 156 0
138 143 0
152 158 0
150 154 0
157 165 0
145 153 0
149 156 0
144 154 0
150 160 0
154 162 0
152 161 0
154 167 0
150 161 0
155 166 0
151 160 0
153 163 0
144 153 0
150 161 0
155 166 0
150 160 0
158 169 0
162 176 0
155 168 0
154 167 0
151 164 0
157 170 0
161 174 0
161 174 0
158 173 0
159 173 0
159 173 0
163 179 0
161 175 0
165 180 0
158 173 0
163 179 0
161 175 0
160 177 0
154 170 0
163 180 0
161 176 0
163 181 0
168 187 0
167 184 0
166 185 0
160 176 0
164 182 0
163 179 0
160 179 0
164 184 0
164 184 0
162 181 0
162 183 0
165 184 0
167 186 0
161 181 0
164 182 0
159 179 0
165 184 0
168 187 0
166 186 0
167 186 0
164 183 0
165 185 0
160 182 0
165 184 0
167 189 0
166 187 0
161 182 0
168 190 0
168 187 0
166 185 0
169 189 0
170 190 0
170 191 0
167 189 0
166 188 0
164 186 0
169 190 0
168 189 0
169 191 0
164 186 0
168 189 0
169 190 0
169 190 0
169 191 0
169 190 0
169 191 0
170 193 0
167 189 0
169 191 0
166 188 0
170 191 0
169 191 0
171 194 0
171 194 0
168 190 0
170 193 0
168 190 0
170 192 0
170 193 0
167 190 0
167 189 0
170 192 0
171 193 0
171 192 0
168 191 0
169 192 0
167 190 0
169 191 0
171 193 0
173 196 0
168 192 0
171 194 0
168 190 0
170 193 0
173 195 0
170 192 0
166 188 0
169 192 0
173 195 0
167 190 0
172 195 0
170 192 0
169 191 0
169 192 0
170 191 0
173 196 0
170 193 0
170 193 0
170 194 0
171 194 0
171 193 0
172 195 0
170 194 0
168 190 0
170 193 0
166 189 0
170 193 0
172 193 0
169 191 0
172 195 0
170 192 0
171 195 0
171 195 0
173 194 0
172 195 0
173 195 0
172 194 0
173 196 0
171 194 0
172 196 0
171 194 0
171 194 0
173 196 0
171 194 0
172 195 0
171 195 0
172 195 0
174 196 0
168 191 0
172 195 0
173 196 0
171 194 0
173 196 0
173 195 0
162 183 0
165 186 0
165 186 0
167 189 0
165 186 0
166 187 0
166 187 0
164 185 0
160 180 0
163 183 0
164 184 0
167 187 0
163 182 0
167 186 0
162 182 0
165 185 0
162 181 0
162 182 0
161 179 0
166 185 0
163 181 0
157 176 0
160 179 0
158 176 0
157 175 0
160 177 0
160 179 0
159 177 0
155 173 0
151 168 0
152 169 0
156 173 0
159 176 0
148 165 0
156 173 0
147 163 0
142 157 0
149 165 0
150 165 0
144 160 0
150 167 0
148 163 0
145 161 0
143 158 0
144 158 0
140 155 0
151 167 0
137 152 0
139 154 0
143 157 0
141 154 0
134 148 0
135 149 0
130 143 0
135 148 0
133 147 0
134 146 0
138 152 0
131 145 0
127 139 0
137 150 0
118 130 0
133 146 0
133 146 0
132 144 0
127 138 0
129 141 0
136 149 0
130 143 0
132 145 0
128 141 0
129 141 0
133 145 0
131 142 0
127 138 0
130 142 0
128 140 0
132 143 0
136 149 0
122 133 0
126 137 0
134 145 0
132 144 0
131 142 0
136 147 0
134 146 0
130 142 0
137 149 0
136 148 0
133 144 0
133 145 0
139 152 0
130 142 0
137 148 0
137 150 0
134 146 0
137 148 0
139 151 0
135 145 0
141 154 0
141 153 0
138 150 0
141 155 0
137 150 0
135 146 0
136 149 0
131 142 0
133 145 0
139 151 0
139 150 0
144 157 0
142 155 0
141 153 0
138 151 0
138 150 0
137 150 0
140 153 0
138 150 0
136 147 0
142 154 0
143 156 0
145 159 0
132 142 0
140 151 0
133 146 0
138 150 0
144 157 0
144 157 0
132 142 0
146 159 0
142 155 0
136 147 0
144 156 0
140 153 0
135 147 0
141 153 0
138 150 0
141 150 0
141 150 0
143 154 0
139 149 0
140 150 0
138 149 0
139 149 0
142 153 0
139 147 0
139 149 0
142 150 0
143 153 0
139 151 0
140 148 0
132 142 0
134 142 0
134 140 0
136 146 0
133 138 0
142 151 0
133 139 0
142 148 0
130 134 0
136 141 0
131 134 0
127 129 0
128 129 0
140 149 0
141 145 0
132 137 0
133 137 0
126 128 0
131 135 0
135 138 0
122 125 0
135 139 0
133 137 0
128 132 0
130 131 0
125 127 0
126 130 0
137 140 0
122 121 0
122 122 0
128 129 0
117 114 0
115 116 0
122 122 0
125 125 0
121 120 0
123 120 0
119 119 0
124 120 0
121 120 0
119 115 0
120 119 0
125 123 0
114 111 0
125 122 0
121 115 0
123 119 0
117 115 0
120 116 0
113 110 0
123 121 0
126 124 0
128 125 0
129 127 0
125 125 0
121 120 0
125 122 0
121 119 0
129 127 0
124 122 0
119 118 0
124 123 0
126 126 0
133 136 0
120 119 0
131 133 0
125 127 0
122 121 0
143 147 0
135 138 0
133 132 0
134 135 0
134 139 0
138 140 0
140 145 0
134 133 0
141 145 0
139 144 0
146 147 0
143 149 0
142 147 0
148 156 0
147 156 0
149 156 0
145 151 0
152 160 0
149 154 0
154 163 0
153 162 0
148 156 0
155 164 0
154 162 0
144 151 0
154 163 0
152 162 0
157 167 0
147 158 0
155 167 0
157 169 0
150 160 0
156 167 0
152 164 0
152 162 0
155 166 0
155 167 0
155 170 0
154 167 0
161 174 0
155 168 0
156 170 0
158 171 0
160 176 0
161 178 0
161 178 0
160 175 0
160 177 0
154 170 0
162 177 0
158 172 0
162 176 0
164 180 0
162 178 0
164 183 0
159 177 0
167 185 0
157 174 0
161 179 0
162 180 0
160 178 0
159 178 0
164 181 0
161 177 0
163 182 0
167 186 0
168 188 0
169 189 0
160 179 0
164 182 0
166 186 0
166 185 0
164 182 0
166 185 0
161 181 0
168 189 0
167 185 0
167 188 0
164 181 0
164 184 0
167 187 0
165 186 0
166 186 0
170 190 0
166 187 0
162 181 0
165 185 0
167 189 0
159 181 0
168 189 0
168 189 0
167 187 0
165 187 0
166 186 0
167 188 0
163 184 0
170 191 0
169 191 0
170 191 0
164 185 0
170 191 0
165 186 0
170 190 0
168 190 0
172 193 0
168 190 0
166 187 0
167 189 0
169 190 0
166 187 0
165 187 0
169 191 0
171 193 0
171 192 0
166 186 0
167 190 0
172 195 0
171 193 0
168 190 0
170 193 0
169 192 0
166 189 0
172 196 0
172 195 0
171 193 0
170 192 0
171 194 0
172 194 0
170 193 0
167 189 0
170 192 0
169 191 0
169 191 0
174 197 0
171 193 0
174 196 0
167 190 0
173 194 0
172 195 0
172 194 0
169 192 0
169 191 0
173 195 0
171 192 0
171 192 0
172 195 0
171 193 0
169 192 0
170 193 0
174 197 0
173 196 0
170 194 0
171 195 0
172 194 0
170 194 0
173 197 0
168 191 0
171 194 0
168 191 0
172 195 0
173 195 0
173 196 0
172 196 0
172 195 0
171 194 0
171 194 0
173 194 0
169 191 0
172 196 0
172 195 0
172 195 0
171 194 0
172 195 0
171 193 0
172 195 0
169 193 0
174 197 0
172 195 0
172 195 0
171 194 0
171 193 0
170 191 0
164 186 0
166 187 0
167 187 0
168 189 0
162 182 0
159 180 0
160 180 0
164 184 0
164 184 0
161 180 0
164 184 0
163 182 0
165 184 0
162 181 0
162 182 0
161 180 0
163 181 0
156 175 0
162 180 0
160 179 0
166 184 0
157 176 0
151 169 0
158 175 0
155 174 0
157 175 0
155 172 0
159 177 0
156 173 0
155 173 0
153 169 0
153 170 0
155 172 0
144 160 0
152 168 0
152 168 0
153 169 0
150 167 0
150 167 0
150 166 0
150 166 0
142 157 0
143 158 0
145 160 0
137 151 0
144 158 0
142 157 0
141 155 0
137 151 0
141 156 0
145 159 0
137 151 0
135 148 0
132 146 0
145 160 0
141 154 0
132 145 0
137 150 0
127 140 0
137 151 0
120 131 0
136 149 0
131 144 0
133 146 0
128 141 0
133 146 0
132 144 0
126 138 0
127 139 0
138 150 0
129 142 0
137 150 0
132 144 0
132 144 0
129 142 0
135 148 0
136 148 0
132 144 0
132 144 0
137 150 0
140 153 0
137 149 0
132 144 0
133 145 0
137 149 0
142 154 0
135 147 0
135 147 0
137 150 0
135 146 0
135 147 0
136 149 0
133 146 0
138 148 0
138 149 0
134 145 0
131 143 0
135 148 0
133 144 0
142 156 0
138 150 0
142 155 0
140 152 0
137 150 0
140 152 0
135 148 0
134 147 0
138 149 0
139 150 0
147 160 0
138 149 0
144 155 0
141 154 0
137 149 0
137 148 0
140 152 0
138 150 0
139 152 0
136 148 0
145 159 0
144 158 0
144 157 0
142 153 0
131 142 0
132 143 0
137 147 0
145 157 0
139 150 0
137 151 0
141 152 0
134 145 0
144 155 0
133 144 0
142 156 0
134 143 0
142 152 0
140 151 0
138 148 0
137 146 0
141 150 0
144 152 0
144 156 0
137 148 0
138 147 0
135 141 0
145 155 0
143 151 0
138 148 0
143 154 0
136 145 0
141 147 0
136 144 0
136 146 0
137 146 0
135 141 0
137 143 0
137 141 0
134 139 0
133 139 0
137 146 0
141 148 0
129 136 0
128 133 0
135 141 0
133 139 0
128 131 0
138 143 0
133 137 0
134 139 0
131 136 0
132 134 0
135 137 0
131 135 0
134 138 0
132 136 0
132 134 0
130 134 0
126 129 0
129 132 0
120 121 0
123 125 0
124 124 0
123 124 0
118 115 0
122 122 0
123 121 0
124 121 0
121 120 0
122 122 0
127 126 0
119 119 0
125 126 0
114 111 0
124 125 0
120 117 0
128 131 0
120 119 0
126 122 0
122 121 0
119 118 0
122 123 0
124 121 0
121 119 0
120 120 0
132 127 0
131 130 0
130 128 0
122 119 0
130 130 0
117 115 0
130 131 0
127 129 0
129 128 0
127 128 0
136 137 0
130 130 0
130 131 0
140 143 0
132 134 0
134 135 0
144 148 0
127 128 0
137 140 0
141 145 0
138 139 0
140 145 0
138 138 0
142 144 0
140 145 0
147 155 0
147 155 0
142 145 0
147 153 0
142 150 0
144 153 0
147 154 0
142 145 0
143 149 0
146 155 0
152 159 0
155 163 0
154 166 0
147 156 0
156 167 0
151 163 0
149 158 0
153 161 0
151 163 0
154 166 0
152 161 0
153 165 0
153 165 0
161 176 0
157 171 0
163 176 0
158 171 0
165 179 0
158 174 0
159 171 0
160 174 0
161 176 0
162 175 0
156 169 0
154 167 0
165 182 0
163 177 0
160 172 0
156 172 0
162 177 0
160 174 0
163 179 0
164 179 0
158 175 0
165 183 0
154 170 0
159 177 0
166 185 0
166 184 0
163 181 0
165 185 0
161 178 0
158 175 0
164 182 0
165 183 0
165 184 0
166 185 0
165 183 0
165 184 0
163 183 0
161 181 0
167 185 0
165 183 0
166 187 0
156 173 0
171 191 0
163 183 0
163 182 0
161 181 0
169 190 0
166 185 0
163 183 0
165 185 0
167 188 0
164 183 0
164 185 0
164 183 0
164 184 0
166 186 0
168 187 0
162 182 0
165 186 0
164 185 0
166 187 0
170 192 0
168 189 0
163 184 0
164 182 0
168 189 0
171 190 0
165 185 0
168 190 0
168 188 0
166 184 0
171 192 0
168 190 0
168 190 0
170 191 0
171 190 0
170 192 0
167 189 0
170 192 0
169 191 0
169 190 0
171 193 0
170 193 0
167 188 0
169 191 0
168 190 0
170 194 0
172 194 0
164 187 0
170 190 0
171 192 0
172 194 0
170 192 0
170 193 0
170 192 0
168 191 0
169 190 0
173 194 0
171 193 0
167 189 0
173 195 0
169 191 0
167 190 0
168 191 0
167 189 0
172 194 0
168 190 0
171 193 0
169 193 0
173 196 0
170 193 0
169 193 0
171 195 0
172 195 0
170 194 0
171 192 0
171 194 0
172 196 0
172 194 0
171 193 0
171 193 0
171 193 0
173 195 0
171 194 0
171 193 0
169 192 0
172 195 0
173 195 0
173 196 0
170 194 0
170 193 0
171 194 0
171 193 0
172 195 0
170 193 0
173 196 0
172 195 0
173 195 0
172 195 0
171 194 0
173 196 0
171 193 0
173 196 0
171 195 0
172 196 0
173 196 0
172 196 0
167 188 0
164 185 0
162 182 0
165 185 0
161 182 0
166 186 0
166 186 0
164 184 0
163 182 0
167 187 0
165 183 0
160 179 0
163 182 0
163 182 0
161 181 0
163 181 0
159 178 0
162 181 0
158 177 0
162 180 0
155 172 0
157 174 0
159 177 0
158 176 0
152 170 0
157 175 0
160 177 0
163 179 0
160 177 0
159 177 0
152 168 0
153 170 0
154 171 0
151 167 0
154 171 0
146 163 0
147 162 0
148 164 0
146 162 0
148 163 0
144 160 0
146 161 0
140 154 0
143 157 0
141 155 0
144 158 0
141 157 0
147 162 0
136 151 0
134 148 0
142 156 0
135 149 0
138 152 0
136 149 0
134 147 0
137 151 0
139 153 0
141 155 0
140 154 0
142 156 0
139 153 0
132 144 0
140 153 0
135 149 0
129 141 0
140 154 0
136 149 0
122 134 0
135 148 0
140 154 0
136 149 0
136 148 0
136 150 0
136 148 0
134 146 0
131 144 0
136 150 0
137 151 0
143 156 0
139 152 0
139 151 0
134 145 0
130 144 0
135 147 0
139 151 0
139 152 0
138 150 0
136 149 0
140 153 0
139 151 0
137 150 0
136 149 0
138 151 0
141 154 0
142 154 0
138 151 0
143 157 0
143 157 0
142 156 0
138 150 0
141 154 0
138 150 0
135 147 0
137 148 0
141 157 0
141 153 0
142 155 0
134 147 0
140 152 0
142 155 0
137 149 0
140 153 0
142 154 0
139 151 0
138 151 0
140 154 0
144 158 0
144 157 0
142 154 0
141 154 0
147 160 0
138 149 0
139 151 0
137 151 0
143 157 0
148 163 0
141 152 0
146 158 0
142 153 0
145 157 0
142 154 0
142 154 0
137 147 0
141 151 0
141 152 0
142 152 0
138 150 0
139 148 0
144 155 0
147 158 0
136 147 0
140 151 0
142 153 0
141 151 0
135 145 0
139 149 0
142 151 0
140 151 0
143 152 0
134 142 0
139 148 0
146 156 0
135 140 0
140 149 0
137 146 0
141 151 0
139 145 0
138 144 0
145 150 0
145 154 0
131 140 0
133 140 0
136 142 0
140 146 0
138 144 0
139 146 0
134 139 0
133 139 0
135 140 0
135 141 0
135 140 0
127 131 0
133 135 0
135 138 0
133 137 0
133 139 0
133 133 0
126 125 0
134 136 0
138 138 0
128 132 0
128 129 0
127 130 0
128 129 0
135 135 0
129 129 0
122 121 0
125 126 0
129 128 0
130 128 0
127 127 0
126 128 0
130 130 0
128 129 0
121 120 0
132 136 0
118 117 0
125 122 0
129 128 0
128 124 0
133 134 0
122 118 0
131 126 0
128 126 0
120 118 0
131 132 0
126 125 0
128 125 0
129 130 0
128 125 0
129 132 0
127 125 0
135 135 0
140 145 0
145 149 0
140 140 0
131 132 0
134 137 0
138 137 0
141 142 0
128 129 0
141 146 0
138 140 0
135 137 0
134 136 0
143 148 0
145 152 0
137 142 0
137 142 0
143 150 0
152 158 0
146 151 0
147 154 0
149 155 0
153 162 0
148 154 0
148 156 0
151 161 0
155 161 0
153 165 0
145 154 0
151 158 0
149 159 0
157 168 0
153 162 0
153 163 0
149 159 0
151 163 0
151 160 0
153 162 0
160 172 0
156 168 0
148 156 0
157 170 0
154 166 0
157 172 0
156 168 0
153 165 0
158 170 0
160 173 0
154 168 0
156 170 0
164 179 0
164 179 0
161 175 0
160 174 0
163 177 0
164 180 0
162 178 0
158 174 0
159 175 0
157 175 0
162 181 0
164 178 0
160 174 0
164 182 0
166 184 0
162 178 0
165 184 0
169 187 0
163 180 0
162 182 0
163 179 0
164 180 0
163 180 0
164 183 0
166 184 0
168 185 0
157 174 0
165 183 0
168 189 0
164 183 0
166 186 0
170 189 0
167 185 0
165 184 0
165 185 0
169 189 0
166 186 0
165 184 0
166 185 0
166 186 0
166 186 0
164 184 0
165 187 0
167 188 0
164 184 0
164 184 0
165 185 0
169 189 0
169 190 0
165 185 0
168 190 0
165 186 0
168 188 0
169 190 0
168 189 0
165 186 0
165 185 0
169 191 0
165 185 0
167 188 0
171 192 0
167 188 0
167 187 0
169 190 0
169 189 0
165 186 0
169 192 0
170 191 0
169 191 0
170 192 0
169 192 0
169 191 0
169 191 0
168 190 0
171 193 0
168 190 0
169 190 0
170 191 0
172 194 0
169 190 0
167 188 0
168 191 0
170 192 0
170 193 0
171 194 0
169 191 0
174 194 0
173 195 0
169 190 0
167 189 0
171 194 0
168 190 0
170 193 0
169 191 0
170 193 0
171 194 0
169 191 0
171 194 0
170 194 0
171 193 0
166 188 0
170 191 0
170 192 0
170 192 0
172 195 0
170 193 0
172 195 0
169 192 0
171 194 0
173 195 0
171 193 0
170 193 0
174 196 0
174 196 0
170 192 0
170 192 0
173 196 0
170 193 0
168 191 0
171 193 0
172 195 0
172 195 0
169 192 0
170 193 0
171 193 0
171 194 0
172 194 0
172 195 0
171 194 0
174 197 0
172 196 0
171 195 0
176 198 0
173 196 0
172 195 0
173 196 0
171 194 0
175 197 0
166 186 0
166 186 0
164 184 0
165 185 0
163 183 0
163 182 0
164 185 0
165 184 0
162 182 0
163 183 0
165 185 0
165 184 0
163 181 0
162 180 0
158 175 0
160 179 0
160 179 0
155 174 0
159 176 0
162 180 0
163 181 0
159 176 0
157 175 0
160 178 0
158 175 0
155 174 0
154 171 0
159 176 0
159 176 0
154 171 0
157 175 0
147 163 0
146 162 0
150 166 0
147 164 0
144 160 0
149 164 0
148 164 0
148 164 0
148 163 0
145 161 0
144 158 0
145 161 0
145 159 0
141 156 0
142 158 0
145 160 0
146 161 0
134 147 0
148 163 0
137 150 0
136 149 0
140 154 0
143 157 0
143 158 0
140 154 0
141 154 0
135 148 0
130 143 0
137 150 0
143 157 0
132 146 0
133 146 0
140 152 0
132 147 0
139 153 0
138 152 0
140 154 0
131 143 0
142 156 0
139 152 0
143 156 0
144 157 0
139 151 0
138 152 0
138 152 0
125 139 0
139 153 0
135 147 0
140 153 0
137 150 0
137 150 0
132 144 0
142 155 0
134 146 0
135 147 0
135 148 0
138 150 0
143 157 0
144 157 0
140 153 0
140 155 0
141 156 0
145 158 0
136 150 0
142 155 0
139 151 0
132 144 0
138 148 0
144 159 0
142 154 0
138 151 0
137 149 0
136 150 0
140 152 0
144 158 0
140 153 0
138 151 0
148 161 0
134 143 0
138 150 0
146 159 0
144 158 0
138 151 0
139 150 0
145 160 0
141 154 0
143 156 0
144 156 0
139 152 0
142 154 0
139 151 0
141 152 0
143 155 0
129 141 0
136 147 0
148 161 0
143 156 0
150 164 0
140 154 0
135 147 0
142 154 0
142 154 0
139 149 0
140 153 0
145 158 0
140 151 0
138 150 0
146 157 0
138 148 0
139 149 0
145 158 0
139 151 0
148 160 0
141 153 0
139 149 0
150 161 0
138 149 0
145 156 0
136 146 0
143 153 0
133 139 0
141 150 0
130 137 0
135 142 0
131 138 0
141 150 0
137 143 0
126 132 0
137 141 0
135 141 0
137 144 0
138 142 0
138 145 0
137 143 0
135 139 0
140 147 0
137 142 0
135 140 0
135 141 0
137 143 0
135 143 0
127 130 0
137 142 0
133 137 0
130 135 0
135 141 0
127 127 0
133 135 0
134 137 0
132 133 0
127 130 0
133 134 0
133 135 0
121 123 0
132 135 0
131 131 0
129 132 0
131 132 0
125 124 0
127 125 0
129 128 0
132 132 0
129 127 0
133 133 0
129 128 0
134 134 0
121 121 0
135 137 0
128 127 0
138 141 0
136 138 0
129 131 0
136 137 0
133 136 0
133 133 0
128 129 0
131 129 0
126 128 0
123 122 0
138 139 0
132 131 0
133 133 0
138 141 0
132 131 0
132 132 0
142 145 0
139 140 0
133 133 0
141 145 0
148 153 0
139 142 0
141 146 0
141 143 0
146 152 0
144 149 0
145 150 0
144 149 0
152 160 0
146 151 0
154 161 0
149 158 0
146 152 0
147 153 0
147 154 0
149 156 0
150 157 0
149 155 0
151 157 0
147 154 0
148 158 0
149 158 0
159 170 0
160 172 0
150 159 0
150 159 0
154 166 0
155 165 0
155 167 0
149 158 0
149 161 0
157 170 0
155 167 0
158 174 0
165 176 0
162 173 0
158 171 0
158 171 0
166 181 0
158 174 0
159 175 0
159 174 0
161 177 0
156 171 0
162 177 0
160 174 0
155 170 0
163 180 0
160 176 0
158 172 0
161 178 0
163 182 0
162 178 0
161 177 0
162 180 0
159 178 0
164 182 0
162 178 0
160 178 0
166 184 0
163 179 0
168 187 0
165 183 0
166 184 0
166 185 0
162 179 0
163 182 0
165 185 0
165 182 0
168 186 0
163 181 0
165 184 0
165 182 0
160 177 0
164 183 0
167 185 0
166 186 0
164 184 0
167 186 0
165 185 0
170 191 0
165 186 0
165 185 0
163 183 0
166 185 0
165 185 0
167 188 0
168 188 0
167 187 0
167 186 0
165 184 0
166 186 0
166 188 0
166 187 0
168 190 0
167 189 0
169 188 0
168 189 0
165 187 0
168 189 0
170 191 0
168 191 0
164 185 0
168 188 0
164 186 0
166 188 0
167 188 0
165 188 0
170 193 0
165 188 0
166 188 0
169 191 0
168 189 0
168 188 0
172 194 0
170 191 0
170 192 0
170 193 0
169 191 0
170 192 0
169 190 0
173 195 0
170 194 0
172 194 0
171 194 0
173 194 0
170 193 0
170 192 0
169 190 0
169 191 0
172 194 0
168 189 0
171 195 0
170 192 0
171 193 0
169 191 0
169 191 0
167 190 0
170 192 0
171 192 0
169 189 0
169 191 0
170 193 0
173 196 0
172 194 0
172 195 0
169 192 0
170 193 0
169 192 0
170 191 0
170 194 0
171 193 0
166 187 0
171 194 0
170 193 0
169 192 0
173 196 0
173 196 0
172 195 0
169 191 0
170 194 0
173 196 0
170 193 0
171 193 0
171 194 0
173 196 0
172 195 0
173 196 0
170 193 0
170 193 0
171 195 0
172 195 0
169 193 0
174 196 0
172 195 0
172 195 0
169 192 0
173 195 0
173 196 0
170 194 0
169 188 0
165 185 0
165 185 0
163 183 0
164 183 0
164 183 0
165 185 0
160 179 0
162 183 0
163 184 0
161 181 0
161 179 0
160 180 0
157 176 0
160 179 0
162 181 0
154 173 0
163 184 0
156 175 0
150 167 0
163 181 0
159 176 0
158 175 0
154 172 0
156 172 0
152 169 0
152 170 0
158 176 0
152 169 0
157 175 0
160 177 0
153 170 0
155 172 0
156 173 0
153 169 0
143 158 0
154 171 0
148 164 0
146 161 0
147 162 0
148 163 0
140 155 0
150 166 0
151 167 0
141 157 0
144 159 0
143 158 0
140 154 0
137 152 0
144 159 0
126 138 0
134 147 0
138 152 0
138 151 0
143 158 0
136 149 0
145 161 0
134 148 0
142 156 0
141 154 0
134 147 0
136 149 0
136 151 0
141 155 0
141 156 0
138 152 0
136 150 0
138 151 0
140 153 0
137 149 0
139 152 0
135 147 0
135 146 0
136 150 0
146 161 0
137 149 0
134 147 0
140 153 0
133 146 0
138 152 0
142 156 0
137 149 0
143 155 0
140 154 0
144 159 0
136 149 0
142 155 0
145 159 0
146 160 0
138 151 0
139 152 0
142 155 0
135 147 0
138 150 0
138 150 0
143 156 0
139 152 0
141 154 0
148 163 0
142 154 0
150 164 0
135 147 0
139 153 0
144 157 0
139 151 0
138 153 0
139 153 0
139 151 0
148 162 0
144 156 0
144 157 0
145 159 0
136 148 0
140 152 0
145 159 0
142 156 0
138 150 0
139 152 0
140 151 0
141 151 0
143 158 0
146 161 0
150 165 0
138 149 0
150 165 0
137 149 0
150 162 0
140 152 0
134 145 0
137 149 0
144 156 0
143 156 0
138 151 0
150 163 0
138 150 0
144 154 0
143 156 0
138 148 0
134 146 0
144 155 0
141 154 0
140 149 0
146 159 0
136 146 0
145 155 0
134 143 0
140 147 0
141 149 0
132 139 0
148 156 0
135 143 0
142 150 0
141 149 0
134 143 0
146 155 0
137 144 0
139 145 0
139 148 0
146 155 0
138 146 0
140 146 0
138 147 0
144 151 0
128 134 0
139 143 0
132 138 0
138 142 0
132 136 0
143 150 0
138 144 0
135 139 0
131 137 0
129 132 0
137 143 0
134 140 0
141 147 0
134 137 0
139 143 0
135 142 0
130 134 0
135 138 0
130 133 0
128 130 0
128 131 0
136 140 0
127 130 0
132 132 0
135 140 0
131 130 0
128 127 0
128 127 0
122 122 0
130 131 0
127 127 0
134 134 0
135 139 0
133 134 0
139 141 0
129 130 0
129 130 0
133 135 0
139 145 0
123 122 0
131 131 0
134 138 0
129 129 0
128 128 0
136 139 0
140 141 0
139 142 0
140 143 0
141 142 0
139 139 0
141 142 0
135 137 0
144 147 0
139 139 0
140 144 0
147 151 0
142 147 0
141 145 0
136 138 0
147 152 0
138 143 0
147 150 0
141 147 0
148 154 0
148 154 0
139 143 0
149 153 0
149 154 0
152 159 0
154 164 0
148 155 0
147 156 0
150 159 0
143 151 0
146 154 0
150 158 0
152 159 0
149 154 0
156 167 0
159 170 0
151 158 0
153 162 0
155 166 0
150 158 0
155 165 0
161 174 0
156 167 0
154 165 0
157 171 0
158 170 0
163 178 0
150 160 0
162 175 0
156 170 0
159 172 0
161 174 0
158 172 0
157 171 0
155 168 0
156 169 0
160 175 0
161 177 0
160 172 0
160 175 0
161 176 0
162 178 0
160 176 0
159 173 0
162 178 0
165 181 0
161 179 0
161 177 0
164 181 0
156 175 0
165 183 0
162 180 0
165 182 0
165 182 0
162 178 0
165 183 0
159 177 0
158 176 0
167 186 0
161 179 0
164 183 0
167 187 0
168 185 0
166 183 0
166 186 0
164 183 0
164 182 0
167 186 0
160 178 0
164 183 0
166 185 0
168 186 0
165 184 0
167 188 0
162 182 0
165 185 0
165 186 0
162 180 0
165 186 0
166 185 0
169 188 0
164 186 0
164 186 0
167 188 0
166 186 0
167 187 0
167 186 0
168 190 0
164 184 0
171 193 0
164 187 0
165 187 0
171 193 0
165 187 0
165 186 0
169 190 0
166 186 0
165 185 0
168 188 0
168 189 0
170 189 0
168 190 0
170 192 0
170 190 0
171 192 0
167 189 0
170 191 0
167 188 0
168 190 0
169 192 0
167 188 0
169 192 0
170 193 0
169 191 0
170 193 0
168 191 0
169 191 0
168 192 0
166 189 0
169 190 0
171 192 0
170 193 0
167 188 0
169 192 0
171 193 0
170 194 0
169 190 0
171 193 0
172 194 0
169 192 0
172 194 0
167 190 0
172 194 0
169 191 0
168 191 0
174 195 0
171 194 0
170 193 0
173 196 0
172 194 0
169 191 0
169 192 0
168 191 0
170 192 0
173 196 0
174 196 0
169 191 0
172 195 0
170 193 0
169 193 0
170 193 0
173 195 0
169 192 0
171 195 0
172 195 0
172 194 0
169 192 0
174 196 0
169 192 0
171 195 0
171 193 0
171 194 0
171 194 0
170 193 0
171 195 0
171 195 0
172 194 0
172 195 0
174 197 0
173 196 0
171 194 0
172 195 0
171 194 0
165 184 0
163 184 0
162 182 0
164 183 0
160 179 0
158 177 0
161 180 0
159 179 0
162 181 0
158 178 0
157 176 0
160 180 0
166 184 0
159 179 0
163 182 0
159 177 0
160 179 0
162 181 0
162 181 0
158 175 0
157 174 0
153 170 0
159 176 0
156 173 0
157 175 0
153 171 0
153 169 0
156 174 0
157 174 0
160 177 0
153 170 0
155 172 0
154 170 0
146 163 0
155 172 0
144 159 0
143 159 0
148 163 0
150 166 0
141 155 0
143 157 0
146 162 0
151 167 0
147 162 0
143 157 0
149 163 0
145 160 0
140 154 0
142 157 0
138 152 0
144 159 0
138 152 0
144 158 0
147 161 0
145 159 0
146 160 0
140 155 0
142 156 0
141 157 0
139 152 0
139 152 0
146 159 0
135 147 0
144 159 0
143 158 0
147 161 0
135 148 0
143 157 0
137 150 0
147 161 0
135 146 0
139 152 0
142 157 0
143 157 0
145 159 0
142 155 0
142 156 0
137 151 0
142 156 0
134 148 0
135 148 0
141 154 0
136 148 0
140 154 0
144 157 0
148 162 0
136 150 0
143 157 0
142 156 0
140 154 0
141 155 0
141 153 0
151 166 0
142 156 0
150 164 0
142 154 0
144 157 0
149 164 0
142 155 0
141 154 0
143 156 0
144 156 0
146 161 0
140 153 0
142 156 0
139 152 0
148 163 0
138 150 0
141 152 0
151 166 0
141 155 0
145 158 0
143 157 0
144 158 0
146 160 0
142 155 0
143 154 0
146 158 0
144 156 0
139 150 0
144 155 0
138 150 0
145 158 0
140 151 0
144 157 0
143 157 0
139 152 0
138 150 0
143 156 0
147 157 0
147 162 0
146 160 0
150 160 0
141 151 0
148 161 0
141 153 0
147 159 0
144 154 0
144 155 0
136 146 0
144 157 0
144 155 0
140 148 0
143 153 0
140 151 0
138 149 0
149 161 0
149 159 0
141 152 0
141 152 0
141 155 0
136 144 0
144 152 0
133 139 0
141 149 0
139 144 0
143 148 0
142 151 0
135 142 0
133 141 0
134 139 0
134 142 0
137 143 0
134 142 0
141 148 0
140 145 0
137 141 0
137 140 0
132 140 0
130 134 0
132 135 0
135 139 0
139 144 0
138 143 0
135 138 0
127 132 0
138 142 0
117 118 0
134 139 0
124 124 0
140 142 0
131 135 0
138 140 0
139 144 0
138 143 0
138 141 0
130 132 0
135 137 0
142 146 0
140 143 0
133 133 0
121 122 0
136 137 0
137 140 0
128 128 0
128 132 0
128 131 0
126 127 0
133 132 0
141 143 0
136 138 0
130 131 0
138 140 0
129 127 0
136 139 0
143 145 0
137 139 0
137 140 0
132 132 0
136 137 0
138 141 0
129 133 0
140 145 0
137 142 0
145 149 0
124 125 0
144 147 0
141 144 0
140 140 0
145 151 0
138 140 0
138 142 0
138 139 0
144 146 0
144 148 0
138 143 0
148 156 0
145 149 0
142 148 0
148 157 0
144 150 0
153 159 0
139 146 0
152 160 0
145 151 0
156 164 0
155 167 0
152 163 0
157 165 0
152 161 0
149 158 0
149 158 0
148 156 0
151 161 0
147 157 0
151 160 0
151 160 0
146 156 0
155 167 0
155 167 0
155 167 0
154 164 0
157 170 0
152 160 0
158 172 0
162 175 0
161 173 0
157 170 0
152 165 0
159 172 0
157 169 0
158 171 0
154 168 0
158 174 0
158 174 0
161 176 0
157 172 0
157 169 0
158 174 0
158 174 0
160 176 0
155 170 0
158 174 0
162 176 0
166 182 0
159 175 0
164 182 0
165 181 0
157 172 0
163 179 0
157 174 0
160 178 0
160 177 0
162 179 0
156 173 0
163 181 0
163 181 0
169 189 0
160 179 0
162 179 0
158 175 0
163 183 0
163 182 0
160 179 0
164 181 0
163 184 0
167 186 0
168 185 0
161 180 0
167 185 0
170 189 0
166 185 0
164 183 0
165 184 0
168 188 0
164 184 0
167 187 0
166 187 0
167 189 0
165 188 0
169 189 0
168 187 0
170 191 0
173 193 0
166 186 0
166 188 0
169 191 0
168 188 0
167 189 0
168 190 0
169 192 0
164 185 0
168 189 0
168 188 0
169 191 0
170 191 0
166 187 0
166 188 0
171 193 0
169 191 0
171 194 0
168 191 0
168 189 0
168 191 0
171 192 0
169 190 0
169 190 0
169 189 0
169 191 0
168 191 0
167 189 0
168 191 0
167 190 0
168 190 0
168 190 0
169 190 0
171 194 0
170 191 0
172 193 0
171 194 0
168 189 0
171 193 0
169 192 0
170 193 0
171 193 0
169 192 0
170 193 0
170 191 0
171 195 0
168 191 0
169 192 0
170 192 0
171 194 0
169 191 0
168 190 0
170 193 0
173 195 0
171 192 0
168 189 0
171 193 0
173 195 0
173 196 0
170 192 0
172 195 0
170 193 0
172 195 0
174 196 0
168 191 0
171 194 0
170 192 0
174 196 0
172 195 0
173 195 0
173 195 0
169 192 0
170 193 0
171 194 0
173 195 0
171 193 0
173 195 0
170 193 0
173 196 0
173 197 0
171 195 0
173 196 0
168 190 0
174 196 0
174 197 0
170 193 0
171 195 0
163 183 0
163 183 0
161 180 0
160 180 0
163 182 0
160 180 0
162 181 0
160 179 0
158 177 0
162 180 0
155 173 0
161 179 0
160 179 0
163 182 0
159 177 0
151 168 0
160 178 0
158 175 0
160 179 0
159 176 0
153 170 0
162 180 0
158 176 0
154 172 0
154 172 0
150 166 0
157 175 0
157 174 0
159 176 0
153 170 0
151 167 0
156 172 0
154 170 0
149 165 0
152 168 0
149 165 0
150 166 0
146 161 0
155 170 0
144 159 0
148 163 0
154 170 0
144 160 0
141 155 0
143 159 0
149 164 0
144 159 0
150 165 0
150 165 0
145 160 0
143 157 0
141 156 0
146 161 0
147 162 0
149 164 0
143 158 0
140 154 0
138 153 0
144 158 0
136 149 0
143 157 0
133 146 0
142 156 0
137 151 0
136 150 0
148 162 0
145 159 0
137 151 0
139 152 0
151 165 0
141 156 0
138 150 0
144 157 0
144 158 0
141 155 0
143 158 0
141 153 0
135 147 0
140 153 0
147 161 0
140 151 0
143 156 0
143 156 0
139 151 0
147 162 0
148 164 0
146 161 0
150 164 0
141 153 0
143 157 0
142 155 0
135 146 0
135 150 0
141 154 0
147 162 0
140 155 0
134 148 0
143 157 0
144 158 0
145 158 0
136 150 0
142 156 0
152 166 0
147 162 0
138 151 0
145 159 0
146 160 0
143 156 0
144 157 0
142 155 0
144 158 0
143 157 0
146 159 0
143 155 0
141 155 0
146 159 0
143 156 0
137 149 0
137 150 0
142 155 0
142 156 0
145 159 0
146 160 0
149 161 0
141 151 0
143 158 0
137 149 0
143 155 0
139 151 0
140 153 0
144 155 0
141 153 0
148 161 0
140 151 0
148 160 0
138 148 0
136 149 0
143 154 0
143 155 0
146 159 0
145 155 0
144 152 0
145 154 0
142 152 0
143 155 0
147 156 0
148 158 0
137 145 0
138 145 0
140 148 0
141 151 0
140 150 0
144 153 0
140 147 0
137 148 0
146 157 0
137 143 0
142 150 0
137 145 0
139 146 0
139 147 0
147 153 0
133 143 0
134 140 0
141 147 0
130 133 0
134 140 0
138 144 0
140 147 0
134 138 0
138 147 0
142 147 0
143 149 0
139 144 0
143 151 0
127 132 0
136 141 0
135 137 0
137 141 0
141 145 0
135 138 0
136 138 0
133 136 0
142 145 0
132 133 0
138 141 0
136 138 0
137 141 0
142 146 0
136 138 0
134 138 0
127 129 0
135 136 0
133 136 0
137 140 0
132 135 0
137 138 0
136 136 0
124 125 0
135 138 0
133 135 0
132 133 0
138 140 0
137 139 0
137 140 0
140 145 0
133 134 0
140 142 0
138 140 0
143 149 0
136 137 0
128 131 0
138 139 0
149 156 0
144 148 0
138 141 0
140 143 0
138 144 0
140 143 0
145 148 0
144 151 0
140 142 0
142 146 0
144 149 0
148 153 0
144 148 0
150 156 0
144 150 0
143 150 0
148 156 0
145 148 0
153 160 0
139 143 0
150 155 0
151 158 0
150 160 0
149 156 0
147 156 0
148 156 0
153 161 0
153 162 0
146 155 0
152 161 0
154 164 0
152 163 0
152 161 0
151 159 0
160 173 0
150 160 0
160 172 0
159 171 0
155 168 0
150 162 0
154 167 0
154 166 0
157 170 0
155 167 0
157 170 0
159 175 0
156 170 0
160 175 0
159 169 0
166 183 0
162 177 0
158 171 0
157 173 0
161 175 0
161 174 0
156 172 0
156 171 0
162 177 0
163 178 0
158 173 0
163 182 0
163 179 0
163 180 0
164 179 0
160 176 0
164 182 0
165 181 0
160 178 0
156 173 0
166 187 0
153 171 0
165 183 0
166 182 0
163 181 0
167 186 0
170 187 0
162 179 0
160 177 0
162 179 0
161 179 0
167 186 0
161 181 0
165 185 0
167 187 0
166 185 0
160 177 0
168 185 0
162 181 0
165 184 0
165 185 0
165 185 0
168 187 0
169 191 0
168 189 0
166 185 0
163 183 0
165 184 0
166 187 0
167 187 0
165 186 0
166 187 0
168 189 0
166 187 0
168 189 0
167 187 0
165 186 0
169 190 0
165 187 0
167 189 0
170 192 0
170 191 0
167 188 0
170 191 0
167 189 0
170 192 0
165 187 0
170 193 0
164 185 0
172 193 0
167 190 0
170 193 0
167 189 0
165 185 0
170 192 0
168 190 0
172 193 0
172 193 0
169 190 0
169 191 0
165 186 0
168 190 0
168 190 0
171 193 0
168 192 0
169 190 0
170 191 0
165 188 0
169 191 0
173 195 0
172 193 0
170 193 0
171 193 0
171 194 0
171 194 0
167 190 0
171 194 0
170 192 0
170 192 0
172 194 0
171 194 0
172 194 0
174 196 0
170 192 0
172 194 0
170 193 0
171 195 0
171 193 0
173 194 0
174 196 0
173 195 0
172 195 0
171 194 0
169 192 0
170 193 0
169 192 0
170 192 0
171 195 0
170 193 0
171 194 0
170 193 0
174 197 0
172 195 0
172 194 0
173 195 0
171 194 0
173 195 0
172 195 0
171 194 0
170 192 0
171 193 0
170 192 0
168 192 0
170 193 0
173 196 0
173 197 0
169 192 0
171 194 0
166 186 0
162 182 0
164 184 0
165 185 0
162 182 0
159 177 0
161 180 0
161 181 0
161 180 0
160 179 0
163 182 0
159 178 0
161 179 0
158 177 0
163 181 0
163 182 0
160 177 0
156 173 0
153 171 0
155 172 0
157 175 0
156 175 0
151 167 0
156 174 0
155 172 0
151 168 0
154 171 0
156 173 0
149 166 0
150 168 0
156 173 0
153 169 0
150 166 0
146 160 0
148 164 0
151 166 0
146 161 0
151 167 0
150 166 0
144 158 0
144 159 0
146 162 0
143 158 0
144 159 0
144 158 0
147 163 0
146 162 0
145 160 0
139 154 0
144 159 0
147 163 0
140 154 0
140 154 0
136 151 0
149 163 0
138 151 0
148 162 0
144 158 0
146 161 0
147 162 0
139 152 0
146 161 0
144 159 0
143 158 0
141 155 0
145 158 0
144 159 0
134 147 0
146 160 0
145 159 0
143 158 0
146 160 0
148 163 0
145 160 0
139 154 0
146 161 0
142 155 0
143 156 0
146 160 0
143 158 0
152 166 0
142 155 0
144 156 0
144 157 0
137 150 0
146 161 0
144 158 0
144 160 0
145 158 0
146 161 0
142 156 0
148 161 0
147 159 0
148 162 0
141 156 0
141 153 0
140 153 0
142 155 0
147 160 0
141 154 0
144 158 0
147 161 0
146 159 0
142 155 0
146 160 0
139 152 0
148 163 0
132 144 0
141 151 0
139 151 0
140 152 0
153 167 0
145 157 0
136 149 0
141 154 0
146 159 0
152 166 0
145 157 0
147 160 0
146 157 0
142 155 0
148 163 0
151 164 0
144 157 0
150 163 0
145 159 0
147 160 0
150 164 0
140 150 0
145 156 0
140 151 0
139 150 0
140 152 0
150 160 0
146 158 0
145 157 0
144 155 0
146 159 0
146 158 0
143 154 0
141 150 0
142 152 0
140 149 0
143 154 0
155 167 0
139 148 0
140 150 0
146 157 0
139 150 0
145 154 0
145 154 0
135 141 0
141 150 0
136 144 0
143 150 0
148 157 0
142 153 0
136 141 0
133 142 0
142 151 0
144 153 0
142 150 0
144 151 0
140 148 0
142 148 0
145 156 0
143 149 0
139 145 0
136 141 0
144 149 0
139 147 0
130 134 0
142 148 0
142 146 0
141 144 0
148 156 0
132 134 0
137 143 0
135 139 0
137 142 0
141 146 0
138 142 0
135 144 0
131 135 0
139 142 0
139 141 0
135 139 0
131 133 0
137 141 0
139 142 0
138 141 0
137 139 0
132 133 0
140 143 0
137 139 0
136 140 0
136 139 0
144 148 0
141 143 0
133 137 0
130 135 0
142 145 0
138 143 0
135 137 0
137 139 0
132 135 0
135 139 0
129 133 0
142 146 0
147 154 0
137 139 0
139 144 0
142 147 0
143 147 0
142 146 0
137 142 0
139 142 0
142 146 0
138 140 0
144 148 0
136 141 0
146 153 0
147 151 0
148 152 0
147 152 0
151 160 0
148 153 0
151 155 0
147 154 0
148 155 0
160 170 0
144 150 0
154 159 0
157 165 0
156 166 0
152 162 0
151 159 0
150 160 0
148 156 0
150 160 0
154 164 0
152 164 0
159 167 0
153 163 0
152 163 0
151 161 0
152 162 0
159 172 0
160 172 0
156 170 0
158 169 0
157 168 0
156 171 0
157 169 0
161 175 0
161 174 0
153 165 0
159 171 0
161 175 0
159 171 0
156 170 0
161 177 0
155 168 0
162 177 0
158 173 0
163 175 0
164 178 0
159 173 0
158 171 0
161 176 0
160 177 0
164 182 0
160 177 0
166 182 0
164 180 0
164 179 0
160 177 0
165 182 0
163 181 0
163 181 0
166 186 0
162 179 0
165 181 0
166 184 0
160 178 0
164 182 0
168 185 0
162 180 0
161 180 0
165 183 0
167 186 0
158 177 0
163 182 0
162 180 0
164 184 0
166 184 0
167 185 0
164 182 0
167 186 0
162 182 0
168 187 0
168 186 0
163 184 0
164 184 0
167 187 0
169 187 0
169 188 0
165 185 0
166 185 0
163 183 0
166 187 0
166 188 0
167 190 0
168 190 0
163 184 0
163 182 0
168 189 0
164 185 0
166 186 0
163 184 0
163 185 0
163 184 0
167 186 0
164 185 0
166 188 0
164 185 0
169 191 0
171 193 0
170 192 0
170 192 0
168 189 0
169 192 0
172 194 0
167 188 0
165 186 0
174 196 0
170 192 0
169 190 0
171 192 0
168 190 0
169 192 0
171 194 0
166 188 0
167 189 0
171 194 0
166 186 0
171 194 0
172 195 0
172 194 0
169 190 0
172 194 0
166 188 0
172 194 0
173 195 0
170 192 0
169 190 0
171 193 0
167 189 0
168 189 0
170 195 0
171 193 0
173 195 0
172 194 0
169 191 0
169 192 0
172 195 0
167 189 0
172 195 0
169 192 0
167 190 0
172 195 0
170 192 0
170 192 0
167 191 0
169 190 0
172 194 0
171 194 0
173 197 0
173 196 0
168 191 0
173 195 0
174 197 0
173 196 0
173 195 0
169 193 0
171 194 0
172 194 0
170 193 0
172 195 0
169 192 0
174 196 0
170 193 0
173 196 0
171 194 0
167 190 0
172 195 0
171 194 0
171 193 0
173 195 0
171 194 0
161 180 0
160 179 0
161 181 0
166 185 0
157 176 0
165 184 0
155 173 0
164 183 0
161 179 0
162 181 0
158 176 0
155 173 0
155 173 0
160 178 0
161 180 0
157 175 0
162 180 0
161 179 0
154 172 0
153 171 0
160 179 0
152 169 0
157 174 0
157 176 0
156 173 0
160 177 0
151 168 0
152 167 0
149 165 0
150 166 0
152 170 0
154 170 0
145 162 0
157 174 0
156 173 0
151 167 0
145 161 0
152 168 0
146 162 0
145 161 0
149 165 0
153 169 0
148 163 0
152 167 0
146 163 0
136 150 0
151 167 0
141 155 0
147 163 0
147 162 0
141 156 0
144 158 0
147 160 0
141 156 0
145 161 0
147 162 0
148 162 0
144 159 0
133 146 0
144 158 0
145 160 0
148 162 0
148 163 0
147 162 0
145 159 0
139 154 0
143 158 0
139 154 0
135 148 0
144 159 0
151 167 0
147 162 0
150 165 0
148 163 0
150 165 0
150 163 0
147 161 0
146 160 0
152 167 0
146 161 0
136 149 0
141 155 0
147 161 0
143 157 0
141 155 0
145 158 0
146 159 0
141 154 0
142 155 0
145 160 0
145 158 0
145 158 0
149 164 0
141 153 0
135 149 0
141 156 0
151 167 0
136 150 0
143 156 0
149 162 0
141 152 0
130 143 0
150 166 0
141 154 0
144 156 0
144 155 0
147 160 0
150 164 0
140 154 0
146 160 0
150 164 0
140 153 0
144 159 0
148 162 0
144 159 0
142 155 0
148 160 0
148 162 0
147 161 0
143 155 0
145 160 0
145 158 0
143 157 0
142 155 0
149 162 0
144 155 0
142 156 0
148 163 0
143 157 0
143 156 0
151 161 0
136 147 0
139 152 0
146 159 0
141 152 0
145 156 0
148 162 0
148 161 0
145 156 0
139 151 0
143 155 0
137 147 0
152 165 0
147 158 0
143 153 0
144 157 0
139 148 0
152 164 0
137 146 0
142 153 0
142 150 0
145 157 0
145 156 0
151 161 0
142 148 0
139 148 0
146 155 0
144 152 0
145 155 0
141 148 0
139 147 0
141 150 0
144 153 0
138 147 0
137 146 0
143 149 0
140 150 0
148 156 0
142 149 0
139 147 0
143 151 0
140 146 0
139 147 0
138 145 0
146 151 0
138 143 0
146 154 0
141 145 0
136 139 0
136 141 0
137 141 0
143 150 0
149 155 0
140 143 0
143 146 0
140 143 0
144 151 0
144 150 0
139 141 0
140 146 0
139 146 0
136 138 0
142 146 0
142 144 0
139 141 0
131 135 0
139 142 0
142 146 0
135 138 0
138 140 0
133 135 0
144 149 0
147 152 0
135 139 0
136 139 0
141 146 0
136 140 0
142 145 0
145 149 0
141 145 0
146 152 0
141 142 0
149 155 0
136 139 0
142 149 0
143 145 0
136 141 0
135 141 0
144 148 0
144 153 0
146 150 0
154 160 0
149 158 0
150 155 0
147 152 0
145 151 0
152 162 0
146 152 0
145 153 0
149 155 0
146 156 0
147 153 0
156 164 0
152 161 0
148 159 0
154 164 0
156 165 0
147 154 0
144 153 0
160 170 0
150 161 0
146 156 0
156 166 0
156 166 0
155 166 0
160 169 0
155 166 0
152 163 0
158 170 0
157 168 0
154 166 0
159 172 0
154 167 0
163 176 0
162 176 0
154 165 0
158 170 0
156 171 0
161 175 0
158 169 0
161 176 0
161 175 0
165 179 0
166 181 0
162 177 0
162 178 0
157 169 0
163 176 0
165 179 0
161 176 0
164 179 0
161 177 0
169 187 0
164 182 0
161 178 0
164 181 0
165 182 0
165 183 0
165 180 0
164 180 0
164 182 0
164 180 0
163 182 0
163 181 0
164 182 0
160 177 0
167 184 0
165 185 0
167 183 0
166 185 0
166 185 0
168 188 0
168 187 0
166 187 0
165 183 0
164 182 0
164 183 0
165 183 0
165 184 0
163 182 0
163 182 0
163 183 0
164 183 0
169 190 0
167 186 0
167 187 0
165 185 0
161 180 0
164 184 0
169 190 0
168 188 0
163 182 0
169 190 0
172 193 0
166 186 0
167 187 0
169 189 0
168 191 0
168 189 0
167 190 0
166 186 0
171 193 0
163 184 0
165 186 0
168 189 0
168 191 0
165 186 0
168 192 0
168 190 0
164 184 0
168 189 0
168 190 0
169 191 0
170 192 0
167 187 0
170 191 0
165 185 0
168 189 0
169 192 0
172 194 0
171 193 0
167 189 0
167 188 0
172 193 0
171 193 0
166 188 0
169 191 0
170 192 0
170 192 0
170 192 0
171 192 0
170 191 0
169 189 0
169 191 0
172 196 0
169 191 0
169 191 0
172 194 0
173 195 0
170 193 0
170 191 0
168 192 0
169 192 0
169 192 0
170 192 0
170 192 0
165 189 0
170 192 0
171 195 0
171 192 0
170 193 0
173 194 0
170 191 0
172 196 0
171 194 0
172 194 0
173 195 0
172 195 0
171 195 0
172 193 0
169 192 0
173 195 0
172 194 0
172 194 0
173 197 0
174 197 0
171 194 0
171 194 0
172 194 0
173 196 0
171 194 0
170 192 0
173 196 0
170 191 0
170 193 0
171 194 0
173 196 0
172 195 0
170 194 0
171 194 0
161 180 0
160 179 0
161 181 0
160 179 0
157 175 0
160 179 0
160 179 0
157 175 0
156 174 0
160 179 0
160 178 0
156 173 0
159 176 0
162 181 0
155 173 0
157 175 0
160 178 0
153 171 0
156 173 0
158 176 0
156 174 0
154 172 0
148 165 0
153 171 0
159 177 0
152 168 0
153 169 0
150 167 0
147 163 0
150 166 0
156 172 0
145 161 0
155 171 0
148 164 0
151 167 0
151 167 0
148 164 0
158 175 0
149 165 0
152 168 0
148 166 0
151 166 0
147 163 0
145 161 0
141 155 0
145 160 0
149 164 0
149 165 0
148 163 0
145 161 0
147 162 0
143 158 0
141 155 0
144 159 0
145 161 0
145 160 0
150 166 0
153 168 0
149 164 0
149 164 0
143 158 0
146 160 0
145 159 0
143 159 0
146 160 0
140 154 0
145 160 0
141 156 0
149 164 0
151 166 0
151 165 0
151 166 0
147 162 0
147 161 0
150 166 0
143 155 0
151 167 0
142 156 0
152 168 0
143 156 0
144 157 0
144 158 0
146 160 0
146 159 0
146 159 0
142 157 0
152 167 0
145 159 0
146 159 0
138 149 0
139 151 0
144 159 0
147 162 0
149 161 0
149 163 0
144 157 0
143 157 0
143 156 0
150 165 0
139 153 0
140 152 0
141 156 0
142 157 0
148 164 0
148 163 0
146 159 0
144 158 0
150 164 0
144 157 0
147 162 0
148 162 0
145 157 0
134 146 0
147 161 0
150 166 0
145 157 0
140 153 0
149 164 0
142 156 0
141 152 0
148 162 0
142 156 0
149 165 0
148 161 0
141 154 0
144 157 0
150 163 0
144 154 0
148 162 0
147 160 0
145 158 0
147 159 0
147 161 0
147 160 0
148 161 0
148 162 0
149 162 0
140 151 0
150 162 0
142 150 0
146 159 0
146 157 0
145 159 0
147 159 0
138 149 0
143 153 0
142 152 0
139 149 0
144 153 0
145 157 0
146 157 0
145 157 0
149 158 0
147 156 0
145 152 0
135 142 0
149 158 0
149 156 0
151 160 0
145 154 0
144 153 0
149 158 0
137 145 0
136 143 0
151 160 0
145 154 0
142 151 0
141 149 0
144 150 0
135 141 0
141 145 0
139 146 0
147 152 0
147 153 0
142 150 0
140 147 0
145 152 0
137 140 0
140 144 0
131 135 0
139 146 0
138 140 0
138 142 0
140 145 0
143 150 0
138 143 0
143 146 0
142 145 0
140 146 0
129 133 0
137 141 0
147 153 0
139 143 0
126 129 0
134 137 0
140 146 0
141 143 0
136 138 0
138 141 0
148 157 0
140 144 0
138 141 0
141 145 0
150 157 0
139 140 0
143 147 0
146 153 0
138 138 0
144 149 0
143 148 0
141 146 0
135 139 0
136 141 0
152 160 0
143 147 0
136 139 0
141 146 0
139 142 0
144 149 0
147 151 0
144 152 0
148 151 0
149 154 0
152 161 0
150 156 0
147 151 0
149 154 0
140 146 0
144 151 0
147 153 0
158 168 0
151 161 0
151 160 0
150 160 0
153 163 0
160 169 0
155 164 0
145 155 0
156 170 0
148 158 0
155 163 0
153 162 0
155 167 0
155 164 0
153 162 0
153 164 0
154 162 0
153 164 0
157 168 0
156 167 0
157 170 0
159 171 0
160 175 0
151 166 0
154 164 0
159 172 0
160 174 0
157 170 0
161 176 0
156 167 0
159 174 0
152 168 0
159 173 0
155 169 0
158 172 0
159 172 0
162 178 0
166 180 0
162 176 0
157 172 0
159 173 0
162 177 0
166 184 0
163 178 0
160 178 0
168 186 0
163 178 0
161 178 0
156 172 0
161 178 0
164 182 0
164 178 0
165 185 0
162 179 0
161 179 0
158 176 0
165 183 0
164 183 0
165 185 0
166 186 0
162 181 0
167 185 0
166 185 0
165 183 0
167 185 0
166 186 0
171 191 0
169 188 0
168 188 0
166 187 0
164 183 0
169 189 0
164 184 0
168 188 0
167 186 0
166 188 0
165 185 0
162 181 0
166 185 0
167 187 0
167 188 0
165 184 0
163 181 0
166 187 0
169 190 0
168 189 0
168 190 0
167 188 0
169 191 0
165 184 0
171 193 0
167 188 0
171 191 0
170 191 0
167 186 0
169 189 0
167 188 0
166 188 0
167 187 0
165 185 0
165 184 0
166 188 0
168 190 0
164 185 0
170 192 0
171 194 0
170 191 0
168 189 0
168 190 0
170 191 0
168 190 0
169 191 0
170 191 0
172 195 0
170 192 0
170 191 0
168 189 0
170 192 0
166 188 0
168 190 0
170 192 0
167 189 0
170 193 0
168 189 0
166 189 0
171 193 0
172 194 0
173 196 0
168 190 0
171 193 0
170 192 0
169 192 0
170 190 0
168 190 0
168 190 0
173 195 0
168 191 0
172 195 0
172 195 0
171 193 0
171 193 0
169 191 0
173 195 0
169 192 0
169 192 0
172 193 0
169 192 0
171 194 0
169 192 0
170 191 0
169 192 0
171 194 0
170 193 0
171 194 0
171 194 0
171 195 0
170 193 0
171 194 0
170 193 0
167 187 0
171 195 0
168 189 0
172 194 0
173 196 0
173 196 0
172 195 0
171 194 0
173 196 0
170 194 0
173 195 0
163 182 0
162 181 0
160 179 0
158 176 0
164 183 0
160 179 0
162 180 0
163 182 0
159 177 0
157 176 0
160 179 0
159 177 0
153 171 0
156 173 0
158 176 0
157 175 0
160 177 0
161 179 0
157 175 0
158 176 0
153 170 0
154 171 0
155 172 0
156 174 0
152 168 0
157 173 0
154 172 0
155 172 0
152 169 0
151 167 0
154 170 0
152 168 0
151 168 0
154 171 0
153 169 0
141 156 0
150 166 0
148 164 0
148 164 0
153 169 0
149 166 0
149 166 0
152 168 0
149 164 0
141 156 0
151 168 0
145 159 0
145 161 0
149 164 0
150 167 0
149 166 0
145 161 0
142 156 0
149 164 0
138 152 0
145 160 0
145 158 0
150 165 0
144 160 0
154 168 0
147 162 0
145 159 0
146 161 0
146 161 0
144 159 0
150 165 0
147 161 0
138 152 0
151 166 0
143 157 0
139 151 0
142 155 0
153 169 0
143 158 0
146 160 0
152 168 0
147 161 0
148 162 0
136 150 0
143 157 0
143 157 0
144 157 0
150 166 0
149 164 0
140 153 0
148 161 0
146 160 0
147 162 0
145 159 0
147 160 0
145 159 0
148 162 0
146 160 0
145 161 0
146 159 0
140 153 0
148 163 0
134 147 0
145 156 0
144 158 0
143 157 0
148 161 0
145 159 0
144 159 0
147 162 0
150 167 0
141 156 0
145 160 0
149 163 0
154 167 0
149 166 0
145 159 0
151 166 0
150 165 0
150 165 0
150 166 0
147 159 0
148 159 0
149 163 0
151 165 0
149 164 0
150 164 0
144 158 0
146 160 0
147 158 0
145 157 0
141 153 0
147 162 0
142 153 0
152 167 0
145 157 0
148 163 0
143 153 0
146 158 0
137 148 0
150 163 0
149 162 0
143 155 0
148 161 0
148 159 0
152 163 0
148 162 0
142 155 0
139 150 0
148 159 0
146 155 0
146 156 0
144 154 0
138 146 0
144 156 0
142 153 0
134 142 0
147 158 0
144 151 0
153 165 0
147 158 0
145 159 0
145 153 0
146 156 0
144 151 0
147 152 0
146 159 0
147 154 0
149 156 0
143 152 0
148 159 0
139 147 0
147 157 0
142 149 0
147 153 0
143 151 0
145 155 0
147 152 0
135 141 0
145 156 0
144 152 0
145 152 0
145 153 0
142 148 0
149 155 0
137 142 0
140 145 0
142 147 0
138 143 0
142 146 0
138 144 0
134 140 0
140 146 0
145 150 0
141 147 0
145 152 0
147 154 0
145 150 0
141 145 0
141 147 0
140 146 0
140 143 0
148 156 0
139 141 0
141 146 0
135 143 0
144 149 0
147 153 0
145 151 0
142 146 0
149 157 0
144 148 0
151 159 0
147 153 0
146 150 0
146 152 0
149 155 0
146 150 0
136 139 0
145 152 0
149 157 0
148 156 0
151 158 0
145 151 0
151 159 0
148 155 0
153 161 0
145 152 0
142 151 0
144 152 0
153 161 0
150 157 0
142 150 0
148 154 0
150 158 0
146 152 0
147 157 0
155 164 0
148 157 0
156 166 0
150 158 0
158 168 0
153 166 0
146 156 0
148 158 0
157 167 0
154 164 0
148 157 0
152 162 0
155 166 0
154 163 0
151 164 0
153 167 0
156 169 0
156 169 0
156 168 0
161 175 0
164 177 0
163 177 0
158 168 0
165 181 0
159 169 0
156 170 0
157 168 0
162 176 0
157 172 0
160 174 0
158 174 0
160 175 0
161 177 0
164 180 0
162 177 0
162 177 0
161 175 0
157 174 0
155 170 0
163 179 0
156 171 0
163 176 0
163 180 0
164 178 0
164 178 0
163 181 0
160 176 0
160 177 0
168 186 0
163 181 0
163 179 0
162 176 0
169 188 0
161 179 0
167 185 0
164 180 0
168 185 0
162 179 0
166 185 0
171 190 0
166 185 0
157 176 0
160 178 0
166 185 0
166 184 0
164 181 0
168 188 0
161 181 0
168 189 0
167 186 0
162 181 0
168 190 0
168 186 0
166 186 0
168 189 0
168 188 0
163 180 0
168 189 0
167 185 0
169 188 0
165 184 0
167 187 0
170 191 0
167 188 0
166 186 0
168 189 0
169 187 0
164 185 0
168 189 0
169 190 0
168 188 0
168 188 0
165 186 0
169 190 0
168 189 0
170 192 0
167 188 0
167 188 0
170 192 0
169 190 0
171 193 0
169 189 0
170 192 0
167 188 0
167 189 0
167 189 0
172 194 0
170 191 0
168 190 0
165 186 0
169 192 0
172 192 0
174 196 0
168 191 0
168 190 0
169 190 0
171 193 0
171 194 0
168 190 0
170 191 0
164 186 0
170 194 0
168 190 0
171 193 0
169 191 0
171 193 0
168 189 0
168 189 0
171 194 0
172 193 0
170 192 0
172 194 0
167 189 0
174 196 0
172 194 0
169 192 0
170 193 0
171 194 0
168 189 0
169 192 0
172 194 0
172 193 0
170 192 0
173 195 0
170 192 0
171 193 0
171 194 0
172 194 0
171 193 0
171 193 0
170 194 0
168 191 0
170 192 0
172 195 0
171 193 0
170 193 0
171 194 0
170 192 0
171 194 0
168 191 0
172 194 0
174 196 0
170 193 0
169 191 0
170 192 0
170 193 0
172 195 0
171 195 0
165 184 0
162 181 0
158 177 0
162 181 0
165 184 0
159 178 0
163 181 0
163 181 0
164 182 0
160 178 0
161 180 0
162 181 0
161 180 0
162 181 0
157 175 0
157 175 0
153 169 0
159 177 0
160 177 0
160 178 0
155 172 0
156 173 0
149 166 0
154 172 0
154 170 0
148 163 0
151 167 0
152 168 0
156 173 0
156 172 0
147 163 0
149 165 0
153 170 0
151 167 0
150 166 0
142 157 0
153 170 0
147 163 0
149 163 0
145 161 0
151 166 0
145 159 0
148 164 0
147 163 0
152 168 0
142 158 0
146 162 0
148 162 0
152 168 0
157 173 0
149 165 0
150 166 0
151 166 0
148 164 0
149 165 0
145 161 0
145 160 0
151 166 0
140 155 0
157 172 0
139 152 0
146 162 0
149 164 0
148 163 0
141 155 0
149 166 0
148 163 0
140 151 0
148 163 0
152 169 0
153 168 0
153 170 0
155 171 0
146 162 0
152 168 0
152 168 0
147 163 0
147 164 0
149 164 0
145 160 0
149 163 0
152 167 0
143 156 0
153 169 0
148 161 0
152 169 0
148 162 0
147 161 0
154 169 0
146 161 0
149 166 0
140 153 0
145 159 0
144 158 0
144 159 0
141 155 0
151 164 0
150 164 0
150 166 0
148 161 0
149 164 0
145 160 0
146 161 0
139 152 0
137 151 0
157 172 0
150 167 0
148 162 0
148 162 0
147 161 0
150 164 0
151 164 0
146 160 0
141 154 0
149 163 0
153 167 0
142 155 0
154 170 0
145 159 0
155 169 0
153 168 0
141 153 0
140 152 0
150 164 0
148 160 0
146 158 0
147 160 0
143 157 0
143 156 0
146 159 0
146 158 0
147 157 0
142 153 0
139 149 0
154 167 0
138 150 0
151 162 0
144 155 0
140 151 0
144 156 0
145 155 0
149 163 0
143 153 0
143 153 0
149 161 0
142 151 0
150 163 0
145 156 0
144 157 0
141 152 0
138 148 0
149 161 0
144 154 0
149 159 0
140 148 0
151 161 0
150 163 0
150 161 0
144 150 0
147 155 0
146 156 0
147 156 0
143 150 0
148 157 0
145 153 0
139 147 0
145 155 0
142 147 0
140 148 0
148 157 0
144 151 0
149 159 0
146 154 0
138 146 0
139 149 0
155 162 0
143 149 0
144 151 0
152 160 0
146 153 0
139 144 0
145 151 0
146 153 0
139 143 0
146 152 0
128 134 0
140 146 0
141 148 0
146 151 0
137 144 0
151 158 0
147 154 0
140 146 0
138 142 0
144 149 0
142 147 0
148 156 0
147 154 0
141 146 0
144 152 0
142 145 0
144 148 0
144 151 0
140 146 0
140 143 0
140 147 0
141 148 0
150 157 0
144 152 0
144 149 0
146 149 0
147 153 0
139 144 0
154 162 0
143 151 0
140 145 0
150 157 0
145 151 0
149 156 0
145 151 0
144 152 0
149 154 0
143 149 0
140 145 0
145 153 0
147 152 0
148 156 0
148 156 0
142 150 0
151 159 0
149 158 0
148 159 0
154 161 0
152 163 0
155 165 0
157 167 0
153 163 0
154 162 0
154 165 0
148 155 0
153 164 0
157 168 0
158 167 0
150 157 0
155 166 0
158 171 0
157 168 0
151 163 0
156 167 0
154 166 0
159 170 0
155 168 0
158 174 0
158 171 0
156 168 0
165 179 0
157 170 0
157 169 0
153 166 0
160 172 0
157 170 0
163 177 0
164 179 0
163 177 0
164 177 0
162 178 0
161 176 0
162 176 0
160 173 0
161 178 0
161 176 0
160 173 0
157 172 0
164 181 0
163 180 0
163 179 0
164 180 0
160 178 0
163 181 0
166 184 0
161 179 0
164 180 0
161 176 0
163 181 0
161 179 0
162 180 0
165 186 0
169 186 0
165 184 0
166 184 0
164 182 0
167 188 0
166 186 0
166 184 0
161 180 0
162 179 0
163 181 0
164 183 0
163 182 0
166 186 0
167 188 0
165 185 0
167 184 0
162 181 0
168 189 0
167 186 0
165 185 0
169 189 0
167 186 0
167 186 0
167 189 0
161 180 0
165 187 0
170 191 0
168 188 0
166 186 0
166 187 0
168 189 0
167 185 0
169 190 0
165 185 0
166 188 0
165 187 0
162 184 0
167 189 0
168 188 0
164 183 0
169 190 0
170 193 0
163 184 0
170 191 0
167 188 0
168 189 0
168 189 0
170 192 0
170 191 0
169 190 0
166 187 0
168 189 0
172 193 0
165 186 0
168 190 0
172 194 0
169 191 0
169 191 0
169 191 0
166 186 0
167 190 0
170 192 0
167 189 0
170 191 0
169 191 0
170 192 0
170 192 0
168 189 0
168 191 0
169 190 0
169 192 0
170 192 0
173 195 0
169 191 0
171 193 0
170 193 0
169 191 0
172 194 0
173 196 0
172 194 0
171 193 0
172 196 0
170 193 0
171 192 0
171 193 0
168 190 0
171 194 0
171 194 0
173 196 0
172 195 0
171 195 0
170 193 0
169 190 0
167 190 0
169 192 0
167 190 0
171 194 0
170 193 0
172 195 0
173 195 0
170 193 0
171 194 0
173 195 0
170 193 0
170 193 0
173 195 0
173 196 0
170 192 0
171 195 0
173 195 0
173 196 0
174 196 0
171 193 0
160 179 0
159 177 0
158 177 0
162 181 0
156 175 0
159 178 0
163 181 0
159 177 0
158 177 0
156 174 0
158 176 0
158 177 0
159 178 0
159 178 0
157 176 0
162 180 0
159 178 0
154 172 0
153 171 0
157 174 0
153 171 0
152 169 0
157 174 0
151 168 0
157 174 0
152 168 0
151 167 0
153 170 0
160 178 0
156 173 0
148 165 0
157 174 0
150 166 0
150 166 0
158 176 0
157 173 0
145 161 0
150 166 0
158 175 0
153 170 0
151 167 0
145 162 0
151 167 0
153 170 0
149 165 0
147 162 0
155 172 0
147 161 0
153 169 0
150 166 0
150 165 0
153 168 0
153 168 0
154 170 0
147 162 0
148 164 0
149 165 0
150 167 0
156 172 0
149 165 0
150 166 0
146 161 0
148 163 0
148 164 0
154 169 0
145 161 0
153 168 0
154 170 0
146 162 0
149 165 0
145 159 0
151 166 0
147 163 0
145 159 0
147 163 0
150 166 0
143 157 0
152 169 0
144 159 0
152 167 0
149 163 0
148 161 0
149 164 0
147 162 0
150 165 0
149 164 0
148 163 0
145 159 0
143 157 0
148 164 0
159 176 0
146 159 0
147 161 0
150 164 0
154 169 0
147 162 0
144 160 0
149 163 0
156 172 0
148 163 0
144 161 0
145 161 0
145 160 0
144 159 0
148 162 0
141 154 0
147 162 0
148 161 0
143 159 0
144 157 0
141 154 0
146 160 0
147 162 0
150 166 0
142 156 0
146 160 0
144 158 0
148 162 0
143 157 0
149 165 0
142 156 0
151 166 0
149 162 0
152 167 0
143 154 0
146 159 0
152 169 0
147 159 0
148 161 0
146 158 0
145 156 0
147 159 0
146 157 0
152 166 0
142 153 0
154 167 0
144 157 0
153 165 0
136 147 0
150 162 0
145 157 0
149 160 0
148 158 0
147 157 0
145 156 0
146 156 0
143 154 0
154 166 0
143 153 0
151 161 0
146 158 0
140 151 0
149 161 0
143 155 0
151 161 0
147 155 0
140 148 0
147 156 0
146 158 0
140 148 0
143 152 0
147 156 0
146 157 0
141 151 0
143 151 0
145 154 0
149 159 0
143 151 0
144 150 0
146 154 0
142 150 0
138 146 0
146 153 0
153 162 0
140 147 0
142 149 0
134 137 0
142 148 0
147 154 0
144 150 0
139 147 0
141 148 0
139 146 0
144 150 0
146 155 0
143 150 0
137 141 0
137 141 0
140 145 0
137 144 0
144 150 0
138 142 0
146 152 0
145 151 0
140 146 0
148 155 0
142 148 0
147 155 0
135 140 0
143 146 0
142 148 0
141 141 0
140 145 0
152 159 0
142 148 0
149 157 0
140 146 0
144 150 0
143 147 0
149 157 0
151 158 0
141 147 0
150 158 0
143 151 0
147 154 0
151 158 0
152 160 0
149 156 0
151 159 0
153 160 0
149 155 0
154 161 0
153 159 0
152 161 0
144 152 0
151 158 0
149 158 0
155 167 0
145 152 0
152 161 0
152 162 0
149 157 0
156 169 0
152 161 0
155 166 0
149 160 0
153 164 0
156 167 0
154 165 0
155 163 0
154 166 0
150 162 0
154 167 0
155 168 0
157 170 0
153 164 0
155 167 0
158 168 0
162 176 0
165 177 0
158 172 0
156 167 0
158 172 0
158 173 0
150 161 0
156 168 0
156 170 0
153 166 0
158 172 0
158 170 0
166 180 0
158 175 0
159 176 0
163 176 0
158 172 0
160 174 0
160 175 0
156 170 0
162 177 0
160 175 0
165 181 0
161 177 0
165 180 0
165 184 0
164 180 0
163 179 0
166 184 0
162 176 0
165 181 0
163 179 0
160 176 0
162 180 0
160 177 0
164 179 0
164 181 0
162 181 0
162 179 0
163 182 0
166 182 0
163 182 0
162 178 0
162 180 0
166 182 0
161 178 0
164 181 0
164 182 0
165 182 0
166 185 0
165 186 0
164 180 0
164 184 0
166 182 0
163 184 0
163 181 0
166 186 0
169 188 0
166 184 0
168 188 0
166 187 0
167 186 0
164 184 0
165 185 0
169 191 0
164 183 0
164 186 0
166 186 0
168 190 0
170 190 0
168 187 0
165 184 0
167 189 0
168 188 0
164 185 0
164 183 0
171 193 0
170 190 0
170 190 0
167 188 0
169 188 0
172 193 0
167 189 0
170 192 0
166 187 0
168 188 0
169 190 0
166 188 0
166 188 0
171 192 0
169 190 0
170 191 0
173 193 0
165 187 0
169 192 0
168 189 0
172 194 0
171 192 0
170 192 0
168 189 0
168 189 0
168 190 0
169 191 0
170 192 0
170 192 0
170 192 0
164 186 0
170 192 0
169 191 0
170 193 0
169 191 0
169 190 0
172 194 0
170 192 0
171 194 0
171 193 0
168 190 0
172 194 0
172 193 0
169 193 0
171 194 0
170 193 0
170 192 0
171 192 0
171 194 0
169 192 0
172 194 0
172 194 0
170 191 0
172 194 0
171 194 0
170 193 0
172 195 0
173 197 0
172 195 0
172 194 0
173 195 0
168 190 0
172 194 0
170 192 0
173 196 0
173 196 0
171 193 0
173 196 0
171 194 0
170 192 0
171 195 0
172 195 0
173 195 0
169 193 0
170 193 0
173 194 0
160 178 0
159 178 0
163 182 0
158 177 0
165 183 0
161 179 0
159 177 0
155 173 0
159 177 0
159 177 0
160 179 0
156 174 0
157 175 0
161 178 0
160 178 0
156 174 0
152 170 0
155 172 0
160 178 0
150 167 0
148 164 0
154 171 0
155 173 0
153 170 0
150 167 0
153 171 0
158 175 0
148 164 0
161 178 0
153 169 0
150 167 0
150 168 0
149 167 0
156 172 0
151 168 0
147 162 0
148 165 0
153 169 0
150 166 0
152 168 0
150 167 0
148 163 0
154 170 0
152 167 0
154 171 0
152 168 0
150 165 0
150 166 0
152 168 0
150 166 0
146 161 0
145 160 0
146 162 0
146 160 0
152 167 0
153 168 0
148 163 0
150 165 0
154 172 0
151 166 0
146 161 0
146 161 0
148 164 0
146 163 0
151 168 0
149 165 0
149 164 0
148 164 0
154 170 0
148 164 0
155 170 0
149 164 0
151 167 0
143 158 0
153 169 0
146 163 0
142 156 0
147 162 0
148 162 0
151 166 0
142 156 0
150 166 0
148 164 0
149 164 0
141 156 0
148 161 0
147 162 0
142 155 0
149 164 0
148 161 0
153 169 0
150 167 0
154 170 0
149 163 0
150 165 0
148 159 0
150 163 0
151 168 0
157 173 0
148 162 0
152 168 0
149 163 0
152 165 0
150 166 0
150 165 0
149 163 0
150 167 0
150 167 0
147 162 0
146 161 0
145 158 0
146 158 0
144 157 0
149 163 0
155 168 0
151 167 0
152 165 0
139 150 0
150 162 0
139 151 0
146 159 0
149 162 0
154 167 0
147 162 0
148 163 0
147 159 0
149 162 0
153 166 0
140 152 0
149 163 0
148 164 0
153 167 0
147 160 0
140 152 0
150 166 0
150 163 0
152 166 0
145 158 0
146 160 0
142 150 0
143 153 0
145 157 0
144 152 0
152 163 0
145 152 0
149 163 0
147 160 0
148 161 0
139 147 0
148 159 0
143 153 0
142 152 0
140 149 0
145 157 0
139 153 0
152 162 0
145 157 0
143 153 0
149 161 0
146 156 0
148 158 0
150 157 0
136 145 0
141 150 0
146 155 0
141 148 0
139 144 0
142 150 0
146 152 0
151 160 0
150 158 0
143 148 0
138 145 0
145 156 0
147 154 0
138 143 0
147 155 0
143 151 0
146 152 0
145 150 0
148 155 0
150 158 0
141 149 0
142 150 0
139 145 0
141 149 0
148 152 0
142 151 0
147 151 0
147 153 0
147 150 0
146 152 0
145 150 0
135 139 0
139 145 0
145 156 0
136 139 0
146 156 0
136 140 0
148 154 0
147 152 0
146 150 0
143 148 0
138 144 0
143 149 0
149 154 0
151 157 0
142 146 0
145 150 0
146 152 0
139 143 0
148 156 0
152 158 0
156 164 0
144 150 0
149 156 0
157 166 0
143 151 0
156 165 0
146 156 0
152 159 0
147 154 0
145 154 0
155 163 0
153 159 0
151 163 0
146 153 0
149 158 0
147 157 0
151 160 0
145 153 0
152 162 0
153 161 0
152 160 0
147 156 0
156 166 0
152 162 0
155 163 0
154 165 0
151 159 0
156 168 0
155 166 0
161 173 0
164 177 0
155 166 0
156 168 0
158 169 0
157 169 0
156 170 0
159 173 0
158 171 0
158 170 0
156 169 0
153 166 0
166 180 0
160 174 0
158 172 0
159 173 0
159 171 0
157 171 0
164 176 0
160 174 0
160 175 0
158 171 0
162 177 0
162 180 0
158 173 0
160 175 0
152 167 0
162 177 0
156 170 0
162 179 0
160 176 0
164 179 0
163 181 0
165 181 0
160 175 0
160 176 0
166 182 0
161 181 0
161 177 0
160 178 0
156 172 0
169 189 0
166 183 0
166 183 0
165 183 0
162 181 0
163 181 0
168 188 0
164 180 0
164 180 0
164 183 0
160 177 0
168 187 0
165 184 0
165 185 0
169 186 0
165 183 0
168 186 0
169 189 0
167 187 0
165 184 0
170 188 0
166 187 0
169 190 0
165 185 0
162 182 0
166 185 0
165 185 0
165 186 0
167 187 0
169 189 0
167 188 0
163 182 0
168 189 0
168 188 0
167 188 0
169 190 0
169 190 0
169 189 0
170 192 0
164 185 0
167 187 0
165 186 0
168 190 0
168 189 0
167 187 0
171 192 0
170 192 0
170 192 0
170 192 0
165 186 0
170 191 0
165 187 0
170 192 0
165 183 0
173 194 0
166 187 0
167 190 0
170 193 0
173 195 0
173 194 0
171 193 0
169 191 0
170 192 0
170 192 0
168 190 0
169 190 0
171 193 0
170 192 0
169 192 0
171 192 0
169 192 0
170 191 0
168 190 0
170 193 0
169 192 0
171 193 0
170 192 0
171 194 0
168 190 0
172 194 0
170 191 0
166 188 0
172 194 0
172 194 0
167 190 0
168 190 0
171 194 0
169 192 0
171 193 0
170 192 0
174 197 0
170 193 0
172 195 0
172 194 0
167 189 0
171 193 0
173 196 0
170 193 0
170 193 0
171 193 0
170 192 0
169 192 0
174 196 0
171 194 0
173 195 0
172 195 0
174 197 0
170 192 0
169 192 0
170 194 0
171 194 0
172 194 0
171 195 0
172 195 0
169 192 0
168 191 0
169 191 0
161 179 0
163 182 0
163 183 0
161 179 0
158 177 0
159 177 0
157 175 0
159 178 0
156 175 0
161 179 0
156 174 0
152 170 0
156 173 0
160 179 0
156 175 0
154 171 0
156 174 0
156 173 0
155 173 0
151 168 0
159 176 0
159 175 0
156 174 0
160 177 0
160 177 0
153 170 0
156 172 0
152 169 0
147 164 0
152 168 0
152 168 0
155 172 0
146 162 0
150 167 0
153 170 0
153 168 0
153 170 0
153 171 0
147 164 0
153 170 0
153 170 0
149 164 0
155 173 0
153 170 0
151 167 0
155 170 0
148 165 0
154 169 0
147 162 0
149 164 0
148 163 0
150 165 0
157 172 0
151 167 0
153 169 0
146 163 0
149 165 0
148 164 0
146 161 0
153 169 0
162 177 0
146 162 0
153 168 0
152 168 0
152 167 0
145 159 0
153 167 0
148 164 0
147 162 0
146 162 0
146 162 0
151 167 0
155 172 0
149 165 0
156 173 0
147 162 0
152 169 0
147 161 0
153 170 0
152 167 0
149 164 0
151 167 0
145 161 0
143 158 0
149 165 0
148 163 0
154 169 0
146 160 0
150 165 0
150 163 0
143 157 0
149 165 0
154 171 0
152 168 0
146 162 0
152 169 0
149 164 0
155 173 0
150 165 0
155 171 0
154 170 0
151 164 0
148 162 0
149 164 0
150 163 0
150 165 0
149 166 0
150 163 0
153 169 0
150 164 0
150 165 0
146 161 0
151 166 0
146 157 0
148 160 0
149 164 0
149 164 0
146 159 0
153 166 0
151 164 0
150 164 0
148 162 0
150 163 0
150 164 0
144 155 0
149 161 0
144 156 0
151 166 0
152 167 0
150 166 0
150 164 0
149 162 0
138 149 0
150 164 0
149 163 0
148 162 0
150 162 0
154 168 0
150 162 0
151 164 0
148 161 0
140 150 0
146 157 0
148 158 0
144 157 0
148 158 0
146 157 0
150 160 0
150 160 0
139 148 0
145 155 0
151 161 0
146 157 0
147 158 0
142 152 0
142 154 0
155 167 0
150 161 0
139 146 0
148 155 0
157 171 0
150 160 0
149 156 0
146 158 0
145 154 0
148 156 0
143 152 0
142 152 0
146 155 0
148 156 0
143 152 0
150 159 0
134 139 0
146 151 0
148 156 0
152 163 0
148 157 0
139 144 0
141 149 0
148 157 0
149 156 0
150 158 0
143 149 0
145 152 0
147 154 0
143 150 0
142 148 0
149 155 0
144 152 0
143 148 0
152 159 0
140 145 0
141 146 0
146 154 0
142 148 0
145 152 0
142 147 0
142 147 0
140 147 0
151 159 0
147 155 0
146 153 0
145 149 0
142 148 0
140 149 0
147 154 0
149 158 0
149 156 0
141 147 0
153 161 0
151 159 0
148 156 0
149 156 0
147 153 0
153 164 0
148 157 0
140 149 0
152 160 0
149 156 0
152 161 0
154 162 0
148 153 0
153 163 0
152 160 0
150 159 0
149 157 0
150 159 0
147 156 0
148 159 0
150 160 0
162 172 0
157 168 0
159 166 0
153 163 0
157 167 0
154 165 0
154 167 0
158 169 0
150 161 0
157 171 0
157 169 0
161 174 0
158 168 0
163 178 0
152 162 0
152 162 0
151 161 0
160 173 0
158 170 0
159 172 0
160 172 0
155 168 0
161 174 0
154 166 0
159 173 0
150 163 0
160 174 0
160 172 0
160 174 0
160 174 0
159 172 0
158 172 0
163 180 0
162 178 0
160 176 0
159 176 0
162 178 0
163 179 0
165 182 0
157 171 0
159 173 0
163 179 0
160 174 0
164 179 0
163 182 0
162 181 0
166 182 0
163 180 0
166 182 0
168 185 0
165 180 0
164 180 0
165 184 0
165 182 0
169 187 0
163 181 0
166 182 0
161 178 0
164 183 0
167 185 0
166 185 0
163 182 0
162 180 0
169 186 0
166 184 0
166 183 0
161 180 0
168 187 0
166 185 0
165 185 0
169 187 0
167 187 0
165 184 0
163 181 0
162 179 0
167 187 0
165 185 0
167 185 0
162 182 0
169 188 0
164 183 0
163 183 0
164 183 0
166 187 0
162 181 0
167 186 0
168 189 0
166 187 0
167 185 0
165 188 0
166 187 0
165 184 0
168 190 0
165 183 0
168 190 0
168 189 0
167 188 0
168 190 0
169 190 0
169 190 0
166 187 0
172 194 0
169 189 0
168 188 0
169 189 0
168 190 0
170 191 0
169 192 0
167 188 0
169 191 0
172 194 0
170 192 0
170 192 0
169 191 0
168 190 0
169 191 0
169 191 0
169 190 0
165 188 0
169 188 0
170 192 0
170 191 0
172 194 0
172 193 0
172 194 0
173 195 0
168 191 0
166 188 0
170 192 0
167 191 0
169 191 0
170 191 0
169 191 0
168 190 0
170 193 0
169 190 0
168 189 0
173 195 0
168 190 0
171 193 0
170 193 0
171 194 0
167 189 0
169 191 0
172 196 0
171 196 0
173 195 0
169 192 0
170 192 0
171 193 0
169 192 0
171 194 0
169 192 0
171 194 0
172 195 0
173 196 0
170 193 0
171 194 0
173 195 0
169 192 0
171 195 0
174 196 0
171 193 0
174 195 0
171 194 0
172 193 0
171 195 0
172 195 0
169 192 0
172 194 0
163 182 0
159 178 0
156 174 0
157 175 0
161 181 0
156 174 0
158 176 0
160 179 0
159 177 0
153 171 0
162 180 0
155 173 0
158 175 0
158 176 0
158 176 0
158 176 0
157 175 0
156 173 0
148 165 0
158 176 0
156 174 0
160 177 0
154 171 0
160 178 0
155 172 0
154 170 0
154 171 0
158 176 0
152 169 0
150 166 0
158 175 0
148 164 0
157 175 0
154 171 0
151 167 0
152 168 0
153 169 0
154 170 0
154 170 0
153 170 0
155 171 0
153 170 0
152 168 0
145 161 0
154 171 0
149 166 0
149 166 0
158 175 0
152 167 0
156 173 0
153 169 0
153 169 0
151 168 0
145 161 0
148 165 0
147 163 0
152 169 0
148 164 0
151 167 0
155 172 0
149 165 0
150 165 0
151 167 0
155 170 0
147 162 0
151 167 0
151 168 0
157 173 0
147 164 0
153 168 0
152 168 0
149 165 0
150 166 0
146 161 0
149 165 0
152 167 0
146 161 0
153 168 0
150 165 0
142 158 0
152 168 0
147 162 0
152 167 0
152 170 0
151 168 0
148 163 0
146 162 0
151 166 0
143 158 0
146 160 0
150 165 0
146 159 0
155 173 0
147 161 0
154 171 0
153 167 0
152 166 0
149 164 0
150 166 0
150 164 0
148 161 0
148 163 0
147 162 0
146 161 0
152 166 0
151 166 0
150 163 0
143 158 0
154 168 0
152 167 0
157 170 0
148 161 0
146 161 0
150 164 0
157 172 0
149 163 0
150 167 0
147 160 0
152 167 0
148 164 0
150 163 0
152 168 0
150 163 0
154 167 0
154 169 0
149 161 0
151 168 0
148 161 0
150 163 0
148 160 0
150 164 0
151 165 0
136 150 0
148 162 0
148 162 0
148 162 0
150 161 0
148 162 0
152 164 0
145 158 0
146 160 0
148 161 0
154 168 0
146 159 0
151 160 0
141 152 0
149 160 0
150 161 0
153 165 0
148 161 0
148 161 0
147 158 0
148 159 0
148 157 0
145 158 0
148 158 0
146 155 0
149 161 0
154 163 0
147 157 0
150 161 0
147 157 0
144 154 0
145 155 0
151 161 0
151 160 0
139 148 0
150 160 0
138 144 0
149 161 0
145 152 0
144 151 0
144 152 0
154 164 0
140 147 0
144 152 0
138 148 0
149 158 0
147 158 0
152 162 0
145 153 0
152 161 0
145 153 0
142 149 0
147 157 0
145 151 0
145 153 0
148 157 0
143 149 0
149 158 0
145 152 0
144 153 0
145 151 0
138 145 0
149 157 0
144 152 0
149 153 0
144 152 0
153 162 0
141 147 0
145 150 0
143 151 0
151 157 0
151 158 0
146 155 0
141 145 0
147 154 0
147 154 0
148 156 0
151 159 0
148 158 0
153 163 0
146 151 0
151 157 0
149 157 0
144 151 0
151 160 0
157 168 0
148 154 0
154 165 0
152 161 0
144 155 0
151 156 0
148 158 0
148 155 0
149 158 0
151 161 0
153 163 0
149 159 0
150 160 0
156 165 0
149 159 0
151 158 0
155 168 0
156 169 0
152 161 0
159 171 0
158 169 0
157 168 0
158 171 0
159 170 0
153 164 0
156 166 0
158 170 0
155 165 0
158 169 0
156 167 0
161 174 0
156 171 0
157 169 0
156 169 0
152 163 0
160 174 0
161 174 0
164 179 0
161 177 0
158 173 0
162 180 0
158 173 0
164 179 0
160 173 0
157 170 0
162 175 0
160 174 0
159 174 0
164 179 0
162 177 0
166 183 0
161 176 0
163 178 0
158 173 0
163 177 0
165 182 0
160 176 0
165 182 0
164 180 0
161 177 0
164 182 0
165 181 0
164 181 0
161 179 0
161 177 0
170 188 0
164 180 0
165 185 0
164 181 0
162 181 0
162 179 0
163 179 0
158 175 0
166 184 0
166 185 0
166 185 0
164 182 0
167 187 0
161 178 0
166 186 0
167 185 0
163 182 0
166 185 0
167 186 0
167 187 0
169 189 0
165 184 0
167 187 0
167 187 0
168 188 0
166 186 0
165 186 0
170 189 0
162 180 0
169 188 0
168 188 0
168 188 0
162 182 0
168 188 0
169 190 0
167 188 0
168 189 0
167 187 0
165 185 0
169 191 0
166 188 0
169 189 0
167 187 0
165 185 0
170 191 0
165 185 0
168 189 0
171 193 0
169 189 0
167 189 0
167 190 0
173 193 0
163 183 0
164 184 0
172 193 0
172 194 0
171 192 0
169 189 0
169 190 0
167 188 0
167 188 0
168 189 0
168 189 0
166 189 0
168 190 0
170 191 0
169 191 0
172 194 0
169 191 0
169 191 0
169 189 0
172 194 0
171 193 0
168 189 0
170 192 0
168 189 0
166 188 0
170 191 0
169 191 0
172 193 0
169 191 0
171 194 0
169 191 0
173 195 0
169 191 0
171 194 0
173 196 0
169 191 0
170 192 0
168 191 0
169 191 0
172 194 0
173 194 0
171 193 0
171 194 0
170 190 0
171 194 0
172 196 0
170 193 0
168 190 0
169 192 0
168 191 0
172 194 0
173 196 0
169 193 0
173 196 0
171 194 0
169 193 0
169 191 0
167 191 0
166 189 0
168 190 0
173 195 0
171 193 0
172 194 0
171 193 0
166 189 0
171 192 0
163 183 0
160 177 0
157 176 0
156 174 0
159 177 0
160 178 0
157 174 0
158 177 0
161 179 0
157 175 0
156 174 0
160 178 0
162 179 0
155 173 0
156 173 0
160 179 0
160 178 0
154 171 0
154 172 0
153 171 0
154 171 0
155 173 0
152 167 0
153 171 0
153 169 0
152 170 0
155 173 0
151 168 0
151 170 0
155 171 0
154 172 0
157 174 0
155 172 0
157 175 0
153 170 0
151 167 0
152 169 0
151 167 0
153 169 0
151 168 0
154 171 0
153 170 0
154 170 0
154 171 0
152 169 0
151 167 0
151 168 0
156 173 0
155 172 0
149 166 0
155 172 0
154 171 0
150 165 0
156 174 0
151 167 0
151 167 0
152 169 0
152 168 0
156 172 0
148 164 0
148 161 0
153 169 0
155 171 0
148 162 0
154 169 0
149 163 0
146 160 0
149 165 0
150 165 0
155 170 0
152 168 0
149 166 0
148 164 0
156 171 0
156 172 0
147 162 0
149 166 0
153 169 0
150 164 0
142 156 0
150 165 0
155 171 0
152 168 0
150 166 0
148 163 0
150 166 0
152 169 0
147 162 0
147 162 0
151 167 0
151 167 0
145 160 0
153 171 0
147 161 0
154 171 0
147 161 0
154 171 0
155 171 0
147 161 0
148 163 0
145 158 0
149 164 0
147 161 0
148 162 0
150 163 0
149 164 0
149 163 0
152 168 0
151 165 0
148 163 0
146 160 0
146 161 0
149 164 0
149 165 0
154 169 0
150 165 0
142 156 0
147 162 0
146 161 0
147 160 0
149 164 0
154 166 0
150 162 0
155 169 0
136 149 0
150 163 0
149 162 0
150 164 0
149 161 0
146 158 0
149 162 0
147 159 0
140 154 0
149 163 0
148 158 0
146 159 0
145 156 0
145 159 0
143 156 0
150 164 0
143 156 0
151 164 0
144 155 0
145 153 0
149 159 0
152 163 0
148 159 0
155 167 0
146 156 0
148 162 0
151 163 0
140 150 0
151 162 0
151 164 0
142 150 0
143 152 0
137 148 0
151 160 0
152 165 0
149 160 0
145 156 0
145 154 0
148 159 0
149 158 0
149 159 0
158 170 0
146 157 0
148 158 0
154 165 0
149 160 0
146 156 0
142 153 0
138 145 0
145 151 0
147 154 0
145 151 0
137 147 0
149 157 0
143 149 0
148 155 0
143 153 0
133 139 0
147 155 0
151 161 0
140 147 0
140 148 0
147 154 0
145 154 0
148 154 0
145 150 0
144 152 0
141 145 0
149 156 0
142 149 0
148 154 0
136 142 0
151 160 0
148 153 0
144 150 0
147 151 0
146 154 0
144 151 0
150 158 0
143 150 0
148 154 0
146 153 0
142 149 0
143 148 0
147 151 0
151 157 0
150 162 0
151 160 0
148 155 0
149 157 0
149 155 0
150 160 0
152 160 0
154 162 0
152 160 0
149 157 0
152 161 0
147 154 0
152 162 0
155 164 0
160 171 0
150 160 0
151 161 0
152 161 0
152 160 0
154 164 0
156 168 0
152 161 0
155 167 0
154 165 0
151 159 0
159 168 0
152 163 0
151 160 0
153 165 0
157 170 0
157 168 0
152 166 0
153 164 0
154 167 0
156 168 0
154 165 0
162 178 0
157 169 0
160 176 0
159 173 0
159 172 0
158 170 0
165 179 0
153 164 0
164 179 0
152 163 0
161 176 0
164 177 0
161 174 0
161 176 0
157 172 0
159 173 0
159 174 0
160 176 0
161 176 0
159 175 0
160 176 0
160 174 0
154 169 0
161 179 0
161 176 0
158 175 0
167 182 0
166 182 0
164 183 0
165 181 0
164 181 0
159 176 0
163 180 0
166 182 0
161 179 0
163 180 0
167 187 0
165 182 0
167 184 0
164 182 0
158 177 0
166 186 0
165 184 0
159 177 0
167 184 0
161 179 0
161 179 0
165 184 0
162 181 0
162 181 0
167 186 0
168 187 0
164 183 0
166 184 0
165 185 0
164 184 0
167 188 0
167 186 0
168 187 0
166 185 0
162 182 0
167 186 0
165 186 0
167 188 0
163 184 0
166 187 0
167 187 0
171 191 0
161 181 0
171 191 0
165 185 0
170 191 0
163 183 0
171 191 0
168 188 0
169 188 0
166 186 0
166 185 0
166 185 0
167 187 0
170 191 0
166 187 0
168 188 0
169 190 0
170 190 0
173 195 0
168 188 0
170 190 0
169 188 0
167 188 0
171 192 0
170 191 0
173 194 0
170 190 0
170 190 0
168 189 0
171 192 0
168 191 0
169 191 0
170 192 0
168 190 0
168 189 0
172 193 0
170 193 0
171 193 0
168 189 0
171 193 0
169 191 0
167 189 0
169 191 0
168 191 0
167 190 0
170 193 0
170 193 0
170 192 0
166 188 0
170 192 0
168 191 0
169 191 0
173 195 0
169 191 0
170 192 0
171 193 0
173 195 0
171 193 0
170 192 0
169 191 0
171 194 0
171 194 0
172 194 0
171 194 0
169 191 0
167 188 0
172 194 0
170 193 0
169 192 0
172 194 0
173 194 0
172 194 0
174 196 0
171 194 0
170 194 0
170 193 0
170 193 0
172 194 0
171 193 0
172 195 0
171 194 0
168 192 0
171 194 0
171 194 0
172 195 0
169 192 0
169 192 0
159 179 0
165 184 0
155 174 0
161 179 0
161 179 0
160 178 0
159 176 0
159 178 0
162 180 0
157 175 0
158 176 0
157 174 0
161 179 0
162 181 0
157 175 0
156 174 0
154 171 0
157 174 0
158 175 0
154 171 0
155 174 0
154 171 0
157 175 0
159 177 0
153 170 0
157 173 0
154 170 0
152 170 0
154 171 0
154 171 0
152 170 0
151 168 0
156 173 0
150 167 0
157 174 0
153 170 0
150 167 0
149 166 0
153 170 0
153 170 0
151 168 0
156 172 0
152 169 0
152 168 0
153 168 0
149 165 0
154 171 0
150 166 0
154 170 0
157 172 0
151 166 0
152 169 0
155 171 0
149 166 0
152 168 0
151 167 0
153 169 0
151 167 0
156 173 0
158 174 0
152 169 0
144 159 0
149 165 0
153 169 0
151 168 0
152 168 0
154 170 0
149 166 0
154 169 0
154 170 0
144 158 0
144 158 0
155 170 0
152 168 0
153 169 0
157 173 0
149 165 0
153 169 0
151 167 0
149 163 0
152 167 0
150 167 0
153 170 0
156 173 0
149 166 0
150 165 0
151 167 0
148 162 0
152 167 0
151 166 0
157 174 0
152 167 0
150 164 0
146 159 0
151 166 0
153 167 0
152 168 0
156 171 0
153 170 0
144 159 0
155 170 0
152 167 0
144 159 0
148 162 0
151 164 0
149 165 0
150 166 0
153 169 0
150 163 0
154 171 0
146 160 0
154 170 0
147 161 0
158 173 0
152 169 0
147 160 0
149 162 0
142 156 0
145 160 0
151 166 0
144 158 0
152 166 0
151 164 0
150 164 0
145 159 0
148 161 0
147 160 0
152 166 0
144 157 0
149 164 0
150 163 0
150 165 0
149 162 0
147 161 0
152 167 0
147 160 0
146 158 0
149 163 0
155 165 0
150 163 0
154 169 0
151 164 0
154 166 0
153 166 0
150 162 0
149 161 0
146 160 0
147 157 0
148 160 0
146 159 0
144 155 0
143 155 0
144 153 0
150 161 0
154 164 0
149 159 0
152 161 0
152 163 0
153 165 0
155 168 0
138 146 0
152 162 0
151 163 0
144 153 0
143 151 0
153 163 0
147 158 0
146 154 0
150 160 0
153 161 0
151 164 0
147 158 0
149 157 0
148 157 0
146 156 0
148 157 0
140 148 0
138 147 0
151 161 0
147 156 0
145 155 0
147 155 0
152 162 0
152 162 0
145 155 0
153 163 0
142 149 0
148 157 0
147 154 0
151 160 0
144 153 0
145 153 0
140 144 0
147 155 0
146 152 0
149 157 0
146 152 0
152 162 0
144 152 0
151 159 0
150 163 0
149 159 0
146 152 0
143 149 0
152 158 0
150 159 0
150 156 0
145 153 0
157 164 0
152 161 0
156 164 0
146 156 0
143 149 0
155 166 0
150 157 0
151 159 0
152 162 0
154 166 0
148 156 0
150 159 0
158 167 0
153 162 0
152 161 0
154 165 0
152 161 0
149 157 0
158 168 0
151 162 0
153 163 0
152 163 0
156 166 0
153 164 0
154 164 0
154 166 0
160 171 0
152 162 0
154 167 0
154 167 0
152 162 0
160 172 0
155 167 0
157 169 0
160 172 0
161 175 0
160 175 0
160 175 0
157 170 0
153 162 0
160 176 0
158 171 0
159 172 0
157 169 0
163 176 0
158 169 0
152 165 0
157 171 0
157 169 0
164 178 0
162 178 0
160 175 0
161 174 0
163 179 0
156 174 0
159 175 0
162 176 0
160 176 0
161 178 0
162 177 0
168 184 0
161 178 0
161 177 0
159 173 0
162 179 0
165 182 0
163 181 0
160 176 0
161 178 0
166 185 0
161 178 0
158 172 0
160 178 0
166 184 0
163 180 0
159 174 0
166 183 0
165 182 0
167 185 0
165 184 0
163 181 0
163 181 0
161 179 0
159 176 0
164 184 0
161 180 0
166 185 0
163 182 0
167 186 0
163 181 0
168 186 0
168 188 0
168 188 0
167 186 0
170 190 0
163 182 0
159 177 0
167 186 0
164 183 0
169 188 0
168 186 0
164 182 0
167 187 0
167 187 0
163 182 0
171 192 0
170 191 0
163 183 0
167 187 0
169 189 0
163 181 0
167 187 0
165 185 0
167 186 0
169 189 0
171 193 0
168 190 0
168 189 0
169 188 0
169 189 0
168 190 0
165 187 0
170 190 0
168 189 0
169 190 0
164 186 0
171 192 0
167 188 0
169 191 0
164 184 0
166 188 0
173 195 0
168 189 0
168 189 0
168 189 0
167 188 0
169 189 0
170 191 0
172 190 0
171 193 0
168 190 0
171 190 0
169 191 0
168 190 0
169 191 0
168 189 0
166 186 0
169 190 0
168 190 0
165 186 0
172 195 0
172 194 0
173 195 0
174 195 0
171 192 0
169 192 0
171 192 0
170 192 0
168 190 0
168 189 0
171 192 0
170 191 0
170 191 0
169 191 0
170 194 0
170 191 0
168 191 0
172 193 0
171 193 0
167 188 0
170 192 0
168 190 0
172 194 0
168 190 0
172 194 0
169 192 0
170 191 0
170 193 0
170 193 0
171 193 0
169 192 0
174 197 0
170 192 0
170 193 0
171 195 0
170 193 0
171 194 0
174 197 0
172 196 0
173 195 0
171 193 0
170 193 0
161 178 0
156 173 0
161 179 0
160 179 0
160 178 0
160 177 0
159 178 0
155 174 0
158 176 0
163 182 0
154 173 0
161 179 0
159 177 0
153 171 0
158 175 0
158 176 0
157 174 0
157 175 0
157 175 0
158 175 0
154 171 0
162 180 0
154 171 0
155 174 0
155 171 0
152 171 0
155 171 0
156 173 0
155 171 0
144 160 0
149 166 0
159 177 0
158 175 0
154 172 0
155 172 0
150 165 0
154 170 0
152 169 0
155 172 0
156 172 0
150 166 0
156 173 0
153 170 0
150 166 0
154 171 0
157 174 0
155 171 0
151 167 0
152 169 0
153 168 0
148 166 0
155 170 0
158 174 0
151 167 0
156 171 0
153 170 0
148 165 0
150 166 0
158 175 0
152 170 0
152 169 0
147 162 0
149 166 0
148 162 0
153 169 0
156 171 0
156 174 0
147 164 0
149 166 0
149 165 0
156 172 0
159 176 0
151 167 0
156 173 0
154 169 0
150 165 0
151 167 0
153 170 0
153 169 0
146 160 0
147 162 0
145 160 0
149 165 0
154 170 0
156 173 0
151 166 0
150 167 0
159 173 0
156 171 0
149 163 0
148 160 0
151 166 0
151 168 0
154 169 0
143 157 0
148 164 0
157 173 0
159 176 0
145 160 0
153 169 0
154 170 0
143 157 0
149 164 0
151 166 0
150 164 0
148 162 0
152 167 0
148 162 0
148 161 0
153 169 0
151 166 0
151 167 0
152 167 0
154 170 0
150 166 0
148 163 0
144 159 0
154 169 0
156 171 0
156 171 0
152 165 0
148 161 0
144 155 0
150 164 0
151 168 0
149 163 0
154 170 0
146 159 0
144 156 0
151 162 0
153 168 0
153 167 0
150 163 0
146 159 0
152 164 0
148 159 0
151 163 0
146 157 0
146 157 0
144 157 0
152 167 0
150 165 0
151 162 0
154 169 0
147 159 0
154 168 0
148 162 0
153 163 0
147 159 0
147 157 0
148 160 0
149 161 0
152 165 0
150 162 0
150 161 0
145 155 0
148 159 0
147 157 0
155 168 0
150 162 0
145 155 0
142 152 0
143 154 0
149 159 0
147 157 0
152 164 0
148 156 0
150 161 0
146 156 0
155 168 0
146 155 0
143 151 0
152 161 0
151 161 0
147 154 0
147 158 0
152 162 0
149 161 0
152 163 0
149 161 0
151 162 0
149 160 0
149 160 0
146 156 0
148 156 0
153 161 0
145 152 0
150 157 0
143 152 0
153 161 0
151 162 0
156 164 0
150 157 0
145 154 0
141 147 0
148 157 0
153 162 0
154 163 0
150 158 0
151 161 0
144 154 0
149 158 0
144 151 0
153 163 0
151 159 0
146 153 0
148 158 0
152 162 0
145 155 0
153 160 0
150 156 0
151 162 0
149 155 0
146 154 0
154 164 0
149 156 0
158 166 0
149 156 0
149 159 0
152 162 0
142 149 0
149 158 0
149 158 0
153 164 0
158 169 0
153 161 0
157 171 0
158 167 0
154 164 0
157 168 0
149 160 0
152 161 0
151 161 0
156 166 0
152 159 0
148 157 0
158 173 0
155 168 0
164 176 0
155 166 0
157 169 0
160 170 0
154 164 0
160 174 0
151 161 0
156 168 0
160 173 0
161 175 0
155 169 0
158 172 0
157 171 0
156 170 0
162 175 0
158 171 0
160 174 0
158 170 0
160 174 0
161 176 0
159 172 0
163 178 0
160 175 0
160 175 0
159 172 0
156 172 0
163 178 0
158 173 0
163 179 0
164 179 0
164 181 0
168 185 0
162 177 0
164 183 0
166 183 0
158 174 0
155 171 0
163 180 0
166 184 0
163 181 0
163 182 0
156 173 0
163 180 0
166 184 0
163 180 0
165 182 0
166 183 0
166 186 0
165 182 0
163 181 0
166 186 0
164 183 0
164 181 0
166 184 0
165 184 0
162 179 0
168 187 0
169 188 0
165 185 0
170 189 0
165 181 0
165 186 0
168 186 0
163 184 0
168 187 0
170 189 0
170 191 0
166 185 0
162 180 0
169 189 0
169 188 0
167 187 0
167 187 0
162 183 0
164 184 0
170 191 0
167 186 0
166 185 0
166 186 0
167 188 0
164 184 0
170 190 0
166 187 0
167 188 0
166 184 0
168 189 0
169 189 0
164 184 0
168 190 0
169 190 0
163 184 0
168 190 0
165 186 0
167 187 0
171 192 0
169 190 0
170 191 0
167 188 0
165 185 0
169 192 0
164 185 0
170 191 0
170 191 0
171 193 0
170 191 0
167 189 0
168 189 0
170 191 0
168 189 0
168 189 0
172 194 0
170 192 0
170 191 0
167 189 0
168 188 0
171 192 0
167 189 0
172 192 0
168 189 0
172 194 0
170 192 0
166 188 0
173 195 0
168 190 0
171 194 0
169 192 0
168 190 0
170 193 0
169 191 0
172 195 0
171 194 0
170 194 0
173 195 0
171 193 0
171 193 0
171 194 0
167 189 0
172 194 0
171 194 0
173 195 0
168 190 0
171 193 0
171 194 0
170 192 0
171 194 0
172 194 0
171 194 0
173 195 0
169 191 0
168 190 0
171 194 0
169 192 0
166 189 0
171 193 0
171 193 0
171 194 0
173 195 0
169 192 0
165 186 0
174 196 0
172 194 0
171 193 0
156 175 0
158 176 0
159 178 0
159 177 0
166 185 0
155 173 0
155 173 0
155 172 0
158 177 0
156 175 0
160 177 0
160 178 0
158 176 0
155 173 0
163 181 0
155 174 0
156 173 0
158 176 0
156 173 0
155 171 0
159 178 0
158 176 0
156 175 0
158 175 0
156 174 0
157 174 0
157 175 0
159 178 0
158 175 0
154 173 0
152 168 0
158 175 0
156 174 0
159 178 0
151 169 0
152 169 0
150 166 0
155 173 0
154 171 0
156 173 0
156 173 0
154 171 0
148 162 0
151 168 0
158 176 0
155 172 0
155 173 0
153 171 0
153 169 0
158 177 0
150 165 0
153 171 0
157 174 0
148 164 0
150 167 0
152 166 0
151 167 0
147 163 0
151 167 0
151 168 0
155 172 0
150 166 0
154 170 0
152 169 0
153 171 0
153 169 0
153 170 0
153 168 0
154 169 0
150 167 0
148 164 0
153 170 0
154 169 0
154 169 0
155 173 0
154 172 0
149 166 0
146 161 0
148 164 0
146 161 0
152 168 0
148 165 0
149 166 0
150 165 0
150 165 0
143 157 0
151 167 0
147 163 0
159 174 0
152 169 0
146 161 0
146 160 0
153 169 0
146 162 0
153 171 0
153 167 0
154 171 0
153 168 0
146 161 0
153 169 0
151 166 0
148 162 0
153 167 0
154 172 0
146 162 0
153 170 0
151 167 0
146 163 0
139 154 0
151 167 0
147 160 0
155 170 0
153 169 0
151 166 0
146 162 0
155 171 0
150 166 0
151 169 0
152 168 0
153 168 0
156 172 0
157 172 0
143 155 0
154 170 0
155 170 0
154 169 0
148 163 0
148 161 0
151 166 0
153 166 0
148 161 0
154 170 0
153 166 0
149 163 0
151 166 0
143 155 0
146 158 0
152 166 0
148 162 0
148 159 0
152 166 0
146 158 0
156 168 0
145 155 0
150 164 0
147 158 0
153 166 0
155 167 0
154 167 0
152 165 0
152 163 0
148 159 0
150 161 0
151 162 0
147 158 0
147 157 0
149 162 0
147 156 0
156 167 0
151 164 0
149 157 0
144 153 0
149 158 0
146 155 0
150 159 0
147 159 0
152 163 0
155 165 0
150 159 0
149 158 0
148 156 0
147 154 0
148 158 0
154 166 0
153 164 0
147 156 0
146 154 0
154 165 0
152 162 0
145 153 0
151 157 0
152 162 0
145 152 0
150 157 0
152 161 0
152 162 0
153 160 0
152 163 0
152 160 0
152 162 0
150 161 0
150 160 0
148 157 0
147 155 0
151 162 0
144 151 0
146 154 0
143 151 0
149 158 0
149 159 0
142 150 0
148 159 0
153 163 0
153 162 0
158 169 0
154 163 0
155 162 0
159 170 0
152 160 0
152 161 0
147 155 0
151 161 0
151 159 0
147 153 0
151 161 0
154 167 0
158 168 0
152 160 0
153 163 0
152 161 0
154 164 0
152 162 0
154 164 0
149 160 0
153 164 0
148 156 0
156 166 0
161 175 0
156 166 0
154 166 0
151 161 0
163 177 0
157 171 0
150 161 0
156 169 0
160 170 0
156 169 0
157 170 0
157 169 0
155 168 0
152 164 0
154 166 0
162 177 0
161 174 0
153 167 0
159 171 0
157 171 0
155 167 0
152 164 0
157 171 0
162 175 0
158 171 0
161 175 0
166 183 0
159 173 0
161 177 0
158 173 0
160 174 0
160 176 0
161 176 0
159 173 0
159 175 0
163 179 0
160 173 0
164 179 0
166 182 0
161 176 0
164 180 0
160 176 0
164 180 0
159 175 0
164 181 0
156 171 0
169 185 0
162 178 0
162 175 0
162 178 0
163 179 0
167 183 0
163 181 0
163 181 0
163 181 0
163 179 0
164 180 0
162 179 0
161 179 0
163 181 0
164 181 0
165 181 0
166 185 0
167 186 0
163 180 0
167 188 0
164 182 0
167 186 0
165 180 0
165 183 0
167 186 0
167 186 0
163 182 0
168 188 0
166 187 0
162 180 0
164 182 0
164 184 0
166 184 0
169 189 0
166 185 0
160 177 0
167 186 0
167 187 0
170 191 0
165 185 0
166 187 0
162 181 0
164 186 0
166 186 0
167 186 0
167 185 0
168 187 0
165 185 0
169 188 0
169 189 0
168 189 0
169 190 0
168 190 0
168 188 0
168 188 0
168 188 0
165 185 0
164 185 0
171 192 0
169 190 0
163 183 0
166 187 0
170 192 0
169 190 0
168 190 0
171 193 0
170 190 0
169 190 0
167 190 0
167 188 0
169 192 0
168 190 0
169 191 0
166 189 0
168 189 0
171 194 0
169 192 0
172 193 0
171 192 0
167 189 0
168 190 0
170 192 0
169 189 0
170 191 0
169 191 0
169 192 0
170 191 0
171 191 0
168 190 0
169 192 0
171 194 0
170 193 0
173 195 0
170 192 0
166 187 0
169 191 0
170 192 0
169 192 0
168 191 0
170 191 0
174 197 0
169 191 0
170 191 0
173 196 0
170 193 0
170 192 0
172 195 0
172 195 0
172 194 0
170 192 0
170 193 0
168 190 0
171 191 0
169 191 0
171 195 0
170 192 0
171 194 0
172 195 0
168 190 0
171 194 0
170 193 0
172 195 0
172 193 0
172 194 0
169 193 0
170 192 0
169 191 0
160 178 0
157 175 0
160 179 0
157 175 0
163 183 0
159 178 0
161 179 0
161 178 0
156 174 0
153 170 0
153 172 0
156 174 0
156 174 0
159 177 0
158 175 0
154 170 0
157 175 0
150 165 0
157 175 0
159 177 0
154 172 0
156 173 0
157 174 0
154 173 0
153 170 0
154 172 0
159 178 0
153 170 0
157 175 0
153 170 0
161 179 0
154 170 0
151 168 0
155 172 0
158 177 0
151 169 0
157 175 0
159 176 0
156 175 0
155 171 0
160 178 0
155 172 0
155 173 0
155 170 0
157 174 0
155 171 0
157 174 0
152 167 0
156 171 0
153 170 0
153 168 0
154 169 0
156 172 0
158 176 0
153 170 0
156 173 0
154 170 0
158 175 0
160 177 0
155 173 0
156 173 0
156 172 0
156 173 0
153 169 0
152 169 0
154 171 0
149 164 0
150 167 0
153 169 0
156 173 0
160 177 0
153 168 0
153 170 0
148 162 0
149 165 0
153 170 0
151 168 0
155 172 0
153 168 0
153 168 0
151 167 0
152 168 0
147 160 0
153 169 0
149 164 0
153 169 0
155 170 0
157 173 0
152 167 0
149 162 0
151 165 0
149 164 0
148 165 0
143 157 0
154 168 0
148 163 0
154 169 0
149 164 0
156 173 0
153 169 0
153 169 0
152 167 0
152 169 0
156 170 0
155 171 0
152 166 0
148 163 0
151 165 0
152 168 0
150 166 0
149 163 0
151 167 0
151 166 0
144 158 0
153 168 0
152 166 0
154 168 0
149 163 0
153 167 0
149 164 0
149 164 0
151 167 0
147 161 0
145 159 0
152 163 0
146 158 0
148 163 0
150 163 0
150 161 0
153 165 0
152 166 0
147 161 0
150 164 0
154 168 0
155 172 0
151 166 0
153 166 0
150 163 0
149 164 0
148 159 0
148 159 0
154 169 0
150 160 0
155 168 0
147 159 0
154 168 0
152 164 0
150 163 0
153 164 0
152 164 0
150 163 0
157 170 0
145 157 0
153 163 0
152 163 0
151 161 0
151 164 0
151 164 0
151 162 0
150 161 0
146 156 0
140 150 0
155 169 0
147 156 0
151 163 0
150 160 0
150 160 0
151 162 0
145 154 0
153 166 0
147 159 0
145 153 0
153 163 0
151 160 0
156 167 0
144 153 0
156 167 0
145 154 0
154 165 0
152 162 0
153 162 0
153 164 0
151 163 0
149 159 0
143 150 0
152 163 0
151 161 0
155 165 0
155 166 0
153 166 0
149 159 0
150 160 0
146 153 0
146 155 0
146 152 0
149 158 0
140 148 0
151 160 0
146 156 0
155 166 0
154 162 0
149 159 0
152 160 0
148 157 0
148 159 0
153 164 0
150 159 0
152 162 0
153 162 0
152 161 0
157 169 0
153 162 0
146 156 0
150 161 0
159 171 0
151 162 0
148 157 0
145 154 0
157 170 0
154 165 0
156 166 0
159 170 0
147 157 0
155 165 0
155 167 0
151 160 0
151 159 0
154 164 0
157 168 0
154 164 0
157 170 0
149 157 0
154 167 0
153 166 0
159 171 0
156 167 0
154 165 0
154 166 0
163 177 0
156 168 0
157 169 0
156 170 0
158 169 0
158 171 0
158 170 0
162 175 0
160 173 0
157 170 0
164 180 0
161 174 0
157 170 0
161 174 0
153 166 0
163 177 0
157 169 0
156 170 0
162 176 0
163 177 0
159 172 0
160 174 0
163 178 0
159 174 0
165 180 0
164 179 0
157 168 0
165 178 0
162 176 0
158 172 0
162 176 0
162 178 0
166 180 0
161 177 0
162 179 0
163 180 0
161 177 0
169 188 0
164 178 0
165 181 0
168 185 0
166 182 0
161 176 0
166 182 0
167 186 0
163 180 0
162 177 0
162 179 0
168 183 0
168 187 0
171 190 0
164 182 0
167 188 0
164 182 0
167 187 0
163 183 0
166 185 0
165 183 0
169 187 0
166 187 0
165 185 0
172 190 0
165 184 0
168 188 0
161 180 0
165 182 0
166 188 0
166 186 0
166 186 0
168 189 0
169 189 0
167 188 0
163 181 0
161 179 0
167 187 0
166 186 0
166 186 0
168 188 0
168 188 0
167 187 0
166 186 0
166 187 0
170 190 0
163 184 0
168 189 0
166 185 0
165 184 0
169 191 0
169 188 0
166 188 0
170 190 0
169 189 0
165 185 0
167 187 0
168 189 0
170 192 0
169 192 0
170 191 0
166 186 0
165 186 0
172 194 0
170 190 0
171 193 0
164 185 0
170 191 0
167 187 0
168 188 0
171 193 0
168 189 0
168 190 0
169 191 0
170 191 0
166 187 0
167 188 0
167 189 0
168 190 0
169 190 0
169 190 0
167 188 0
172 194 0
167 190 0
169 189 0
164 186 0
169 191 0
173 194 0
169 191 0
170 191 0
169 191 0
171 193 0
170 192 0
169 191 0
168 190 0
171 193 0
170 191 0
169 190 0
171 192 0
172 194 0
169 193 0
172 195 0
170 193 0
167 189 0
168 191 0
169 191 0
172 194 0
170 192 0
169 192 0
171 193 0
170 191 0
169 192 0
171 194 0
170 193 0
169 192 0
170 192 0
171 194 0
169 191 0
171 193 0
169 191 0
172 194 0
173 196 0
169 193 0
171 193 0
172 194 0
164 183 0
159 178 0
157 175 0
156 174 0
157 175 0
161 179 0
164 183 0
157 176 0
158 177 0
159 177 0
157 176 0
153 169 0
150 167 0
153 172 0
156 174 0
151 169 0
158 177 0
159 177 0
160 179 0
156 175 0
162 180 0
158 177 0
151 167 0
155 172 0
155 172 0
155 173 0
153 171 0
160 178 0
151 167 0
159 176 0
157 175 0
157 175 0
154 171 0
155 172 0
156 173 0
153 171 0
157 173 0
159 177 0
159 177 0
154 171 0
161 179 0
153 170 0
153 170 0
155 172 0
156 173 0
149 166 0
159 175 0
155 171 0
151 167 0
150 166 0
149 165 0
154 171 0
151 165 0
157 174 0
155 171 0
152 167 0
153 169 0
153 169 0
155 172 0
153 168 0
153 168 0
153 169 0
158 177 0
156 173 0
154 171 0
152 167 0
148 165 0
150 164 0
155 173 0
158 175 0
153 171 0
158 175 0
150 165 0
158 176 0
148 165 0
154 170 0
157 174 0
149 164 0
154 171 0
157 174 0
149 165 0
152 168 0
154 168 0
153 168 0
157 172 0
151 168 0
152 167 0
158 176 0
154 168 0
149 165 0
149 165 0
153 168 0
152 167 0
157 175 0
151 166 0
153 169 0
152 170 0
151 167 0
148 164 0
155 170 0
144 158 0
153 172 0
154 170 0
155 169 0
154 170 0
150 166 0
152 166 0
154 168 0
153 168 0
158 173 0
151 166 0
157 173 0
152 167 0
161 174 0
152 166 0
155 170 0
150 164 0
154 168 0
150 163 0
136 149 0
149 163 0
152 165 0
153 167 0
154 167 0
154 170 0
154 169 0
149 164 0
152 168 0
159 173 0
152 166 0
154 171 0
149 162 0
150 163 0
145 158 0
150 162 0
151 163 0
153 167 0
154 168 0
154 168 0
148 162 0
148 159 0
150 162 0
146 157 0
155 169 0
153 165 0
149 162 0
151 165 0
147 158 0
149 160 0
151 160 0
143 154 0
154 167 0
144 155 0
148 156 0
148 161 0
152 165 0
156 169 0
144 154 0
152 166 0
151 164 0
146 156 0
155 164 0
146 160 0
152 164 0
145 154 0
151 162 0
147 158 0
149 158 0
144 155 0
147 156 0
148 159 0
149 160 0
146 154 0
148 158 0
151 162 0
147 155 0
150 161 0
149 159 0
146 155 0
147 158 0
151 162 0
155 165 0
140 145 0
159 170 0
149 157 0
151 161 0
151 160 0
151 162 0
148 160 0
150 160 0
153 164 0
156 167 0
150 158 0
151 162 0
140 147 0
153 164 0
156 167 0
153 163 0
155 165 0
151 158 0
145 153 0
147 158 0
147 155 0
151 161 0
150 158 0
149 159 0
150 161 0
149 158 0
143 152 0
150 160 0
154 161 0
159 169 0
151 160 0
157 168 0
155 162 0
148 155 0
154 164 0
146 155 0
153 163 0
154 167 0
152 161 0
154 163 0
151 159 0
161 173 0
152 162 0
157 168 0
150 160 0
155 165 0
154 165 0
155 167 0
156 166 0
155 168 0
157 168 0
153 165 0
152 164 0
156 168 0
152 165 0
154 165 0
156 167 0
158 171 0
154 166 0
154 165 0
160 173 0
155 166 0
161 174 0
157 167 0
159 173 0
161 175 0
159 172 0
160 174 0
159 173 0
165 180 0
162 177 0
159 175 0
159 174 0
159 174 0
153 167 0
157 172 0
164 178 0
165 181 0
157 171 0
158 173 0
161 175 0
162 176 0
161 177 0
160 175 0
159 175 0
163 179 0
161 177 0
161 176 0
156 172 0
158 174 0
164 178 0
164 179 0
162 176 0
167 184 0
160 176 0
166 184 0
164 180 0
167 185 0
160 176 0
161 176 0
164 180 0
163 181 0
166 184 0
166 185 0
165 181 0
165 181 0
165 182 0
166 184 0
167 186 0
163 180 0
167 185 0
165 182 0
163 181 0
163 180 0
166 184 0
167 187 0
167 185 0
171 189 0
163 181 0
163 182 0
163 183 0
163 183 0
166 186 0
168 187 0
164 183 0
163 180 0
166 186 0
164 182 0
161 181 0
169 186 0
166 186 0
172 192 0
166 185 0
167 186 0
168 189 0
168 188 0
168 187 0
168 188 0
168 188 0
168 187 0
168 188 0
165 186 0
167 187 0
172 190 0
168 189 0
166 186 0
164 183 0
165 184 0
170 190 0
170 191 0
167 190 0
170 190 0
167 187 0
171 193 0
167 184 0
168 189 0
170 192 0
168 190 0
167 190 0
171 192 0
171 192 0
169 191 0
169 191 0
170 192 0
168 190 0
168 190 0
170 192 0
168 190 0
168 190 0
169 191 0
166 188 0
166 188 0
169 190 0
172 194 0
169 191 0
166 188 0
164 186 0
171 194 0
170 193 0
166 188 0
169 190 0
169 192 0
168 190 0
165 186 0
169 191 0
170 191 0
170 193 0
169 191 0
169 190 0
172 194 0
169 189 0
167 189 0
173 194 0
169 190 0
167 188 0
171 193 0
172 194 0
170 192 0
172 195 0
169 191 0
168 191 0
172 195 0
171 193 0
174 196 0
171 194 0
169 192 0
172 195 0
174 196 0
171 194 0
170 192 0
172 194 0
173 196 0
170 193 0
168 191 0
173 196 0
169 193 0
170 192 0
172 195 0
162 181 0
160 179 0
162 181 0
160 179 0
156 174 0
159 178 0
160 179 0
159 177 0
157 176 0
158 176 0
162 181 0
159 176 0
157 174 0
160 178 0
155 172 0
156 173 0
151 168 0
155 172 0
160 180 0
160 178 0
159 176 0
157 175 0
155 173 0
155 173 0
158 175 0
159 177 0
159 176 0
157 175 0
156 174 0
159 177 0
156 173 0
152 168 0
158 175 0
149 166 0
154 171 0
151 168 0
156 171 0
158 175 0
153 169 0
156 173 0
158 176 0
153 170 0
154 170 0
155 172 0
153 170 0
151 168 0
151 167 0
156 171 0
151 168 0
159 177 0
153 169 0
156 174 0
153 169 0
155 171 0
151 167 0
152 168 0
153 168 0
157 174 0
157 175 0
154 171 0
150 166 0
151 168 0
154 171 0
156 172 0
150 166 0
149 164 0
151 167 0
158 175 0
152 168 0
148 164 0
152 169 0
160 178 0
156 172 0
158 174 0
153 169 0
154 171 0
157 172 0
152 168 0
151 167 0
157 174 0
157 175 0
148 163 0
153 169 0
147 163 0
155 171 0
149 166 0
153 171 0
156 173 0
152 168 0
149 164 0
158 174 0
153 169 0
151 168 0
152 167 0
151 166 0
160 178 0
152 168 0
153 166 0
154 170 0
158 175 0
150 164 0
158 174 0
151 166 0
156 173 0
151 166 0
156 174 0
150 168 0
154 169 0
152 169 0
149 162 0
149 163 0
156 172 0
151 167 0
151 165 0
160 176 0
155 169 0
145 160 0
156 172 0
155 170 0
145 156 0
153 169 0
139 154 0
150 164 0
152 168 0
158 174 0
150 164 0
155 170 0
143 156 0
153 169 0
149 162 0
148 162 0
148 163 0
152 166 0
148 160 0
155 169 0
150 164 0
152 164 0
150 164 0
148 160 0
148 161 0
150 163 0
150 162 0
154 168 0
151 164 0
149 163 0
153 168 0
151 164 0
148 163 0
153 165 0
140 151 0
151 167 0
152 163 0
154 168 0
157 172 0
155 166 0
150 164 0
149 162 0
147 159 0
155 168 0
148 159 0
153 164 0
152 164 0
149 157 0
143 151 0
153 161 0
149 160 0
149 161 0
152 161 0
146 157 0
149 159 0
153 162 0
146 155 0
154 164 0
148 158 0
148 160 0
150 159 0
153 163 0
145 153 0
145 153 0
153 163 0
152 160 0
149 157 0
151 161 0
151 162 0
149 159 0
150 160 0
147 158 0
153 160 0
151 162 0
150 161 0
142 152 0
144 155 0
148 159 0
151 160 0
145 153 0
151 162 0
148 158 0
152 162 0
155 165 0
148 158 0
153 162 0
155 166 0
154 164 0
146 153 0
153 164 0
155 165 0
148 159 0
160 172 0
153 160 0
158 169 0
156 167 0
152 162 0
152 161 0
151 160 0
154 165 0
159 169 0
161 171 0
155 165 0
146 154 0
155 165 0
157 169 0
154 166 0
157 166 0
154 166 0
157 168 0
152 163 0
152 166 0
162 172 0
158 169 0
158 169 0
156 166 0
156 167 0
155 165 0
160 172 0
159 173 0
151 164 0
158 170 0
160 173 0
153 165 0
161 173 0
160 173 0
161 174 0
159 174 0
160 175 0
159 174 0
160 175 0
150 164 0
158 171 0
163 176 0
157 170 0
161 174 0
152 165 0
155 168 0
159 172 0
162 176 0
159 173 0
159 175 0
161 177 0
162 176 0
157 171 0
156 170 0
165 180 0
159 175 0
161 178 0
165 182 0
164 179 0
157 171 0
162 178 0
158 172 0
161 176 0
159 174 0
163 178 0
167 183 0
159 175 0
161 179 0
161 175 0
155 172 0
166 183 0
162 178 0
163 179 0
164 182 0
171 188 0
162 179 0
165 184 0
164 182 0
164 180 0
158 173 0
166 185 0
165 182 0
159 175 0
170 187 0
169 187 0
162 179 0
163 180 0
164 182 0
166 184 0
160 179 0
166 185 0
167 183 0
165 184 0
165 183 0
165 184 0
165 185 0
167 187 0
166 185 0
169 189 0
168 187 0
168 187 0
164 182 0
161 177 0
162 181 0
168 187 0
167 187 0
164 182 0
169 189 0
164 184 0
170 189 0
163 182 0
167 186 0
167 186 0
166 186 0
166 187 0
168 187 0
167 188 0
169 188 0
167 188 0
166 187 0
165 183 0
168 187 0
172 195 0
171 191 0
169 189 0
166 188 0
167 188 0
166 185 0
165 186 0
170 192 0
168 188 0
170 190 0
170 191 0
167 187 0
167 188 0
170 191 0
167 187 0
169 189 0
168 187 0
171 193 0
168 191 0
170 192 0
169 191 0
170 192 0
168 189 0
171 192 0
170 191 0
167 188 0
167 187 0
170 192 0
172 193 0
169 191 0
169 190 0
173 195 0
173 194 0
165 185 0
171 191 0
170 192 0
165 188 0
169 192 0
168 188 0
167 188 0
165 185 0
168 189 0
172 196 0
171 194 0
168 190 0
169 191 0
173 194 0
172 195 0
170 193 0
171 193 0
171 192 0
170 191 0
169 192 0
171 193 0
169 193 0
167 188 0
172 194 0
172 195 0
170 190 0
171 193 0
170 193 0
169 191 0
170 192 0
174 197 0
172 193 0
170 193 0
170 193 0
168 190 0
169 190 0
173 196 0
172 194 0
157 177 0
158 176 0
160 179 0
159 178 0
162 181 0
160 178 0
161 180 0
158 177 0
158 176 0
157 174 0
159 177 0
158 176 0
163 182 0
159 177 0
160 178 0
158 176 0
158 176 0
155 173 0
158 176 0
159 177 0
151 168 0
158 175 0
160 179 0
159 176 0
157 174 0
155 172 0
160 179 0
157 173 0
155 175 0
155 172 0
156 173 0
153 171 0
155 173 0
154 172 0
158 173 0
155 172 0
156 174 0
162 179 0
149 165 0
155 172 0
159 177 0
158 176 0
158 175 0
155 171 0
152 167 0
155 172 0
156 173 0
156 173 0
154 173 0
155 171 0
155 172 0
154 171 0
152 168 0
157 173 0
148 164 0
156 174 0
156 171 0
161 179 0
157 173 0
159 177 0
156 175 0
159 175 0
156 172 0
154 170 0
160 178 0
159 175 0
156 174 0
153 170 0
157 173 0
155 171 0
161 178 0
155 171 0
153 168 0
152 168 0
154 171 0
153 167 0
155 171 0
156 170 0
153 169 0
153 170 0
152 166 0
154 170 0
156 172 0
148 166 0
156 174 0
156 174 0
150 165 0
152 169 0
150 164 0
157 173 0
152 169 0
156 172 0
151 168 0
147 160 0
158 175 0
153 167 0
149 165 0
149 164 0
145 161 0
152 168 0
154 170 0
153 170 0
146 160 0
158 173 0
151 167 0
154 171 0
159 175 0
155 171 0
152 166 0
161 176 0
155 169 0
155 171 0
152 166 0
148 163 0
155 169 0
153 168 0
160 176 0
154 169 0
149 163 0
154 169 0
151 166 0
152 168 0
156 171 0
153 168 0
147 160 0
156 169 0
148 160 0
160 177 0
156 169 0
152 166 0
154 167 0
157 173 0
154 168 0
157 172 0
146 157 0
151 167 0
153 167 0
147 159 0
155 170 0
153 166 0
153 166 0
147 162 0
155 167 0
154 167 0
161 175 0
155 169 0
155 169 0
148 161 0
150 162 0
150 161 0
148 162 0
155 169 0
153 166 0
149 159 0
153 166 0
154 170 0
157 171 0
155 167 0
150 162 0
154 164 0
147 157 0
151 164 0
153 163 0
150 162 0
154 167 0
145 157 0
154 166 0
154 163 0
146 155 0
151 163 0
160 173 0
155 168 0
150 162 0
147 157 0
151 161 0
153 164 0
149 158 0
151 161 0
152 164 0
151 162 0
149 158 0
150 160 0
147 158 0
151 159 0
154 167 0
158 170 0
154 163 0
148 160 0
155 166 0
153 164 0
158 169 0
155 167 0
151 159 0
149 162 0
151 159 0
150 159 0
156 166 0
154 166 0
151 161 0
150 157 0
153 162 0
151 160 0
148 161 0
154 165 0
157 168 0
151 162 0
155 163 0
154 166 0
151 160 0
156 166 0
158 169 0
151 159 0
155 166 0
157 168 0
150 160 0
152 159 0
155 165 0
159 171 0
160 172 0
155 165 0
152 165 0
152 165 0
152 164 0
154 166 0
157 168 0
158 170 0
153 164 0
157 168 0
164 179 0
161 174 0
156 168 0
152 163 0
158 171 0
155 169 0
155 165 0
155 165 0
151 163 0
157 168 0
163 178 0
162 175 0
160 173 0
159 172 0
162 175 0
159 172 0
164 177 0
161 176 0
161 173 0
155 167 0
156 168 0
156 170 0
156 169 0
163 178 0
161 176 0
157 169 0
160 177 0
163 178 0
165 180 0
158 173 0
165 179 0
166 181 0
161 176 0
163 178 0
163 180 0
163 178 0
164 179 0
162 178 0
160 175 0
162 177 0
157 169 0
164 180 0
163 178 0
165 183 0
169 186 0
166 183 0
163 179 0
166 183 0
159 175 0
163 180 0
167 184 0
164 180 0
166 183 0
159 177 0
160 177 0
161 179 0
162 177 0
164 182 0
163 182 0
163 181 0
163 181 0
160 179 0
165 182 0
162 180 0
164 184 0
165 181 0
164 179 0
168 185 0
163 181 0
164 181 0
166 185 0
168 188 0
167 188 0
168 187 0
167 186 0
170 190 0
163 181 0
166 183 0
164 182 0
167 186 0
165 186 0
163 183 0
167 185 0
161 180 0
169 189 0
166 185 0
167 187 0
170 190 0
166 187 0
167 186 0
166 187 0
165 185 0
166 186 0
168 188 0
167 187 0
168 188 0
168 189 0
167 188 0
166 185 0
166 185 0
169 190 0
165 187 0
165 186 0
169 189 0
166 185 0
168 189 0
169 188 0
168 189 0
167 187 0
171 193 0
171 192 0
170 192 0
169 189 0
164 183 0
166 186 0
169 191 0
169 190 0
171 192 0
169 189 0
169 190 0
168 189 0
168 190 0
169 190 0
169 190 0
169 190 0
167 189 0
169 189 0
167 190 0
169 191 0
169 190 0
168 188 0
168 189 0
168 188 0
173 194 0
169 190 0
170 192 0
170 193 0
170 190 0
170 192 0
168 188 0
170 191 0
170 192 0
171 193 0
171 191 0
169 191 0
170 191 0
170 193 0
169 191 0
169 190 0
167 189 0
168 192 0
170 192 0
170 191 0
173 195 0
170 192 0
172 193 0
170 191 0
175 196 0
172 194 0
172 194 0
171 193 0
172 196 0
169 190 0
172 194 0
169 192 0
174 195 0
171 193 0
170 192 0
173 197 0
169 192 0
170 192 0
173 195 0
160 179 0
165 183 0
150 168 0
158 176 0
154 172 0
156 173 0
161 179 0
160 178 0
153 171 0
161 178 0
161 179 0
156 174 0
159 178 0
161 179 0
158 176 0
156 174 0
160 178 0
159 176 0
161 179 0
155 172 0
159 177 0
158 176 0
154 171 0
154 172 0
152 170 0
158 174 0
162 180 0
155 172 0
158 176 0
155 172 0
155 171 0
154 171 0
162 179 0
150 165 0
156 173 0
158 177 0
156 172 0
162 179 0
158 175 0
158 175 0
156 174 0
155 172 0
155 174 0
159 175 0
152 170 0
154 171 0
155 173 0
159 177 0
152 168 0
157 173 0
150 167 0
155 172 0
156 174 0
155 172 0
155 173 0
151 167 0
162 180 0
150 165 0
155 169 0
156 173 0
151 169 0
153 170 0
155 173 0
161 177 0
154 172 0
149 165 0
161 179 0
150 167 0
155 172 0
155 172 0
156 174 0
156 173 0
152 167 0
156 173 0
151 167 0
158 175 0
146 164 0
152 167 0
156 172 0
152 167 0
159 177 0
156 174 0
153 171 0
154 170 0
143 157 0
159 177 0
148 164 0
155 170 0
145 162 0
154 171 0
151 167 0
154 170 0
161 179 0
154 172 0
154 171 0
155 172 0
150 167 0
157 175 0
150 166 0
152 166 0
153 168 0
152 169 0
154 169 0
152 167 0
156 171 0
150 165 0
148 163 0
150 164 0
151 167 0
152 167 0
142 157 0
152 171 0
153 166 0
154 169 0
153 167 0
157 174 0
149 162 0
150 165 0
152 167 0
156 170 0
154 168 0
145 159 0
154 169 0
149 163 0
160 175 0
157 173 0
148 162 0
150 163 0
161 177 0
150 167 0
154 170 0
151 164 0
153 166 0
152 165 0
153 170 0
151 167 0
155 168 0
154 169 0
145 157 0
153 167 0
150 164 0
150 163 0
151 163 0
157 173 0
153 166 0
153 167 0
151 163 0
142 154 0
152 165 0
146 161 0
159 173 0
149 158 0
154 166 0
147 159 0
151 164 0
157 172 0
152 165 0
156 170 0
153 166 0
146 157 0
152 163 0
150 162 0
153 165 0
151 165 0
153 167 0
155 166 0
153 166 0
154 165 0
151 163 0
156 168 0
154 163 0
150 163 0
154 166 0
156 168 0
149 161 0
151 164 0
152 163 0
150 160 0
156 167 0
152 166 0
154 164 0
149 160 0
146 156 0
154 165 0
155 167 0
142 151 0
144 155 0
152 162 0
160 170 0
154 164 0
155 167 0
149 159 0
150 161 0
153 163 0
151 161 0
152 163 0
149 157 0
159 171 0
154 166 0
152 160 0
159 169 0
150 159 0
153 165 0
154 167 0
152 161 0
150 159 0
151 160 0
155 168 0
151 160 0
154 167 0
150 160 0
157 167 0
150 158 0
157 168 0
160 171 0
156 167 0
154 166 0
157 169 0
161 174 0
149 160 0
152 161 0
154 166 0
151 163 0
161 176 0
157 169 0
159 172 0
158 171 0
157 167 0
158 170 0
160 174 0
151 163 0
157 168 0
156 166 0
151 165 0
154 165 0
163 179 0
159 172 0
154 168 0
157 169 0
153 164 0
158 170 0
157 171 0
164 178 0
153 168 0
161 176 0
158 169 0
159 170 0
159 173 0
159 171 0
159 173 0
162 174 0
163 177 0
161 173 0
158 172 0
160 175 0
161 178 0
163 176 0
163 180 0
161 176 0
166 183 0
155 169 0
161 175 0
161 176 0
160 175 0
161 177 0
159 175 0
162 178 0
159 176 0
165 183 0
163 177 0
165 180 0
165 182 0
164 180 0
167 185 0
160 175 0
162 177 0
163 181 0
164 180 0
158 175 0
163 181 0
163 181 0
162 179 0
165 183 0
163 181 0
162 181 0
167 184 0
165 185 0
164 183 0
167 186 0
168 186 0
161 177 0
165 184 0
167 184 0
169 186 0
167 185 0
165 183 0
159 176 0
164 183 0
167 183 0
164 183 0
160 179 0
164 184 0
167 187 0
164 182 0
164 183 0
164 182 0
170 188 0
168 187 0
164 183 0
169 190 0
165 185 0
167 187 0
164 183 0
168 190 0
168 186 0
165 186 0
167 185 0
165 185 0
166 183 0
170 189 0
166 186 0
165 185 0
170 192 0
170 191 0
165 184 0
167 188 0
168 189 0
167 186 0
170 193 0
170 190 0
164 186 0
166 186 0
170 191 0
167 187 0
170 192 0
168 188 0
166 186 0
162 182 0
170 189 0
167 187 0
166 187 0
172 193 0
171 191 0
165 186 0
172 194 0
167 188 0
169 192 0
169 192 0
170 191 0
170 192 0
170 191 0
169 190 0
171 191 0
167 189 0
170 191 0
172 192 0
169 191 0
166 187 0
170 193 0
167 187 0
168 189 0
166 188 0
172 192 0
172 193 0
169 190 0
172 194 0
169 190 0
170 191 0
168 190 0
170 192 0
172 194 0
172 195 0
170 193 0
168 190 0
168 190 0
169 190 0
169 191 0
165 187 0
169 191 0
170 192 0
170 192 0
166 188 0
168 189 0
172 194 0
171 193 0
172 194 0
172 195 0
167 190 0
170 192 0
175 197 0
170 193 0
170 190 0
169 192 0
169 190 0
171 194 0
170 191 0
172 195 0
171 192 0
172 194 0
173 195 0
161 180 0
157 175 0
160 178 0
158 176 0
162 180 0
161 181 0
156 175 0
161 179 0
163 181 0
158 174 0
155 174 0
160 178 0
157 177 0
159 177 0
161 179 0
155 173 0
153 170 0
156 172 0
160 179 0
160 178 0
162 181 0
159 178 0
160 177 0
162 180 0
160 177 0
153 170 0
161 180 0
161 180 0
158 178 0
163 181 0
159 176 0
161 179 0
157 175 0
157 174 0
155 172 0
154 171 0
156 174 0
161 178 0
161 179 0
150 167 0
157 176 0
156 174 0
155 173 0
157 173 0
152 170 0
155 173 0
159 177 0
151 169 0
152 169 0
156 173 0
151 169 0
158 175 0
154 171 0
155 174 0
157 175 0
158 175 0
157 175 0
155 173 0
156 174 0
156 172 0
154 171 0
160 179 0
154 172 0
154 170 0
154 171 0
155 172 0
152 166 0
145 161 0
158 175 0
154 169 0
154 172 0
154 171 0
152 168 0
151 165 0
154 172 0
158 177 0
159 176 0
157 174 0
160 177 0
154 170 0
149 165 0
153 171 0
156 173 0
155 172 0
154 168 0
160 178 0
152 169 0
156 173 0
150 166 0
149 166 0
148 162 0
159 177 0
144 157 0
154 171 0
153 169 0
154 169 0
155 171 0
151 167 0
149 164 0
153 168 0
153 170 0
154 172 0
153 171 0
149 165 0
150 165 0
154 171 0
152 167 0
150 167 0
154 169 0
155 169 0
152 168 0
154 169 0
157 171 0
153 171 0
147 164 0
147 159 0
154 169 0
149 165 0
157 173 0
158 173 0
157 174 0
152 168 0
155 172 0
157 173 0
146 159 0
156 173 0
151 165 0
155 171 0
152 168 0
153 168 0
154 169 0
151 166 0
148 161 0
150 164 0
153 167 0
150 162 0
155 168 0
151 166 0
155 169 0
161 177 0
156 169 0
152 167 0
157 173 0
154 167 0
147 161 0
158 171 0
151 164 0
152 164 0
152 165 0
156 170 0
154 168 0
148 161 0
147 158 0
148 162 0
155 168 0
153 167 0
148 160 0
151 162 0
146 156 0
155 164 0
152 163 0
151 164 0
158 170 0
158 171 0
150 162 0
153 166 0
152 163 0
143 151 0
156 168 0
144 152 0
150 163 0
148 159 0
149 162 0
150 162 0
148 159 0
148 159 0
155 169 0
160 173 0
148 157 0
154 164 0
149 160 0
153 164 0
152 163 0
151 161 0
152 163 0
150 159 0
155 166 0
152 164 0
152 162 0
147 158 0
153 164 0
152 162 0
148 158 0
145 155 0
143 152 0
154 165 0
152 161 0
152 162 0
150 163 0
158 169 0
152 164 0
160 170 0
152 160 0
152 162 0
157 169 0
157 170 0
156 169 0
160 173 0
157 167 0
156 169 0
153 163 0
150 161 0
149 162 0
151 160 0
153 162 0
150 161 0
158 169 0
153 165 0
160 172 0
161 172 0
154 167 0
154 164 0
159 171 0
158 169 0
160 171 0
154 162 0
151 163 0
157 170 0
160 175 0
159 173 0
157 170 0
162 172 0
159 172 0
156 166 0
158 170 0
152 164 0
152 166 0
163 178 0
160 172 0
159 174 0
160 174 0
160 173 0
163 175 0
161 175 0
159 173 0
162 177 0
162 174 0
155 168 0
159 172 0
158 172 0
157 169 0
160 175 0
159 173 0
156 169 0
165 181 0
164 179 0
161 175 0
156 171 0
166 183 0
160 175 0
162 176 0
160 176 0
162 176 0
164 179 0
161 176 0
160 172 0
167 184 0
159 177 0
161 174 0
160 173 0
166 183 0
156 171 0
159 177 0
161 177 0
164 181 0
164 182 0
163 179 0
163 179 0
167 187 0
165 183 0
164 183 0
161 179 0
164 182 0
161 174 0
163 182 0
167 185 0
160 178 0
163 181 0
164 181 0
169 189 0
165 181 0
168 188 0
163 180 0
165 184 0
166 184 0
166 183 0
165 183 0
168 187 0
167 185 0
166 186 0
164 184 0
167 184 0
162 180 0
168 186 0
168 188 0
167 185 0
166 184 0
161 178 0
169 188 0
164 183 0
162 182 0
167 188 0
167 185 0
165 185 0
166 186 0
166 185 0
168 186 0
168 185 0
171 190 0
165 183 0
167 187 0
167 187 0
170 193 0
169 190 0
170 191 0
163 183 0
167 189 0
169 190 0
168 187 0
167 187 0
170 192 0
172 192 0
168 188 0
169 190 0
168 190 0
172 193 0
168 189 0
171 192 0
169 190 0
171 193 0
168 189 0
169 191 0
166 187 0
168 190 0
165 185 0
168 188 0
171 192 0
172 194 0
170 191 0
170 192 0
172 193 0
169 189 0
170 193 0
168 191 0
167 189 0
170 192 0
172 194 0
169 191 0
165 186 0
168 190 0
173 195 0
169 190 0
167 188 0
171 191 0
168 191 0
170 193 0
169 190 0
170 192 0
170 191 0
169 192 0
169 190 0
169 190 0
170 192 0
171 194 0
169 191 0
171 194 0
168 191 0
171 192 0
170 194 0
171 194 0
170 194 0
170 192 0
172 194 0
171 192 0
168 190 0
169 189 0
170 193 0
170 192 0
167 189 0
172 194 0
170 192 0
172 194 0
173 196 0
168 190 0
173 196 0
172 195 0
173 195 0
169 191 0
172 196 0
171 194 0
159 178 0
155 174 0
159 177 0
159 177 0
160 178 0
157 175 0
162 182 0
162 180 0
158 176 0
157 175 0
158 176 0
159 177 0
160 178 0
159 176 0
153 170 0
160 179 0
158 175 0
159 177 0
161 181 0
155 173 0
158 176 0
158 175 0
152 169 0
154 172 0
157 175 0
157 175 0
154 171 0
157 175 0
151 169 0
157 176 0
154 171 0
158 177 0
158 175 0
159 177 0
159 176 0
154 172 0
156 173 0
157 174 0
155 173 0
160 178 0
152 168 0
154 171 0
152 169 0
152 168 0
160 178 0
154 172 0
156 174 0
156 174 0
153 170 0
155 171 0
153 169 0
154 170 0
155 172 0
159 176 0
157 174 0
150 167 0
158 174 0
156 171 0
160 178 0
154 170 0
155 173 0
159 177 0
153 171 0
150 166 0
155 172 0
156 173 0
159 179 0
156 172 0
147 166 0
153 170 0
151 169 0
151 166 0
154 172 0
152 169 0
161 180 0
149 165 0
157 174 0
154 174 0
154 172 0
151 167 0
157 174 0
156 170 0
156 173 0
157 172 0
151 167 0
159 176 0
157 174 0
155 171 0
155 170 0
153 171 0
153 170 0
157 173 0
151 167 0
155 169 0
156 172 0
161 177 0
153 169 0
150 164 0
149 163 0
150 166 0
153 168 0
150 166 0
147 162 0
152 169 0
150 165 0
152 166 0
156 173 0
144 160 0
153 170 0
155 171 0
155 171 0
152 165 0
152 167 0
152 166 0
151 164 0
154 169 0
151 166 0
149 164 0
152 166 0
154 172 0
150 166 0
154 169 0
154 169 0
152 165 0
158 174 0
151 166 0
160 175 0
150 166 0
157 173 0
151 164 0
158 172 0
149 163 0
157 172 0
153 168 0
156 171 0
155 169 0
155 170 0
154 166 0
156 170 0
149 163 0
152 165 0
156 171 0
155 170 0
155 169 0
148 160 0
157 172 0
145 158 0
155 164 0
156 170 0
150 163 0
148 161 0
153 166 0
150 164 0
153 164 0
150 163 0
152 164 0
157 168 0
153 166 0
154 167 0
151 164 0
159 174 0
153 168 0
146 158 0
151 164 0
153 164 0
152 163 0
154 168 0
154 167 0
149 160 0
152 163 0
154 166 0
155 167 0
153 165 0
158 170 0
154 167 0
151 164 0
148 158 0
148 159 0
152 162 0
148 160 0
148 160 0
149 159 0
160 173 0
156 168 0
158 169 0
152 161 0
147 156 0
153 162 0
154 166 0
154 166 0
152 162 0
155 166 0
151 161 0
156 168 0
152 162 0
154 166 0
153 164 0
156 166 0
150 158 0
153 162 0
155 168 0
159 172 0
149 161 0
153 167 0
150 161 0
153 164 0
153 165 0
151 159 0
157 170 0
159 169 0
156 168 0
148 157 0
150 159 0
147 157 0
154 165 0
158 171 0
150 160 0
159 171 0
154 165 0
155 168 0
156 167 0
154 166 0
158 170 0
152 161 0
158 171 0
156 167 0
159 171 0
156 170 0
163 174 0
162 175 0
156 169 0
155 170 0
157 168 0
160 168 0
161 174 0
154 166 0
154 168 0
158 172 0
160 173 0
153 164 0
161 175 0
156 170 0
154 166 0
162 179 0
156 169 0
157 172 0
159 172 0
162 175 0
161 175 0
162 177 0
160 173 0
158 172 0
162 176 0
159 176 0
160 176 0
158 171 0
163 177 0
164 178 0
153 169 0
160 174 0
166 182 0
168 183 0
162 180 0
160 176 0
162 177 0
161 175 0
163 179 0
167 184 0
162 178 0
168 186 0
164 182 0
159 174 0
159 175 0
162 179 0
162 181 0
166 182 0
162 177 0
154 171 0
157 175 0
164 181 0
163 181 0
165 182 0
165 182 0
166 183 0
169 188 0
168 185 0
161 176 0
163 179 0
163 180 0
165 184 0
165 183 0
166 180 0
163 181 0
164 180 0
164 182 0
160 177 0
168 186 0
162 181 0
166 183 0
162 180 0
168 188 0
164 182 0
170 189 0
170 190 0
168 187 0
169 189 0
168 187 0
164 183 0
165 184 0
163 183 0
164 182 0
165 184 0
164 183 0
167 186 0
166 186 0
166 186 0
167 188 0
166 184 0
166 185 0
167 187 0
171 191 0
169 189 0
169 190 0
168 189 0
167 187 0
165 186 0
169 189 0
167 189 0
168 188 0
166 186 0
173 195 0
166 183 0
164 184 0
168 189 0
169 190 0
167 188 0
167 187 0
169 188 0
171 191 0
168 186 0
169 190 0
168 190 0
170 192 0
169 190 0
167 185 0
167 189 0
166 187 0
171 193 0
169 191 0
172 192 0
169 190 0
168 190 0
167 187 0
168 189 0
169 190 0
170 192 0
169 191 0
175 197 0
171 193 0
171 191 0
171 193 0
168 189 0
170 191 0
168 190 0
171 193 0
172 193 0
169 190 0
171 191 0
167 188 0
173 193 0
172 194 0
168 191 0
167 190 0
172 194 0
171 193 0
168 191 0
172 193 0
171 193 0
171 193 0
171 193 0
172 194 0
169 191 0
170 192 0
170 192 0
171 193 0
170 192 0
169 191 0
166 189 0
171 193 0
172 194 0
172 194 0
170 192 0
168 191 0
172 194 0
172 193 0
172 194 0
172 194 0
169 192 0
170 194 0
172 195 0
162 181 0
154 171 0
156 174 0
158 178 0
160 179 0
159 177 0
163 181 0
157 174 0
159 177 0
162 181 0
159 177 0
164 182 0
159 178 0
159 178 0
161 179 0
154 171 0
156 173 0
161 179 0
160 179 0
156 175 0
160 179 0
159 177 0
161 179 0
157 175 0
162 180 0
154 171 0
156 175 0
155 173 0
155 173 0
160 177 0
155 172 0
156 172 0
159 175 0
155 173 0
158 176 0
152 169 0
153 170 0
153 170 0
150 167 0
157 175 0
159 178 0
159 177 0
152 169 0
158 176 0
155 171 0
155 173 0
156 172 0
158 177 0
154 171 0
153 170 0
157 174 0
158 176 0
155 172 0
151 166 0
155 173 0
151 168 0
158 174 0
157 174 0
158 175 0
154 171 0
161 178 0
156 175 0
158 176 0
160 177 0
154 171 0
149 165 0
156 174 0
158 176 0
153 170 0
147 163 0
157 174 0
150 164 0
152 171 0
158 173 0
150 165 0
154 170 0
154 170 0
152 167 0
147 161 0
150 167 0
157 172 0
158 176 0
156 173 0
157 175 0
150 167 0
156 173 0
155 172 0
151 167 0
154 170 0
155 171 0
154 172 0
146 163 0
155 171 0
153 170 0
150 166 0
156 173 0
150 165 0
155 172 0
156 171 0
148 161 0
156 173 0
152 165 0
153 168 0
154 169 0
156 173 0
159 176 0
152 170 0
150 165 0
153 169 0
154 169 0
156 171 0
156 173 0
159 176 0
157 174 0
155 170 0
157 171 0
159 174 0
153 170 0
157 174 0
156 173 0
156 171 0
157 172 0
157 174 0
150 165 0
155 170 0
156 171 0
158 172 0
156 170 0
150 164 0
151 161 0
158 174 0
155 168 0
151 165 0
144 156 0
154 168 0
156 169 0
153 168 0
152 167 0
152 167 0
156 172 0
149 163 0
158 172 0
163 179 0
150 165 0
153 166 0
152 165 0
151 164 0
160 173 0
151 163 0
154 167 0
150 162 0
158 172 0
155 168 0
148 160 0
153 166 0
157 171 0
153 165 0
145 156 0
154 165 0
155 167 0
155 168 0
151 162 0
150 163 0
148 159 0
153 166 0
156 169 0
156 167 0
153 165 0
151 164 0
148 157 0
154 167 0
154 165 0
153 165 0
149 159 0
148 160 0
152 163 0
158 170 0
147 160 0
147 154 0
152 161 0
159 170 0
159 173 0
151 162 0
157 170 0
160 173 0
153 162 0
155 169 0
146 156 0
155 167 0
156 167 0
152 161 0
153 166 0
151 161 0
161 172 0
153 165 0
155 168 0
156 168 0
150 160 0
154 167 0
154 167 0
158 174 0
159 172 0
156 169 0
155 167 0
152 160 0
152 164 0
142 153 0
154 165 0
153 165 0
155 167 0
155 168 0
157 170 0
157 169 0
157 169 0
154 163 0
154 164 0
160 171 0
153 162 0
155 165 0
155 168 0
158 170 0
154 170 0
157 169 0
158 169 0
157 169 0
155 166 0
156 168 0
156 168 0
153 163 0
157 169 0
156 168 0
159 173 0
158 170 0
156 170 0
156 170 0
156 169 0
162 174 0
154 164 0
156 169 0
165 181 0
157 169 0
153 166 0
160 175 0
159 172 0
156 169 0
161 175 0
159 173 0
158 172 0
158 171 0
163 178 0
156 169 0
157 173 0
161 176 0
170 185 0
167 182 0
163 176 0
158 171 0
163 178 0
161 175 0
164 178 0
158 173 0
166 183 0
164 180 0
164 180 0
163 179 0
161 177 0
159 174 0
163 176 0
159 175 0
161 176 0
164 182 0
162 180 0
162 179 0
163 182 0
161 177 0
165 180 0
165 180 0
164 180 0
165 183 0
164 181 0
163 179 0
166 183 0
165 182 0
164 182 0
168 186 0
164 180 0
166 182 0
164 183 0
164 183 0
166 183 0
165 183 0
161 180 0
166 183 0
165 182 0
163 180 0
165 183 0
165 181 0
168 187 0
165 181 0
168 186 0
169 187 0
171 190 0
169 188 0
166 185 0
168 190 0
165 185 0
165 182 0
164 184 0
167 185 0
165 185 0
170 191 0
169 188 0
167 188 0
168 187 0
169 189 0
167 187 0
167 185 0
168 189 0
170 188 0
166 185 0
164 183 0
167 186 0
166 187 0
169 189 0
167 187 0
168 188 0
162 181 0
165 182 0
169 188 0
163 182 0
168 187 0
167 187 0
166 187 0
167 186 0
166 186 0
168 188 0
168 188 0
159 180 0
164 185 0
167 188 0
169 189 0
171 192 0
169 188 0
169 191 0
170 190 0
171 192 0
169 191 0
166 187 0
172 192 0
168 189 0
170 191 0
170 192 0
171 192 0
166 187 0
169 191 0
170 191 0
165 187 0
172 193 0
169 190 0
171 194 0
169 191 0
172 191 0
170 192 0
166 187 0
167 188 0
170 191 0
172 193 0
169 190 0
167 189 0
170 192 0
172 194 0
168 191 0
168 190 0
170 192 0
168 191 0
168 190 0
169 191 0
168 190 0
171 194 0
169 190 0
172 194 0
170 192 0
170 191 0
173 197 0
170 191 0
170 193 0
171 193 0
171 195 0
168 190 0
172 193 0
170 193 0
169 191 0
172 193 0
173 195 0
170 193 0
169 191 0
170 193 0
172 195 0
170 190 0
170 193 0
161 181 0
161 179 0
162 180 0
162 180 0
159 178 0
162 180 0
156 173 0
160 179 0
159 177 0
160 180 0
160 179 0
163 181 0
155 174 0
157 176 0
164 183 0
157 174 0
159 178 0
156 176 0
158 177 0
158 176 0
155 171 0
160 179 0
157 176 0
158 177 0
158 177 0
160 178 0
162 180 0
158 176 0
156 174 0
159 177 0
161 179 0
156 174 0
157 175 0
158 176 0
160 179 0
156 175 0
158 175 0
158 175 0
159 177 0
160 178 0
159 175 0
162 178 0
152 168 0
149 167 0
163 179 0
157 175 0
152 168 0
155 172 0
157 175 0
155 172 0
156 174 0
151 170 0
154 171 0
159 175 0
153 170 0
154 171 0
161 180 0
159 177 0
154 171 0
153 170 0
149 165 0
161 179 0
161 177 0
157 176 0
152 168 0
158 175 0
155 172 0
157 172 0
156 173 0
150 167 0
159 176 0
156 175 0
160 178 0
155 173 0
155 172 0
151 167 0
155 172 0
156 174 0
153 170 0
150 165 0
158 174 0
156 173 0
157 172 0
154 172 0
156 171 0
159 176 0
156 172 0
156 174 0
155 173 0
156 175 0
150 167 0
151 166 0
160 180 0
155 169 0
150 166 0
148 165 0
154 168 0
159 176 0
151 169 0
152 169 0
153 169 0
157 174 0
155 171 0
153 170 0
158 174 0
158 175 0
158 176 0
158 173 0
152 168 0
157 170 0
152 166 0
157 175 0
155 171 0
155 171 0
154 171 0
153 168 0
152 166 0
152 168 0
149 165 0
146 158 0
153 168 0
147 162 0
150 166 0
152 165 0
159 175 0
156 171 0
157 173 0
152 166 0
155 171 0
151 164 0
154 169 0
156 172 0
155 172 0
156 171 0
157 173 0
160 175 0
153 170 0
153 168 0
149 161 0
156 170 0
143 155 0
157 172 0
153 166 0
152 165 0
152 165 0
149 161 0
152 167 0
150 165 0
153 167 0
159 172 0
152 166 0
158 172 0
149 162 0
155 169 0
158 170 0
151 162 0
151 165 0
149 163 0
156 170 0
155 166 0
160 174 0
155 169 0
155 169 0
148 161 0
148 159 0
151 164 0
153 164 0
148 158 0
158 169 0
151 162 0
157 169 0
152 162 0
151 163 0
157 169 0
154 167 0
143 151 0
152 166 0
152 163 0
159 173 0
157 169 0
157 169 0
154 166 0
153 166 0
155 167 0
156 169 0
155 167 0
148 159 0
157 171 0
157 168 0
154 167 0
155 165 0
149 158 0
155 168 0
153 165 0
156 169 0
156 168 0
159 171 0
156 167 0
152 164 0
158 171 0
155 167 0
155 168 0
150 161 0
157 169 0
159 170 0
154 163 0
149 159 0
155 166 0
149 160 0
153 165 0
154 166 0
159 173 0
158 169 0
158 170 0
158 170 0
151 159 0
152 163 0
153 164 0
152 165 0
154 165 0
154 168 0
156 167 0
158 171 0
160 173 0
162 176 0
158 172 0
155 167 0
154 167 0
156 170 0
162 175 0
156 167 0
157 166 0
165 179 0
162 176 0
158 172 0
156 170 0
154 166 0
160 172 0
157 169 0
158 172 0
163 177 0
162 175 0
159 173 0
159 174 0
153 165 0
159 174 0
166 185 0
159 172 0
159 173 0
160 173 0
159 175 0
160 176 0
162 177 0
159 173 0
159 172 0
159 174 0
163 178 0
157 171 0
159 175 0
159 175 0
160 176 0
158 174 0
165 182 0
160 174 0
160 174 0
157 173 0
164 179 0
162 176 0
161 178 0
165 183 0
166 184 0
162 178 0
160 175 0
158 176 0
163 179 0
164 181 0
167 184 0
160 177 0
166 182 0
165 180 0
167 185 0
166 185 0
163 180 0
163 179 0
166 184 0
167 186 0
168 186 0
165 182 0
166 185 0
169 187 0
162 179 0
166 184 0
163 179 0
161 176 0
165 183 0
166 185 0
161 176 0
166 184 0
165 184 0
162 180 0
164 183 0
162 180 0
162 180 0
163 180 0
165 185 0
169 188 0
166 186 0
168 188 0
166 185 0
171 190 0
168 187 0
165 184 0
164 185 0
165 183 0
168 188 0
169 189 0
168 190 0
164 182 0
169 189 0
172 192 0
163 182 0
170 190 0
168 187 0
168 188 0
169 188 0
167 188 0
169 190 0
164 185 0
167 188 0
166 188 0
168 189 0
171 192 0
166 186 0
166 188 0
168 188 0
168 188 0
167 188 0
167 186 0
166 186 0
169 190 0
168 189 0
171 192 0
165 186 0
170 192 0
168 190 0
173 196 0
171 192 0
169 190 0
168 189 0
171 192 0
169 190 0
170 192 0
170 191 0
166 185 0
169 190 0
170 191 0
169 189 0
170 192 0
167 188 0
171 192 0
171 193 0
170 192 0
169 189 0
171 193 0
167 189 0
169 190 0
170 192 0
171 191 0
171 193 0
173 195 0
168 191 0
171 193 0
168 189 0
172 194 0
169 191 0
172 194 0
172 193 0
171 193 0
167 189 0
175 196 0
170 193 0
171 193 0
171 193 0
170 190 0
170 192 0
171 192 0
167 189 0
169 192 0
171 193 0
170 192 0
172 194 0
170 193 0
169 192 0
170 192 0
169 191 0
175 197 0
173 195 0
171 193 0
169 191 0
170 192 0
161 180 0
162 181 0
163 182 0
157 176 0
161 180 0
160 178 0
155 172 0
159 175 0
159 178 0
161 180 0
156 175 0
159 177 0
157 175 0
156 174 0
160 179 0
158 175 0
157 173 0
156 173 0
154 172 0
160 179 0
161 179 0
153 171 0
153 170 0
154 172 0
157 175 0
158 175 0
155 172 0
158 175 0
150 166 0
155 172 0
160 180 0
160 178 0
159 177 0
158 177 0
164 182 0
159 176 0
155 173 0
157 175 0
155 171 0
160 178 0
156 172 0
163 181 0
158 175 0
160 178 0
161 177 0
157 174 0
153 172 0
151 168 0
157 174 0
157 176 0
156 175 0
159 179 0
154 170 0
159 178 0
153 172 0
155 173 0
158 175 0
160 178 0
157 175 0
156 175 0
158 176 0
157 175 0
156 172 0
157 174 0
156 172 0
162 179 0
156 174 0
154 171 0
153 169 0
153 172 0
157 176 0
150 167 0
152 168 0
157 174 0
159 177 0
154 171 0
153 169 0
159 177 0
157 174 0
158 177 0
161 178 0
154 169 0
151 167 0
158 173 0
154 171 0
154 169 0
153 170 0
154 170 0
156 172 0
156 172 0
150 166 0
144 159 0
157 173 0
158 175 0
159 176 0
151 167 0
158 175 0
154 170 0
160 177 0
159 175 0
152 170 0
155 172 0
160 177 0
153 171 0
152 168 0
151 167 0
156 171 0
154 169 0
151 167 0
157 172 0
159 175 0
158 174 0
157 172 0
154 171 0
157 174 0
155 171 0
157 172 0
156 172 0
151 166 0
151 165 0
147 161 0
154 169 0
159 176 0
155 170 0
158 175 0
156 173 0
155 168 0
153 165 0
152 167 0
158 173 0
161 178 0
153 169 0
158 175 0
153 167 0
147 160 0
152 166 0
156 170 0
148 161 0
156 170 0
159 173 0
151 167 0
148 164 0
162 177 0
148 161 0
148 160 0
151 167 0
151 165 0
154 169 0
158 173 0
155 172 0
155 168 0
149 159 0
156 170 0
153 166 0
153 168 0
157 169 0
151 164 0
149 160 0
155 171 0
156 170 0
154 165 0
152 165 0
153 167 0
148 159 0
153 167 0
152 161 0
157 170 0
157 172 0
154 167 0
154 166 0
153 165 0
153 164 0
148 160 0
158 171 0
153 164 0
158 167 0
153 167 0
152 164 0
160 173 0
151 162 0
162 174 0
147 160 0
156 169 0
156 170 0
154 163 0
155 168 0
152 163 0
147 156 0
155 167 0
148 159 0
156 167 0
153 164 0
157 168 0
154 165 0
153 163 0
157 168 0
152 166 0
156 169 0
158 170 0
157 169 0
156 166 0
154 164 0
150 162 0
153 164 0
157 170 0
154 166 0
152 162 0
151 162 0
155 167 0
158 172 0
149 159 0
153 164 0
156 167 0
154 166 0
155 168 0
148 158 0
159 172 0
157 169 0
153 165 0
158 169 0
155 165 0
155 166 0
162 177 0
156 169 0
152 162 0
160 172 0
162 175 0
150 163 0
160 172 0
157 170 0
153 165 0
157 170 0
160 173 0
157 170 0
152 166 0
160 173 0
159 171 0
156 170 0
158 173 0
156 169 0
156 172 0
158 170 0
155 168 0
160 174 0
162 177 0
160 172 0
163 176 0
163 178 0
163 177 0
161 175 0
160 173 0
165 180 0
160 174 0
155 167 0
164 180 0
165 180 0
163 180 0
155 166 0
165 180 0
152 165 0
162 177 0
161 173 0
161 176 0
161 176 0
163 177 0
165 182 0
164 182 0
163 179 0
168 185 0
160 175 0
166 184 0
163 180 0
167 185 0
165 182 0
163 182 0
164 180 0
162 180 0
162 178 0
164 180 0
163 179 0
164 181 0
164 182 0
161 176 0
166 184 0
162 178 0
165 181 0
166 184 0
165 183 0
165 181 0
165 182 0
164 182 0
169 187 0
164 184 0
163 182 0
167 186 0
165 183 0
165 183 0
163 180 0
167 187 0
164 182 0
164 180 0
165 184 0
168 188 0
166 183 0
167 187 0
168 187 0
165 185 0
165 185 0
164 181 0
166 183 0
164 182 0
165 183 0
170 191 0
168 188 0
168 188 0
166 186 0
167 188 0
169 189 0
166 185 0
164 183 0
164 185 0
167 188 0
173 193 0
167 188 0
166 185 0
169 190 0
166 186 0
168 188 0
161 182 0
169 187 0
171 191 0
169 189 0
159 177 0
168 188 0
165 187 0
172 192 0
167 186 0
171 193 0
169 190 0
166 185 0
168 187 0
171 191 0
168 188 0
167 188 0
167 189 0
166 187 0
171 191 0
171 192 0
170 192 0
166 187 0
167 187 0
170 192 0
166 187 0
170 191 0
168 188 0
168 189 0
170 192 0
165 187 0
171 191 0
169 192 0
167 188 0
171 192 0
168 189 0
168 189 0
170 191 0
170 193 0
169 190 0
170 192 0
168 187 0
172 192 0
169 192 0
168 190 0
170 192 0
171 194 0
171 193 0
171 195 0
173 194 0
168 188 0
168 190 0
173 194 0
168 191 0
172 195 0
170 192 0
172 193 0
171 193 0
170 193 0
168 190 0
171 195 0
171 193 0
169 192 0
169 192 0
170 193 0
171 192 0
173 195 0
168 190 0
170 193 0
169 192 0
173 195 0
171 193 0
172 195 0
161 180 0
162 181 0
155 172 0
161 179 0
158 177 0
159 177 0
151 169 0
158 178 0
160 178 0
160 180 0
158 176 0
158 175 0
162 182 0
164 182 0
160 179 0
162 181 0
154 171 0
160 180 0
158 176 0
148 164 0
157 175 0
160 179 0
161 179 0
161 179 0
160 179 0
158 175 0
157 175 0
157 176 0
160 178 0
159 177 0
159 178 0
160 177 0
158 176 0
154 172 0
158 174 0
160 179 0
159 177 0
154 172 0
153 171 0
161 178 0
158 177 0
157 173 0
154 171 0
157 174 0
160 179 0
159 177 0
161 179 0
155 172 0
157 175 0
154 172 0
154 171 0
155 172 0
153 170 0
153 170 0
156 173 0
151 167 0
154 172 0
155 172 0
160 176 0
154 171 0
154 172 0
158 174 0
156 173 0
161 179 0
157 174 0
154 172 0
148 165 0
149 167 0
155 173 0
159 178 0
153 172 0
162 181 0
153 169 0
159 177 0
162 179 0
163 182 0
153 170 0
155 174 0
150 167 0
153 168 0
153 169 0
151 167 0
159 177 0
149 166 0
163 181 0
152 166 0
157 175 0
157 175 0
156 172 0
153 169 0
149 165 0
156 171 0
152 168 0
153 168 0
155 170 0
156 172 0
158 175 0
159 177 0
149 164 0
152 165 0
156 173 0
158 175 0
161 177 0
153 168 0
159 177 0
159 176 0
159 174 0
149 164 0
153 170 0
159 177 0
157 173 0
154 170 0
155 171 0
158 176 0
155 170 0
156 170 0
155 170 0
149 165 0
156 171 0
156 173 0
159 175 0
157 170 0
159 175 0
155 170 0
157 173 0
153 170 0
156 170 0
156 171 0
152 166 0
154 167 0
158 174 0
151 164 0
161 177 0
152 167 0
152 165 0
154 167 0
159 176 0
155 170 0
155 172 0
153 168 0
162 178 0
156 170 0
156 169 0
156 172 0
157 173 0
150 163 0
160 175 0
154 168 0
155 169 0
148 162 0
157 171 0
154 165 0
155 168 0
153 166 0
159 175 0
159 172 0
153 167 0
156 169 0
157 171 0
152 167 0
152 165 0
158 170 0
155 168 0
149 161 0
151 162 0
155 168 0
154 167 0
152 163 0
158 171 0
159 172 0
157 169 0
154 167 0
149 160 0
156 170 0
156 170 0
156 169 0
153 165 0
154 164 0
148 158 0
158 171 0
156 168 0
151 165 0
160 173 0
153 164 0
158 169 0
150 161 0
155 171 0
153 165 0
155 167 0
157 171 0
156 171 0
150 161 0
158 172 0
151 161 0
156 169 0
154 166 0
153 167 0
150 162 0
154 168 0
155 166 0
155 167 0
154 165 0
158 168 0
156 167 0
152 166 0
152 162 0
156 168 0
159 171 0
161 175 0
154 167 0
160 174 0
149 160 0
159 170 0
156 169 0
155 167 0
160 174 0
156 171 0
160 173 0
158 169 0
158 171 0
150 160 0
158 172 0
153 164 0
160 174 0
159 171 0
162 177 0
159 172 0
156 170 0
157 169 0
162 174 0
163 177 0
153 164 0
158 172 0
157 169 0
159 171 0
159 171 0
155 166 0
157 169 0
152 167 0
158 172 0
158 172 0
155 168 0
160 174 0
164 180 0
159 172 0
160 172 0
163 177 0
160 175 0
156 169 0
163 179 0
162 178 0
160 175 0
161 175 0
163 179 0
161 176 0
159 173 0
163 177 0
160 175 0
163 180 0
160 175 0
159 173 0
161 177 0
163 180 0
167 183 0
161 175 0
162 179 0
166 183 0
165 184 0
164 181 0
162 178 0
163 180 0
164 180 0
161 175 0
160 176 0
167 183 0
161 177 0
164 181 0
163 180 0
165 181 0
162 177 0
165 184 0
158 173 0
158 175 0
167 186 0
166 185 0
165 184 0
168 185 0
163 178 0
166 184 0
162 179 0
162 178 0
166 185 0
166 183 0
166 183 0
167 185 0
165 184 0
165 185 0
169 188 0
167 187 0
164 183 0
164 183 0
166 184 0
166 187 0
161 179 0
167 186 0
170 190 0
168 187 0
168 187 0
167 186 0
166 184 0
168 186 0
170 192 0
166 185 0
168 188 0
166 186 0
170 188 0
169 187 0
167 186 0
162 183 0
168 188 0
167 189 0
169 188 0
166 185 0
165 184 0
168 187 0
167 190 0
170 191 0
167 186 0
171 192 0
168 187 0
172 192 0
169 191 0
169 191 0
167 186 0
168 187 0
168 188 0
168 189 0
168 187 0
168 189 0
168 189 0
170 191 0
166 186 0
168 189 0
170 191 0
168 189 0
167 187 0
170 193 0
169 190 0
168 189 0
170 190 0
170 191 0
169 190 0
170 190 0
170 192 0
166 188 0
169 189 0
166 187 0
169 190 0
167 187 0
172 193 0
167 187 0
170 192 0
169 189 0
169 192 0
170 193 0
173 195 0
167 189 0
169 191 0
169 190 0
169 189 0
167 188 0
169 192 0
169 190 0
171 193 0
170 191 0
172 194 0
169 190 0
170 192 0
171 192 0
169 192 0
171 193 0
170 192 0
171 192 0
171 193 0
171 194 0
171 192 0
171 193 0
170 192 0
173 195 0
172 194 0
167 190 0
169 191 0
169 190 0
170 193 0
168 191 0
173 196 0
169 190 0
170 192 0
171 193 0
174 196 0
158 178 0
157 175 0
160 178 0
160 179 0
159 175 0
167 186 0
154 172 0
159 178 0
160 179 0
155 172 0
163 182 0
154 172 0
160 178 0
161 181 0
156 174 0
159 177 0
159 177 0
163 182 0
155 173 0
156 173 0
154 173 0
158 177 0
154 173 0
157 175 0
160 178 0
152 169 0
158 176 0
161 181 0
153 170 0
162 180 0
161 179 0
158 177 0
156 174 0
159 177 0
154 172 0
159 177 0
161 179 0
155 175 0
154 172 0
160 178 0
160 177 0
156 174 0
159 175 0
155 172 0
161 180 0
155 173 0
154 172 0
154 172 0
153 171 0
155 171 0
155 171 0
154 172 0
153 171 0
151 167 0
159 177 0
160 178 0
154 172 0
151 168 0
160 178 0
159 177 0
156 174 0
154 172 0
156 176 0
160 178 0
154 170 0
158 175 0
155 172 0
157 174 0
158 174 0
155 171 0
159 176 0
151 169 0
156 172 0
157 175 0
152 171 0
158 178 0
154 171 0
154 172 0
154 172 0
153 170 0
158 175 0
153 171 0
157 176 0
155 171 0
159 176 0
159 175 0
157 175 0
162 180 0
158 176 0
150 166 0
159 177 0
156 173 0
155 171 0
156 173 0
153 171 0
149 165 0
154 170 0
157 176 0
154 170 0
157 175 0
150 165 0
155 172 0
155 170 0
162 181 0
147 163 0
155 170 0
159 175 0
158 174 0
156 172 0
154 172 0
159 174 0
153 169 0
155 171 0
152 169 0
156 172 0
153 168 0
160 176 0
158 173 0
151 166 0
157 172 0
160 176 0
161 176 0
158 173 0
161 177 0
158 173 0
159 175 0
150 166 0
158 176 0
156 171 0
149 166 0
156 171 0
152 167 0
157 171 0
147 160 0
154 167 0
157 171 0
153 166 0
151 166 0
158 173 0
151 165 0
156 170 0
151 164 0
154 169 0
156 169 0
152 167 0
150 165 0
150 163 0
157 170 0
154 169 0
155 170 0
151 166 0
149 159 0
149 161 0
152 168 0
156 170 0
151 164 0
151 165 0
148 160 0
153 167 0
150 165 0
158 173 0
150 164 0
153 167 0
156 169 0
152 165 0
159 174 0
154 166 0
162 175 0
161 175 0
151 163 0
152 162 0
154 165 0
159 172 0
153 165 0
158 172 0
158 172 0
160 174 0
160 174 0
145 160 0
153 165 0
152 163 0
152 165 0
159 172 0
153 165 0
153 167 0
151 160 0
153 165 0
155 165 0
159 174 0
154 167 0
153 165 0
155 170 0
152 162 0
155 169 0
158 172 0
161 175 0
159 171 0
160 170 0
160 175 0
153 164 0
156 168 0
154 167 0
154 168 0
160 173 0
159 173 0
154 165 0
156 170 0
154 165 0
160 172 0
155 167 0
161 174 0
161 173 0
160 174 0
154 165 0
159 175 0
157 170 0
155 167 0
158 172 0
159 172 0
159 173 0
154 165 0
159 172 0
157 167 0
156 169 0
153 165 0
157 171 0
155 168 0
159 173 0
160 172 0
162 176 0
157 171 0
157 169 0
162 178 0
162 178 0
157 172 0
161 172 0
155 166 0
160 175 0
155 171 0
162 174 0
161 174 0
164 179 0
155 168 0
158 175 0
163 176 0
164 179 0
152 165 0
158 170 0
164 179 0
158 173 0
159 173 0
158 170 0
155 168 0
161 177 0
160 174 0
159 175 0
160 174 0
156 169 0
159 175 0
161 175 0
161 173 0
163 180 0
157 173 0
162 176 0
164 177 0
160 175 0
164 179 0
161 176 0
167 183 0
162 179 0
163 179 0
165 183 0
163 180 0
165 181 0
164 181 0
166 183 0
162 180 0
160 176 0
163 180 0
164 182 0
166 183 0
162 179 0
165 182 0
162 178 0
163 181 0
168 186 0
164 182 0
170 187 0
168 187 0
165 184 0
167 184 0
169 187 0
166 185 0
165 182 0
167 186 0
166 182 0
166 185 0
160 179 0
167 186 0
169 187 0
169 189 0
164 183 0
165 184 0
167 186 0
167 186 0
167 184 0
167 186 0
160 178 0
169 187 0
169 188 0
165 182 0
167 185 0
166 185 0
168 189 0
166 183 0
168 187 0
166 186 0
166 184 0
170 190 0
167 186 0
169 189 0
167 187 0
168 188 0
170 190 0
165 185 0
169 190 0
170 189 0
170 189 0
171 192 0
168 187 0
168 189 0
167 188 0
169 191 0
170 191 0
169 190 0
168 190 0
167 188 0
166 186 0
167 188 0
168 188 0
170 191 0
170 190 0
165 184 0
170 191 0
170 191 0
170 191 0
166 188 0
167 188 0
169 190 0
168 191 0
167 187 0
168 188 0
167 187 0
170 191 0
170 190 0
167 190 0
169 191 0
166 187 0
169 191 0
169 190 0
173 195 0
166 189 0
170 191 0
169 189 0
167 188 0
172 193 0
170 191 0
169 189 0
169 189 0
170 190 0
168 190 0
169 191 0
171 195 0
169 191 0
166 187 0
173 195 0
171 192 0
170 193 0
168 190 0
168 190 0
171 193 0
170 192 0
169 192 0
169 191 0
168 190 0
169 191 0
173 194 0
167 191 0
173 193 0
168 190 0
171 195 0
171 194 0
173 195 0
170 192 0
170 191 0
168 189 0
170 193 0
171 193 0
172 194 0
167 188 0
161 180 0
158 176 0
160 179 0
161 179 0
155 174 0
156 175 0
158 174 0
159 178 0
161 180 0
164 183 0
161 179 0
159 177 0
156 173 0
155 173 0
156 174 0
163 181 0
159 176 0
156 173 0
162 182 0
159 177 0
156 175 0
155 172 0
159 177 0
157 176 0
158 176 0
160 177 0
156 175 0
155 173 0
161 179 0
149 165 0
163 182 0
162 180 0
158 177 0
160 179 0
160 177 0
158 175 0
154 172 0
158 176 0
167 186 0
154 171 0
155 172 0
156 174 0
165 184 0
155 173 0
156 174 0
154 172 0
153 171 0
156 174 0
159 177 0
159 178 0
154 173 0
150 167 0
151 168 0
154 172 0
160 178 0
157 176 0
158 175 0
158 177 0
153 170 0
158 175 0
155 171 0
158 176 0
155 174 0
155 172 0
160 176 0
157 175 0
158 176 0
151 168 0
163 182 0
154 171 0
161 180 0
154 173 0
154 170 0
153 167 0
154 172 0
150 166 0
156 172 0
155 172 0
160 176 0
155 172 0
160 177 0
152 167 0
155 173 0
158 174 0
162 180 0
157 175 0
155 172 0
157 172 0
153 169 0
153 170 0
160 177 0
150 166 0
152 169 0
154 170 0
154 170 0
154 171 0
150 166 0
156 174 0
158 176 0
153 169 0
154 169 0
158 176 0
152 166 0
157 174 0
152 166 0
150 165 0
161 178 0
152 169 0
154 170 0
161 179 0
149 164 0
153 172 0
158 175 0
155 169 0
155 173 0
153 167 0
151 166 0
155 170 0
158 175 0
154 170 0
152 166 0
157 175 0
159 174 0
147 161 0
152 166 0
153 168 0
159 175 0
154 168 0
154 166 0
158 173 0
161 179 0
160 175 0
151 165 0
159 174 0
154 168 0
158 172 0
155 172 0
150 163 0
147 159 0
157 172 0
154 168 0
152 166 0
156 172 0
154 169 0
154 169 0
156 174 0
155 168 0
155 170 0
158 173 0
152 166 0
155 169 0
152 166 0
149 161 0
149 161 0
154 168 0
158 175 0
154 167 0
151 165 0
158 174 0
157 171 0
155 172 0
156 171 0
154 167 0
152 166 0
154 168 0
152 166 0
160 173 0
151 165 0
150 161 0
150 164 0
152 166 0
152 165 0
158 171 0
157 170 0
150 164 0
151 165 0
152 167 0
156 169 0
158 169 0
158 172 0
156 169 0
154 167 0
155 167 0
154 163 0
157 170 0
152 165 0
148 157 0
154 166 0
155 167 0
155 166 0
156 169 0
154 166 0
153 166 0
157 169 0
157 171 0
159 174 0
152 163 0
157 170 0
153 166 0
158 173 0
156 167 0
156 170 0
159 174 0
156 168 0
153 167 0
156 171 0
158 171 0
161 174 0
163 177 0
163 175 0
151 161 0
155 168 0
157 169 0
159 172 0
153 167 0
152 163 0
162 177 0
155 167 0
154 164 0
156 168 0
160 175 0
156 166 0
156 169 0
158 172 0
155 167 0
160 174 0
154 166 0
156 169 0
159 173 0
155 167 0
153 165 0
160 172 0
165 179 0
156 167 0
160 175 0
159 173 0
164 180 0
157 172 0
161 172 0
159 172 0
157 172 0
162 176 0
162 175 0
160 174 0
163 179 0
169 185 0
164 178 0
164 179 0
164 178 0
165 177 0
162 177 0
166 182 0
158 173 0
164 180 0
164 179 0
166 183 0
158 171 0
160 175 0
166 183 0
163 177 0
166 182 0
166 182 0
165 181 0
159 173 0
163 180 0
164 179 0
161 179 0
164 180 0
161 176 0
164 180 0
164 178 0
165 182 0
163 179 0
163 179 0
161 179 0
162 179 0
164 181 0
169 186 0
162 179 0
160 176 0
165 182 0
165 182 0
164 180 0
167 184 0
160 176 0
168 186 0
161 177 0
163 179 0
163 183 0
165 183 0
169 187 0
163 180 0
161 179 0
165 184 0
165 184 0
170 190 0
164 181 0
165 182 0
166 185 0
164 183 0
164 182 0
167 186 0
164 183 0
167 188 0
171 191 0
166 186 0
167 186 0
168 188 0
164 183 0
167 186 0
168 187 0
166 187 0
170 189 0
166 186 0
169 188 0
168 187 0
167 188 0
167 187 0
168 186 0
167 187 0
170 190 0
165 183 0
169 188 0
170 190 0
168 187 0
165 184 0
169 189 0
164 184 0
166 187 0
165 185 0
169 186 0
170 191 0
165 187 0
165 184 0
168 189 0
161 179 0
169 190 0
171 192 0
168 188 0
163 184 0
169 189 0
168 188 0
168 189 0
167 187 0
170 190 0
171 191 0
168 189 0
168 188 0
170 193 0
170 192 0
170 190 0
170 191 0
168 191 0
167 189 0
169 188 0
172 192 0
170 192 0
168 190 0
170 192 0
171 191 0
171 192 0
168 188 0
170 191 0
171 192 0
170 191 0
171 194 0
165 185 0
169 191 0
172 193 0
169 191 0
171 193 0
166 187 0
170 191 0
172 194 0
171 190 0
172 193 0
170 191 0
171 193 0
170 193 0
170 192 0
170 192 0
167 190 0
169 191 0
168 188 0
170 191 0
173 195 0
169 191 0
169 191 0
170 193 0
171 192 0
169 191 0
171 192 0
169 190 0
172 195 0
172 193 0
170 193 0
169 191 0
172 194 0
172 193 0
168 190 0
156 174 0
159 178 0
163 182 0
157 175 0
161 181 0
156 175 0
160 179 0
165 185 0
161 179 0
163 180 0
161 180 0
159 177 0
160 178 0
156 173 0
160 179 0
159 178 0
160 179 0
159 178 0
164 184 0
160 178 0
157 174 0
161 179 0
156 174 0
156 175 0
155 175 0
158 177 0
158 177 0
157 174 0
162 181 0
158 177 0
157 177 0
153 170 0
162 180 0
161 180 0
157 174 0
158 177 0
158 175 0
158 177 0
154 173 0
160 178 0
156 173 0
160 179 0
153 170 0
153 170 0
158 176 0
159 177 0
154 170 0
158 179 0
163 182 0
155 173 0
159 178 0
155 173 0
156 175 0
164 183 0
157 173 0
160 179 0
157 175 0
159 177 0
156 174 0
160 177 0
161 179 0
157 176 0
155 173 0
153 170 0
155 171 0
156 173 0
162 181 0
158 174 0
159 177 0
155 174 0
150 168 0
159 176 0
155 172 0
158 177 0
158 177 0
156 174 0
150 167 0
153 170 0
156 174 0
160 179 0
154 168 0
153 169 0
153 169 0
159 174 0
157 174 0
158 174 0
154 171 0
154 169 0
163 181 0
149 163 0
161 177 0
160 177 0
155 172 0
156 173 0
156 172 0
158 176 0
158 175 0
160 176 0
155 171 0
157 174 0
155 172 0
157 174 0
157 173 0
159 176 0
155 172 0
160 177 0
151 168 0
155 171 0
155 173 0
160 177 0
152 168 0
161 178 0
158 174 0
155 169 0
162 181 0
157 174 0
154 171 0
149 163 0
158 172 0
152 168 0
151 165 0
155 169 0
154 170 0
158 174 0
154 171 0
157 172 0
159 175 0
154 169 0
155 169 0
155 172 0
156 171 0
154 171 0
155 170 0
157 171 0
157 174 0
155 169 0
156 171 0
152 167 0
155 169 0
160 175 0
153 168 0
160 177 0
153 167 0
158 173 0
151 165 0
164 179 0
153 168 0
162 178 0
159 171 0
157 170 0
157 172 0
162 176 0
153 167 0
151 164 0
153 166 0
159 175 0
159 171 0
153 167 0
152 165 0
154 169 0
153 167 0
154 167 0
154 167 0
152 165 0
151 164 0
151 162 0
150 160 0
158 172 0
155 169 0
152 166 0
153 165 0
154 166 0
153 164 0
150 162 0
156 167 0
157 173 0
158 171 0
148 160 0
157 169 0
157 171 0
154 167 0
155 168 0
153 167 0
157 170 0
155 168 0
158 172 0
156 169 0
158 173 0
159 174 0
157 171 0
154 168 0
158 169 0
160 173 0
160 174 0
150 161 0
153 164 0
161 173 0
147 156 0
156 169 0
153 166 0
154 166 0
156 169 0
156 168 0
155 167 0
155 168 0
157 170 0
155 166 0
156 168 0
152 161 0
155 165 0
161 173 0
152 162 0
161 174 0
161 172 0
157 171 0
163 177 0
152 165 0
160 174 0
159 171 0
159 172 0
160 173 0
152 163 0
159 175 0
152 164 0
158 169 0
156 170 0
162 175 0
163 178 0
153 165 0
160 174 0
158 171 0
163 177 0
162 176 0
163 175 0
159 173 0
159 172 0
152 166 0
164 179 0
161 177 0
159 173 0
167 182 0
162 177 0
156 169 0
160 174 0
163 178 0
161 177 0
165 180 0
166 181 0
159 175 0
160 174 0
163 178 0
165 181 0
156 170 0
158 172 0
160 175 0
161 176 0
159 174 0
163 180 0
158 173 0
165 183 0
157 170 0
158 171 0
160 175 0
160 174 0
164 181 0
161 177 0
164 182 0
162 178 0
166 182 0
166 182 0
157 172 0
165 182 0
162 178 0
165 181 0
160 176 0
165 184 0
166 182 0
167 185 0
165 180 0
164 179 0
164 179 0
169 188 0
164 182 0
160 177 0
168 184 0
162 179 0
168 186 0
163 181 0
163 179 0
163 179 0
160 175 0
165 184 0
166 184 0
165 183 0
164 182 0
166 184 0
167 186 0
163 182 0
165 183 0
167 187 0
162 181 0
164 183 0
163 180 0
168 187 0
165 183 0
165 183 0
164 184 0
166 185 0
168 190 0
161 177 0
170 189 0
166 184 0
168 187 0
167 186 0
164 182 0
169 189 0
170 191 0
165 184 0
169 191 0
167 186 0
162 182 0
166 184 0
168 189 0
165 185 0
169 189 0
167 188 0
166 185 0
170 189 0
170 190 0
167 187 0
170 190 0
166 186 0
168 191 0
168 187 0
167 187 0
168 187 0
169 190 0
172 193 0
168 189 0
167 189 0
169 189 0
166 187 0
168 188 0
168 188 0
168 190 0
167 187 0
170 191 0
168 189 0
170 192 0
166 185 0
169 189 0
170 191 0
167 188 0
170 191 0
170 190 0
170 191 0
170 191 0
166 187 0
169 190 0
169 190 0
166 187 0
169 190 0
169 190 0
172 192 0
164 186 0
171 192 0
167 188 0
171 194 0
168 189 0
167 189 0
168 190 0
170 190 0
169 190 0
170 192 0
172 195 0
170 192 0
171 193 0
171 193 0
172 195 0
170 193 0
168 190 0
170 191 0
171 193 0
171 192 0
171 192 0
173 194 0
170 192 0
170 193 0
170 193 0
168 190 0
171 191 0
168 192 0
172 194 0
170 193 0
171 193 0
173 196 0
170 192 0
170 192 0
171 192 0
172 196 0
159 177 0
161 182 0
162 180 0
162 181 0
163 183 0
155 175 0
158 177 0
157 175 0
157 175 0
162 182 0
155 173 0
158 176 0
159 177 0
160 179 0
159 179 0
161 179 0
163 183 0
162 181 0
158 177 0
159 176 0
157 175 0
160 178 0
162 182 0
158 177 0
161 179 0
160 177 0
159 176 0
163 183 0
155 174 0
163 183 0
154 171 0
159 176 0
160 178 0
153 172 0
154 171 0
153 172 0
164 182 0
158 175 0
156 175 0
160 179 0
155 171 0
157 175 0
156 175 0
157 175 0
159 177 0
160 178 0
154 173 0
162 181 0
148 167 0
155 172 0
156 176 0
156 173 0
156 174 0
157 175 0
160 177 0
156 173 0
158 176 0
158 176 0
157 177 0
159 177 0
159 176 0
149 166 0
158 175 0
153 168 0
156 174 0
159 176 0
160 180 0
155 174 0
156 173 0
154 170 0
156 171 0
149 167 0
155 173 0
155 172 0
156 173 0
159 175 0
151 169 0
153 170 0
154 171 0
155 174 0
160 179 0
161 180 0
155 171 0
158 175 0
160 177 0
160 177 0
159 176 0
153 169 0
156 172 0
157 174 0
156 173 0
160 179 0
154 171 0
158 176 0
158 175 0
150 166 0
154 168 0
153 171 0
164 181 0
156 174 0
157 174 0
153 170 0
160 178 0
156 174 0
161 179 0
162 177 0
153 169 0
153 170 0
157 173 0
159 175 0
152 168 0
154 171 0
151 166 0
157 176 0
156 173 0
156 173 0
155 171 0
157 173 0
159 176 0
155 171 0
158 174 0
160 176 0
157 172 0
158 174 0
150 166 0
162 177 0
153 169 0
159 176 0
154 170 0
154 168 0
160 175 0
156 171 0
152 168 0
159 176 0
159 176 0
158 173 0
153 168 0
149 163 0
153 169 0
153 166 0
148 163 0
154 169 0
153 167 0
156 171 0
154 168 0
155 172 0
161 177 0
157 170 0
156 171 0
155 169 0
160 178 0
152 165 0
156 172 0
154 166 0
151 164 0
161 175 0
155 166 0
159 174 0
156 168 0
154 167 0
154 170 0
155 166 0
146 158 0
156 169 0
150 163 0
156 171 0
153 168 0
152 165 0
162 175 0
158 171 0
157 170 0
158 171 0
148 161 0
156 170 0
158 170 0
152 164 0
151 163 0
158 170 0
151 166 0
153 163 0
158 173 0
161 175 0
154 164 0
156 168 0
155 170 0
156 168 0
160 172 0
156 171 0
157 171 0
155 167 0
159 175 0
154 166 0
160 171 0
157 170 0
157 171 0
155 169 0
156 170 0
156 169 0
155 170 0
154 165 0
157 171 0
156 168 0
156 169 0
159 172 0
162 174 0
151 163 0
163 179 0
160 176 0
156 168 0
155 168 0
161 176 0
157 170 0
156 167 0
159 173 0
162 175 0
152 163 0
164 179 0
153 164 0
154 168 0
159 171 0
158 171 0
160 172 0
163 177 0
163 179 0
158 172 0
157 171 0
161 175 0
163 180 0
153 165 0
157 172 0
156 171 0
159 173 0
159 173 0
157 169 0
157 173 0
161 176 0
162 175 0
162 179 0
161 177 0
163 178 0
165 181 0
160 175 0
168 182 0
163 178 0
162 176 0
162 179 0
160 176 0
161 177 0
153 165 0
163 180 0
156 169 0
160 173 0
169 190 0
161 174 0
165 182 0
160 174 0
155 170 0
163 179 0
164 179 0
160 176 0
161 175 0
160 174 0
163 180 0
162 179 0
162 178 0
165 182 0
168 186 0
163 178 0
164 180 0
164 181 0
160 176 0
167 184 0
165 184 0
163 179 0
161 176 0
167 183 0
166 184 0
163 180 0
168 186 0
161 175 0
168 185 0
163 180 0
162 177 0
162 179 0
166 183 0
165 182 0
163 181 0
163 180 0
164 183 0
165 183 0
163 182 0
163 179 0
165 186 0
162 179 0
164 182 0
166 186 0
166 183 0
168 186 0
165 185 0
165 184 0
165 184 0
166 185 0
165 184 0
161 180 0
168 185 0
166 184 0
165 186 0
165 183 0
165 186 0
167 188 0
169 189 0
169 188 0
168 189 0
167 187 0
165 185 0
165 185 0
171 191 0
165 185 0
172 191 0
167 188 0
166 185 0
168 188 0
170 190 0
171 192 0
166 186 0
167 188 0
167 187 0
169 188 0
169 189 0
168 187 0
174 195 0
167 186 0
169 189 0
169 190 0
165 184 0
168 189 0
170 190 0
167 188 0
167 187 0
165 187 0
169 189 0
167 187 0
171 190 0
167 187 0
170 191 0
169 188 0
167 189 0
171 192 0
169 190 0
171 192 0
165 185 0
170 192 0
171 192 0
171 192 0
171 192 0
168 190 0
172 194 0
169 190 0
170 190 0
169 188 0
169 189 0
171 193 0
171 194 0
171 191 0
172 193 0
170 192 0
169 191 0
172 193 0
170 190 0
167 189 0
174 195 0
172 194 0
171 192 0
171 194 0
168 190 0
169 190 0
166 187 0
173 194 0
173 195 0
171 193 0
168 189 0
169 190 0
171 192 0
170 191 0
168 189 0
169 191 0
171 194 0
169 190 0
170 192 0
172 194 0
170 193 0
171 192 0
170 193 0
171 193 0
172 193 0
171 193 0
169 191 0
168 191 0
171 192 0
170 192 0
159 178 0
162 180 0
163 183 0
159 178 0
162 182 0
159 177 0
163 182 0
161 181 0
162 181 0
158 177 0
158 177 0
160 180 0
160 180 0
160 178 0
157 175 0
158 176 0
161 180 0
163 181 0
160 178 0
155 173 0
159 179 0
160 179 0
160 180 0
158 176 0
161 179 0
160 180 0
161 180 0
159 177 0
161 180 0
158 176 0
162 181 0
160 178 0
159 178 0
162 180 0
160 178 0
156 175 0
155 173 0
161 179 0
156 173 0
160 179 0
159 178 0
162 182 0
158 175 0
159 179 0
162 180 0
161 180 0
163 183 0
163 183 0
161 179 0
156 174 0
157 174 0
151 168 0
149 166 0
161 179 0
157 174 0
160 179 0
156 174 0
157 171 0
159 176 0
152 168 0
158 178 0
154 171 0
155 171 0
157 176 0
151 168 0
159 176 0
158 176 0
160 175 0
161 179 0
159 175 0
162 181 0
158 177 0
153 171 0
148 163 0
156 172 0
151 168 0
159 176 0
156 174 0
162 181 0
155 173 0
158 177 0
161 178 0
155 171 0
156 173 0
153 171 0
159 178 0
165 181 0
155 171 0
156 172 0
160 177 0
159 174 0
150 166 0
157 172 0
157 176 0
158 176 0
157 173 0
158 178 0
158 175 0
155 172 0
156 173 0
151 167 0
159 177 0
161 179 0
154 172 0
158 177 0
160 177 0
155 170 0
152 165 0
159 176 0
153 166 0
157 173 0
158 176 0
158 173 0
160 178 0
155 171 0
154 169 0
153 167 0
155 170 0
159 176 0
154 169 0
159 178 0
160 176 0
157 173 0
158 176 0
161 179 0
154 168 0
160 176 0
152 167 0
162 178 0
155 170 0
154 171 0
159 178 0
158 173 0
155 172 0
162 178 0
154 168 0
156 170 0
154 169 0
155 169 0
151 165 0
157 172 0
150 164 0
160 175 0
156 170 0
151 165 0
154 170 0
155 169 0
154 168 0
153 169 0
161 176 0
158 173 0
148 162 0
157 172 0
156 171 0
155 169 0
155 169 0
148 163 0
156 169 0
152 168 0
157 172 0
155 168 0
155 169 0
155 170 0
149 159 0
154 167 0
158 169 0
160 173 0
158 173 0
148 161 0
157 171 0
152 165 0
154 167 0
155 169 0
154 168 0
157 171 0
152 163 0
157 172 0
153 166 0
151 164 0
158 170 0
158 170 0
153 166 0
154 166 0
157 167 0
160 175 0
155 167 0
160 175 0
154 166 0
153 165 0
153 169 0
156 171 0
159 174 0
158 170 0
156 171 0
162 174 0
161 174 0
159 171 0
159 174 0
159 172 0
153 165 0
153 164 0
155 167 0
154 168 0
153 165 0
158 170 0
159 173 0
156 168 0
160 173 0
160 173 0
153 165 0
163 176 0
158 170 0
160 173 0
163 178 0
152 165 0
152 165 0
160 175 0
160 175 0
156 170 0
155 167 0
162 178 0
156 171 0
160 173 0
163 176 0
155 171 0
161 175 0
160 175 0
162 176 0
155 171 0
158 171 0
162 176 0
158 171 0
158 172 0
159 174 0
161 175 0
162 179 0
162 175 0
157 170 0
158 172 0
160 176 0
156 171 0
163 178 0
163 178 0
158 166 0
159 174 0
159 171 0
166 183 0
160 174 0
157 173 0
163 180 0
156 169 0
160 175 0
159 175 0
158 173 0
166 182 0
158 174 0
159 174 0
162 181 0
165 183 0
165 181 0
162 177 0
161 177 0
160 177 0
163 179 0
165 183 0
165 182 0
158 176 0
165 183 0
160 175 0
164 182 0
161 178 0
159 177 0
159 175 0
163 180 0
158 173 0
166 181 0
167 186 0
163 177 0
160 178 0
168 186 0
166 184 0
162 178 0
167 184 0
165 183 0
168 186 0
167 185 0
165 183 0
160 176 0
166 184 0
162 177 0
170 188 0
168 187 0
163 180 0
161 178 0
169 186 0
167 185 0
164 184 0
169 188 0
165 183 0
166 187 0
168 186 0
164 182 0
169 189 0
162 181 0
164 184 0
167 188 0
166 186 0
167 187 0
164 182 0
166 185 0
167 187 0
164 183 0
164 184 0
167 186 0
166 185 0
167 187 0
167 188 0
165 182 0
164 183 0
167 186 0
168 187 0
169 189 0
168 187 0
166 187 0
168 189 0
167 187 0
171 191 0
166 186 0
166 187 0
167 186 0
165 184 0
168 190 0
169 190 0
169 189 0
168 188 0
167 187 0
168 189 0
166 187 0
168 190 0
169 188 0
169 189 0
168 190 0
171 191 0
170 191 0
168 189 0
171 192 0
170 190 0
169 190 0
168 190 0
170 190 0
172 193 0
169 189 0
170 192 0
170 190 0
168 189 0
169 190 0
168 189 0
170 192 0
172 195 0
169 189 0
168 190 0
168 189 0
173 192 0
171 193 0
168 192 0
169 191 0
170 192 0
170 190 0
167 188 0
171 191 0
169 191 0
168 189 0
173 195 0
171 192 0
170 193 0
168 190 0
171 193 0
170 191 0
171 193 0
173 192 0
173 195 0
170 192 0
171 193 0
172 194 0
169 191 0
168 190 0
167 189 0
170 192 0
172 195 0
171 194 0
172 194 0
169 191 0
171 194 0
169 190 0
170 190 0
171 192 0
172 194 0
172 194 0
169 189 0
171 194 0
164 184 0
162 181 0
158 177 0
157 175 0
159 176 0
162 182 0
154 172 0
158 175 0
155 173 0
156 173 0
159 177 0
162 182 0
158 178 0
157 175 0
159 179 0
158 177 0
156 174 0
151 168 0
161 180 0
160 177 0
158 177 0
156 174 0
160 180 0
159 178 0
158 176 0
154 171 0
158 177 0
160 178 0
157 175 0
155 174 0
158 177 0
158 176 0
159 175 0
155 172 0
157 176 0
158 176 0
158 178 0
164 183 0
161 180 0
156 174 0
158 177 0
158 177 0
157 176 0
158 176 0
160 177 0
157 176 0
157 176 0
157 174 0
156 174 0
160 178 0
160 178 0
160 177 0
157 175 0
156 175 0
152 170 0
157 174 0
158 175 0
161 180 0
154 172 0
159 177 0
158 175 0
161 180 0
156 174 0
154 173 0
157 176 0
158 176 0
160 179 0
155 171 0
156 175 0
154 172 0
162 180 0
158 175 0
151 166 0
156 173 0
160 179 0
154 173 0
158 176 0
160 178 0
158 175 0
161 178 0
159 177 0
161 178 0
155 172 0
155 174 0
160 178 0
156 172 0
161 179 0
156 173 0
158 175 0
162 178 0
159 176 0
159 176 0
154 170 0
158 174 0
162 179 0
154 169 0
157 174 0
153 168 0
158 175 0
157 174 0
159 177 0
159 177 0
156 172 0
160 178 0
154 169 0
151 167 0
153 170 0
153 166 0
157 173 0
156 171 0
158 175 0
157 176 0
155 174 0
157 173 0
159 176 0
159 175 0
152 167 0
162 178 0
160 177 0
153 168 0
154 171 0
155 172 0
154 171 0
152 170 0
164 182 0
160 175 0
158 176 0
160 174 0
155 172 0
155 170 0
158 174 0
152 165 0
157 172 0
152 167 0
155 170 0
156 171 0
155 171 0
154 169 0
156 172 0
155 170 0
155 169 0
151 165 0
155 170 0
153 168 0
160 177 0
154 167 0
162 175 0
158 173 0
161 178 0
152 165 0
155 170 0
151 163 0
153 166 0
155 171 0
156 170 0
161 177 0
152 165 0
152 165 0
156 169 0
158 173 0
154 166 0
157 172 0
158 171 0
149 160 0
155 169 0
146 158 0
157 170 0
160 173 0
158 172 0
153 165 0
152 165 0
153 167 0
156 170 0
156 171 0
157 171 0
155 170 0
156 170 0
153 165 0
153 166 0
160 175 0
154 168 0
165 179 0
155 171 0
153 165 0
160 174 0
155 168 0
152 164 0
159 171 0
158 170 0
152 167 0
160 174 0
157 172 0
160 172 0
158 173 0
161 174 0
154 167 0
154 166 0
153 166 0
157 169 0
159 173 0
158 170 0
159 173 0
160 172 0
157 171 0
155 170 0
156 171 0
152 163 0
157 169 0
152 166 0
160 175 0
157 171 0
156 171 0
162 176 0
157 170 0
154 166 0
155 171 0
161 174 0
160 171 0
164 180 0
158 173 0
158 175 0
160 172 0
161 177 0
159 172 0
158 170 0
162 176 0
155 170 0
156 170 0
159 174 0
162 179 0
163 179 0
160 174 0
162 178 0
159 172 0
164 179 0
157 170 0
154 167 0
160 173 0
155 168 0
154 168 0
166 183 0
162 176 0
159 174 0
159 171 0
167 181 0
157 171 0
165 181 0
161 178 0
162 178 0
158 174 0
161 176 0
161 177 0
164 180 0
161 178 0
161 177 0
158 171 0
165 183 0
166 184 0
169 186 0
165 184 0
167 185 0
165 181 0
168 187 0
156 171 0
163 181 0
163 181 0
168 186 0
161 177 0
164 180 0
163 180 0
161 178 0
167 184 0
166 184 0
164 182 0
160 176 0
164 180 0
161 182 0
165 182 0
162 179 0
163 182 0
165 183 0
166 184 0
165 184 0
164 182 0
162 180 0
168 186 0
163 180 0
168 187 0
165 184 0
164 182 0
167 185 0
168 187 0
166 185 0
165 184 0
167 184 0
164 184 0
163 183 0
165 183 0
164 182 0
166 184 0
165 182 0
169 189 0
167 186 0
166 184 0
163 179 0
169 186 0
167 187 0
166 184 0
170 190 0
167 184 0
171 192 0
163 182 0
169 190 0
163 184 0
168 189 0
167 185 0
172 191 0
167 186 0
167 187 0
167 187 0
172 193 0
163 182 0
168 188 0
166 184 0
166 187 0
168 187 0
164 184 0
164 186 0
164 183 0
168 186 0
170 191 0
168 188 0
165 184 0
166 187 0
169 191 0
170 190 0
167 188 0
169 189 0
167 189 0
168 189 0
170 191 0
170 189 0
169 190 0
170 193 0
171 192 0
171 193 0
170 190 0
168 189 0
165 185 0
170 191 0
171 192 0
170 191 0
171 191 0
172 191 0
169 190 0
166 187 0
166 186 0
167 191 0
169 191 0
170 193 0
172 193 0
169 190 0
165 187 0
170 191 0
169 189 0
168 189 0
169 192 0
167 186 0
171 193 0
169 191 0
166 186 0
166 188 0
172 194 0
170 193 0
171 193 0
168 188 0
169 192 0
169 191 0
169 192 0
168 188 0
170 192 0
169 190 0
168 190 0
169 191 0
171 193 0
171 192 0
171 194 0
168 190 0
170 191 0
168 190 0
172 195 0
171 192 0
172 195 0
169 190 0
171 193 0
171 193 0
170 190 0
170 192 0
168 189 0
172 194 0
159 179 0
166 187 0
162 181 0
164 184 0
163 183 0
164 184 0
158 178 0
161 179 0
158 178 0
158 178 0
157 176 0
161 180 0
159 179 0
163 181 0
156 174 0
159 176 0
158 177 0
155 172 0
163 179 0
162 181 0
155 172 0
159 177 0
163 184 0
164 182 0
159 178 0
156 175 0
161 180 0
160 179 0
159 177 0
163 180 0
157 175 0
160 178 0
167 186 0
153 170 0
166 185 0
155 173 0
158 176 0
160 175 0
157 175 0
161 180 0
158 177 0
153 170 0
154 170 0
161 180 0
153 170 0
160 179 0
158 177 0
160 180 0
151 167 0
158 176 0
154 172 0
158 176 0
161 181 0
158 174 0
158 177 0
158 178 0
154 172 0
160 176 0
158 176 0
161 178 0
161 180 0
155 173 0
155 173 0
149 168 0
160 178 0
153 170 0
155 173 0
158 175 0
146 162 0
162 180 0
154 169 0
159 179 0
152 170 0
155 172 0
158 176 0
160 178 0
156 174 0
157 173 0
153 171 0
159 176 0
160 178 0
162 181 0
159 176 0
154 173 0
161 179 0
153 169 0
156 174 0
157 174 0
159 177 0
154 169 0
155 172 0
157 172 0
161 179 0
156 175 0
160 178 0
153 168 0
158 173 0
158 176 0
161 180 0
160 177 0
156 173 0
152 168 0
156 171 0
158 174 0
159 175 0
156 171 0
158 176 0
157 173 0
159 176 0
151 167 0
161 179 0
161 179 0
159 174 0
157 176 0
162 180 0
156 173 0
156 171 0
148 164 0
158 173 0
158 177 0
156 170 0
161 179 0
158 174 0
158 174 0
153 168 0
157 172 0
154 169 0
153 168 0
157 174 0
150 166 0
153 169 0
154 170 0
159 176 0
154 168 0
153 168 0
154 169 0
153 168 0
152 168 0
160 177 0
156 171 0
156 172 0
155 171 0
153 166 0
160 176 0
158 174 0
158 171 0
165 179 0
156 170 0
158 172 0
159 173 0
158 174 0
155 168 0
158 172 0
157 172 0
153 167 0
151 165 0
154 170 0
154 168 0
154 169 0
156 171 0
161 174 0
153 169 0
154 169 0
152 167 0
155 167 0
153 166 0
156 170 0
158 173 0
155 169 0
153 167 0
156 169 0
157 170 0
158 173 0
158 171 0
158 174 0
155 167 0
156 171 0
159 172 0
153 167 0
155 169 0
156 170 0
158 171 0
155 168 0
154 164 0
150 162 0
157 168 0
154 168 0
152 167 0
157 171 0
160 172 0
156 168 0
153 166 0
157 168 0
157 170 0
155 167 0
157 170 0
163 179 0
160 175 0
161 176 0
154 166 0
158 168 0
156 168 0
153 165 0
159 172 0
162 177 0
152 167 0
161 177 0
156 168 0
155 169 0
157 173 0
162 177 0
157 170 0
158 173 0
158 173 0
163 178 0
157 171 0
153 164 0
155 168 0
158 170 0
163 178 0
155 167 0
159 172 0
158 172 0
159 173 0
159 174 0
161 177 0
159 172 0
156 170 0
167 183 0
161 174 0
158 171 0
157 171 0
163 177 0
157 170 0
163 179 0
160 175 0
162 179 0
160 174 0
156 173 0
156 167 0
160 176 0
158 173 0
162 177 0
164 182 0
164 179 0
164 180 0
155 169 0
163 177 0
168 186 0
158 175 0
158 174 0
164 179 0
167 184 0
160 175 0
159 172 0
164 180 0
163 178 0
163 179 0
164 180 0
162 177 0
166 185 0
167 184 0
164 181 0
163 180 0
159 174 0
162 179 0
163 180 0
166 184 0
165 182 0
166 181 0
168 185 0
165 183 0
161 178 0
166 183 0
163 180 0
165 183 0
161 177 0
168 187 0
164 179 0
158 174 0
160 177 0
162 180 0
166 185 0
166 182 0
163 181 0
167 186 0
169 188 0
164 180 0
164 181 0
165 183 0
165 183 0
168 187 0
162 179 0
164 181 0
166 184 0
164 182 0
164 181 0
160 179 0
167 183 0
163 180 0
163 180 0
166 183 0
170 190 0
168 186 0
170 190 0
168 186 0
172 193 0
168 189 0
168 187 0
167 186 0
166 184 0
167 185 0
169 189 0
169 191 0
166 183 0
170 190 0
167 186 0
171 192 0
170 189 0
165 186 0
167 186 0
170 190 0
168 188 0
164 185 0
170 188 0
166 184 0
169 190 0
169 189 0
166 184 0
170 190 0
169 188 0
169 190 0
169 189 0
170 191 0
170 191 0
169 191 0
170 190 0
169 190 0
165 185 0
170 189 0
167 186 0
169 188 0
168 186 0
168 189 0
162 182 0
166 185 0
167 187 0
168 188 0
169 189 0
173 195 0
169 190 0
169 190 0
168 189 0
169 190 0
166 188 0
173 194 0
170 192 0
168 189 0
172 193 0
169 191 0
168 190 0
170 191 0
169 191 0
168 188 0
167 188 0
169 190 0
169 191 0
170 192 0
170 192 0
170 192 0
171 193 0
171 193 0
166 189 0
167 190 0
172 193 0
170 191 0
171 193 0
170 191 0
172 195 0
170 192 0
171 193 0
170 191 0
169 191 0
172 194 0
171 192 0
171 193 0
170 192 0
171 192 0
169 191 0
168 190 0
172 193 0
170 192 0
171 194 0
166 189 0
167 189 0
168 190 0
173 195 0
169 192 0
173 194 0
170 192 0
158 175 0
163 183 0
164 183 0
157 174 0
162 180 0
158 177 0
166 187 0
163 183 0
158 177 0
159 177 0
163 183 0
160 178 0
155 173 0
159 177 0
152 169 0
164 183 0
160 179 0
162 181 0
156 174 0
158 177 0
159 177 0
159 177 0
160 178 0
159 177 0
158 179 0
162 181 0
162 181 0
160 179 0
159 177 0
157 176 0
157 175 0
158 177 0
168 188 0
155 175 0
159 178 0
160 178 0
158 175 0
158 177 0
161 179 0
161 179 0
159 179 0
158 175 0
158 176 0
153 171 0
159 177 0
158 176 0
161 181 0
157 175 0
161 180 0
158 177 0
159 175 0
161 181 0
153 171 0
159 177 0
159 176 0
154 173 0
155 172 0
158 176 0
161 179 0
157 176 0
156 174 0
162 180 0
158 176 0
156 173 0
155 171 0
158 176 0
156 175 0
160 177 0
157 176 0
156 174 0
156 176 0
155 172 0
159 177 0
160 177 0
162 180 0
155 172 0
158 177 0
161 181 0
154 171 0
157 174 0
157 175 0
159 176 0
153 171 0
157 173 0
155 171 0
157 175 0
155 171 0
161 176 0
152 169 0
156 171 0
165 183 0
162 179 0
158 177 0
160 178 0
153 170 0
154 170 0
159 178 0
155 170 0
154 169 0
152 166 0
159 175 0
152 167 0
157 174 0
152 168 0
156 173 0
155 172 0
157 175 0
152 168 0
157 173 0
164 181 0
157 171 0
157 175 0
161 179 0
159 176 0
161 179 0
163 179 0
158 176 0
156 174 0
158 175 0
154 167 0
152 168 0
158 173 0
157 176 0
160 176 0
159 174 0
158 174 0
152 167 0
155 170 0
160 176 0
153 168 0
153 170 0
155 171 0
150 165 0
158 175 0
159 175 0
153 167 0
157 171 0
156 169 0
152 167 0
157 170 0
147 162 0
162 180 0
152 166 0
158 171 0
151 164 0
161 179 0
161 177 0
160 175 0
160 179 0
161 177 0
163 179 0
159 172 0
156 170 0
155 170 0
158 174 0
154 166 0
156 172 0
160 173 0
161 178 0
157 170 0
157 171 0
157 171 0
156 171 0
150 164 0
158 169 0
155 171 0
158 174 0
157 169 0
154 167 0
160 177 0
149 163 0
153 169 0
160 172 0
152 166 0
153 165 0
154 168 0
159 174 0
152 164 0
160 173 0
158 173 0
158 173 0
155 169 0
154 167 0
156 168 0
157 171 0
157 172 0
157 171 0
151 162 0
155 165 0
155 167 0
158 175 0
155 170 0
158 173 0
153 165 0
160 173 0
154 166 0
162 175 0
157 169 0
158 175 0
158 172 0
163 177 0
156 169 0
161 175 0
160 174 0
158 173 0
152 165 0
162 175 0
158 170 0
162 177 0
163 175 0
159 173 0
157 172 0
156 171 0
163 177 0
161 174 0
162 175 0
162 176 0
160 173 0
159 172 0
161 176 0
159 171 0
158 171 0
160 175 0
158 171 0
157 173 0
157 169 0
161 174 0
158 169 0
163 179 0
159 172 0
162 177 0
158 170 0
163 177 0
157 170 0
160 176 0
161 176 0
159 173 0
163 177 0
160 173 0
161 176 0
160 175 0
160 176 0
160 176 0
156 170 0
163 177 0
164 180 0
156 172 0
164 180 0
165 184 0
162 178 0
164 180 0
159 176 0
159 173 0
166 184 0
165 181 0
162 177 0
164 180 0
158 174 0
158 173 0
166 180 0
159 176 0
165 181 0
160 174 0
165 180 0
163 180 0
163 181 0
165 182 0
163 179 0
162 178 0
164 183 0
163 179 0
166 183 0
165 180 0
166 184 0
161 180 0
162 177 0
159 177 0
162 179 0
164 181 0
164 181 0
166 184 0
168 187 0
169 186 0
168 186 0
164 181 0
165 181 0
166 182 0
166 183 0
166 184 0
169 186 0
160 177 0
167 186 0
164 181 0
162 179 0
166 185 0
162 180 0
170 188 0
171 190 0
168 184 0
167 184 0
165 186 0
164 183 0
165 185 0
167 187 0
167 187 0
171 189 0
167 185 0
168 189 0
163 182 0
166 185 0
166 185 0
166 187 0
169 188 0
167 186 0
161 178 0
163 183 0
168 188 0
168 188 0
168 189 0
168 187 0
171 192 0
168 187 0
168 187 0
168 188 0
171 190 0
166 187 0
166 185 0
167 187 0
163 184 0
168 187 0
168 189 0
166 186 0
167 187 0
171 192 0
170 190 0
169 188 0
166 186 0
169 188 0
170 192 0
167 188 0
162 181 0
166 186 0
170 190 0
171 191 0
169 189 0
168 189 0
169 189 0
169 189 0
168 187 0
169 190 0
170 191 0
168 187 0
169 190 0
168 187 0
169 190 0
171 190 0
165 185 0
169 189 0
170 189 0
171 193 0
172 194 0
170 190 0
168 189 0
172 193 0
171 191 0
164 186 0
166 186 0
171 192 0
170 191 0
170 192 0
169 191 0
171 191 0
168 190 0
170 191 0
169 190 0
168 190 0
174 195 0
169 189 0
173 194 0
168 190 0
171 193 0
170 192 0
172 194 0
169 190 0
170 192 0
170 191 0
173 194 0
170 191 0
170 192 0
171 193 0
174 196 0
172 194 0
171 193 0
166 188 0
166 187 0
171 192 0
170 192 0
168 190 0
170 193 0
171 194 0
157 176 0
160 179 0
159 179 0
159 177 0
160 179 0
161 180 0
160 180 0
161 179 0
161 181 0
154 173 0
162 181 0
160 179 0
163 182 0
162 182 0
159 178 0
162 182 0
160 178 0
159 178 0
159 177 0
157 174 0
161 180 0
161 180 0
159 177 0
160 179 0
158 177 0
157 175 0
163 181 0
158 176 0
155 173 0
157 174 0
157 176 0
161 179 0
160 181 0
158 175 0
159 176 0
159 175 0
160 178 0
153 172 0
161 181 0
158 176 0
160 177 0
160 178 0
159 177 0
163 181 0
156 173 0
160 179 0
160 180 0
159 178 0
157 174 0
163 183 0
156 173 0
157 174 0
159 179 0
158 177 0
154 172 0
156 174 0
157 176 0
157 175 0
158 177 0
159 178 0
158 177 0
162 180 0
156 171 0
157 175 0
162 180 0
155 171 0
157 175 0
158 177 0
160 177 0
158 176 0
160 179 0
157 174 0
161 179 0
161 179 0
160 179 0
154 172 0
159 179 0
156 173 0
157 174 0
158 174 0
158 176 0
160 179 0
157 173 0
159 177 0
160 177 0
152 170 0
159 176 0
155 172 0
156 172 0
157 172 0
154 172 0
158 177 0
157 173 0
154 171 0
158 176 0
155 173 0
157 175 0
152 168 0
158 175 0
150 166 0
158 174 0
155 171 0
155 171 0
162 179 0
156 171 0
158 175 0
162 181 0
152 169 0
154 171 0
153 169 0
154 170 0
151 164 0
158 177 0
151 166 0
159 176 0
158 174 0
158 174 0
159 175 0
160 178 0
156 172 0
159 174 0
155 171 0
153 168 0
152 168 0
153 169 0
163 178 0
160 177 0
147 161 0
152 168 0
157 174 0
155 172 0
158 173 0
160 175 0
164 179 0
158 174 0
151 166 0
155 170 0
159 175 0
153 170 0
155 170 0
163 180 0
159 175 0
154 170 0
153 167 0
157 172 0
154 171 0
157 171 0
153 169 0
158 171 0
162 180 0
154 170 0
161 177 0
154 168 0
156 171 0
149 163 0
155 171 0
155 169 0
158 174 0
155 169 0
154 167 0
161 175 0
161 176 0
158 172 0
156 170 0
153 167 0
154 171 0
154 167 0
154 166 0
161 174 0
159 172 0
159 172 0
155 170 0
159 172 0
161 177 0
155 169 0
155 168 0
158 173 0
154 166 0
157 171 0
156 168 0
155 168 0
155 169 0
162 176 0
156 168 0
156 169 0
156 171 0
156 171 0
160 175 0
155 165 0
160 174 0
159 173 0
161 176 0
164 181 0
158 173 0
158 173 0
154 166 0
162 175 0
157 170 0
156 170 0
157 170 0
160 176 0
160 175 0
157 172 0
166 181 0
153 168 0
166 182 0
158 170 0
155 171 0
157 172 0
154 168 0
153 162 0
156 168 0
162 178 0
158 171 0
163 177 0
160 172 0
159 174 0
162 178 0
161 174 0
158 171 0
162 178 0
163 178 0
162 178 0
161 177 0
164 179 0
156 173 0
159 175 0
159 171 0
156 171 0
160 175 0
164 178 0
160 174 0
156 171 0
159 174 0
157 173 0
159 174 0
160 174 0
160 173 0
166 180 0
158 172 0
161 174 0
166 182 0
161 175 0
162 177 0
164 180 0
165 182 0
160 175 0
164 179 0
161 177 0
164 182 0
163 179 0
163 180 0
162 179 0
162 178 0
162 178 0
159 176 0
163 180 0
160 175 0
163 177 0
161 176 0
161 175 0
162 178 0
163 180 0
161 177 0
160 177 0
164 182 0
158 174 0
167 182 0
162 179 0
165 182 0
161 177 0
163 181 0
163 179 0
168 186 0
163 180 0
169 186 0
166 185 0
166 183 0
166 185 0
165 184 0
166 185 0
165 183 0
166 183 0
159 175 0
160 177 0
169 189 0
163 180 0
163 181 0
168 186 0
169 188 0
168 188 0
165 184 0
164 181 0
165 183 0
165 183 0
166 185 0
164 182 0
167 187 0
165 181 0
163 182 0
165 183 0
162 179 0
165 184 0
168 188 0
168 188 0
170 189 0
167 187 0
166 186 0
165 184 0
169 189 0
166 187 0
162 180 0
166 186 0
165 183 0
166 185 0
169 188 0
167 186 0
166 187 0
168 190 0
162 182 0
168 188 0
171 191 0
169 190 0
171 190 0
167 187 0
166 186 0
169 189 0
169 190 0
169 190 0
170 190 0
168 189 0
171 191 0
169 189 0
169 189 0
171 192 0
170 189 0
170 192 0
172 192 0
170 190 0
168 188 0
168 189 0
169 189 0
163 182 0
169 190 0
169 189 0
171 191 0
171 193 0
168 188 0
168 187 0
171 193 0
166 187 0
168 190 0
171 192 0
166 188 0
168 190 0
168 189 0
169 187 0
170 191 0
169 191 0
170 190 0
170 191 0
167 188 0
169 190 0
167 188 0
168 188 0
172 194 0
168 191 0
170 191 0
171 192 0
170 191 0
167 189 0
171 193 0
169 191 0
168 190 0
168 189 0
172 193 0
171 193 0
168 191 0
172 194 0
172 193 0
170 193 0
171 190 0
170 192 0
172 194 0
171 191 0
169 190 0
168 190 0
169 191 0
170 194 0
166 187 0
169 192 0
170 193 0
172 194 0
172 194 0
172 193 0
172 194 0
172 194 0
170 192 0
170 192 0
171 192 0
159 178 0
157 176 0
160 179 0
159 178 0
165 184 0
162 183 0
157 175 0
162 181 0
162 180 0
158 177 0
158 177 0
162 182 0
161 181 0
156 174 0
158 177 0
162 181 0
154 171 0
152 170 0
158 176 0
155 173 0
158 176 0
156 174 0
159 177 0
157 176 0
158 176 0
162 183 0
161 180 0
158 176 0
158 178 0
156 175 0
161 178 0
160 180 0
160 178 0
158 174 0
156 174 0
158 175 0
162 179 0
158 176 0
163 180 0
159 178 0
155 171 0
159 175 0
155 174 0
164 184 0
160 180 0
159 179 0
158 177 0
155 173 0
156 175 0
157 174 0
156 175 0
158 174 0
151 167 0
160 178 0
155 172 0
160 179 0
151 167 0
158 175 0
159 177 0
155 174 0
159 176 0
158 173 0
161 178 0
156 174 0
158 176 0
157 175 0
153 169 0
161 179 0
158 177 0
156 173 0
158 176 0
156 173 0
160 177 0
164 183 0
158 176 0
157 174 0
158 174 0
158 176 0
157 175 0
156 173 0
157 174 0
154 170 0
159 177 0
157 175 0
160 176 0
156 174 0
153 170 0
155 173 0
153 170 0
158 176 0
159 177 0
155 171 0
158 174 0
152 168 0
159 179 0
156 173 0
152 169 0
155 171 0
159 177 0
160 177 0
154 171 0
159 176 0
155 171 0
155 171 0
156 173 0
161 179 0
163 179 0
152 168 0
156 172 0
154 171 0
151 168 0
160 176 0
158 176 0
163 180 0
155 172 0
156 172 0
159 175 0
159 175 0
157 174 0
156 173 0
158 175 0
156 171 0
158 176 0
158 172 0
160 178 0
154 171 0
150 166 0
157 173 0
154 169 0
160 176 0
159 174 0
158 175 0
161 177 0
160 176 0
154 170 0
159 174 0
157 174 0
157 170 0
154 171 0
158 173 0
150 165 0
153 166 0
154 168 0
154 170 0
155 169 0
163 178 0
158 174 0
156 171 0
149 165 0
160 174 0
158 171 0
153 165 0
160 174 0
159 174 0
156 173 0
163 179 0
156 169 0
159 175 0
155 169 0
157 171 0
160 176 0
153 167 0
161 178 0
159 172 0
155 169 0
153 165 0
156 171 0
158 172 0
154 172 0
159 173 0
156 170 0
160 175 0
155 168 0
156 170 0
158 172 0
154 167 0
151 164 0
159 175 0
152 165 0
156 169 0
150 164 0
150 162 0
158 174 0
163 179 0
158 171 0
153 165 0
157 171 0
155 171 0
156 169 0
156 169 0
155 168 0
161 175 0
151 164 0
157 171 0
159 173 0
159 171 0
158 174 0
161 177 0
155 170 0
161 174 0
160 176 0
162 178 0
156 169 0
161 176 0
156 170 0
155 171 0
154 166 0
153 166 0
162 176 0
159 171 0
155 165 0
159 173 0
160 174 0
153 165 0
158 173 0
165 182 0
162 177 0
158 172 0
160 174 0
158 173 0
160 173 0
159 174 0
155 168 0
160 175 0
159 174 0
158 172 0
166 180 0
163 178 0
161 177 0
164 180 0
157 171 0
158 172 0
161 175 0
164 178 0
161 178 0
160 177 0
160 174 0
161 175 0
166 183 0
162 177 0
167 184 0
161 175 0
162 178 0
163 180 0
162 177 0
162 178 0
167 183 0
158 174 0
162 176 0
159 175 0
166 182 0
162 176 0
159 175 0
161 176 0
160 177 0
162 177 0
162 178 0
168 183 0
163 179 0
166 183 0
156 172 0
162 176 0
160 175 0
165 181 0
163 180 0
163 178 0
163 180 0
162 177 0
167 186 0
165 181 0
165 183 0
162 176 0
159 173 0
159 175 0
163 178 0
165 183 0
165 182 0
162 179 0
167 184 0
164 183 0
165 183 0
161 178 0
164 181 0
164 180 0
162 180 0
165 184 0
168 186 0
165 183 0
167 186 0
160 178 0
166 183 0
167 185 0
164 182 0
165 183 0
165 183 0
163 182 0
164 181 0
165 183 0
169 187 0
162 181 0
167 187 0
167 184 0
164 182 0
166 184 0
165 183 0
169 189 0
165 183 0
167 187 0
168 189 0
166 185 0
167 185 0
166 186 0
163 183 0
165 182 0
166 184 0
168 185 0
167 186 0
168 187 0
167 188 0
170 190 0
164 182 0
164 182 0
168 188 0
163 181 0
164 182 0
167 188 0
170 189 0
165 185 0
171 191 0
169 191 0
164 184 0
170 191 0
168 189 0
166 186 0
168 188 0
169 188 0
170 191 0
168 188 0
167 188 0
169 189 0
167 188 0
170 191 0
165 185 0
169 187 0
169 188 0
169 191 0
170 190 0
166 186 0
168 190 0
172 193 0
170 191 0
171 190 0
168 189 0
170 190 0
170 191 0
168 189 0
168 189 0
168 189 0
168 189 0
170 189 0
166 186 0
167 188 0
171 193 0
170 191 0
171 192 0
171 192 0
170 190 0
166 188 0
172 194 0
171 193 0
171 194 0
171 193 0
172 195 0
171 191 0
172 195 0
172 193 0
169 191 0
171 193 0
171 192 0
170 190 0
173 195 0
168 189 0
169 190 0
171 191 0
173 195 0
170 192 0
171 194 0
168 189 0
167 187 0
169 192 0
173 195 0
170 193 0
169 190 0
171 192 0
170 191 0
170 191 0
171 193 0
168 188 0
172 194 0
171 192 0
161 178 0
161 181 0
159 177 0
162 181 0
162 182 0
167 186 0
158 176 0
163 181 0
158 176 0
161 180 0
156 175 0
162 181 0
157 176 0
159 179 0
156 175 0
164 184 0
163 181 0
160 179 0
158 177 0
157 174 0
161 179 0
159 178 0
158 177 0
154 171 0
163 181 0
158 177 0
154 170 0
162 180 0
153 171 0
159 177 0
163 181 0
156 174 0
158 176 0
161 181 0
157 176 0
164 184 0
164 183 0
156 174 0
159 177 0
158 177 0
158 176 0
157 174 0
165 184 0
161 178 0
157 176 0
165 185 0
161 179 0
159 177 0
161 181 0
156 175 0
156 173 0
155 173 0
155 172 0
158 175 0
156 173 0
154 172 0
157 176 0
157 174 0
162 181 0
157 176 0
159 175 0
164 183 0
163 182 0
158 176 0
151 169 0
162 181 0
161 180 0
158 177 0
156 174 0
158 175 0
164 183 0
156 174 0
158 175 0
157 175 0
162 180 0
160 178 0
161 179 0
160 179 0
161 180 0
159 178 0
158 176 0
154 172 0
152 169 0
158 176 0
159 177 0
158 177 0
155 172 0
156 174 0
161 178 0
158 175 0
155 173 0
158 176 0
162 179 0
154 172 0
161 180 0
157 171 0
154 169 0
161 179 0
162 179 0
166 185 0
154 171 0
158 175 0
148 164 0
159 177 0
156 173 0
165 183 0
159 174 0
153 168 0
153 170 0
160 179 0
159 178 0
153 168 0
162 180 0
157 174 0
157 175 0
152 170 0
155 171 0
154 172 0
162 179 0
161 176 0
161 179 0
160 178 0
157 174 0
159 175 0
159 177 0
156 173 0
153 169 0
159 176 0
156 170 0
157 173 0
155 169 0
155 172 0
158 174 0
153 167 0
155 172 0
155 172 0
158 173 0
160 175 0
158 174 0
157 172 0
157 175 0
157 172 0
156 169 0
157 172 0
158 175 0
158 173 0
161 177 0
158 175 0
158 175 0
158 176 0
157 171 0
156 172 0
157 173 0
152 164 0
157 169 0
160 176 0
157 170 0
159 174 0
160 175 0
156 169 0
162 176 0
157 171 0
155 169 0
150 165 0
158 172 0
156 171 0
162 180 0
160 174 0
153 166 0
152 167 0
156 173 0
157 170 0
161 176 0
154 167 0
155 170 0
156 171 0
155 170 0
153 168 0
161 175 0
159 174 0
161 173 0
156 171 0
158 169 0
162 174 0
159 174 0
158 169 0
162 176 0
157 171 0
160 175 0
164 181 0
156 169 0
161 176 0
158 170 0
162 177 0
161 177 0
151 164 0
156 170 0
156 169 0
158 171 0
153 167 0
155 169 0
158 172 0
159 172 0
164 176 0
151 163 0
159 170 0
161 174 0
159 171 0
163 177 0
160 171 0
159 174 0
159 174 0
160 172 0
161 174 0
162 176 0
162 177 0
154 168 0
164 181 0
156 170 0
160 174 0
157 171 0
159 174 0
160 176 0
159 173 0
161 177 0
160 175 0
155 170 0
159 173 0
162 178 0
160 175 0
164 180 0
161 177 0
159 171 0
160 176 0
159 174 0
162 176 0
155 170 0
161 178 0
161 175 0
160 172 0
157 171 0
162 177 0
162 177 0
160 174 0
161 176 0
161 175 0
163 178 0
165 181 0
159 174 0
164 180 0
163 176 0
155 170 0
165 182 0
163 179 0
164 178 0
159 172 0
162 177 0
166 183 0
163 179 0
158 173 0
162 178 0
164 180 0
159 174 0
159 174 0
163 179 0
168 184 0
166 185 0
166 182 0
164 179 0
164 182 0
162 179 0
163 180 0
163 181 0
167 183 0
165 182 0
163 181 0
165 181 0
162 178 0
161 179 0
162 181 0
168 186 0
166 184 0
162 179 0
162 179 0
157 174 0
165 182 0
168 187 0
165 183 0
162 178 0
162 179 0
168 188 0
168 187 0
164 182 0
168 184 0
162 179 0
163 180 0
169 188 0
165 181 0
165 182 0
163 183 0
165 183 0
160 178 0
168 186 0
164 181 0
163 182 0
167 187 0
166 185 0
165 185 0
166 185 0
166 184 0
164 183 0
168 186 0
166 185 0
169 189 0
168 188 0
164 182 0
167 187 0
169 187 0
166 185 0
167 188 0
170 190 0
168 188 0
167 188 0
165 185 0
169 189 0
164 183 0
167 187 0
167 188 0
169 188 0
161 180 0
168 188 0
170 189 0
170 192 0
170 190 0
171 193 0
167 187 0
170 191 0
168 189 0
169 187 0
166 186 0
169 189 0
170 192 0
168 189 0
171 192 0
169 189 0
169 189 0
169 188 0
172 192 0
167 188 0
168 189 0
171 193 0
171 192 0
169 189 0
169 190 0
168 188 0
164 182 0
171 191 0
169 191 0
172 194 0
167 189 0
170 190 0
168 189 0
166 186 0
168 187 0
168 187 0
172 195 0
172 194 0
166 188 0
171 193 0
169 189 0
169 190 0
169 191 0
168 188 0
168 190 0
170 192 0
171 192 0
167 189 0
168 191 0
171 195 0
169 190 0
170 192 0
170 190 0
167 189 0
172 195 0
170 193 0
166 186 0
171 193 0
169 190 0
168 190 0
169 191 0
171 193 0
171 194 0
171 193 0
169 191 0
169 192 0
170 192 0
171 194 0
169 190 0
171 194 0
171 194 0
158 176 0
162 182 0
159 178 0
162 181 0
161 182 0
161 179 0
160 179 0
154 172 0
162 179 0
160 179 0
155 172 0
161 179 0
158 177 0
160 178 0
162 181 0
155 173 0
154 174 0
156 175 0
158 177 0
155 174 0
158 177 0
162 180 0
160 178 0
162 181 0
159 176 0
161 180 0
159 177 0
163 182 0
161 180 0
161 182 0
156 173 0
162 182 0
159 177 0
156 175 0
157 175 0
159 176 0
156 174 0
156 174 0
158 176 0
154 172 0
156 173 0
159 178 0
158 176 0
155 172 0
162 181 0
162 180 0
161 179 0
157 175 0
160 177 0
157 177 0
158 177 0
162 180 0
157 176 0
161 179 0
158 176 0
160 178 0
161 180 0
160 179 0
160 179 0
154 172 0
158 177 0
159 177 0
160 178 0
162 180 0
158 175 0
160 180 0
159 177 0
158 175 0
158 175 0
156 174 0
153 170 0
154 173 0
157 176 0
158 178 0
158 176 0
159 176 0
156 172 0
157 176 0
155 172 0
159 177 0
157 176 0
163 181 0
156 174 0
155 172 0
159 177 0
158 175 0
160 177 0
158 176 0
156 174 0
161 178 0
156 174 0
156 175 0
158 176 0
159 177 0
160 178 0
160 178 0
157 174 0
159 176 0
160 177 0
156 176 0
157 173 0
159 177 0
158 176 0
161 179 0
156 172 0
155 170 0
154 171 0
158 175 0
158 173 0
156 173 0
156 170 0
160 178 0
160 176 0
156 173 0
160 176 0
159 176 0
151 166 0
162 179 0
161 178 0
159 176 0
165 183 0
156 175 0
160 179 0
162 179 0
160 176 0
160 175 0
160 179 0
151 166 0
151 165 0
154 168 0
157 172 0
162 179 0
154 171 0
161 177 0
161 178 0
163 178 0
158 172 0
158 173 0
156 172 0
151 167 0
151 163 0
163 178 0
158 173 0
158 174 0
155 170 0
157 173 0
157 175 0
158 175 0
158 173 0
160 176 0
155 171 0
157 175 0
158 172 0
158 174 0
158 174 0
152 165 0
155 171 0
160 175 0
155 172 0
156 172 0
161 177 0
158 172 0
156 172 0
156 170 0
156 172 0
158 171 0
161 178 0
153 165 0
158 172 0
159 175 0
159 174 0
158 173 0
157 171 0
153 164 0
154 168 0
158 174 0
149 163 0
158 173 0
160 174 0
161 177 0
156 169 0
159 174 0
156 171 0
153 165 0
159 174 0
157 171 0
162 176 0
158 170 0
156 170 0
157 173 0
157 170 0
156 169 0
159 173 0
160 174 0
160 175 0
159 171 0
160 174 0
154 167 0
160 177 0
162 177 0
156 168 0
158 173 0
153 165 0
158 171 0
160 173 0
158 172 0
156 170 0
161 177 0
156 171 0
160 176 0
156 169 0
162 177 0
152 165 0
162 178 0
159 173 0
158 173 0
159 175 0
160 173 0
164 178 0
158 174 0
163 177 0
159 173 0
156 169 0
155 169 0
158 172 0
154 170 0
158 173 0
163 177 0
162 177 0
161 176 0
161 176 0
161 178 0
162 176 0
155 170 0
159 173 0
162 177 0
159 173 0
160 173 0
161 173 0
159 174 0
158 172 0
165 180 0
161 176 0
164 178 0
159 174 0
155 168 0
164 180 0
163 178 0
166 180 0
159 175 0
161 176 0
159 173 0
158 173 0
162 177 0
166 183 0
167 184 0
163 180 0
166 182 0
163 178 0
163 180 0
161 177 0
159 177 0
163 180 0
164 180 0
166 183 0
163 180 0
164 180 0
166 184 0
164 180 0
164 181 0
163 180 0
160 175 0
164 182 0
164 183 0
161 178 0
162 179 0
169 186 0
159 176 0
161 179 0
167 185 0
164 181 0
162 180 0
165 184 0
167 185 0
165 185 0
164 180 0
165 182 0
163 181 0
166 186 0
162 181 0
169 187 0
165 182 0
161 179 0
162 181 0
167 186 0
165 184 0
167 187 0
166 183 0
161 177 0
170 189 0
167 185 0
163 181 0
170 189 0
167 185 0
171 189 0
168 187 0
166 185 0
166 186 0
166 185 0
169 188 0
170 188 0
168 188 0
164 182 0
168 187 0
167 188 0
166 187 0
171 191 0
169 188 0
164 184 0
168 188 0
166 185 0
170 190 0
168 189 0
169 189 0
169 190 0
168 189 0
169 190 0
164 185 0
167 188 0
167 187 0
167 186 0
168 189 0
167 187 0
170 191 0
170 190 0
169 190 0
167 188 0
168 190 0
169 189 0
168 186 0
166 187 0
170 190 0
168 189 0
168 187 0
163 182 0
172 193 0
169 190 0
164 183 0
170 191 0
167 186 0
172 194 0
170 192 0
169 190 0
167 186 0
172 192 0
168 189 0
168 188 0
170 192 0
169 189 0
167 188 0
170 190 0
167 189 0
169 191 0
169 191 0
171 192 0
170 191 0
168 190 0
167 187 0
168 189 0
169 189 0
165 186 0
170 191 0
172 194 0
169 190 0
171 192 0
167 189 0
170 192 0
168 190 0
170 192 0
167 188 0
169 190 0
171 194 0
172 195 0
168 189 0
171 192 0
170 192 0
172 193 0
168 190 0
169 190 0
169 189 0
165 188 0
170 190 0
169 190 0
168 191 0
172 193 0
169 192 0
170 193 0
173 196 0
171 191 0
172 193 0
163 181 0
161 181 0
154 173 0
157 176 0
158 177 0
162 180 0
162 180 0
163 180 0
161 179 0
160 179 0
161 178 0
162 179 0
163 183 0
165 185 0
156 175 0
159 177 0
162 180 0
159 178 0
159 175 0
162 182 0
160 180 0
156 175 0
159 176 0
163 184 0
157 175 0
159 178 0
157 176 0
163 183 0
159 179 0
162 180 0
159 176 0
157 177 0
161 180 0
156 174 0
162 179 0
153 171 0
154 171 0
159 178 0
163 183 0
159 178 0
158 176 0
155 172 0
160 178 0
158 175 0
165 184 0
157 174 0
159 176 0
161 180 0
160 178 0
159 179 0
158 176 0
155 173 0
159 177 0
160 177 0
162 181 0
156 173 0
159 176 0
150 168 0
158 176 0
159 179 0
157 175 0
156 172 0
161 179 0
155 173 0
157 175 0
157 176 0
160 179 0
158 177 0
158 176 0
162 179 0
157 174 0
162 178 0
157 177 0
159 177 0
157 175 0
157 174 0
161 181 0
154 172 0
160 177 0
161 180 0
157 172 0
159 174 0
155 172 0
162 182 0
157 172 0
158 174 0
157 175 0
154 171 0
161 178 0
159 179 0
157 173 0
154 171 0
158 176 0
162 181 0
159 177 0
157 174 0
154 171 0
160 176 0
158 176 0
158 175 0
155 172 0
156 173 0
161 177 0
159 175 0
161 178 0
162 178 0
158 176 0
156 174 0
154 169 0
158 176 0
154 169 0
159 176 0
157 173 0
159 176 0
160 176 0
154 171 0
149 165 0
152 168 0
154 171 0
152 167 0
161 181 0
153 168 0
158 175 0
153 171 0
155 170 0
160 176 0
155 170 0
161 177 0
157 172 0
155 171 0
155 171 0
159 175 0
160 177 0
152 166 0
157 175 0
159 172 0
158 172 0
149 164 0
160 176 0
163 182 0
162 179 0
159 175 0
155 169 0
157 170 0
157 173 0
156 169 0
156 171 0
158 174 0
156 173 0
158 172 0
157 172 0
159 173 0
161 179 0
160 175 0
157 174 0
161 176 0
156 169 0
161 178 0
156 170 0
157 171 0
153 166 0
156 171 0
160 172 0
158 173 0
158 173 0
164 182 0
161 176 0
157 172 0
156 173 0
150 165 0
158 173 0
160 174 0
158 171 0
161 176 0
158 174 0
158 174 0
161 177 0
157 173 0
153 166 0
157 171 0
156 169 0
156 170 0
158 170 0
159 173 0
157 171 0
159 173 0
158 174 0
162 175 0
156 170 0
159 173 0
160 174 0
160 176 0
159 173 0
156 171 0
162 177 0
156 167 0
153 166 0
155 171 0
160 171 0
163 181 0
158 172 0
159 172 0
160 176 0
156 170 0
160 173 0
155 170 0
160 174 0
163 179 0
160 176 0
159 174 0
155 169 0
153 167 0
160 177 0
157 172 0
157 173 0
159 173 0
155 171 0
157 174 0
156 171 0
153 166 0
164 180 0
155 167 0
161 177 0
159 172 0
159 173 0
165 178 0
164 177 0
161 177 0
162 177 0
161 177 0
162 178 0
160 177 0
160 177 0
156 169 0
161 176 0
163 178 0
161 177 0
159 173 0
158 172 0
163 178 0
160 175 0
161 178 0
162 176 0
163 180 0
165 183 0
166 182 0
161 175 0
160 174 0
163 180 0
163 180 0
166 183 0
160 177 0
167 184 0
158 173 0
162 177 0
164 182 0
163 178 0
158 172 0
164 180 0
163 180 0
162 178 0
164 179 0
164 180 0
166 185 0
166 184 0
164 180 0
164 181 0
159 176 0
169 186 0
163 181 0
165 182 0
161 175 0
167 186 0
165 182 0
159 177 0
164 183 0
163 180 0
160 176 0
166 185 0
161 177 0
166 185 0
161 176 0
167 186 0
166 184 0
165 182 0
166 184 0
157 174 0
163 182 0
166 183 0
166 183 0
167 184 0
164 180 0
167 184 0
162 180 0
164 183 0
167 183 0
167 184 0
166 185 0
165 186 0
168 185 0
169 188 0
165 185 0
164 181 0
167 186 0
167 184 0
171 190 0
166 186 0
166 186 0
168 188 0
168 187 0
165 183 0
166 182 0
169 187 0
169 188 0
169 188 0
164 183 0
163 181 0
167 186 0
169 187 0
165 185 0
168 188 0
168 188 0
171 190 0
164 183 0
165 185 0
167 187 0
163 183 0
167 187 0
168 188 0
165 186 0
172 194 0
169 188 0
163 180 0
171 192 0
169 189 0
169 189 0
165 185 0
170 191 0
170 192 0
167 187 0
165 185 0
170 191 0
168 189 0
168 188 0
166 188 0
168 187 0
171 191 0
165 185 0
169 189 0
171 193 0
171 192 0
168 189 0
171 192 0
168 188 0
167 188 0
165 185 0
169 190 0
173 192 0
169 191 0
167 189 0
167 186 0
170 190 0
169 190 0
173 193 0
168 190 0
172 192 0
167 189 0
168 189 0
171 193 0
170 191 0
168 188 0
170 192 0
168 191 0
168 189 0
170 191 0
168 189 0
172 192 0
169 190 0
170 192 0
169 191 0
169 190 0
167 188 0
169 191 0
170 191 0
168 189 0
171 191 0
171 193 0
170 192 0
171 193 0
167 188 0
173 196 0
172 195 0
169 191 0
166 188 0
169 191 0
169 192 0
170 192 0
172 194 0
171 193 0
169 190 0
