P3
400 225
255
62 98 163
62 98 165
62 99 165
62 98 162
61 97 160
61 98 163
63 99 171
62 98 168
62 99 169
61 97 161
62 98 168
62 99 165
62 99 166
62 98 162
62 98 167
62 98 167
61 98 163
62 98 162
62 98 166
62 99 168
62 98 166
62 98 166
61 97 161
61 98 168
61 98 166
62 99 167
62 98 161
61 97 165
62 98 165
62 98 165
62 98 164
61 98 166
62 98 167
62 98 163
61 97 157
62 99 171
62 99 169
63 99 167
62 98 163
62 98 165
63 99 166
62 98 165
61 97 159
62 99 168
63 99 173
62 99 170
62 99 168
62 98 166
62 99 168
63 99 167
62 98 162
62 98 167
63 99 172
62 98 162
62 98 168
62 99 175
62 99 171
63 99 173
62 98 164
63 99 167
63 99 168
61 98 164
62 98 162
62 98 162
62 98 166
63 99 177
62 98 164
63 100 174
62 99 170
62 98 168
62 98 170
62 99 169
62 98 168
62 98 165
62 99 169
62 99 170
61 98 165
62 98 167
62 98 165
62 99 171
62 98 167
62 98 163
62 99 165
62 98 169
62 98 171
63 99 167
62 98 167
62 98 170
62 98 170
62 98 167
62 99 174
63 99 171
62 98 162
63 99 172
62 99 170
62 98 168
62 99 171
62 99 175
63 99 168
62 99 174
61 98 169
62 99 172
62 98 170
62 98 169
62 99 172
62 99 172
63 99 175
62 99 176
61 98 175
63 99 173
61 98 166
62 99 173
62 99 175
62 99 175
61 98 170
63 99 173
62 99 172
62 98 170
62 98 170
63 99 172
62 99 174
62 98 171
62 99 173
62 99 173
62 99 171
63 100 177
62 99 178
62 99 176
62 98 172
62 99 176
63 99 178
63 100 178
62 99 174
62 99 176
62 98 175
63 99 177
62 98 174
62 99 178
62 99 177
61 98 176
78 111 182
167 190 229
205 227 255
205 227 255
205 227 255
205 227 255
205 227 255
205 227 255
205 227 255
205 226 255
205 226 255
205 226 255
205 226 255
205 226 255
205 226 255
205 226 255
205 226 255
204 226 255
204 226 255
204 226 255
204 226 255
204 226 255
204 226 255
204 226 255
204 226 255
204 226 255
204 226 255
204 226 255
204 226 255
204 226 255
204 226 255
204 226 255
204 226 255
204 226 255
204 226 255
204 226 255
204 226 255
204 226 255
203 226 255
203 226 255
203 226 255
203 226 255
203 226 255
203 226 255
203 226 255
203 226 255
203 226 255
203 225 255
203 225 255
203 225 255
203 225 255
203 225 255
203 225 255
203 225 255
203 225 255
203 225 255
203 225 255
203 225 255
203 225 255
202 225 255
202 225 255
202 225 255
202 225 255
202 225 255
202 225 255
202 225 255
202 225 255
202 225 255
202 225 255
202 225 255
202 225 255
202 225 255
202 225 255
202 225 255
202 225 255
202 225 255
202 225 255
202 225 255
202 225 255
202 225 255
202 225 255
202 225 255
202 225 255
202 225 255
201 225 255
201 225 255
201 225 255
201 225 255
201 225 255
201 225 255
201 225 255
201 225 255
201 225 255
201 224 255
201 224 255
201 224 255
201 224 255
201 224 255
201 224 255
201 224 255
201 224 255
201 224 255
201 224 255
201 224 255
201 224 255
201 224 255
201 224 255
201 224 255
201 224 255
201 224 255
201 224 255
201 224 255
201 224 255
201 224 255
201 224 255
201 224 255
201 224 255
201 224 255
201 224 255
201 224 255
201 224 255
201 224 255
201 224 255
201 224 255
201 224 255
201 224 255
201 224 255
200 224 255
200 224 255
200 224 255
200 224 255
200 224 255
200 224 255
200 224 255
200 224 255
200 224 255
200 224 255
200 224 255
200 224 255
200 224 255
200 224 255
200 224 255
200 224 255
200 224 255
200 224 255
200 224 255
200 224 255
200 224 255
200 224 255
200 224 255
200 224 255
200 224 255
201 224 255
201 224 255
201 224 255
201 224 255
201 224 255
201 224 255
201 224 255
201 224 255
201 224 255
201 224 255
201 224 255
201 224 255
201 224 255
201 224 255
201 224 255
201 224 255
201 224 255
201 224 255
201 224 255
201 224 255
201 224 255
201 224 255
201 224 255
201 224 255
201 224 255
201 224 255
201 224 255
201 224 255
201 224 255
201 224 255
201 224 255
201 224 255
201 224 255
201 224 255
201 225 255
201 225 255
201 225 255
201 225 255
201 225 255
201 225 255
201 225 255
201 225 255
201 225 255
202 225 255
202 225 255
202 225 255
202 225 255
202 225 255
202 225 255
202 225 255
202 225 255
202 225 255
202 225 255
202 225 255
202 225 255
202 225 255
202 225 255
202 225 255
202 225 255
202 225 255
202 225 255
202 225 255
202 225 255
202 225 255
202 225 255
202 225 255
202 225 255
202 225 255
203 225 255
203 225 255
203 225 255
203 225 255
203 225 255
203 225 255
203 225 255
203 225 255
203 225 255
203 225 255
203 225 255
203 225 255
203 226 255
203 226 255
203 226 255
203 226 255
203 226 255
203 226 255
203 226 255
203 226 255
203 226 255
204 226 255
204 226 255
204 226 255
204 226 255
204 226 255
204 226 255
204 226 255
204 226 255
204 226 255
204 226 255
204 226 255
204 226 255
204 226 255
204 226 255
204 226 255
204 226 255
204 226 255
204 226 255
204 226 255
62 99 166
61 98 167
62 98 167
62 98 161
63 99 172
63 99 167
63 99 174
63 99 171
63 99 170
62 99 169
62 98 161
62 98 161
62 98 164
63 99 166
62 98 163
62 98 166
62 98 162
62 98 163
61 97 161
62 98 165
63 99 168
62 98 168
62 99 165
62 99 166
61 97 161
62 98 165
62 98 163
62 99 167
62 99 170
62 98 164
62 98 166
61 97 161
62 99 167
62 98 167
62 98 162
62 98 167
62 98 168
62 99 167
62 99 171
63 99 174
62 98 170
62 99 168
61 97 157
62 99 167
62 98 167
62 98 163
61 98 165
62 99 171
63 99 166
63 99 166
61 98 165
62 98 163
62 99 166
62 99 166
62 98 166
63 99 172
62 98 166
62 98 164
62 99 168
62 99 168
63 99 172
62 98 166
62 98 167
62 98 168
62 98 163
62 98 165
62 98 168
61 97 163
62 98 168
62 99 170
62 98 164
62 99 169
62 98 167
62 99 167
62 99 169
62 98 164
63 99 169
62 98 167
62 98 168
62 98 166
62 99 173
62 99 173
63 99 173
62 99 170
62 98 167
62 99 171
61 98 161
62 99 169
62 98 163
62 98 170
62 99 175
61 98 164
62 98 171
62 98 171
62 99 170
62 98 168
62 99 172
62 99 169
62 98 170
63 99 171
62 99 166
63 100 179
61 98 165
63 99 171
62 99 170
62 99 170
62 98 167
62 99 170
62 99 171
61 98 170
62 99 169
62 99 172
62 99 172
61 98 167
61 98 174
62 98 169
62 99 169
62 98 170
62 98 168
62 99 174
63 100 177
62 99 175
63 99 174
62 99 178
63 99 177
62 98 170
62 99 176
62 99 174
62 99 175
62 99 174
62 99 178
62 98 170
62 98 173
62 98 173
62 99 175
62 99 174
62 99 174
62 99 180
62 99 175
63 100 180
62 99 178
62 99 179
102 130 194
166 189 230
205 227 255
205 227 255
205 227 255
205 227 255
205 227 255
205 227 255
205 226 255
205 226 255
205 226 255
205 226 255
205 226 255
205 226 255
205 226 255
205 226 255
205 226 255
204 226 255
204 226 255
204 226 255
204 226 255
204 226 255
204 226 255
204 226 255
204 226 255
204 226 255
204 226 255
204 226 255
204 226 255
204 226 255
204 226 255
204 226 255
204 226 255
204 226 255
204 226 255
204 226 255
204 226 255
204 226 255
203 226 255
203 226 255
203 226 255
203 226 255
203 226 255
203 226 255
203 226 255
203 226 255
203 226 255
203 225 255
203 225 255
203 225 255
203 225 255
203 225 255
203 225 255
203 225 255
203 225 255
203 225 255
203 225 255
203 225 255
203 225 255
202 225 255
202 225 255
202 225 255
202 225 255
202 225 255
202 225 255
202 225 255
202 225 255
202 225 255
202 225 255
202 225 255
202 225 255
202 225 255
202 225 255
202 225 255
202 225 255
202 225 255
202 225 255
202 225 255
202 225 255
202 225 255
202 225 255
202 225 255
202 225 255
202 225 255
202 225 255
201 225 255
201 225 255
201 225 255
201 225 255
201 225 255
201 225 255
201 225 255
201 225 255
201 225 255
201 224 255
201 224 255
201 224 255
201 224 255
201 224 255
201 224 255
201 224 255
201 224 255
201 224 255
201 224 255
201 224 255
201 224 255
201 224 255
201 224 255
201 224 255
201 224 255
201 224 255
201 224 255
201 224 255
201 224 255
201 224 255
201 224 255
201 224 255
201 224 255
201 224 255
201 224 255
201 224 255
201 224 255
201 224 255
201 224 255
201 224 255
201 224 255
201 224 255
201 224 255
201 224 255
201 224 255
201 224 255
201 224 255
201 224 255
201 224 255
201 224 255
201 224 255
201 224 255
201 224 255
201 224 255
201 224 255
201 224 255
201 224 255
201 224 255
201 224 255
201 224 255
201 224 255
201 224 255
201 224 255
201 224 255
201 224 255
201 224 255
201 224 255
201 224 255
201 224 255
201 224 255
201 224 255
201 224 255
201 224 255
201 224 255
201 224 255
201 224 255
201 224 255
201 224 255
201 224 255
201 224 255
201 224 255
201 224 255
201 224 255
201 224 255
201 224 255
201 224 255
201 224 255
201 224 255
201 224 255
201 224 255
201 224 255
201 224 255
201 224 255
201 224 255
201 224 255
201 224 255
201 225 255
201 225 255
201 225 255
201 225 255
201 225 255
201 225 255
201 225 255
201 225 255
201 225 255
201 225 255
202 225 255
202 225 255
202 225 255
202 225 255
202 225 255
202 225 255
202 225 255
202 225 255
202 225 255
202 225 255
202 225 255
202 225 255
202 225 255
202 225 255
202 225 255
202 225 255
202 225 255
202 225 255
202 225 255
202 225 255
202 225 255
202 225 255
202 225 255
202 225 255
202 225 255
203 225 255
203 225 255
203 225 255
203 225 255
203 225 255
203 225 255
203 225 255
203 225 255
203 225 255
203 225 255
203 225 255
203 225 255
203 226 255
203 226 255
203 226 255
203 226 255
203 226 255
203 226 255
203 226 255
203 226 255
203 226 255
204 226 255
204 226 255
204 226 255
204 226 255
204 226 255
204 226 255
204 226 255
204 226 255
204 226 255
204 226 255
204 226 255
204 226 255
204 226 255
204 226 255
204 226 255
204 226 255
204 226 255
204 226 255
204 226 255
204 226 255
204 226 255
62 98 170
62 98 168
62 98 161
62 98 161
61 97 159
61 97 158
62 99 170
62 98 162
61 98 162
62 99 168
62 98 165
62 99 172
63 99 169
62 98 162
62 99 172
61 97 156
62 98 164
62 98 162
62 98 161
63 99 167
62 98 166
62 99 168
62 98 166
62 98 164
62 98 164
62 99 167
62 99 168
62 98 167
62 99 167
63 99 173
62 99 169
63 99 168
60 97 159
62 99 168
61 97 162
61 98 164
61 97 163
63 99 172
61 98 163
62 98 164
62 99 166
63 99 171
62 99 168
62 99 166
62 98 161
61 97 156
62 98 162
63 99 171
62 98 164
62 98 164
62 98 161
62 99 168
62 98 165
61 98 165
62 99 168
63 99 171
62 99 167
62 98 161
61 98 161
63 99 169
62 99 169
62 98 165
62 98 161
61 98 162
62 98 164
62 98 171
62 98 165
62 98 163
62 98 167
62 98 168
61 97 157
62 99 173
62 98 167
61 98 161
62 98 164
62 98 169
62 98 169
62 99 174
62 98 168
62 99 168
62 98 170
61 97 160
62 99 167
61 98 169
62 98 170
61 98 165
62 98 162
62 99 169
62 99 168
63 99 173
63 99 177
63 99 172
62 99 169
62 99 170
63 99 167
62 99 170
62 98 165
62 99 169
61 98 166
62 99 170
63 100 176
63 99 175
62 99 171
62 99 168
62 99 175
62 98 166
63 100 175
62 99 171
62 98 169
62 99 173
62 99 172
62 99 173
62 98 167
62 99 170
61 98 166
62 98 172
62 99 172
61 98 167
62 99 174
62 98 172
62 99 175
62 99 176
62 99 173
62 98 166
62 99 175
63 99 174
62 99 172
61 98 171
62 99 174
62 99 173
62 99 175
63 99 176
62 98 170
61 98 171
62 99 176
62 99 176
62 99 176
62 99 176
62 99 175
62 99 176
62 99 180
62 99 174
61 98 177
62 99 179
128 154 208
186 207 242
205 227 255
205 227 255
205 227 255
205 227 255
205 227 255
205 227 255
205 226 255
205 226 255
205 226 255
205 226 255
205 226 255
205 226 255
205 226 255
205 226 255
205 226 255
204 226 255
204 226 255
204 226 255
204 226 255
204 226 255
204 226 255
204 226 255
204 226 255
204 226 255
204 226 255
204 226 255
204 226 255
204 226 255
204 226 255
204 226 255
204 226 255
204 226 255
204 226 255
204 226 255
204 226 255
204 226 255
203 226 255
203 226 255
203 226 255
203 226 255
203 226 255
203 226 255
203 226 255
203 226 255
203 226 255
203 225 255
203 225 255
203 225 255
203 225 255
203 225 255
203 225 255
203 225 255
203 225 255
203 225 255
203 225 255
203 225 255
203 225 255
202 225 255
202 225 255
202 225 255
202 225 255
202 225 255
202 225 255
202 225 255
202 225 255
202 225 255
202 225 255
202 225 255
202 225 255
202 225 255
202 225 255
202 225 255
202 225 255
202 225 255
202 225 255
202 225 255
202 225 255
202 225 255
202 225 255
202 225 255
202 225 255
202 225 255
202 225 255
201 225 255
201 225 255
201 225 255
201 225 255
201 225 255
201 225 255
201 225 255
201 225 255
201 225 255
201 225 255
201 224 255
201 224 255
201 224 255
201 224 255
201 224 255
201 224 255
201 224 255
201 224 255
201 224 255
201 224 255
201 224 255
201 224 255
201 224 255
201 224 255
201 224 255
201 224 255
201 224 255
201 224 255
201 224 255
201 224 255
201 224 255
201 224 255
201 224 255
201 224 255
201 224 255
201 224 255
201 224 255
201 224 255
201 224 255
201 224 255
201 224 255
201 224 255
201 224 255
201 224 255
201 224 255
201 224 255
201 224 255
201 224 255
201 224 255
201 224 255
201 224 255
201 224 255
201 224 255
201 224 255
201 224 255
201 224 255
201 224 255
201 224 255
201 224 255
201 224 255
201 224 255
201 224 255
201 224 255
201 224 255
201 224 255
201 224 255
201 224 255
201 224 255
201 224 255
201 224 255
201 224 255
201 224 255
201 224 255
201 224 255
201 224 255
201 224 255
201 224 255
201 224 255
201 224 255
201 224 255
201 224 255
201 224 255
201 224 255
201 224 255
201 224 255
201 224 255
201 224 255
201 224 255
201 224 255
201 224 255
201 224 255
201 225 255
201 225 255
201 225 255
201 225 255
201 225 255
201 225 255
201 225 255
201 225 255
201 225 255
201 225 255
202 225 255
202 225 255
202 225 255
202 225 255
202 225 255
202 225 255
202 225 255
202 225 255
202 225 255
202 225 255
202 225 255
202 225 255
202 225 255
202 225 255
202 225 255
202 225 255
202 225 255
202 225 255
202 225 255
202 225 255
202 225 255
202 225 255
202 225 255
202 225 255
202 225 255
202 225 255
203 225 255
203 225 255
203 225 255
203 225 255
203 225 255
203 225 255
203 225 255
203 225 255
203 225 255
203 225 255
203 225 255
203 225 255
203 226 255
203 226 255
203 226 255
203 226 255
203 226 255
203 226 255
203 226 255
203 226 255
203 226 255
204 226 255
204 226 255
204 226 255
204 226 255
204 226 255
204 226 255
204 226 255
204 226 255
204 226 255
204 226 255
204 226 255
204 226 255
204 226 255
204 226 255
204 226 255
204 226 255
204 226 255
204 226 255
204 226 255
204 226 255
204 226 255
205 226 255
205 226 255
62 98 161
62 98 167
62 98 160
63 99 169
62 98 159
61 97 163
63 99 170
63 99 168
61 97 159
63 99 171
61 98 161
62 98 165
61 98 164
63 99 165
62 98 161
62 98 164
62 98 168
61 98 162
62 99 166
62 98 166
61 98 164
62 98 164
62 99 167
62 98 160
63 99 168
63 99 168
62 98 158
62 99 167
62 98 161
62 98 164
62 98 163
62 99 168
62 99 170
62 99 169
61 98 163
62 99 167
62 98 164
61 98 158
63 99 167
62 98 163
62 98 161
62 98 164
62 98 166
62 98 169
62 98 159
62 98 169
63 99 166
62 99 169
62 99 168
62 98 160
61 98 165
62 99 171
61 98 164
63 99 165
61 97 165
62 98 164
63 99 169
63 99 169
62 98 165
62 98 169
62 98 164
62 98 160
63 99 169
62 98 163
62 99 175
62 98 166
62 99 166
62 98 164
62 98 162
63 99 172
62 99 173
62 98 167
62 98 162
63 99 170
62 98 162
62 98 165
62 98 159
62 98 168
63 99 170
62 98 169
62 98 167
62 99 174
63 99 170
63 99 168
62 99 170
61 97 158
63 99 172
62 98 161
62 98 164
61 98 168
63 99 171
62 98 168
62 99 168
62 99 169
62 98 165
62 98 166
62 99 170
62 99 168
63 99 170
62 99 172
62 99 170
62 98 164
61 98 173
62 99 173
61 98 165
62 98 169
63 99 169
63 99 173
63 99 171
62 99 174
62 99 175
62 99 170
63 100 175
61 98 168
63 99 175
63 99 172
63 100 176
61 97 165
63 100 177
62 99 167
62 99 174
63 99 173
61 98 173
62 99 174
62 99 168
62 99 173
62 98 175
61 98 172
63 99 174
61 98 174
63 99 175
62 99 169
62 98 173
62 99 174
62 99 175
62 99 174
63 99 177
61 98 175
62 99 170
62 98 171
62 99 175
62 99 175
62 99 173
62 99 177
61 98 174
62 99 180
147 170 217
201 222 252
205 227 255
205 227 255
205 227 255
205 227 255
205 227 255
205 227 255
205 226 255
205 226 255
205 226 255
205 226 255
205 226 255
205 226 255
205 226 255
205 226 255
205 226 255
204 226 255
204 226 255
204 226 255
204 226 255
204 226 255
204 226 255
204 226 255
204 226 255
204 226 255
204 226 255
204 226 255
204 226 255
204 226 255
204 226 255
204 226 255
204 226 255
204 226 255
204 226 255
204 226 255
204 226 255
204 226 255
203 226 255
203 226 255
203 226 255
203 226 255
203 226 255
203 226 255
203 226 255
203 226 255
203 226 255
203 225 255
203 225 255
203 225 255
203 225 255
203 225 255
203 225 255
203 225 255
203 225 255
203 225 255
203 225 255
203 225 255
203 225 255
203 225 255
202 225 255
202 225 255
202 225 255
202 225 255
202 225 255
202 225 255
202 225 255
202 225 255
202 225 255
202 225 255
202 225 255
202 225 255
202 225 255
202 225 255
202 225 255
202 225 255
202 225 255
202 225 255
202 225 255
202 225 255
202 225 255
202 225 255
202 225 255
202 225 255
202 225 255
202 225 255
201 225 255
201 225 255
201 225 255
201 225 255
201 225 255
201 225 255
201 225 255
201 225 255
201 225 255
201 225 255
201 224 255
201 224 255
201 224 255
201 224 255
201 224 255
201 224 255
201 224 255
201 224 255
201 224 255
201 224 255
201 224 255
201 224 255
201 224 255
201 224 255
201 224 255
201 224 255
201 224 255
201 224 255
201 224 255
201 224 255
201 224 255
201 224 255
201 224 255
201 224 255
201 224 255
201 224 255
201 224 255
201 224 255
201 224 255
201 224 255
201 224 255
201 224 255
201 224 255
201 224 255
201 224 255
201 224 255
201 224 255
201 224 255
201 224 255
201 224 255
201 224 255
201 224 255
201 224 255
201 224 255
201 224 255
201 224 255
201 224 255
201 224 255
201 224 255
201 224 255
201 224 255
201 224 255
201 224 255
201 224 255
201 224 255
201 224 255
201 224 255
201 224 255
201 224 255
201 224 255
201 224 255
201 224 255
201 224 255
201 224 255
201 224 255
201 224 255
201 224 255
201 224 255
201 224 255
201 224 255
201 224 255
201 224 255
201 224 255
201 224 255
201 224 255
201 225 255
201 225 255
201 225 255
201 225 255
201 225 255
201 225 255
201 225 255
201 225 255
201 225 255
201 225 255
202 225 255
202 225 255
202 225 255
202 225 255
202 225 255
202 225 255
202 225 255
202 225 255
202 225 255
202 225 255
202 225 255
202 225 255
202 225 255
202 225 255
202 225 255
202 225 255
202 225 255
202 225 255
202 225 255
202 225 255
202 225 255
202 225 255
202 225 255
202 225 255
202 225 255
202 225 255
202 225 255
203 225 255
203 225 255
203 225 255
203 225 255
203 225 255
203 225 255
203 225 255
203 225 255
203 225 255
203 225 255
203 225 255
203 225 255
203 226 255
203 226 255
203 226 255
203 226 255
203 226 255
203 226 255
203 226 255
203 226 255
203 226 255
204 226 255
204 226 255
204 226 255
204 226 255
204 226 255
204 226 255
204 226 255
204 226 255
204 226 255
204 226 255
204 226 255
204 226 255
204 226 255
204 226 255
204 226 255
204 226 255
204 226 255
204 226 255
204 226 255
204 226 255
204 226 255
205 226 255
205 226 255
205 226 255
205 226 255
61 97 158
62 98 165
63 99 171
61 96 161
63 99 171
62 98 168
62 98 164
62 98 164
61 98 161
62 99 165
62 98 164
62 98 162
62 99 170
62 98 163
62 99 167
62 98 169
62 98 160
61 97 162
62 98 167
62 99 168
63 99 172
62 99 167
63 99 167
62 99 167
62 98 160
63 99 168
62 99 169
63 99 164
62 98 162
61 97 160
62 98 163
63 99 167
62 98 166
62 99 170
62 98 169
62 98 162
62 99 169
61 97 158
62 99 170
63 99 171
63 99 166
62 98 163
63 99 169
63 99 171
62 99 172
62 99 168
62 99 166
62 98 163
62 98 160
62 98 166
61 98 167
62 98 161
61 97 157
63 99 170
62 99 168
62 98 166
61 98 162
62 98 165
61 97 160
62 99 171
62 98 164
62 98 164
63 99 169
62 98 163
62 98 161
64 100 173
62 98 165
62 99 163
62 98 167
62 99 172
62 99 170
62 98 167
62 98 164
62 98 167
61 98 167
62 98 164
62 99 169
62 99 166
62 99 167
62 98 163
62 99 172
62 99 172
62 99 166
62 99 168
62 98 167
62 98 167
62 98 166
62 99 170
62 99 169
62 98 164
62 99 167
63 99 172
62 99 171
63 99 167
62 98 168
62 99 176
62 98 165
62 98 165
62 98 172
63 99 171
62 99 168
62 98 169
61 98 166
62 99 172
62 99 173
63 99 167
62 98 169
62 98 165
62 98 169
63 99 175
62 98 170
62 98 161
63 99 173
63 99 171
61 98 162
63 100 176
62 99 172
62 98 168
63 99 176
63 100 173
62 98 169
62 99 174
62 98 171
62 99 176
62 98 169
62 99 171
63 99 171
62 98 171
62 99 172
62 99 174
62 99 176
61 98 170
62 99 174
62 99 177
62 99 174
62 99 173
62 99 175
62 98 173
62 99 174
62 99 177
62 99 173
63 99 176
62 99 175
61 98 169
63 99 178
62 99 178
63 100 179
75 109 182
159 182 225
202 224 254
205 227 255
205 227 255
205 227 255
205 227 255
205 227 255
205 227 255
205 226 255
205 226 255
205 226 255
205 226 255
205 226 255
205 226 255
205 226 255
205 226 255
205 226 255
204 226 255
204 226 255
204 226 255
204 226 255
204 226 255
204 226 255
204 226 255
204 226 255
204 226 255
204 226 255
204 226 255
204 226 255
204 226 255
204 226 255
204 226 255
204 226 255
204 226 255
204 226 255
204 226 255
204 226 255
204 226 255
203 226 255
203 226 255
203 226 255
203 226 255
203 226 255
203 226 255
203 226 255
203 226 255
203 226 255
203 225 255
203 225 255
203 225 255
203 225 255
203 225 255
203 225 255
203 225 255
203 225 255
203 225 255
203 225 255
203 225 255
203 225 255
203 225 255
202 225 255
202 225 255
202 225 255
202 225 255
202 225 255
202 225 255
202 225 255
202 225 255
202 225 255
202 225 255
202 225 255
202 225 255
202 225 255
202 225 255
202 225 255
202 225 255
202 225 255
202 225 255
202 225 255
202 225 255
202 225 255
202 225 255
202 225 255
202 225 255
202 225 255
202 225 255
201 225 255
201 225 255
201 225 255
201 225 255
201 225 255
201 225 255
201 225 255
201 225 255
201 225 255
201 225 255
201 225 255
201 224 255
201 224 255
201 224 255
201 224 255
201 224 255
201 224 255
201 224 255
201 224 255
201 224 255
201 224 255
201 224 255
201 224 255
201 224 255
201 224 255
201 224 255
201 224 255
201 224 255
201 224 255
201 224 255
201 224 255
201 224 255
201 224 255
201 224 255
201 224 255
201 224 255
201 224 255
201 224 255
201 224 255
201 224 255
201 224 255
201 224 255
201 224 255
201 224 255
201 224 255
201 224 255
201 224 255
201 224 255
201 224 255
201 224 255
201 224 255
201 224 255
201 224 255
201 224 255
201 224 255
201 224 255
201 224 255
201 224 255
201 224 255
201 224 255
201 224 255
201 224 255
201 224 255
201 224 255
201 224 255
201 224 255
201 224 255
201 224 255
201 224 255
201 224 255
201 224 255
201 224 255
201 224 255
201 224 255
201 224 255
201 224 255
201 224 255
201 224 255
201 224 255
201 224 255
201 225 255
201 225 255
201 225 255
201 225 255
201 225 255
201 225 255
201 225 255
201 225 255
201 225 255
201 225 255
201 225 255
202 225 255
202 225 255
202 225 255
202 225 255
202 225 255
202 225 255
202 225 255
202 225 255
202 225 255
202 225 255
202 225 255
202 225 255
202 225 255
202 225 255
202 225 255
202 225 255
202 225 255
202 225 255
202 225 255
202 225 255
202 225 255
202 225 255
202 225 255
202 225 255
202 225 255
202 225 255
203 225 255
203 225 255
203 225 255
203 225 255
203 225 255
203 225 255
203 225 255
203 225 255
203 225 255
203 225 255
203 225 255
203 225 255
203 225 255
203 226 255
203 226 255
203 226 255
203 226 255
203 226 255
203 226 255
203 226 255
203 226 255
203 226 255
203 226 255
204 226 255
204 226 255
204 226 255
204 226 255
204 226 255
204 226 255
204 226 255
204 226 255
204 226 255
204 226 255
204 226 255
204 226 255
204 226 255
204 226 255
204 226 255
204 226 255
204 226 255
204 226 255
204 226 255
204 226 255
205 226 255
205 226 255
205 226 255
205 226 255
205 226 255
205 226 255
62 99 170
63 100 172
62 98 163
62 98 164
62 98 162
61 98 165
62 98 167
62 98 162
62 98 163
61 97 157
62 99 167
62 98 167
62 99 164
62 99 169
61 98 167
62 98 164
62 98 162
61 97 157
62 98 164
61 97 164
61 98 165
62 98 163
62 99 167
62 98 165
62 98 162
62 98 164
62 98 166
62 98 169
62 98 165
62 98 166
62 99 172
63 99 170
62 98 171
62 98 163
62 98 161
63 99 171
62 98 159
63 99 169
61 98 166
63 99 168
62 98 160
61 98 159
61 97 160
62 99 165
62 99 168
62 98 159
62 98 166
62 99 165
62 98 164
62 99 168
62 99 173
62 98 169
62 98 162
62 99 173
62 99 166
63 99 168
62 99 167
62 98 164
61 97 157
62 98 167
62 98 163
61 97 160
62 99 168
63 99 170
62 98 172
62 99 169
61 98 167
62 99 168
63 99 174
62 98 162
63 99 164
62 98 161
62 98 170
62 99 169
63 99 169
62 99 172
62 99 168
62 99 166
61 98 162
62 98 163
62 98 164
62 98 168
61 98 164
62 98 163
62 99 170
63 99 167
62 98 164
63 99 169
62 99 171
62 99 171
62 99 173
61 97 161
62 99 171
63 99 168
63 99 168
62 98 165
62 98 167
61 98 166
63 100 172
62 98 167
62 98 166
62 99 171
62 98 169
62 99 170
62 98 167
63 99 177
62 99 170
62 99 173
62 99 169
63 99 166
62 99 168
61 98 169
62 98 167
62 99 170
62 98 172
62 99 172
62 98 169
61 98 171
62 99 172
63 99 175
62 98 169
61 98 166
62 99 173
62 99 175
62 99 175
62 99 173
62 99 174
62 99 178
63 99 172
62 99 176
62 99 175
62 99 177
62 99 175
62 99 174
63 99 172
62 99 173
62 99 175
62 99 169
63 99 176
62 99 175
61 98 174
62 98 173
63 99 175
63 99 176
62 99 175
62 99 176
62 99 176
61 98 172
62 99 179
103 131 194
180 202 238
205 227 255
205 227 255
205 227 255
205 227 255
205 227 255
205 227 255
205 227 255
205 226 255
205 226 255
205 226 255
205 226 255
205 226 255
205 226 255
205 226 255
205 226 255
205 226 255
204 226 255
204 226 255
204 226 255
204 226 255
204 226 255
204 226 255
204 226 255
204 226 255
204 226 255
204 226 255
204 226 255
204 226 255
204 226 255
204 226 255
204 226 255
204 226 255
204 226 255
204 226 255
204 226 255
204 226 255
203 226 255
203 226 255
203 226 255
203 226 255
203 226 255
203 226 255
203 226 255
203 226 255
203 226 255
203 226 255
203 225 255
203 225 255
203 225 255
203 225 255
203 225 255
203 225 255
203 225 255
203 225 255
203 225 255
203 225 255
203 225 255
203 225 255
203 225 255
202 225 255
202 225 255
202 225 255
202 225 255
202 225 255
202 225 255
202 225 255
202 225 255
202 225 255
202 225 255
202 225 255
202 225 255
202 225 255
202 225 255
202 225 255
202 225 255
202 225 255
202 225 255
202 225 255
202 225 255
202 225 255
202 225 255
202 225 255
202 225 255
202 225 255
202 225 255
202 225 255
201 225 255
201 225 255
201 225 255
201 225 255
201 225 255
201 225 255
201 225 255
201 225 255
201 225 255
201 225 255
201 225 255
201 224 255
201 224 255
201 224 255
201 224 255
201 224 255
201 224 255
201 224 255
201 224 255
201 224 255
201 224 255
201 224 255
201 224 255
201 224 255
201 224 255
201 224 255
201 224 255
201 224 255
201 224 255
201 224 255
201 224 255
201 224 255
201 224 255
201 224 255
201 224 255
201 224 255
201 224 255
201 224 255
201 224 255
201 224 255
201 224 255
201 224 255
201 224 255
201 224 255
201 224 255
201 224 255
201 224 255
201 224 255
201 224 255
201 224 255
201 224 255
201 224 255
201 224 255
201 224 255
201 224 255
201 224 255
201 224 255
201 224 255
201 224 255
201 224 255
201 224 255
201 224 255
201 224 255
201 224 255
201 224 255
201 224 255
201 224 255
201 224 255
201 224 255
201 224 255
201 224 255
201 224 255
201 224 255
201 224 255
201 225 255
201 225 255
201 225 255
201 225 255
201 225 255
201 225 255
201 225 255
201 225 255
201 225 255
201 225 255
201 225 255
202 225 255
202 225 255
202 225 255
202 225 255
202 225 255
202 225 255
202 225 255
202 225 255
202 225 255
202 225 255
202 225 255
202 225 255
202 225 255
202 225 255
202 225 255
202 225 255
202 225 255
202 225 255
202 225 255
202 225 255
202 225 255
202 225 255
202 225 255
202 225 255
202 225 255
202 225 255
202 225 255
203 225 255
203 225 255
203 225 255
203 225 255
203 225 255
203 225 255
203 225 255
203 225 255
203 225 255
203 225 255
203 225 255
203 225 255
203 225 255
203 226 255
203 226 255
203 226 255
203 226 255
203 226 255
203 226 255
203 226 255
203 226 255
203 226 255
203 226 255
204 226 255
204 226 255
204 226 255
204 226 255
204 226 255
204 226 255
204 226 255
204 226 255
204 226 255
204 226 255
204 226 255
204 226 255
204 226 255
204 226 255
204 226 255
204 226 255
204 226 255
204 226 255
204 226 255
204 226 255
205 226 255
205 226 255
205 226 255
205 226 255
205 226 255
205 226 255
205 226 255
205 226 255
62 99 168
61 97 164
62 99 167
61 98 163
62 98 169
61 97 158
61 97 157
61 98 165
61 97 161
62 99 170
62 98 161
62 98 167
62 98 165
62 98 161
63 99 168
63 99 174
62 98 165
62 98 166
62 98 164
62 98 158
63 99 170
62 98 164
62 98 162
62 99 171
62 98 166
63 99 167
62 98 160
62 98 164
62 98 161
61 98 166
62 98 164
61 97 158
62 99 168
62 98 160
62 99 167
62 99 169
61 98 161
63 99 165
62 98 167
62 98 166
62 98 161
62 98 161
61 98 165
62 99 168
63 99 170
62 99 166
61 98 163
62 98 160
62 99 169
61 97 158
62 99 170
62 98 168
62 98 162
62 98 161
61 97 160
62 99 171
62 98 166
61 98 160
62 98 167
62 98 164
62 99 165
62 98 161
62 98 170
61 97 158
62 99 171
62 99 169
62 98 164
62 98 165
61 97 157
63 99 171
62 99 164
63 99 170
61 98 163
63 99 169
62 98 164
62 99 168
62 99 169
61 97 164
62 98 169
61 98 166
62 98 166
62 99 171
62 98 170
62 98 166
62 98 164
62 99 169
62 98 166
62 98 160
62 98 165
62 98 164
62 99 170
62 99 171
62 99 174
62 99 171
62 99 171
62 98 168
62 99 170
62 98 168
62 99 168
63 99 171
62 98 169
63 99 172
62 99 166
62 98 168
62 98 167
62 99 171
62 98 162
62 98 165
62 99 171
62 99 171
63 99 164
63 99 169
62 98 165
63 100 175
62 99 168
62 99 174
62 98 170
62 99 170
63 99 170
62 98 169
62 98 173
63 99 177
63 100 175
63 99 171
62 99 174
62 99 172
63 99 171
61 98 169
62 98 172
63 99 174
63 99 177
63 99 173
61 98 174
61 97 168
62 98 172
63 100 177
61 98 176
62 98 170
62 99 174
63 99 179
62 99 171
62 99 174
62 99 174
62 99 176
62 99 174
61 98 174
62 99 178
62 99 173
62 99 179
62 99 177
62 99 178
117 144 200
199 220 251
205 227 255
205 227 255
205 227 255
205 227 255
205 227 255
205 227 255
205 227 255
205 227 255
205 226 255
205 226 255
205 226 255
205 226 255
205 226 255
205 226 255
205 226 255
205 226 255
204 226 255
204 226 255
204 226 255
204 226 255
204 226 255
204 226 255
204 226 255
204 226 255
204 226 255
204 226 255
204 226 255
204 226 255
204 226 255
204 226 255
204 226 255
204 226 255
204 226 255
204 226 255
204 226 255
204 226 255
203 226 255
203 226 255
203 226 255
203 226 255
203 226 255
203 226 255
203 226 255
203 226 255
203 226 255
203 226 255
203 225 255
203 225 255
203 225 255
203 225 255
203 225 255
203 225 255
203 225 255
203 225 255
203 225 255
203 225 255
203 225 255
203 225 255
203 225 255
202 225 255
202 225 255
202 225 255
202 225 255
202 225 255
202 225 255
202 225 255
202 225 255
202 225 255
202 225 255
202 225 255
202 225 255
202 225 255
202 225 255
202 225 255
202 225 255
202 225 255
202 225 255
202 225 255
202 225 255
202 225 255
202 225 255
202 225 255
202 225 255
202 225 255
202 225 255
202 225 255
202 225 255
201 225 255
201 225 255
201 225 255
201 225 255
201 225 255
201 225 255
201 225 255
201 225 255
201 225 255
201 225 255
201 225 255
201 225 255
201 224 255
201 224 255
201 224 255
201 224 255
201 224 255
201 224 255
201 224 255
201 224 255
201 224 255
201 224 255
201 224 255
201 224 255
201 224 255
201 224 255
201 224 255
201 224 255
201 224 255
201 224 255
201 224 255
201 224 255
201 224 255
201 224 255
201 224 255
201 224 255
201 224 255
201 224 255
201 224 255
201 224 255
201 224 255
201 224 255
201 224 255
201 224 255
201 224 255
201 224 255
201 224 255
201 224 255
201 224 255
201 224 255
201 224 255
201 224 255
201 224 255
201 224 255
201 224 255
201 224 255
201 224 255
201 224 255
201 224 255
201 224 255
201 224 255
201 224 255
201 224 255
201 224 255
201 224 255
201 224 255
201 224 255
201 225 255
201 225 255
201 225 255
201 225 255
201 225 255
201 225 255
201 225 255
201 225 255
201 225 255
201 225 255
201 225 255
201 225 255
202 225 255
202 225 255
202 225 255
202 225 255
202 225 255
202 225 255
202 225 255
202 225 255
202 225 255
202 225 255
202 225 255
202 225 255
202 225 255
202 225 255
202 225 255
202 225 255
202 225 255
202 225 255
202 225 255
202 225 255
202 225 255
202 225 255
202 225 255
202 225 255
202 225 255
202 225 255
202 225 255
202 225 255
203 225 255
203 225 255
203 225 255
203 225 255
203 225 255
203 225 255
203 225 255
203 225 255
203 225 255
203 225 255
203 225 255
203 225 255
203 225 255
203 226 255
203 226 255
203 226 255
203 226 255
203 226 255
203 226 255
203 226 255
203 226 255
203 226 255
204 226 255
204 226 255
204 226 255
204 226 255
204 226 255
204 226 255
204 226 255
204 226 255
204 226 255
204 226 255
204 226 255
204 226 255
204 226 255
204 226 255
204 226 255
204 226 255
204 226 255
204 226 255
204 226 255
204 226 255
204 226 255
205 226 255
205 226 255
205 226 255
205 226 255
205 226 255
205 226 255
205 226 255
205 226 255
205 226 255
205 227 255
61 97 160
62 98 165
62 99 166
62 98 164
62 98 162
62 98 164
62 98 164
62 99 170
61 97 154
61 97 159
62 99 164
62 98 169
62 98 163
62 98 160
62 99 170
62 98 166
62 98 167
62 98 164
62 98 160
63 99 165
62 98 165
62 99 169
62 99 168
61 97 157
62 98 163
63 99 166
62 99 169
63 99 166
63 99 171
61 97 159
62 98 160
62 98 165
63 99 170
62 99 169
62 98 165
62 98 162
62 99 171
63 99 174
62 98 162
62 98 159
61 98 163
63 99 170
62 99 173
62 98 161
62 99 169
62 98 167
62 98 163
62 98 165
61 98 166
62 98 167
62 98 161
62 98 160
61 98 162
62 98 163
61 97 160
61 98 162
63 99 169
62 98 169
62 98 166
62 98 167
63 99 166
62 99 166
61 97 161
63 99 169
62 98 167
62 98 167
63 99 167
62 98 165
61 98 166
62 98 168
62 99 168
62 98 167
63 99 172
61 97 161
62 99 169
62 98 165
62 98 169
62 99 170
62 99 167
62 98 169
63 99 173
62 98 163
63 99 175
61 98 162
62 98 164
62 98 164
62 98 170
62 98 169
62 99 169
62 98 165
63 99 168
62 99 169
62 98 167
62 98 170
61 98 168
61 98 165
63 99 167
62 99 168
62 98 171
62 98 166
62 98 166
62 99 171
62 98 170
63 99 169
62 98 168
62 98 165
62 98 163
62 99 169
61 97 163
62 98 169
63 99 169
62 98 166
62 99 175
62 99 174
63 99 172
62 99 172
62 98 167
62 99 173
62 99 169
63 100 175
63 100 177
63 99 172
62 99 170
62 98 168
62 99 174
61 98 171
61 98 166
62 99 170
62 99 175
62 99 173
63 99 177
62 99 171
63 99 169
62 99 170
62 98 166
61 98 170
62 99 172
62 99 176
62 99 174
62 99 174
61 98 168
62 99 175
62 99 174
62 99 176
62 99 176
62 99 176
62 98 176
61 98 174
62 99 179
61 98 171
62 99 178
62 99 177
83 114 185
155 178 223
203 225 254
205 227 255
205 227 255
205 227 255
205 227 255
205 227 255
205 227 255
205 227 255
205 226 255
205 226 255
205 226 255
205 226 255
205 226 255
205 226 255
205 226 255
205 226 255
205 226 255
204 226 255
204 226 255
204 226 255
204 226 255
204 226 255
204 226 255
204 226 255
204 226 255
204 226 255
204 226 255
204 226 255
204 226 255
204 226 255
204 226 255
204 226 255
204 226 255
204 226 255
204 226 255
204 226 255
204 226 255
204 226 255
203 226 255
203 226 255
203 226 255
203 226 255
203 226 255
203 226 255
203 226 255
203 226 255
203 226 255
203 225 255
203 225 255
203 225 255
203 225 255
203 225 255
203 225 255
203 225 255
203 225 255
203 225 255
203 225 255
203 225 255
203 225 255
203 225 255
202 225 255
202 225 255
202 225 255
202 225 255
202 225 255
202 225 255
202 225 255
202 225 255
202 225 255
202 225 255
202 225 255
202 225 255
202 225 255
202 225 255
202 225 255
202 225 255
202 225 255
202 225 255
202 225 255
202 225 255
202 225 255
202 225 255
202 225 255
202 225 255
202 225 255
202 225 255
202 225 255
202 225 255
202 225 255
201 225 255
201 225 255
201 225 255
201 225 255
201 225 255
201 225 255
201 225 255
201 225 255
201 225 255
201 225 255
201 225 255
201 225 255
201 225 255
201 225 255
201 224 255
201 224 255
201 224 255
201 224 255
201 224 255
201 224 255
201 224 255
201 224 255
201 224 255
201 224 255
201 224 255
201 224 255
201 224 255
201 224 255
201 224 255
201 224 255
201 224 255
201 224 255
201 224 255
201 224 255
201 224 255
201 224 255
201 224 255
201 224 255
201 224 255
201 224 255
201 224 255
201 224 255
201 224 255
201 224 255
201 224 255
201 224 255
201 224 255
201 224 255
201 224 255
201 224 255
201 224 255
201 224 255
201 224 255
201 224 255
201 224 255
201 224 255
201 224 255
201 224 255
201 224 255
201 225 255
201 225 255
201 225 255
201 225 255
201 225 255
201 225 255
201 225 255
201 225 255
201 225 255
201 225 255
201 225 255
201 225 255
201 225 255
201 225 255
202 225 255
202 225 255
202 225 255
202 225 255
202 225 255
202 225 255
202 225 255
202 225 255
202 225 255
202 225 255
202 225 255
202 225 255
202 225 255
202 225 255
202 225 255
202 225 255
202 225 255
202 225 255
202 225 255
202 225 255
202 225 255
202 225 255
202 225 255
202 225 255
202 225 255
202 225 255
202 225 255
202 225 255
202 225 255
203 225 255
203 225 255
203 225 255
203 225 255
203 225 255
203 225 255
203 225 255
203 225 255
203 225 255
203 225 255
203 225 255
203 225 255
203 225 255
203 226 255
203 226 255
203 226 255
203 226 255
203 226 255
203 226 255
203 226 255
203 226 255
203 226 255
203 226 255
204 226 255
204 226 255
204 226 255
204 226 255
204 226 255
204 226 255
204 226 255
204 226 255
204 226 255
204 226 255
204 226 255
204 226 255
204 226 255
204 226 255
204 226 255
204 226 255
204 226 255
204 226 255
204 226 255
204 226 255
205 226 255
205 226 255
205 226 255
205 226 255
205 226 255
205 226 255
205 226 255
205 226 255
205 226 255
205 227 255
205 227 255
205 227 255
61 98 165
61 97 158
62 98 168
61 98 165
61 98 160
61 98 162
64 100 176
63 99 163
62 98 161
63 99 165
61 98 162
62 99 171
62 98 160
62 98 161
62 99 167
62 99 166
62 98 167
62 99 163
62 98 164
62 98 161
62 98 168
62 98 162
62 98 162
63 99 168
63 99 165
62 98 163
62 98 165
62 98 162
62 98 159
62 98 163
62 98 166
63 99 166
62 98 160
61 97 160
61 97 156
61 98 162
62 98 163
62 98 167
62 98 159
62 99 168
62 98 164
62 98 162
63 99 169
62 98 167
62 98 158
61 98 160
62 98 164
62 99 169
62 98 166
63 99 169
63 99 170
62 99 167
62 98 168
61 98 161
63 99 172
62 99 173
61 97 166
62 98 162
62 98 166
61 97 159
62 98 166
63 99 165
62 98 160
62 98 166
62 98 161
62 98 164
63 100 172
62 98 165
62 98 165
62 99 172
63 99 168
62 98 164
63 100 172
61 97 150
62 99 166
62 98 169
61 98 164
62 99 166
62 98 164
62 98 167
62 99 164
62 98 163
62 98 167
61 97 158
61 98 172
62 99 170
63 99 168
62 98 168
62 98 164
62 99 163
61 97 159
62 99 167
62 99 172
61 98 168
62 98 163
62 99 171
62 98 170
62 98 166
61 98 166
61 98 165
62 98 167
62 98 167
63 99 170
62 98 170
61 98 168
63 100 174
61 98 163
63 99 168
62 99 171
61 98 167
62 98 166
62 99 170
62 99 172
61 98 161
61 98 167
62 99 171
62 98 169
62 98 170
62 99 172
62 99 170
62 98 164
62 99 174
62 98 167
62 99 171
62 99 173
62 98 166
62 98 170
62 98 170
62 98 170
63 100 173
62 99 172
62 99 175
62 99 175
61 98 168
62 98 171
62 99 171
62 99 173
61 98 172
63 99 174
62 99 174
63 99 173
62 99 175
62 99 173
61 98 172
62 98 171
62 99 175
62 98 172
61 98 173
62 98 171
63 100 179
62 99 175
62 98 175
62 99 177
62 99 176
100 128 194
187 209 243
205 227 255
205 227 255
205 227 255
205 227 255
205 227 255
205 227 255
205 227 255
205 227 255
205 227 255
205 226 255
205 226 255
205 226 255
205 226 255
205 226 255
205 226 255
205 226 255
205 226 255
204 226 255
204 226 255
204 226 255
204 226 255
204 226 255
204 226 255
204 226 255
204 226 255
204 226 255
204 226 255
204 226 255
204 226 255
204 226 255
204 226 255
204 226 255
204 226 255
204 226 255
204 226 255
204 226 255
204 226 255
204 226 255
203 226 255
203 226 255
203 226 255
203 226 255
203 226 255
203 226 255
203 226 255
203 226 255
203 226 255
203 225 255
203 225 255
203 225 255
203 225 255
203 225 255
203 225 255
203 225 255
203 225 255
203 225 255
203 225 255
203 225 255
203 225 255
203 225 255
203 225 255
202 225 255
202 225 255
202 225 255
202 225 255
202 225 255
202 225 255
202 225 255
202 225 255
202 225 255
202 225 255
202 225 255
202 225 255
202 225 255
202 225 255
202 225 255
202 225 255
202 225 255
202 225 255
202 225 255
202 225 255
202 225 255
202 225 255
202 225 255
202 225 255
202 225 255
202 225 255
202 225 255
202 225 255
202 225 255
202 225 255
201 225 255
201 225 255
201 225 255
201 225 255
201 225 255
201 225 255
201 225 255
201 225 255
201 225 255
201 225 255
201 225 255
201 225 255
201 225 255
201 225 255
201 225 255
201 224 255
201 224 255
201 224 255
201 224 255
201 224 255
201 224 255
201 224 255
201 224 255
201 224 255
201 224 255
201 224 255
201 224 255
201 224 255
201 224 255
201 224 255
201 224 255
201 224 255
201 224 255
201 224 255
201 224 255
201 224 255
201 224 255
201 224 255
201 224 255
201 224 255
201 224 255
201 224 255
201 224 255
201 224 255
201 224 255
201 224 255
201 224 255
201 224 255
201 224 255
201 224 255
201 225 255
201 225 255
201 225 255
201 225 255
201 225 255
201 225 255
201 225 255
201 225 255
201 225 255
201 225 255
201 225 255
201 225 255
201 225 255
201 225 255
201 225 255
202 225 255
202 225 255
202 225 255
202 225 255
202 225 255
202 225 255
202 225 255
202 225 255
202 225 255
202 225 255
202 225 255
202 225 255
202 225 255
202 225 255
202 225 255
202 225 255
202 225 255
202 225 255
202 225 255
202 225 255
202 225 255
202 225 255
202 225 255
202 225 255
202 225 255
202 225 255
202 225 255
202 225 255
202 225 255
202 225 255
202 225 255
203 225 255
203 225 255
203 225 255
203 225 255
203 225 255
203 225 255
203 225 255
203 225 255
203 225 255
203 225 255
203 225 255
203 225 255
203 225 255
203 226 255
203 226 255
203 226 255
203 226 255
203 226 255
203 226 255
203 226 255
203 226 255
203 226 255
204 226 255
204 226 255
204 226 255
204 226 255
204 226 255
204 226 255
204 226 255
204 226 255
204 226 255
204 226 255
204 226 255
204 226 255
204 226 255
204 226 255
204 226 255
204 226 255
204 226 255
204 226 255
204 226 255
204 226 255
204 226 255
205 226 255
205 226 255
205 226 255
205 226 255
205 226 255
205 226 255
205 226 255
205 226 255
205 226 255
205 227 255
205 227 255
205 227 255
205 227 255
205 227 255
62 98 163
62 99 171
61 97 164
62 98 168
63 99 166
62 99 168
63 99 170
61 97 156
62 99 168
62 98 160
62 98 165
62 98 166
61 98 162
63 99 169
62 98 165
62 99 171
63 99 162
61 97 164
63 99 168
61 98 164
63 99 166
62 99 165
62 98 162
62 98 167
62 98 161
61 97 151
63 99 167
60 96 156
62 98 164
62 98 157
61 97 161
62 98 163
63 99 172
62 98 158
61 98 162
61 98 164
61 98 166
62 98 163
62 98 165
62 98 162
62 98 166
62 98 164
63 99 169
62 97 157
62 99 169
61 98 161
62 99 168
62 98 164
62 98 162
63 99 165
62 98 162
62 98 165
62 98 164
63 99 166
62 99 170
62 99 163
62 98 161
62 99 163
62 98 165
62 98 164
63 99 170
62 98 163
63 99 160
62 98 163
61 98 166
62 98 170
62 98 164
62 98 166
62 98 163
63 99 169
63 99 163
62 98 162
63 99 173
62 98 166
62 98 162
62 98 168
62 99 167
62 98 166
63 99 172
62 98 164
62 98 163
62 98 166
62 98 167
62 99 169
61 98 170
62 98 163
61 97 166
61 98 169
61 98 167
62 98 168
62 98 163
62 99 170
63 99 169
62 99 169
62 98 162
61 98 168
62 99 173
63 99 174
63 99 170
62 99 167
62 98 167
62 98 167
63 99 176
62 98 166
63 99 165
62 99 173
62 99 170
61 97 161
62 98 169
63 99 167
63 99 171
62 98 163
62 99 167
63 99 170
62 98 168
62 98 166
62 99 170
62 99 171
62 98 171
61 97 160
62 98 170
62 99 172
63 99 171
63 99 172
62 98 169
62 99 171
62 98 168
62 99 169
61 97 164
61 98 169
62 98 168
62 98 174
61 98 166
62 99 173
62 99 171
62 98 166
62 99 172
62 98 170
62 99 173
62 98 170
62 99 171
62 99 177
62 98 172
63 99 173
62 99 178
63 99 171
62 99 176
62 99 173
62 98 174
61 98 174
62 98 172
62 99 176
62 99 176
62 98 175
61 97 173
62 99 179
140 164 214
197 218 249
205 227 255
205 227 255
205 227 255
205 227 255
205 227 255
205 227 255
205 227 255
205 227 255
205 227 255
205 226 255
205 226 255
205 226 255
205 226 255
205 226 255
205 226 255
205 226 255
205 226 255
204 226 255
204 226 255
204 226 255
204 226 255
204 226 255
204 226 255
204 226 255
204 226 255
204 226 255
204 226 255
204 226 255
204 226 255
204 226 255
204 226 255
204 226 255
204 226 255
204 226 255
204 226 255
204 226 255
204 226 255
204 226 255
203 226 255
203 226 255
203 226 255
203 226 255
203 226 255
203 226 255
203 226 255
203 226 255
203 226 255
203 226 255
203 225 255
203 225 255
203 225 255
203 225 255
203 225 255
203 225 255
203 225 255
203 225 255
203 225 255
203 225 255
203 225 255
203 225 255
203 225 255
202 225 255
202 225 255
202 225 255
202 225 255
202 225 255
202 225 255
202 225 255
202 225 255
202 225 255
202 225 255
202 225 255
202 225 255
202 225 255
202 225 255
202 225 255
202 225 255
202 225 255
202 225 255
202 225 255
202 225 255
202 225 255
202 225 255
202 225 255
202 225 255
202 225 255
202 225 255
202 225 255
202 225 255
202 225 255
202 225 255
202 225 255
202 225 255
201 225 255
201 225 255
201 225 255
201 225 255
201 225 255
201 225 255
201 225 255
201 225 255
201 225 255
201 225 255
201 225 255
201 225 255
201 225 255
201 225 255
201 225 255
201 225 255
201 225 255
201 225 255
201 225 255
201 224 255
201 224 255
201 224 255
201 224 255
201 224 255
201 224 255
201 224 255
201 224 255
201 224 255
201 224 255
201 224 255
201 224 255
201 224 255
201 224 255
201 224 255
201 224 255
201 224 255
201 224 255
201 225 255
201 225 255
201 225 255
201 225 255
201 225 255
201 225 255
201 225 255
201 225 255
201 225 255
201 225 255
201 225 255
201 225 255
201 225 255
201 225 255
201 225 255
201 225 255
201 225 255
201 225 255
201 225 255
201 225 255
201 225 255
202 225 255
202 225 255
202 225 255
202 225 255
202 225 255
202 225 255
202 225 255
202 225 255
202 225 255
202 225 255
202 225 255
202 225 255
202 225 255
202 225 255
202 225 255
202 225 255
202 225 255
202 225 255
202 225 255
202 225 255
202 225 255
202 225 255
202 225 255
202 225 255
202 225 255
202 225 255
202 225 255
202 225 255
202 225 255
202 225 255
202 225 255
203 225 255
203 225 255
203 225 255
203 225 255
203 225 255
203 225 255
203 225 255
203 225 255
203 225 255
203 225 255
203 225 255
203 225 255
203 225 255
203 225 255
203 226 255
203 226 255
203 226 255
203 226 255
203 226 255
203 226 255
203 226 255
203 226 255
203 226 255
204 226 255
204 226 255
204 226 255
204 226 255
204 226 255
204 226 255
204 226 255
204 226 255
204 226 255
204 226 255
204 226 255
204 226 255
204 226 255
204 226 255
204 226 255
204 226 255
204 226 255
204 226 255
204 226 255
204 226 255
204 226 255
205 226 255
205 226 255
205 226 255
205 226 255
205 226 255
205 226 255
205 226 255
205 226 255
205 226 255
205 227 255
205 227 255
205 227 255
205 227 255
205 227 255
205 227 255
205 227 255
62 99 171
62 98 164
62 97 159
62 98 164
62 99 164
61 97 156
62 98 162
62 98 164
62 99 167
62 98 167
62 98 163
62 98 162
62 98 159
62 98 162
62 99 167
62 98 164
62 99 170
62 98 164
62 98 166
62 98 159
62 98 166
62 98 163
62 98 164
61 97 158
61 97 161
62 99 166
63 99 168
63 99 167
63 99 166
63 99 164
62 98 164
62 98 158
62 98 159
63 100 168
62 98 161
63 99 164
62 98 160
62 98 163
62 98 162
62 99 169
61 98 158
62 98 159
61 98 164
62 99 168
61 97 163
62 98 163
62 99 167
63 99 166
61 98 161
62 98 166
61 97 158
62 98 164
62 98 164
63 99 170
63 99 171
62 99 165
61 98 165
62 98 167
62 99 167
62 98 163
62 99 168
62 98 163
62 98 167
62 98 164
61 98 164
62 99 166
62 98 167
63 99 165
62 99 167
62 99 166
62 99 170
61 98 163
62 99 164
62 98 166
62 98 166
62 98 165
63 99 167
62 98 165
62 98 166
63 99 173
63 99 169
62 98 166
62 98 167
62 98 164
61 98 168
62 98 164
62 99 165
62 98 166
62 99 169
61 98 162
61 97 158
63 99 173
62 98 165
62 99 166
63 99 170
62 99 168
61 98 161
62 99 172
62 98 168
62 98 165
62 98 163
62 98 164
62 98 164
62 99 171
62 99 168
63 99 174
62 99 168
62 99 171
63 99 166
61 98 167
62 98 170
63 99 174
62 99 168
62 99 170
63 99 172
63 99 172
62 98 165
62 99 167
62 98 166
62 98 164
63 99 170
63 99 174
63 99 172
62 99 173
62 98 166
62 99 169
63 99 172
62 98 166
62 98 168
61 97 163
62 98 166
61 98 162
62 99 171
62 98 163
63 99 173
62 99 168
62 98 172
62 99 173
62 99 174
62 99 173
61 98 171
62 99 171
62 98 168
62 98 175
62 99 171
62 99 177
62 98 172
62 99 176
61 98 172
62 99 176
62 99 178
62 99 176
63 99 176
62 99 176
62 99 176
63 99 178
62 99 175
87 117 181
163 185 228
205 227 255
205 227 255
205 227 255
205 227 255
205 227 255
205 227 255
205 227 255
205 227 255
205 227 255
205 227 255
205 226 255
205 226 255
205 226 255
205 226 255
205 226 255
205 226 255
205 226 255
205 226 255
204 226 255
204 226 255
204 226 255
204 226 255
204 226 255
204 226 255
204 226 255
204 226 255
204 226 255
204 226 255
204 226 255
204 226 255
204 226 255
204 226 255
204 226 255
204 226 255
204 226 255
204 226 255
204 226 255
204 226 255
204 226 255
203 226 255
203 226 255
203 226 255
203 226 255
203 226 255
203 226 255
203 226 255
203 226 255
203 226 255
203 226 255
203 225 255
203 225 255
203 225 255
203 225 255
203 225 255
203 225 255
203 225 255
203 225 255
203 225 255
203 225 255
203 225 255
203 225 255
203 225 255
202 225 255
202 225 255
202 225 255
202 225 255
202 225 255
202 225 255
202 225 255
202 225 255
202 225 255
202 225 255
202 225 255
202 225 255
202 225 255
202 225 255
202 225 255
202 225 255
202 225 255
202 225 255
202 225 255
202 225 255
202 225 255
202 225 255
202 225 255
202 225 255
202 225 255
202 225 255
202 225 255
202 225 255
202 225 255
202 225 255
202 225 255
202 225 255
202 225 255
202 225 255
201 225 255
201 225 255
201 225 255
201 225 255
201 225 255
201 225 255
201 225 255
201 225 255
201 225 255
201 225 255
201 225 255
201 225 255
201 225 255
201 225 255
201 225 255
201 225 255
201 225 255
201 225 255
201 225 255
201 225 255
201 225 255
201 225 255
201 225 255
201 225 255
201 225 255
201 225 255
201 225 255
201 225 255
201 225 255
201 225 255
201 225 255
201 225 255
201 225 255
201 225 255
201 225 255
201 225 255
201 225 255
201 225 255
201 225 255
201 225 255
201 225 255
201 225 255
201 225 255
201 225 255
201 225 255
201 225 255
201 225 255
201 225 255
201 225 255
201 225 255
202 225 255
202 225 255
202 225 255
202 225 255
202 225 255
202 225 255
202 225 255
202 225 255
202 225 255
202 225 255
202 225 255
202 225 255
202 225 255
202 225 255
202 225 255
202 225 255
202 225 255
202 225 255
202 225 255
202 225 255
202 225 255
202 225 255
202 225 255
202 225 255
202 225 255
202 225 255
202 225 255
202 225 255
202 225 255
202 225 255
202 225 255
202 225 255
202 225 255
203 225 255
203 225 255
203 225 255
203 225 255
203 225 255
203 225 255
203 225 255
203 225 255
203 225 255
203 225 255
203 225 255
203 225 255
203 225 255
203 225 255
203 226 255
203 226 255
203 226 255
203 226 255
203 226 255
203 226 255
203 226 255
203 226 255
203 226 255
204 226 255
204 226 255
204 226 255
204 226 255
204 226 255
204 226 255
204 226 255
204 226 255
204 226 255
204 226 255
204 226 255
204 226 255
204 226 255
204 226 255
204 226 255
204 226 255
204 226 255
204 226 255
204 226 255
204 226 255
204 226 255
205 226 255
205 226 255
205 226 255
205 226 255
205 226 255
205 226 255
205 226 255
205 226 255
205 226 255
205 227 255
205 227 255
205 227 255
205 227 255
205 227 255
205 227 255
205 227 255
205 227 255
205 227 255
62 98 166
61 98 164
62 98 160
62 99 166
62 98 162
63 99 164
62 98 164
61 97 155
62 98 164
61 98 163
61 97 165
62 98 164
62 99 167
62 98 157
62 98 164
62 99 172
62 99 164
62 97 159
62 97 162
61 97 161
62 98 163
62 98 160
62 98 162
62 98 163
61 97 162
61 98 165
62 98 162
61 97 163
61 97 159
62 98 158
62 98 164
62 98 162
62 98 164
61 97 161
63 99 168
62 98 165
62 98 161
62 98 160
62 98 165
62 98 162
63 99 165
62 98 162
61 97 156
62 98 165
61 98 164
62 98 159
62 99 166
63 99 162
61 97 159
62 98 161
62 98 166
62 98 159
62 99 168
62 98 165
62 98 164
60 97 159
61 97 161
62 98 165
61 97 160
62 99 167
61 97 157
61 98 164
63 99 170
62 98 164
62 99 167
63 99 166
61 98 165
62 98 168
62 98 166
61 97 158
63 99 169
62 98 163
61 97 163
62 98 163
62 99 168
62 98 164
62 98 165
62 98 162
62 98 164
63 99 170
62 98 160
61 98 159
61 97 161
62 98 161
61 98 167
63 99 169
62 98 161
61 98 166
61 98 162
62 98 169
63 99 169
62 98 164
62 98 169
62 98 164
62 99 169
62 99 165
63 99 168
62 99 171
61 98 161
62 98 166
62 98 166
62 98 166
62 99 172
63 99 169
61 98 164
62 99 170
62 98 167
62 99 171
62 98 162
61 98 166
62 98 169
63 99 167
62 98 168
62 99 168
62 98 167
62 99 167
62 99 168
62 98 169
63 99 171
63 99 172
62 98 169
62 99 167
62 99 171
62 99 174
62 99 170
62 98 164
62 98 165
62 99 171
62 99 172
62 99 174
62 98 170
62 98 170
62 98 165
63 99 172
62 99 169
62 99 167
62 98 169
60 97 167
63 99 176
62 98 167
62 99 174
62 99 170
62 99 177
62 99 176
62 99 173
63 99 171
62 99 174
62 99 173
62 99 173
62 99 175
62 99 176
62 99 176
62 99 176
63 100 176
62 99 177
63 99 177
61 98 175
62 98 176
61 98 176
109 136 198
195 216 248
205 227 255
205 227 255
205 227 255
205 227 255
205 227 255
205 227 255
205 227 255
205 227 255
205 227 255
205 227 255
205 226 255
205 226 255
205 226 255
205 226 255
205 226 255
205 226 255
205 226 255
205 226 255
204 226 255
204 226 255
204 226 255
204 226 255
204 226 255
204 226 255
204 226 255
204 226 255
204 226 255
204 226 255
204 226 255
204 226 255
204 226 255
204 226 255
204 226 255
204 226 255
204 226 255
204 226 255
204 226 255
204 226 255
204 226 255
203 226 255
203 226 255
203 226 255
203 226 255
203 226 255
203 226 255
203 226 255
203 226 255
203 226 255
203 226 255
203 225 255
203 225 255
203 225 255
203 225 255
203 225 255
203 225 255
203 225 255
203 225 255
203 225 255
203 225 255
203 225 255
203 225 255
203 225 255
203 225 255
202 225 255
202 225 255
202 225 255
202 225 255
202 225 255
202 225 255
202 225 255
202 225 255
202 225 255
202 225 255
202 225 255
202 225 255
202 225 255
202 225 255
202 225 255
202 225 255
202 225 255
202 225 255
202 225 255
202 225 255
202 225 255
202 225 255
202 225 255
202 225 255
202 225 255
202 225 255
202 225 255
202 225 255
202 225 255
202 225 255
202 225 255
202 225 255
202 225 255
202 225 255
202 225 255
202 225 255
201 225 255
201 225 255
201 225 255
201 225 255
201 225 255
201 225 255
201 225 255
201 225 255
201 225 255
201 225 255
201 225 255
201 225 255
201 225 255
201 225 255
201 225 255
201 225 255
201 225 255
201 225 255
201 225 255
201 225 255
201 225 255
201 225 255
201 225 255
201 225 255
201 225 255
201 225 255
201 225 255
201 225 255
201 225 255
201 225 255
201 225 255
201 225 255
201 225 255
201 225 255
201 225 255
201 225 255
201 225 255
201 225 255
201 225 255
202 225 255
202 225 255
202 225 255
202 225 255
202 225 255
202 225 255
202 225 255
202 225 255
202 225 255
202 225 255
202 225 255
202 225 255
202 225 255
202 225 255
202 225 255
202 225 255
202 225 255
202 225 255
202 225 255
202 225 255
202 225 255
202 225 255
202 225 255
202 225 255
202 225 255
202 225 255
202 225 255
202 225 255
202 225 255
202 225 255
202 225 255
202 225 255
202 225 255
202 225 255
202 225 255
202 225 255
203 225 255
203 225 255
203 225 255
203 225 255
203 225 255
203 225 255
203 225 255
203 225 255
203 225 255
203 225 255
203 225 255
203 225 255
203 225 255
203 225 255
203 226 255
203 226 255
203 226 255
203 226 255
203 226 255
203 226 255
203 226 255
203 226 255
203 226 255
203 226 255
204 226 255
204 226 255
204 226 255
204 226 255
204 226 255
204 226 255
204 226 255
204 226 255
204 226 255
204 226 255
204 226 255
204 226 255
204 226 255
204 226 255
204 226 255
204 226 255
204 226 255
204 226 255
204 226 255
204 226 255
204 226 255
205 226 255
205 226 255
205 226 255
205 226 255
205 226 255
205 226 255
205 226 255
205 226 255
205 227 255
205 227 255
205 227 255
205 227 255
205 227 255
205 227 255
205 227 255
205 227 255
205 227 255
205 227 255
205 227 255
205 227 255
62 98 166
62 98 160
62 98 162
63 99 168
63 99 166
62 98 162
62 98 163
63 99 172
62 98 170
61 98 160
62 98 163
62 98 166
61 97 159
62 98 160
62 98 161
62 98 164
62 99 170
62 98 165
62 99 166
62 98 160
62 98 167
62 98 163
62 98 166
62 98 163
61 98 164
61 97 152
63 99 166
62 98 163
63 99 166
61 97 161
62 98 164
61 97 159
63 98 165
62 98 161
62 98 162
62 98 160
61 98 161
61 97 161
62 99 165
61 97 160
62 98 165
62 99 166
62 98 162
62 99 170
61 98 167
61 97 156
62 98 166
62 98 162
63 99 168
62 98 168
62 98 157
62 98 162
62 98 165
62 98 168
62 98 163
62 98 160
62 98 162
62 98 163
62 99 169
62 98 161
62 98 163
62 99 168
63 99 168
62 98 168
62 99 169
62 98 163
62 99 166
62 98 159
62 98 166
61 97 157
62 99 170
62 99 166
61 98 165
62 98 166
62 98 161
63 99 168
62 98 162
62 99 167
62 98 159
62 98 167
62 98 165
62 98 163
62 98 162
62 98 162
63 99 167
61 97 165
61 98 162
62 99 166
63 99 170
62 98 167
62 99 168
63 100 170
62 98 163
62 98 164
62 98 165
63 99 173
62 99 170
61 97 158
62 98 161
62 98 164
62 98 162
62 98 166
62 98 161
61 97 160
63 99 168
62 98 169
62 99 168
62 98 166
62 99 168
61 98 162
62 98 170
62 98 168
63 99 171
62 98 172
62 99 171
63 99 169
61 98 162
62 99 172
62 99 174
62 99 174
63 99 167
62 99 167
62 99 168
62 99 168
63 99 173
61 98 165
62 99 172
62 98 161
61 98 170
62 98 168
62 99 176
62 99 172
62 99 172
62 99 173
62 99 174
62 99 170
62 98 171
62 98 171
62 99 173
61 98 169
62 99 174
62 99 168
63 99 170
62 98 169
62 98 169
62 99 174
62 99 175
61 98 172
61 98 169
63 99 171
62 98 172
62 99 178
62 99 173
62 99 177
62 99 174
62 99 175
63 99 176
62 99 178
62 99 174
62 99 178
68 103 180
155 178 221
203 224 254
205 227 255
205 227 255
205 227 255
205 227 255
205 227 255
205 227 255
205 227 255
205 227 255
205 227 255
205 227 255
205 226 255
205 226 255
205 226 255
205 226 255
205 226 255
205 226 255
205 226 255
205 226 255
204 226 255
204 226 255
204 226 255
204 226 255
204 226 255
204 226 255
204 226 255
204 226 255
204 226 255
204 226 255
204 226 255
204 226 255
204 226 255
204 226 255
204 226 255
204 226 255
204 226 255
204 226 255
204 226 255
204 226 255
204 226 255
203 226 255
203 226 255
203 226 255
203 226 255
203 226 255
203 226 255
203 226 255
203 226 255
203 226 255
203 226 255
203 225 255
203 225 255
203 225 255
203 225 255
203 225 255
203 225 255
203 225 255
203 225 255
203 225 255
203 225 255
203 225 255
203 225 255
203 225 255
203 225 255
202 225 255
202 225 255
202 225 255
202 225 255
202 225 255
202 225 255
202 225 255
202 225 255
202 225 255
202 225 255
202 225 255
202 225 255
202 225 255
202 225 255
202 225 255
202 225 255
202 225 255
202 225 255
202 225 255
202 225 255
202 225 255
202 225 255
202 225 255
202 225 255
202 225 255
202 225 255
202 225 255
202 225 255
202 225 255
202 225 255
202 225 255
202 225 255
202 225 255
202 225 255
202 225 255
202 225 255
202 225 255
202 225 255
202 225 255
202 225 255
202 225 255
201 225 255
201 225 255
201 225 255
201 225 255
201 225 255
201 225 255
201 225 255
201 225 255
201 225 255
201 225 255
201 225 255
201 225 255
201 225 255
201 225 255
201 225 255
201 225 255
201 225 255
201 225 255
201 225 255
201 225 255
201 225 255
201 225 255
201 225 255
201 225 255
201 225 255
202 225 255
202 225 255
202 225 255
202 225 255
202 225 255
202 225 255
202 225 255
202 225 255
202 225 255
202 225 255
202 225 255
202 225 255
202 225 255
202 225 255
202 225 255
202 225 255
202 225 255
202 225 255
202 225 255
202 225 255
202 225 255
202 225 255
202 225 255
202 225 255
202 225 255
202 225 255
202 225 255
202 225 255
202 225 255
202 225 255
202 225 255
202 225 255
202 225 255
202 225 255
202 225 255
202 225 255
202 225 255
202 225 255
202 225 255
202 225 255
202 225 255
203 225 255
203 225 255
203 225 255
203 225 255
203 225 255
203 225 255
203 225 255
203 225 255
203 225 255
203 225 255
203 225 255
203 225 255
203 225 255
203 225 255
203 226 255
203 226 255
203 226 255
203 226 255
203 226 255
203 226 255
203 226 255
203 226 255
203 226 255
203 226 255
204 226 255
204 226 255
204 226 255
204 226 255
204 226 255
204 226 255
204 226 255
204 226 255
204 226 255
204 226 255
204 226 255
204 226 255
204 226 255
204 226 255
204 226 255
204 226 255
204 226 255
204 226 255
204 226 255
204 226 255
204 226 255
205 226 255
205 226 255
205 226 255
205 226 255
205 226 255
205 226 255
205 226 255
205 226 255
205 227 255
205 227 255
205 227 255
205 227 255
205 227 255
205 227 255
205 227 255
205 227 255
205 227 255
205 227 255
205 227 255
205 227 255
206 227 255
206 227 255
61 98 161
62 98 167
63 99 162
61 98 159
62 98 164
62 98 162
62 99 169
61 98 162
62 98 168
62 98 163
62 98 167
62 98 157
62 98 162
62 98 164
62 98 167
63 99 167
62 99 165
62 98 162
62 99 166
61 97 161
62 98 166
62 98 165
62 98 156
62 98 161
62 98 162
62 99 170
62 98 166
62 99 168
62 98 162
62 98 161
62 98 166
62 98 168
63 99 168
61 98 161
62 98 160
62 98 161
63 99 172
62 98 159
62 98 165
61 98 161
61 97 156
62 98 161
62 98 160
62 98 164
61 98 167
63 99 168
63 99 165
62 99 165
62 99 169
62 98 164
62 99 167
61 97 164
62 99 169
61 97 156
62 98 162
61 97 162
62 98 160
62 98 161
62 98 163
62 98 168
62 98 162
61 97 159
62 98 167
61 97 159
62 98 162
61 97 160
62 98 162
62 99 168
61 97 159
63 99 171
62 98 165
61 97 157
62 98 166
62 99 167
62 98 163
61 98 162
62 98 163
62 99 166
62 98 165
62 98 164
62 98 163
61 97 159
61 98 163
61 97 160
62 98 163
63 99 170
62 99 170
62 98 161
62 99 168
62 99 169
63 99 171
62 99 171
62 98 169
61 97 162
62 99 174
62 99 168
63 99 172
62 98 167
62 99 167
62 98 167
62 98 171
61 98 163
62 99 167
62 99 172
62 99 169
62 98 166
63 100 172
62 99 169
62 98 164
62 99 168
63 99 166
62 98 164
62 98 166
62 98 162
62 99 171
62 98 168
62 98 160
62 99 172
62 98 166
63 99 173
63 99 171
63 99 172
62 98 166
61 97 163
63 99 174
62 98 168
62 98 166
62 99 169
62 98 170
62 98 165
62 98 167
62 99 173
62 98 168
61 98 163
62 98 171
63 99 178
62 98 166
62 98 167
62 98 172
61 98 168
63 99 176
63 99 176
62 98 170
62 99 172
62 98 173
62 98 172
62 98 169
62 99 173
62 99 176
62 99 173
62 99 172
62 99 176
62 99 172
62 98 174
62 99 175
62 98 172
62 99 179
62 99 179
62 99 177
62 99 175
62 99 178
62 99 177
104 131 192
187 209 243
205 227 255
205 227 255
205 227 255
205 227 255
205 227 255
205 227 255
205 227 255
205 227 255
205 227 255
205 227 255
205 227 255
205 226 255
205 226 255
205 226 255
205 226 255
205 226 255
205 226 255
205 226 255
205 226 255
204 226 255
204 226 255
204 226 255
204 226 255
204 226 255
204 226 255
204 226 255
204 226 255
204 226 255
204 226 255
204 226 255
204 226 255
204 226 255
204 226 255
204 226 255
204 226 255
204 226 255
204 226 255
204 226 255
204 226 255
204 226 255
203 226 255
203 226 255
203 226 255
203 226 255
203 226 255
203 226 255
203 226 255
203 226 255
203 226 255
203 226 255
203 226 255
203 225 255
203 225 255
203 225 255
203 225 255
203 225 255
203 225 255
203 225 255
203 225 255
203 225 255
203 225 255
203 225 255
203 225 255
203 225 255
203 225 255
202 225 255
202 225 255
202 225 255
202 225 255
202 225 255
202 225 255
202 225 255
202 225 255
202 225 255
202 225 255
202 225 255
202 225 255
202 225 255
202 225 255
202 225 255
202 225 255
202 225 255
202 225 255
202 225 255
202 225 255
202 225 255
202 225 255
202 225 255
202 225 255
202 225 255
202 225 255
202 225 255
202 225 255
202 225 255
202 225 255
202 225 255
202 225 255
202 225 255
202 225 255
202 225 255
202 225 255
202 225 255
202 225 255
202 225 255
202 225 255
202 225 255
202 225 255
202 225 255
202 225 255
202 225 255
202 225 255
202 225 255
202 225 255
202 225 255
202 225 255
202 225 255
202 225 255
202 225 255
202 225 255
202 225 255
202 225 255
202 225 255
202 225 255
202 225 255
202 225 255
202 225 255
202 225 255
202 225 255
202 225 255
202 225 255
202 225 255
202 225 255
202 225 255
202 225 255
202 225 255
202 225 255
202 225 255
202 225 255
202 225 255
202 225 255
202 225 255
202 225 255
202 225 255
202 225 255
202 225 255
202 225 255
202 225 255
202 225 255
202 225 255
202 225 255
202 225 255
202 225 255
202 225 255
202 225 255
202 225 255
202 225 255
202 225 255
202 225 255
202 225 255
202 225 255
202 225 255
202 225 255
202 225 255
202 225 255
202 225 255
202 225 255
203 225 255
203 225 255
203 225 255
203 225 255
203 225 255
203 225 255
203 225 255
203 225 255
203 225 255
203 225 255
203 225 255
203 225 255
203 225 255
203 225 255
203 225 255
203 226 255
203 226 255
203 226 255
203 226 255
203 226 255
203 226 255
203 226 255
203 226 255
203 226 255
203 226 255
204 226 255
204 226 255
204 226 255
204 226 255
204 226 255
204 226 255
204 226 255
204 226 255
204 226 255
204 226 255
204 226 255
204 226 255
204 226 255
204 226 255
204 226 255
204 226 255
204 226 255
204 226 255
204 226 255
204 226 255
204 226 255
205 226 255
205 226 255
205 226 255
205 226 255
205 226 255
205 226 255
205 226 255
205 226 255
205 227 255
205 227 255
205 227 255
205 227 255
205 227 255
205 227 255
205 227 255
205 227 255
205 227 255
205 227 255
205 227 255
205 227 255
206 227 255
206 227 255
206 227 255
206 227 255
62 98 162
62 98 159
62 98 159
61 97 159
62 98 157
62 99 166
62 98 161
61 97 157
62 98 162
63 99 165
62 98 163
61 97 157
62 98 159
62 99 168
61 97 158
62 98 161
62 98 163
61 98 162
62 99 170
62 98 160
62 98 164
61 97 160
63 99 166
62 98 163
62 98 163
63 99 171
62 98 166
62 98 167
63 99 165
62 98 165
63 99 169
61 98 164
63 99 167
62 98 161
60 96 156
61 97 156
62 98 159
62 98 164
61 97 158
62 98 161
62 98 160
62 98 157
62 98 163
63 99 166
62 98 165
62 98 163
62 99 166
61 97 156
62 98 164
63 99 166
62 98 161
62 98 166
62 98 165
62 98 169
62 98 161
62 98 166
63 99 169
62 98 162
63 99 166
62 98 165
62 98 158
62 98 164
62 98 158
62 98 163
62 98 166
62 98 160
62 99 165
61 97 155
62 98 164
62 98 164
63 99 162
62 98 162
63 99 168
63 99 172
62 98 164
62 98 164
63 98 161
62 98 161
62 98 164
61 98 164
62 99 164
62 99 169
63 98 163
61 97 163
62 98 166
62 98 167
61 98 163
62 98 164
63 99 165
62 98 160
63 99 167
62 98 162
62 98 167
62 98 166
61 98 163
62 98 168
63 99 169
63 99 166
62 98 162
62 98 162
62 98 167
62 98 163
62 98 168
62 99 168
62 98 164
62 99 169
62 98 172
62 99 169
62 99 167
63 99 172
62 98 169
62 98 162
62 99 167
62 98 168
62 98 171
63 99 168
62 98 166
63 99 170
61 98 165
62 99 168
61 98 168
61 98 162
62 98 167
62 99 171
62 98 171
61 98 167
62 98 164
62 98 169
62 98 166
62 98 168
62 99 169
62 99 170
62 98 167
62 99 172
62 98 168
62 98 168
62 99 170
62 98 171
62 99 171
62 99 170
63 99 175
62 99 173
62 99 170
63 99 173
62 98 165
62 99 171
62 98 169
62 98 173
62 99 169
63 100 173
62 99 171
62 99 175
62 99 175
63 100 176
61 98 176
62 99 177
62 99 174
62 99 172
61 98 175
62 99 175
62 99 175
62 99 177
62 99 177
65 101 177
149 172 216
204 225 254
205 227 255
205 227 255
205 227 255
205 227 255
205 227 255
205 227 255
205 227 255
205 227 255
205 227 255
205 227 255
205 227 255
205 226 255
205 226 255
205 226 255
205 226 255
205 226 255
205 226 255
205 226 255
205 226 255
204 226 255
204 226 255
204 226 255
204 226 255
204 226 255
204 226 255
204 226 255
204 226 255
204 226 255
204 226 255
204 226 255
204 226 255
204 226 255
204 226 255
204 226 255
204 226 255
204 226 255
204 226 255
204 226 255
204 226 255
204 226 255
204 226 255
203 226 255
203 226 255
203 226 255
203 226 255
203 226 255
203 226 255
203 226 255
203 226 255
203 226 255
203 226 255
203 225 255
203 225 255
203 225 255
203 225 255
203 225 255
203 225 255
203 225 255
203 225 255
203 225 255
203 225 255
203 225 255
203 225 255
203 225 255
203 225 255
203 225 255
202 225 255
202 225 255
202 225 255
202 225 255
202 225 255
202 225 255
202 225 255
202 225 255
202 225 255
202 225 255
202 225 255
202 225 255
202 225 255
202 225 255
202 225 255
202 225 255
202 225 255
202 225 255
202 225 255
202 225 255
202 225 255
202 225 255
202 225 255
202 225 255
202 225 255
202 225 255
202 225 255
202 225 255
202 225 255
202 225 255
202 225 255
202 225 255
202 225 255
202 225 255
202 225 255
202 225 255
202 225 255
202 225 255
202 225 255
202 225 255
202 225 255
202 225 255
202 225 255
202 225 255
202 225 255
202 225 255
202 225 255
202 225 255
202 225 255
202 225 255
202 225 255
202 225 255
202 225 255
202 225 255
202 225 255
202 225 255
202 225 255
202 225 255
202 225 255
202 225 255
202 225 255
202 225 255
202 225 255
202 225 255
202 225 255
202 225 255
202 225 255
202 225 255
202 225 255
202 225 255
202 225 255
202 225 255
202 225 255
202 225 255
202 225 255
202 225 255
202 225 255
202 225 255
202 225 255
202 225 255
202 225 255
202 225 255
202 225 255
202 225 255
202 225 255
202 225 255
202 225 255
202 225 255
202 225 255
202 225 255
202 225 255
202 225 255
202 225 255
202 225 255
202 225 255
202 225 255
203 225 255
203 225 255
203 225 255
203 225 255
203 225 255
203 225 255
203 225 255
203 225 255
203 225 255
203 225 255
203 225 255
203 225 255
203 225 255
203 225 255
203 226 255
203 226 255
203 226 255
203 226 255
203 226 255
203 226 255
203 226 255
203 226 255
203 226 255
203 226 255
203 226 255
204 226 255
204 226 255
204 226 255
204 226 255
204 226 255
204 226 255
204 226 255
204 226 255
204 226 255
204 226 255
204 226 255
204 226 255
204 226 255
204 226 255
204 226 255
204 226 255
204 226 255
204 226 255
204 226 255
204 226 255
204 226 255
205 226 255
205 226 255
205 226 255
205 226 255
205 226 255
205 226 255
205 226 255
205 226 255
205 227 255
205 227 255
205 227 255
205 227 255
205 227 255
205 227 255
205 227 255
205 227 255
205 227 255
205 227 255
205 227 255
205 227 255
206 227 255
206 227 255
206 227 255
206 227 255
206 227 255
206 227 255
62 99 171
62 98 161
62 98 164
62 98 162
63 99 164
62 98 164
62 98 165
62 98 162
61 97 158
61 97 163
63 99 172
62 98 161
61 97 158
62 99 169
62 98 164
62 98 160
62 99 166
62 98 163
62 99 170
62 98 163
61 97 159
62 98 165
61 97 160
62 98 160
62 98 159
62 98 165
62 98 163
62 98 159
62 99 167
62 98 161
62 98 166
62 98 166
62 98 166
62 99 166
62 98 167
62 98 164
62 98 158
62 98 163
62 99 165
62 99 167
62 98 163
62 98 165
62 98 161
61 98 163
62 99 165
62 98 163
62 98 162
63 99 174
62 98 158
62 99 167
62 98 162
62 98 167
62 98 162
63 99 164
61 97 162
62 98 167
62 98 161
61 97 163
62 99 165
63 99 164
61 97 157
62 97 158
62 98 165
62 99 166
61 98 161
61 97 163
62 98 165
61 98 167
62 99 164
62 98 166
62 98 162
62 98 163
62 98 167
62 98 164
62 98 159
62 99 167
62 98 163
62 98 167
63 99 165
62 99 171
62 98 167
62 99 166
62 98 167
62 98 165
62 98 160
62 98 165
62 99 170
62 98 167
61 98 167
61 97 161
63 99 171
61 98 165
62 98 163
61 98 163
62 98 162
63 99 169
62 98 164
62 99 172
63 99 170
62 98 168
62 98 158
62 98 165
62 98 164
62 99 169
63 99 168
61 97 155
62 99 169
62 98 164
62 99 168
62 98 167
62 99 170
63 99 167
62 99 169
62 99 170
62 98 166
63 99 170
62 99 167
63 99 172
62 99 168
62 98 160
62 98 166
61 98 164
62 98 167
62 98 167
62 98 163
62 99 169
62 98 167
62 99 171
62 98 168
63 99 171
62 98 165
62 98 167
62 98 168
62 98 173
62 99 169
62 98 168
62 99 173
62 99 169
62 99 172
62 98 168
62 99 171
62 98 166
63 99 175
61 98 166
62 99 175
62 99 173
62 98 168
62 99 171
62 99 177
62 98 170
62 99 177
61 97 169
62 99 172
62 98 172
62 99 174
63 99 173
61 98 171
62 99 173
63 100 179
62 99 172
61 98 172
62 99 176
61 98 178
62 99 174
62 99 178
104 132 196
186 208 241
205 227 255
205 227 255
205 227 255
205 227 255
205 227 255
205 227 255
205 227 255
205 227 255
205 227 255
205 227 255
205 227 255
205 227 255
205 226 255
205 226 255
205 226 255
205 226 255
205 226 255
205 226 255
205 226 255
205 226 255
204 226 255
204 226 255
204 226 255
204 226 255
204 226 255
204 226 255
204 226 255
204 226 255
204 226 255
204 226 255
204 226 255
204 226 255
204 226 255
204 226 255
204 226 255
204 226 255
204 226 255
204 226 255
204 226 255
204 226 255
204 226 255
204 226 255
203 226 255
203 226 255
203 226 255
203 226 255
203 226 255
203 226 255
203 226 255
203 226 255
203 226 255
203 226 255
203 225 255
203 225 255
203 225 255
203 225 255
203 225 255
203 225 255
203 225 255
203 225 255
203 225 255
203 225 255
203 225 255
203 225 255
203 225 255
203 225 255
203 225 255
202 225 255
202 225 255
202 225 255
202 225 255
202 225 255
202 225 255
202 225 255
202 225 255
202 225 255
202 225 255
202 225 255
202 225 255
202 225 255
202 225 255
202 225 255
202 225 255
202 225 255
202 225 255
202 225 255
202 225 255
202 225 255
202 225 255
202 225 255
202 225 255
202 225 255
202 225 255
202 225 255
202 225 255
202 225 255
202 225 255
202 225 255
202 225 255
202 225 255
202 225 255
202 225 255
202 225 255
202 225 255
202 225 255
202 225 255
202 225 255
202 225 255
202 225 255
202 225 255
202 225 255
202 225 255
202 225 255
202 225 255
202 225 255
202 225 255
202 225 255
202 225 255
202 225 255
202 225 255
202 225 255
202 225 255
202 225 255
202 225 255
202 225 255
202 225 255
202 225 255
202 225 255
202 225 255
202 225 255
202 225 255
202 225 255
202 225 255
202 225 255
202 225 255
202 225 255
202 225 255
202 225 255
202 225 255
202 225 255
202 225 255
202 225 255
202 225 255
202 225 255
202 225 255
202 225 255
202 225 255
202 225 255
202 225 255
202 225 255
202 225 255
202 225 255
202 225 255
202 225 255
202 225 255
202 225 255
202 225 255
202 225 255
203 225 255
203 225 255
203 225 255
203 225 255
203 225 255
203 225 255
203 225 255
203 225 255
203 225 255
203 225 255
203 225 255
203 225 255
203 225 255
203 225 255
203 225 255
203 226 255
203 226 255
203 226 255
203 226 255
203 226 255
203 226 255
203 226 255
203 226 255
203 226 255
203 226 255
204 226 255
204 226 255
204 226 255
204 226 255
204 226 255
204 226 255
204 226 255
204 226 255
204 226 255
204 226 255
204 226 255
204 226 255
204 226 255
204 226 255
204 226 255
204 226 255
204 226 255
204 226 255
204 226 255
204 226 255
204 226 255
204 226 255
205 226 255
205 226 255
205 226 255
205 226 255
205 226 255
205 226 255
205 226 255
205 226 255
205 227 255
205 227 255
205 227 255
205 227 255
205 227 255
205 227 255
205 227 255
205 227 255
205 227 255
205 227 255
205 227 255
205 227 255
206 227 255
206 227 255
206 227 255
206 227 255
206 227 255
206 227 255
206 227 255
206 227 255
61 98 161
62 98 166
61 98 165
60 96 153
61 97 155
62 99 165
61 97 156
62 98 162
62 98 163
62 98 167
62 98 158
61 98 162
61 97 159
62 98 159
61 97 163
61 98 162
63 99 171
63 99 163
62 97 156
63 99 170
61 96 158
62 98 160
62 98 164
62 98 161
62 98 167
62 98 164
61 97 162
62 99 166
62 99 171
62 98 164
62 98 156
62 99 171
61 97 156
62 98 165
62 98 163
61 97 156
62 98 159
62 98 162
61 97 157
62 98 166
62 98 162
61 97 161
61 98 165
61 97 154
62 99 166
63 99 165
62 98 163
63 99 173
62 98 167
61 97 161
62 98 161
62 98 161
62 98 161
62 98 160
61 98 165
62 99 168
61 97 158
62 98 161
62 98 169
63 99 169
62 98 162
62 99 167
62 99 165
62 97 162
62 98 164
62 99 169
62 98 167
62 98 169
62 98 163
62 98 166
62 98 164
62 98 162
62 98 162
62 98 164
62 99 170
63 99 171
62 98 156
62 98 165
63 99 170
62 98 168
61 98 160
62 98 166
62 98 162
62 98 159
62 98 167
62 98 166
62 99 168
63 99 173
61 98 167
61 97 163
62 98 163
62 99 168
62 98 157
62 99 164
62 98 163
62 98 167
63 99 169
62 98 167
62 98 165
63 99 166
61 98 166
62 99 166
62 98 164
62 98 166
63 99 170
63 99 174
62 99 169
62 99 168
62 99 169
62 99 165
63 99 164
62 99 169
61 97 158
63 99 169
62 98 160
63 99 170
62 98 168
62 98 167
63 99 171
62 99 173
61 97 167
62 99 169
62 98 168
62 98 164
62 99 169
62 99 172
61 98 164
62 99 166
62 99 174
62 98 168
62 99 173
62 99 170
62 99 174
62 98 163
62 99 167
63 99 174
62 98 163
63 99 170
61 98 165
62 99 171
62 98 166
62 99 175
62 98 170
62 99 174
62 99 175
62 98 171
62 99 173
62 99 173
62 99 174
63 99 173
62 99 174
61 98 167
63 99 176
62 99 165
62 98 170
62 98 171
62 98 172
61 98 172
62 99 171
62 98 171
62 98 173
62 99 170
62 99 178
62 99 176
63 99 176
62 99 178
67 103 181
154 177 221
200 221 252
205 227 255
205 227 255
205 227 255
205 227 255
205 227 255
205 227 255
205 227 255
205 227 255
205 227 255
205 227 255
205 227 255
205 227 255
205 226 255
205 226 255
205 226 255
205 226 255
205 226 255
205 226 255
205 226 255
205 226 255
205 226 255
204 226 255
204 226 255
204 226 255
204 226 255
204 226 255
204 226 255
204 226 255
204 226 255
204 226 255
204 226 255
204 226 255
204 226 255
204 226 255
204 226 255
204 226 255
204 226 255
204 226 255
204 226 255
204 226 255
204 226 255
204 226 255
203 226 255
203 226 255
203 226 255
203 226 255
203 226 255
203 226 255
203 226 255
203 226 255
203 226 255
203 226 255
203 226 255
203 225 255
203 225 255
203 225 255
203 225 255
203 225 255
203 225 255
203 225 255
203 225 255
203 225 255
203 225 255
203 225 255
203 225 255
203 225 255
203 225 255
203 225 255
202 225 255
202 225 255
202 225 255
202 225 255
202 225 255
202 225 255
202 225 255
202 225 255
202 225 255
202 225 255
202 225 255
202 225 255
202 225 255
202 225 255
202 225 255
202 225 255
202 225 255
202 225 255
202 225 255
202 225 255
202 225 255
202 225 255
202 225 255
202 225 255
202 225 255
202 225 255
202 225 255
202 225 255
202 225 255
202 225 255
202 225 255
202 225 255
202 225 255
202 225 255
202 225 255
202 225 255
202 225 255
202 225 255
202 225 255
202 225 255
202 225 255
202 225 255
202 225 255
202 225 255
202 225 255
202 225 255
202 225 255
202 225 255
202 225 255
202 225 255
202 225 255
202 225 255
202 225 255
202 225 255
202 225 255
202 225 255
202 225 255
202 225 255
202 225 255
202 225 255
202 225 255
202 225 255
202 225 255
202 225 255
202 225 255
202 225 255
202 225 255
202 225 255
202 225 255
202 225 255
202 225 255
202 225 255
202 225 255
202 225 255
202 225 255
202 225 255
202 225 255
202 225 255
202 225 255
202 225 255
202 225 255
202 225 255
202 225 255
202 225 255
202 225 255
203 225 255
203 225 255
203 225 255
203 225 255
203 225 255
203 225 255
203 225 255
203 225 255
203 225 255
203 225 255
203 225 255
203 225 255
203 225 255
203 225 255
203 225 255
203 226 255
203 226 255
203 226 255
203 226 255
203 226 255
203 226 255
203 226 255
203 226 255
203 226 255
203 226 255
203 226 255
204 226 255
204 226 255
204 226 255
204 226 255
204 226 255
204 226 255
204 226 255
204 226 255
204 226 255
204 226 255
204 226 255
204 226 255
204 226 255
204 226 255
204 226 255
204 226 255
204 226 255
204 226 255
204 226 255
204 226 255
204 226 255
204 226 255
205 226 255
205 226 255
205 226 255
205 226 255
205 226 255
205 226 255
205 226 255
205 226 255
205 227 255
205 227 255
205 227 255
205 227 255
205 227 255
205 227 255
205 227 255
205 227 255
205 227 255
205 227 255
205 227 255
205 227 255
206 227 255
206 227 255
206 227 255
206 227 255
206 227 255
206 227 255
206 227 255
206 227 255
206 227 255
206 227 255
62 98 164
61 97 158
62 99 168
62 98 165
63 99 168
62 98 163
63 99 162
61 97 156
62 98 164
62 99 170
61 97 161
61 97 162
62 98 163
61 97 158
62 98 162
62 98 163
62 98 164
62 98 169
61 97 159
63 99 164
61 97 159
61 97 158
62 98 163
61 97 152
62 99 165
62 98 167
62 98 156
62 99 169
61 98 163
62 98 160
62 98 160
62 98 164
62 98 164
61 97 157
63 99 162
62 98 162
61 97 157
61 97 158
62 98 158
62 98 163
61 97 158
62 98 164
62 98 160
62 98 159
62 98 164
62 98 158
62 99 169
62 98 161
61 98 168
62 98 165
62 98 161
61 97 163
62 98 162
62 98 165
62 98 164
62 98 166
62 98 160
62 98 161
62 98 163
61 97 154
61 97 160
62 99 168
61 98 167
62 98 163
62 98 163
62 98 160
62 98 161
62 98 162
63 99 165
62 99 170
62 98 164
63 99 165
62 98 160
62 98 166
63 100 173
62 99 168
62 98 158
62 98 163
62 98 165
62 98 158
62 98 169
62 98 163
63 99 170
62 98 166
62 99 168
62 98 163
61 97 158
62 98 167
62 99 172
62 98 161
62 98 160
62 99 169
61 98 161
63 99 171
63 100 175
62 98 164
62 98 167
61 97 160
62 98 163
62 98 165
61 98 163
63 99 172
62 98 171
63 99 171
62 98 167
62 98 163
62 98 163
64 100 174
63 99 167
62 99 172
62 98 169
61 97 159
63 99 170
62 98 161
62 98 159
62 98 167
62 99 169
62 98 165
63 99 169
62 99 172
62 98 162
63 99 169
62 99 168
62 98 164
62 98 173
62 98 169
63 99 172
62 99 168
62 98 171
62 98 166
62 99 172
62 99 165
61 98 168
63 99 171
62 99 171
62 98 164
63 99 172
62 98 170
63 99 174
62 98 164
62 99 169
62 99 175
61 98 165
62 99 171
62 98 169
62 98 169
63 100 176
62 99 174
62 98 169
63 99 172
62 99 170
62 99 170
62 99 173
62 99 171
62 99 175
62 99 175
62 99 176
62 99 173
62 99 173
62 99 176
63 99 177
62 99 175
62 98 171
62 99 174
61 98 171
62 99 174
62 99 178
61 98 179
114 141 199
181 202 238
206 227 255
205 227 255
205 227 255
205 227 255
205 227 255
205 227 255
205 227 255
205 227 255
205 227 255
205 227 255
205 227 255
205 227 255
205 227 255
205 226 255
205 226 255
205 226 255
205 226 255
205 226 255
205 226 255
205 226 255
205 226 255
205 226 255
204 226 255
204 226 255
204 226 255
204 226 255
204 226 255
204 226 255
204 226 255
204 226 255
204 226 255
204 226 255
204 226 255
204 226 255
204 226 255
204 226 255
204 226 255
204 226 255
204 226 255
204 226 255
204 226 255
204 226 255
204 226 255
204 226 255
203 226 255
203 226 255
203 226 255
203 226 255
203 226 255
203 226 255
203 226 255
203 226 255
203 226 255
203 226 255
203 225 255
203 225 255
203 225 255
203 225 255
203 225 255
203 225 255
203 225 255
203 225 255
203 225 255
203 225 255
203 225 255
203 225 255
203 225 255
203 225 255
203 225 255
203 225 255
203 225 255
202 225 255
202 225 255
202 225 255
202 225 255
202 225 255
202 225 255
202 225 255
202 225 255
202 225 255
202 225 255
202 225 255
202 225 255
202 225 255
202 225 255
202 225 255
202 225 255
202 225 255
202 225 255
202 225 255
202 225 255
202 225 255
202 225 255
202 225 255
202 225 255
202 225 255
202 225 255
202 225 255
202 225 255
202 225 255
202 225 255
202 225 255
202 225 255
202 225 255
202 225 255
202 225 255
202 225 255
202 225 255
202 225 255
202 225 255
202 225 255
202 225 255
202 225 255
202 225 255
202 225 255
202 225 255
202 225 255
202 225 255
202 225 255
202 225 255
202 225 255
202 225 255
202 225 255
202 225 255
202 225 255
202 225 255
202 225 255
202 225 255
202 225 255
202 225 255
202 225 255
202 225 255
202 225 255
202 225 255
202 225 255
202 225 255
202 225 255
202 225 255
202 225 255
202 225 255
202 225 255
202 225 255
202 225 255
202 225 255
202 225 255
202 225 255
202 225 255
202 225 255
203 225 255
203 225 255
203 225 255
203 225 255
203 225 255
203 225 255
203 225 255
203 225 255
203 225 255
203 225 255
203 225 255
203 225 255
203 225 255
203 225 255
203 225 255
203 225 255
203 225 255
203 226 255
203 226 255
203 226 255
203 226 255
203 226 255
203 226 255
203 226 255
203 226 255
203 226 255
203 226 255
204 226 255
204 226 255
204 226 255
204 226 255
204 226 255
204 226 255
204 226 255
204 226 255
204 226 255
204 226 255
204 226 255
204 226 255
204 226 255
204 226 255
204 226 255
204 226 255
204 226 255
204 226 255
204 226 255
204 226 255
204 226 255
204 226 255
205 226 255
205 226 255
205 226 255
205 226 255
205 226 255
205 226 255
205 226 255
205 226 255
205 226 255
205 227 255
205 227 255
205 227 255
205 227 255
205 227 255
205 227 255
205 227 255
205 227 255
205 227 255
205 227 255
205 227 255
205 227 255
206 227 255
206 227 255
206 227 255
206 227 255
206 227 255
206 227 255
206 227 255
206 227 255
206 227 255
206 227 255
206 227 255
206 227 255
62 98 158
61 97 161
62 98 161
62 98 158
62 99 169
62 98 158
61 97 153
61 97 162
61 97 159
62 99 168
60 96 150
61 97 157
62 98 165
62 99 166
62 98 162
62 98 159
62 97 157
62 98 157
62 98 163
61 97 162
62 98 161
62 98 162
62 98 164
62 97 156
62 98 162
63 99 167
61 97 161
62 98 162
61 97 158
62 98 160
61 97 152
62 98 161
62 98 163
61 97 157
62 98 162
63 99 164
62 98 165
62 98 166
62 98 158
62 98 157
61 97 152
63 99 166
62 99 169
62 98 164
62 98 163
62 99 167
61 98 165
62 99 169
61 97 157
62 98 157
63 99 166
62 98 160
62 98 165
62 98 158
63 99 169
62 99 164
61 97 157
62 98 160
63 99 166
62 98 159
62 98 159
62 98 161
61 97 160
61 97 161
62 98 164
62 99 168
62 99 165
61 97 161
62 98 162
62 98 160
62 98 162
62 98 166
62 99 165
62 98 156
61 97 157
62 98 161
62 98 165
62 98 163
62 98 161
62 98 165
61 97 157
62 98 163
62 98 163
62 99 164
63 99 169
62 99 165
62 98 166
62 99 166
62 99 166
62 98 167
62 98 165
62 98 163
62 98 167
63 99 167
61 98 164
61 97 162
62 98 162
62 98 165
61 97 163
62 98 165
61 98 165
61 98 163
62 99 169
62 98 164
61 98 162
62 98 164
62 99 168
63 99 161
61 98 161
62 98 166
62 98 172
62 98 167
62 98 168
62 99 168
61 98 166
61 98 164
63 99 164
61 98 165
63 99 165
61 98 161
62 98 165
62 98 167
62 99 166
63 99 172
62 98 168
62 98 164
62 98 166
62 98 165
62 98 164
63 99 168
62 99 169
62 99 172
63 99 167
62 98 169
62 98 168
62 98 165
62 98 169
62 98 166
63 99 175
62 99 170
62 98 169
62 98 171
62 98 168
62 98 170
63 99 172
63 99 168
62 99 170
62 99 172
62 98 167
62 98 168
62 99 177
62 99 171
62 98 165
62 99 176
62 99 170
62 99 169
62 98 170
62 98 167
62 99 175
62 99 171
63 99 171
62 99 175
62 99 174
63 99 175
61 98 173
62 98 173
62 98 176
62 98 175
62 99 180
71 105 180
154 177 223
206 227 255
206 227 255
205 227 255
205 227 255
205 227 255
205 227 255
205 227 255
205 227 255
205 227 255
205 227 255
205 227 255
205 227 255
205 227 255
205 227 255
205 227 255
205 226 255
205 226 255
205 226 255
205 226 255
205 226 255
205 226 255
205 226 255
205 226 255
204 226 255
204 226 255
204 226 255
204 226 255
204 226 255
204 226 255
204 226 255
204 226 255
204 226 255
204 226 255
204 226 255
204 226 255
204 226 255
204 226 255
204 226 255
204 226 255
204 226 255
204 226 255
204 226 255
204 226 255
204 226 255
204 226 255
203 226 255
203 226 255
203 226 255
203 226 255
203 226 255
203 226 255
203 226 255
203 226 255
203 226 255
203 226 255
203 226 255
203 225 255
203 225 255
203 225 255
203 225 255
203 225 255
203 225 255
203 225 255
203 225 255
203 225 255
203 225 255
203 225 255
203 225 255
203 225 255
203 225 255
203 225 255
203 225 255
203 225 255
202 225 255
202 225 255
202 225 255
202 225 255
202 225 255
202 225 255
202 225 255
202 225 255
202 225 255
202 225 255
202 225 255
202 225 255
202 225 255
202 225 255
202 225 255
202 225 255
202 225 255
202 225 255
202 225 255
202 225 255
202 225 255
202 225 255
202 225 255
202 225 255
202 225 255
202 225 255
202 225 255
202 225 255
202 225 255
202 225 255
202 225 255
202 225 255
202 225 255
202 225 255
202 225 255
202 225 255
202 225 255
202 225 255
202 225 255
202 225 255
202 225 255
202 225 255
202 225 255
202 225 255
202 225 255
202 225 255
202 225 255
202 225 255
202 225 255
202 225 255
202 225 255
202 225 255
202 225 255
202 225 255
202 225 255
202 225 255
202 225 255
202 225 255
202 225 255
202 225 255
202 225 255
202 225 255
202 225 255
202 225 255
202 225 255
202 225 255
202 225 255
202 225 255
202 225 255
202 225 255
202 225 255
203 225 255
203 225 255
203 225 255
203 225 255
203 225 255
203 225 255
203 225 255
203 225 255
203 225 255
203 225 255
203 225 255
203 225 255
203 225 255
203 225 255
203 225 255
203 225 255
203 225 255
203 226 255
203 226 255
203 226 255
203 226 255
203 226 255
203 226 255
203 226 255
203 226 255
203 226 255
203 226 255
203 226 255
204 226 255
204 226 255
204 226 255
204 226 255
204 226 255
204 226 255
204 226 255
204 226 255
204 226 255
204 226 255
204 226 255
204 226 255
204 226 255
204 226 255
204 226 255
204 226 255
204 226 255
204 226 255
204 226 255
204 226 255
204 226 255
204 226 255
205 226 255
205 226 255
205 226 255
205 226 255
205 226 255
205 226 255
205 226 255
205 226 255
205 226 255
205 227 255
205 227 255
205 227 255
205 227 255
205 227 255
205 227 255
205 227 255
205 227 255
205 227 255
205 227 255
205 227 255
205 227 255
206 227 255
206 227 255
206 227 255
206 227 255
206 227 255
206 227 255
206 227 255
206 227 255
206 227 255
206 227 255
206 227 255
206 227 255
206 227 255
206 227 255
62 98 160
62 98 165
63 99 171
62 98 162
62 98 164
61 97 164
61 98 165
62 98 162
62 98 165
61 97 157
62 98 159
62 98 164
61 97 157
62 98 165
62 98 163
61 97 156
61 97 160
62 98 163
62 98 163
61 97 157
62 99 166
61 98 159
62 98 163
62 98 164
62 98 166
62 98 159
61 96 156
62 98 157
61 97 156
62 98 164
63 99 169
62 99 170
61 97 158
61 98 164
62 98 168
61 97 157
62 98 158
62 98 160
63 99 166
62 98 160
62 97 160
62 98 165
62 98 159
62 98 162
62 98 161
61 97 160
62 99 164
62 98 162
62 98 165
62 98 161
63 99 165
62 98 159
62 98 164
62 98 164
62 99 163
62 98 162
62 98 159
62 99 164
63 99 170
63 99 168
61 97 160
62 98 166
62 98 162
63 99 167
63 99 167
62 99 166
61 97 155
62 98 159
62 98 165
62 99 168
62 99 170
61 98 163
62 98 159
63 99 166
62 98 162
62 98 160
62 97 158
62 98 156
61 97 159
62 99 164
62 98 169
62 98 164
62 98 161
61 98 164
62 98 162
62 99 165
63 99 164
62 98 161
62 99 170
62 98 163
62 98 168
62 98 166
62 98 163
62 98 162
61 97 160
62 99 171
61 98 168
63 99 169
62 98 160
62 98 164
62 98 164
63 99 165
62 98 167
61 97 161
62 98 164
61 98 162
62 98 167
63 100 175
61 97 160
62 99 168
62 98 165
63 99 169
61 98 168
61 97 160
62 98 165
62 99 169
63 99 170
61 98 166
62 98 166
62 98 167
62 98 162
62 98 167
62 98 166
62 99 167
63 99 168
62 99 168
62 99 171
62 99 167
62 98 167
62 99 167
63 99 171
62 98 163
61 98 162
61 98 165
62 98 168
62 98 169
63 99 174
62 98 171
62 99 169
62 98 167
62 99 167
61 98 165
61 98 169
62 99 177
62 99 173
63 99 173
62 98 172
62 98 167
62 98 170
62 99 173
62 99 171
61 98 169
62 98 172
62 98 168
61 97 166
62 99 174
62 98 172
62 99 173
63 99 173
62 99 170
62 99 171
62 99 177
62 99 170
62 99 176
62 99 173
61 98 172
61 98 175
62 99 172
61 98 173
62 99 178
62 98 174
104 131 194
199 220 251
206 227 255
206 227 255
206 227 255
205 227 255
205 227 255
205 227 255
205 227 255
205 227 255
205 227 255
205 227 255
205 227 255
205 227 255
205 227 255
205 227 255
205 227 255
205 226 255
205 226 255
205 226 255
205 226 255
205 226 255
205 226 255
205 226 255
205 226 255
204 226 255
204 226 255
204 226 255
204 226 255
204 226 255
204 226 255
204 226 255
204 226 255
204 226 255
204 226 255
204 226 255
204 226 255
204 226 255
204 226 255
204 226 255
204 226 255
204 226 255
204 226 255
204 226 255
204 226 255
204 226 255
204 226 255
204 226 255
203 226 255
203 226 255
203 226 255
203 226 255
203 226 255
203 226 255
203 226 255
203 226 255
203 226 255
203 226 255
203 226 255
203 225 255
203 225 255
203 225 255
203 225 255
203 225 255
203 225 255
203 225 255
203 225 255
203 225 255
203 225 255
203 225 255
203 225 255
203 225 255
203 225 255
203 225 255
203 225 255
203 225 255
203 225 255
202 225 255
202 225 255
202 225 255
202 225 255
202 225 255
202 225 255
202 225 255
202 225 255
202 225 255
202 225 255
202 225 255
202 225 255
202 225 255
202 225 255
202 225 255
202 225 255
202 225 255
202 225 255
202 225 255
202 225 255
202 225 255
202 225 255
202 225 255
202 225 255
202 225 255
202 225 255
202 225 255
202 225 255
202 225 255
202 225 255
202 225 255
202 225 255
202 225 255
202 225 255
202 225 255
202 225 255
202 225 255
202 225 255
202 225 255
202 225 255
202 225 255
202 225 255
202 225 255
202 225 255
202 225 255
202 225 255
202 225 255
202 225 255
202 225 255
202 225 255
202 225 255
202 225 255
202 225 255
202 225 255
202 225 255
202 225 255
202 225 255
202 225 255
202 225 255
202 225 255
202 225 255
202 225 255
202 225 255
203 225 255
203 225 255
203 225 255
203 225 255
203 225 255
203 225 255
203 225 255
203 225 255
203 225 255
203 225 255
203 225 255
203 225 255
203 225 255
203 225 255
203 225 255
203 225 255
203 225 255
203 225 255
203 226 255
203 226 255
203 226 255
203 226 255
203 226 255
203 226 255
203 226 255
203 226 255
203 226 255
203 226 255
203 226 255
203 226 255
204 226 255
204 226 255
204 226 255
204 226 255
204 226 255
204 226 255
204 226 255
204 226 255
204 226 255
204 226 255
204 226 255
204 226 255
204 226 255
204 226 255
204 226 255
204 226 255
204 226 255
204 226 255
204 226 255
204 226 255
204 226 255
204 226 255
205 226 255
205 226 255
205 226 255
205 226 255
205 226 255
205 226 255
205 226 255
205 226 255
205 227 255
205 227 255
205 227 255
205 227 255
205 227 255
205 227 255
205 227 255
205 227 255
205 227 255
205 227 255
205 227 255
205 227 255
206 227 255
206 227 255
206 227 255
206 227 255
206 227 255
206 227 255
206 227 255
206 227 255
206 227 255
206 227 255
206 227 255
206 227 255
206 227 255
206 227 255
206 227 255
206 227 255
206 227 255
62 98 162
62 98 164
62 98 163
62 98 165
62 98 160
62 98 167
62 98 164
63 99 168
61 96 153
62 98 162
62 98 165
61 97 159
62 98 158
62 98 165
62 98 159
62 98 165
62 99 168
63 99 165
62 98 168
62 99 166
62 98 164
62 98 162
62 98 164
62 98 157
62 98 160
61 98 161
62 99 166
62 99 167
62 98 160
62 98 164
63 99 165
62 98 164
63 98 159
62 98 159
61 97 156
61 97 159
62 98 166
62 98 162
62 98 164
61 97 158
62 98 170
62 98 163
62 98 159
61 97 162
63 99 167
62 98 163
63 99 168
62 98 163
61 97 161
62 98 161
63 99 166
61 98 164
62 99 170
62 98 156
63 100 171
63 99 165
62 99 163
62 98 160
63 99 164
63 99 164
63 99 167
62 98 166
63 99 165
62 99 168
62 98 161
61 97 161
62 98 160
61 98 163
63 99 166
61 97 154
62 98 162
61 98 162
62 98 168
63 99 170
62 98 168
62 98 159
63 99 169
62 98 164
62 99 164
63 98 163
62 98 161
62 98 164
62 98 161
62 98 162
62 98 164
62 98 162
62 98 168
61 98 160
62 99 167
63 99 164
62 99 166
62 99 163
62 99 169
62 98 164
62 99 166
62 98 161
62 98 161
62 99 167
62 99 169
62 98 163
63 99 167
61 98 165
61 98 163
62 99 164
62 98 161
63 99 166
62 98 164
62 98 163
62 97 160
63 99 168
62 98 163
63 99 172
63 99 172
62 98 167
61 98 169
62 98 166
62 99 167
62 98 164
63 99 166
62 98 162
63 99 172
62 98 166
62 98 163
62 99 173
62 99 168
62 98 165
62 99 168
62 99 174
61 97 159
61 97 162
61 97 160
63 99 172
61 98 165
61 98 166
62 99 169
62 98 164
62 98 165
62 99 173
62 99 174
62 99 173
62 98 169
61 98 167
62 98 165
62 99 169
63 99 171
61 98 164
62 99 171
62 99 170
63 99 166
62 99 176
62 99 169
62 99 168
62 98 166
62 99 170
62 99 172
62 98 170
62 99 172
62 98 167
62 98 167
62 98 171
62 98 168
62 99 176
63 99 173
61 98 174
61 98 172
62 99 175
62 99 176
61 98 170
62 98 170
62 99 178
62 99 176
62 99 175
73 106 178
158 181 224
206 227 255
206 227 255
206 227 255
206 227 255
205 227 255
205 227 255
205 227 255
205 227 255
205 227 255
205 227 255
205 227 255
205 227 255
205 227 255
205 227 255
205 227 255
205 227 255
205 226 255
205 226 255
205 226 255
205 226 255
205 226 255
205 226 255
205 226 255
205 226 255
204 226 255
204 226 255
204 226 255
204 226 255
204 226 255
204 226 255
204 226 255
204 226 255
204 226 255
204 226 255
204 226 255
204 226 255
204 226 255
204 226 255
204 226 255
204 226 255
204 226 255
204 226 255
204 226 255
204 226 255
204 226 255
204 226 255
204 226 255
203 226 255
203 226 255
203 226 255
203 226 255
203 226 255
203 226 255
203 226 255
203 226 255
203 226 255
203 226 255
203 226 255
203 226 255
203 225 255
203 225 255
203 225 255
203 225 255
203 225 255
203 225 255
203 225 255
203 225 255
203 225 255
203 225 255
203 225 255
203 225 255
203 225 255
203 225 255
203 225 255
203 225 255
203 225 255
203 225 255
203 225 255
202 225 255
202 225 255
202 225 255
202 225 255
202 225 255
202 225 255
202 225 255
202 225 255
202 225 255
202 225 255
202 225 255
202 225 255
202 225 255
202 225 255
202 225 255
202 225 255
202 225 255
202 225 255
202 225 255
202 225 255
202 225 255
202 225 255
202 225 255
202 225 255
202 225 255
202 225 255
202 225 255
202 225 255
202 225 255
202 225 255
202 225 255
202 225 255
202 225 255
202 225 255
202 225 255
202 225 255
202 225 255
202 225 255
202 225 255
202 225 255
202 225 255
202 225 255
202 225 255
202 225 255
202 225 255
202 225 255
202 225 255
202 225 255
202 225 255
202 225 255
202 225 255
202 225 255
202 225 255
202 225 255
202 225 255
203 225 255
203 225 255
203 225 255
203 225 255
203 225 255
203 225 255
203 225 255
203 225 255
203 225 255
203 225 255
203 225 255
203 225 255
203 225 255
203 225 255
203 225 255
203 225 255
203 225 255
203 225 255
203 225 255
203 225 255
203 226 255
203 226 255
203 226 255
203 226 255
203 226 255
203 226 255
203 226 255
203 226 255
203 226 255
203 226 255
203 226 255
204 226 255
204 226 255
204 226 255
204 226 255
204 226 255
204 226 255
204 226 255
204 226 255
204 226 255
204 226 255
204 226 255
204 226 255
204 226 255
204 226 255
204 226 255
204 226 255
204 226 255
204 226 255
204 226 255
204 226 255
204 226 255
204 226 255
204 226 255
205 226 255
205 226 255
205 226 255
205 226 255
205 226 255
205 226 255
205 226 255
205 226 255
205 227 255
205 227 255
205 227 255
205 227 255
205 227 255
205 227 255
205 227 255
205 227 255
205 227 255
205 227 255
205 227 255
205 227 255
206 227 255
206 227 255
206 227 255
206 227 255
206 227 255
206 227 255
206 227 255
206 227 255
206 227 255
206 227 255
206 227 255
206 227 255
206 227 255
206 227 255
206 227 255
206 227 255
206 227 255
206 227 255
206 227 255
62 98 161
62 98 161
62 97 153
62 98 158
62 98 162
62 98 161
62 98 161
62 98 159
61 96 157
61 97 157
63 99 169
62 99 167
62 98 165
62 99 165
62 98 160
62 99 164
62 98 166
62 98 160
62 98 164
62 98 166
62 98 164
61 97 159
63 99 165
62 98 161
62 98 163
62 98 156
62 98 161
61 97 158
62 98 163
62 98 157
62 98 162
62 99 166
62 98 158
62 97 153
61 97 159
62 99 165
61 97 156
62 98 162
61 97 156
62 98 164
61 97 163
62 98 163
61 97 160
62 98 164
62 99 167
63 99 168
62 98 160
62 99 165
61 97 161
62 98 162
62 98 160
62 98 161
62 98 160
62 97 162
62 98 168
62 98 162
63 99 165
62 98 161
62 98 160
61 98 163
62 98 160
62 98 163
62 98 160
62 98 163
61 98 161
63 99 166
62 98 167
63 99 170
61 97 161
62 98 166
62 99 168
61 98 161
62 98 165
62 98 164
61 97 153
61 98 164
63 99 165
61 98 165
63 99 169
62 99 168
62 98 162
61 97 163
62 98 162
62 99 166
62 98 160
62 98 165
62 98 168
63 99 170
61 97 158
62 98 164
61 98 166
62 98 161
62 98 163
62 98 166
62 98 167
61 98 166
62 99 170
62 99 164
63 99 162
63 99 168
62 98 160
61 98 160
62 98 163
62 98 166
61 97 162
62 98 165
63 99 169
62 98 163
62 98 167
62 99 168
63 99 165
62 99 172
62 98 163
61 97 161
62 98 162
62 98 164
61 97 159
62 98 170
62 98 162
62 99 168
62 98 166
63 99 169
62 98 169
62 99 175
62 99 169
62 99 167
62 98 163
63 99 165
62 98 161
62 98 161
62 98 166
62 99 173
62 99 166
63 99 171
62 98 167
63 99 174
62 98 162
62 99 169
63 99 166
61 98 167
62 98 165
62 98 167
62 99 170
62 98 163
62 99 171
62 99 171
62 99 168
62 98 168
61 97 163
61 98 170
62 99 171
61 98 168
62 98 172
62 98 169
62 99 170
62 98 171
62 98 170
62 98 170
61 97 161
62 98 168
62 98 171
61 98 167
61 98 175
62 99 173
62 99 177
62 99 173
62 99 173
62 99 172
62 99 176
62 99 176
62 99 176
62 99 174
62 99 178
62 99 175
115 141 199
200 221 252
206 227 255
206 227 255
206 227 255
206 227 255
205 227 255
205 227 255
205 227 255
205 227 255
205 227 255
205 227 255
205 227 255
205 227 255
205 227 255
205 227 255
205 227 255
205 227 255
205 226 255
205 226 255
205 226 255
205 226 255
205 226 255
205 226 255
205 226 255
205 226 255
205 226 255
204 226 255
204 226 255
204 226 255
204 226 255
204 226 255
204 226 255
204 226 255
204 226 255
204 226 255
204 226 255
204 226 255
204 226 255
204 226 255
204 226 255
204 226 255
204 226 255
204 226 255
204 226 255
204 226 255
204 226 255
204 226 255
204 226 255
204 226 255
203 226 255
203 226 255
203 226 255
203 226 255
203 226 255
203 226 255
203 226 255
203 226 255
203 226 255
203 226 255
203 226 255
203 226 255
203 225 255
203 225 255
203 225 255
203 225 255
203 225 255
203 225 255
203 225 255
203 225 255
203 225 255
203 225 255
203 225 255
203 225 255
203 225 255
203 225 255
203 225 255
203 225 255
203 225 255
203 225 255
203 225 255
203 225 255
203 225 255
202 225 255
202 225 255
202 225 255
202 225 255
202 225 255
202 225 255
202 225 255
202 225 255
202 225 255
202 225 255
202 225 255
202 225 255
202 225 255
202 225 255
202 225 255
202 225 255
202 225 255
202 225 255
202 225 255
202 225 255
202 225 255
202 225 255
202 225 255
202 225 255
202 225 255
202 225 255
202 225 255
202 225 255
202 225 255
202 225 255
202 225 255
202 225 255
202 225 255
202 225 255
202 225 255
202 225 255
202 225 255
202 225 255
202 225 255
202 225 255
202 225 255
202 225 255
202 225 255
202 225 255
202 225 255
203 225 255
203 225 255
203 225 255
203 225 255
203 225 255
203 225 255
203 225 255
203 225 255
203 225 255
203 225 255
203 225 255
203 225 255
203 225 255
203 225 255
203 225 255
203 225 255
203 225 255
203 225 255
203 225 255
203 225 255
203 225 255
203 226 255
203 226 255
203 226 255
203 226 255
203 226 255
203 226 255
203 226 255
203 226 255
203 226 255
203 226 255
203 226 255
203 226 255
204 226 255
204 226 255
204 226 255
204 226 255
204 226 255
204 226 255
204 226 255
204 226 255
204 226 255
204 226 255
204 226 255
204 226 255
204 226 255
204 226 255
204 226 255
204 226 255
204 226 255
204 226 255
204 226 255
204 226 255
204 226 255
204 226 255
204 226 255
205 226 255
205 226 255
205 226 255
205 226 255
205 226 255
205 226 255
205 226 255
205 226 255
205 226 255
205 227 255
205 227 255
205 227 255
205 227 255
205 227 255
205 227 255
205 227 255
205 227 255
205 227 255
205 227 255
205 227 255
205 227 255
206 227 255
206 227 255
206 227 255
206 227 255
206 227 255
206 227 255
206 227 255
206 227 255
206 227 255
206 227 255
206 227 255
206 227 255
206 227 255
206 227 255
206 227 255
206 227 255
206 227 255
206 227 255
206 227 255
206 227 255
207 227 255
62 98 160
61 97 158
62 98 168
63 99 172
62 98 161
62 98 160
63 99 166
61 96 151
62 98 162
62 99 165
62 98 161
62 98 161
61 97 155
62 98 162
62 98 164
62 98 161
62 98 161
62 99 169
61 98 161
62 98 160
63 99 164
61 98 161
63 99 167
61 96 153
62 98 155
62 98 164
61 97 160
62 98 157
62 98 163
62 98 160
63 99 161
62 98 158
61 97 160
62 98 160
62 99 169
63 99 168
62 98 163
62 98 161
62 99 171
61 97 157
62 98 165
61 97 159
62 98 159
62 98 162
61 98 161
61 97 156
63 99 165
61 97 152
61 97 158
62 98 158
62 98 155
63 99 166
63 99 172
62 98 166
63 99 166
61 97 157
62 98 164
62 98 161
62 98 162
61 98 163
63 98 166
62 98 164
62 98 160
62 98 161
62 98 161
62 98 159
62 98 160
62 98 156
62 98 166
62 98 166
63 99 167
63 99 166
62 98 160
61 97 157
61 97 157
62 98 164
62 98 160
62 98 166
61 98 164
62 98 160
61 97 154
63 99 168
62 99 167
62 98 158
62 98 162
61 97 156
62 98 165
62 99 167
63 99 169
62 98 168
61 98 160
62 98 162
62 98 164
62 99 168
62 98 164
61 97 156
62 99 166
61 98 164
62 98 163
62 98 166
62 98 162
62 98 169
62 98 166
61 97 161
61 98 166
63 99 165
62 98 166
62 98 161
62 98 163
61 98 164
62 98 170
61 97 157
62 98 163
62 98 165
62 98 165
62 98 159
61 97 162
61 97 161
62 98 161
62 98 168
61 97 157
63 99 174
62 98 167
61 98 163
62 98 160
61 98 159
61 98 168
62 98 165
61 98 162
62 98 167
63 99 170
62 98 164
62 98 165
62 98 164
63 100 172
62 99 165
63 99 169
62 99 168
62 99 168
62 99 171
62 98 169
62 98 166
63 100 176
63 99 165
62 98 164
61 98 166
63 99 169
62 99 167
63 99 175
62 99 173
63 99 172
62 98 167
62 98 168
62 99 172
62 98 168
62 98 164
62 98 168
62 99 172
62 99 169
62 98 173
62 99 176
61 98 172
61 98 168
62 99 176
61 98 172
62 99 174
62 99 176
62 99 174
63 99 175
62 98 170
62 98 170
62 98 174
62 99 176
61 98 174
61 98 175
90 119 186
177 199 236
206 227 255
206 227 255
206 227 255
206 227 255
206 227 255
205 227 255
205 227 255
205 227 255
205 227 255
205 227 255
205 227 255
205 227 255
205 227 255
205 227 255
205 227 255
205 227 255
205 227 255
205 227 255
205 226 255
205 226 255
205 226 255
205 226 255
205 226 255
205 226 255
205 226 255
205 226 255
204 226 255
204 226 255
204 226 255
204 226 255
204 226 255
204 226 255
204 226 255
204 226 255
204 226 255
204 226 255
204 226 255
204 226 255
204 226 255
204 226 255
204 226 255
204 226 255
204 226 255
204 226 255
204 226 255
204 226 255
204 226 255
204 226 255
204 226 255
203 226 255
203 226 255
203 226 255
203 226 255
203 226 255
203 226 255
203 226 255
203 226 255
203 226 255
203 226 255
203 226 255
203 226 255
203 226 255
203 225 255
203 225 255
203 225 255
203 225 255
203 225 255
203 225 255
203 225 255
203 225 255
203 225 255
203 225 255
203 225 255
203 225 255
203 225 255
203 225 255
203 225 255
203 225 255
203 225 255
203 225 255
203 225 255
203 225 255
203 225 255
203 225 255
203 225 255
203 225 255
202 225 255
202 225 255
202 225 255
202 225 255
202 225 255
202 225 255
202 225 255
202 225 255
202 225 255
202 225 255
202 225 255
202 225 255
202 225 255
202 225 255
202 225 255
202 225 255
202 225 255
202 225 255
202 225 255
202 225 255
202 225 255
202 225 255
202 225 255
202 225 255
202 225 255
202 225 255
202 225 255
202 225 255
202 225 255
202 225 255
202 225 255
202 225 255
202 225 255
203 225 255
203 225 255
203 225 255
203 225 255
203 225 255
203 225 255
203 225 255
203 225 255
203 225 255
203 225 255
203 225 255
203 225 255
203 225 255
203 225 255
203 225 255
203 225 255
203 225 255
203 225 255
203 225 255
203 225 255
203 225 255
203 225 255
203 225 255
203 225 255
203 226 255
203 226 255
203 226 255
203 226 255
203 226 255
203 226 255
203 226 255
203 226 255
203 226 255
203 226 255
203 226 255
203 226 255
203 226 255
204 226 255
204 226 255
204 226 255
204 226 255
204 226 255
204 226 255
204 226 255
204 226 255
204 226 255
204 226 255
204 226 255
204 226 255
204 226 255
204 226 255
204 226 255
204 226 255
204 226 255
204 226 255
204 226 255
204 226 255
204 226 255
204 226 255
204 226 255
205 226 255
205 226 255
205 226 255
205 226 255
205 226 255
205 226 255
205 226 255
205 226 255
205 227 255
205 227 255
205 227 255
205 227 255
205 227 255
205 227 255
205 227 255
205 227 255
205 227 255
205 227 255
205 227 255
205 227 255
205 227 255
206 227 255
206 227 255
206 227 255
206 227 255
206 227 255
206 227 255
206 227 255
206 227 255
206 227 255
206 227 255
206 227 255
206 227 255
206 227 255
206 227 255
206 227 255
206 227 255
206 227 255
206 227 255
206 227 255
206 227 255
207 227 255
207 227 255
207 227 255
62 98 162
61 97 149
63 99 169
61 97 159
62 98 160
62 98 158
61 96 153
63 99 168
62 99 168
62 98 165
61 97 153
62 98 160
62 98 162
62 98 166
61 98 161
62 98 159
61 96 151
62 98 162
62 98 157
61 97 156
63 99 167
62 99 168
62 98 161
62 98 162
62 98 162
62 98 158
60 96 157
61 97 160
62 97 159
62 98 162
62 98 161
61 97 161
62 98 166
62 98 162
61 97 155
62 98 169
62 98 162
61 97 155
62 98 165
63 99 168
62 99 164
62 98 165
62 99 164
61 97 156
62 98 161
62 98 166
62 98 158
61 97 156
62 98 161
61 98 163
62 98 161
62 98 163
62 98 158
63 99 165
62 99 164
62 98 164
62 98 157
62 98 161
63 99 162
63 99 163
62 98 160
62 98 162
62 98 163
63 99 165
62 97 159
62 98 162
62 98 161
62 98 160
62 98 159
61 97 158
62 99 170
62 98 159
62 98 162
61 97 156
62 98 164
62 99 165
61 98 165
62 98 165
62 98 161
61 97 156
62 98 163
61 97 154
62 98 162
62 99 168
62 98 163
61 97 161
61 97 158
62 98 161
61 98 158
62 98 166
63 98 162
62 99 165
63 98 158
62 99 167
61 97 161
62 99 167
62 98 164
62 98 163
62 98 163
61 98 164
62 98 165
62 98 163
61 98 163
63 99 162
63 99 167
62 99 165
61 98 165
62 98 163
61 98 162
62 99 166
62 98 161
62 98 164
62 98 167
63 99 171
62 97 155
62 98 161
62 98 167
62 98 164
63 99 165
62 99 168
63 99 165
61 97 163
62 98 162
62 98 170
62 98 164
62 99 168
62 99 168
61 98 166
62 98 165
62 98 162
62 99 168
62 99 169
62 98 166
62 98 164
62 98 154
62 98 163
62 98 168
62 99 169
62 99 170
63 99 169
62 99 174
62 98 167
62 99 170
62 98 170
62 99 169
62 99 166
62 99 168
62 98 164
62 99 171
62 99 173
62 99 170
62 99 170
62 99 170
61 98 167
62 99 171
62 98 170
61 98 164
62 98 169
62 99 171
62 98 170
62 98 170
62 99 175
62 99 170
62 98 169
61 98 172
63 99 174
63 99 176
62 99 174
62 99 174
62 98 172
63 99 176
62 98 170
62 99 174
62 98 176
61 98 174
61 97 168
65 101 178
144 168 216
206 227 255
206 227 255
206 227 255
206 227 255
206 227 255
206 227 255
206 227 255
205 227 255
205 227 255
205 227 255
205 227 255
205 227 255
205 227 255
205 227 255
205 227 255
205 227 255
205 227 255
205 227 255
205 227 255
205 226 255
205 226 255
205 226 255
205 226 255
205 226 255
205 226 255
205 226 255
205 226 255
205 226 255
204 226 255
204 226 255
204 226 255
204 226 255
204 226 255
204 226 255
204 226 255
204 226 255
204 226 255
204 226 255
204 226 255
204 226 255
204 226 255
204 226 255
204 226 255
204 226 255
204 226 255
204 226 255
204 226 255
204 226 255
204 226 255
204 226 255
204 226 255
203 226 255
203 226 255
203 226 255
203 226 255
203 226 255
203 226 255
203 226 255
203 226 255
203 226 255
203 226 255
203 226 255
203 226 255
203 226 255
203 225 255
203 225 255
203 225 255
203 225 255
203 225 255
203 225 255
203 225 255
203 225 255
203 225 255
203 225 255
203 225 255
203 225 255
203 225 255
203 225 255
203 225 255
203 225 255
203 225 255
203 225 255
203 225 255
203 225 255
203 225 255
203 225 255
203 225 255
203 225 255
203 225 255
203 225 255
203 225 255
203 225 255
203 225 255
203 225 255
203 225 255
202 225 255
202 225 255
202 225 255
202 225 255
202 225 255
202 225 255
202 225 255
202 225 255
202 225 255
202 225 255
202 225 255
202 225 255
202 225 255
203 225 255
203 225 255
203 225 255
203 225 255
203 225 255
203 225 255
203 225 255
203 225 255
203 225 255
203 225 255
203 225 255
203 225 255
203 225 255
203 225 255
203 225 255
203 225 255
203 225 255
203 225 255
203 225 255
203 225 255
203 225 255
203 225 255
203 225 255
203 225 255
203 225 255
203 225 255
203 225 255
203 225 255
203 225 255
203 225 255
203 225 255
203 226 255
203 226 255
203 226 255
203 226 255
203 226 255
203 226 255
203 226 255
203 226 255
203 226 255
203 226 255
203 226 255
203 226 255
203 226 255
204 226 255
204 226 255
204 226 255
204 226 255
204 226 255
204 226 255
204 226 255
204 226 255
204 226 255
204 226 255
204 226 255
204 226 255
204 226 255
204 226 255
204 226 255
204 226 255
204 226 255
204 226 255
204 226 255
204 226 255
204 226 255
204 226 255
204 226 255
204 226 255
205 226 255
205 226 255
205 226 255
205 226 255
205 226 255
205 226 255
205 226 255
205 226 255
205 227 255
205 227 255
205 227 255
205 227 255
205 227 255
205 227 255
205 227 255
205 227 255
205 227 255
205 227 255
205 227 255
205 227 255
206 227 255
206 227 255
206 227 255
206 227 255
206 227 255
206 227 255
206 227 255
206 227 255
206 227 255
206 227 255
206 227 255
206 227 255
206 227 255
206 227 255
206 227 255
206 227 255
206 227 255
206 227 255
206 227 255
206 227 255
206 227 255
207 227 255
207 227 255
207 227 255
207 227 255
207 227 255
62 98 160
61 97 165
62 98 161
62 98 161
62 97 153
62 98 164
62 98 167
62 98 159
63 99 165
62 98 164
62 98 162
62 98 162
62 97 157
63 99 168
62 98 155
61 97 157
62 98 161
62 99 163
61 97 154
61 97 160
63 99 166
63 99 165
61 97 161
62 98 159
61 97 161
62 98 163
61 98 158
61 97 156
60 96 148
62 98 160
61 97 156
61 97 156
62 98 166
62 98 163
62 98 160
60 96 153
62 98 161
62 99 166
62 98 159
61 97 157
61 97 154
62 98 162
62 98 164
61 97 156
61 97 156
62 98 161
61 98 165
62 98 159
62 98 163
62 98 160
61 97 159
61 97 158
62 97 157
62 98 160
62 98 159
61 97 156
62 98 168
62 97 159
62 99 166
61 98 163
61 97 155
61 97 157
61 97 156
61 97 156
62 98 160
62 98 162
62 98 160
62 98 160
62 99 166
62 98 160
61 98 164
62 98 164
62 98 165
62 98 159
62 98 158
62 98 163
61 98 164
63 99 169
62 98 162
62 98 166
61 97 157
62 98 159
61 97 161
62 98 162
61 98 164
63 99 166
62 98 161
62 98 160
62 98 162
62 98 162
62 98 162
62 98 163
62 98 163
62 99 170
62 98 159
62 98 164
63 99 167
63 99 169
61 97 164
62 98 164
61 98 165
62 98 166
62 98 162
62 98 165
62 98 164
63 99 167
62 98 160
62 99 173
63 99 169
62 99 165
63 99 165
63 99 169
61 97 159
61 97 160
63 100 169
62 99 166
61 98 166
61 97 161
62 99 167
63 99 166
61 98 165
64 100 173
62 98 160
63 99 171
62 98 163
62 99 171
62 99 172
62 98 161
62 98 161
62 98 161
63 100 173
62 98 160
61 98 163
62 99 167
62 99 165
61 98 166
63 99 171
63 99 172
62 98 167
61 98 165
62 98 165
62 99 170
62 99 172
61 98 169
62 98 162
61 98 163
62 98 165
62 99 165
61 97 164
63 99 169
62 99 164
62 99 167
62 99 171
62 98 168
62 98 171
63 99 171
61 98 169
62 98 168
62 99 169
62 99 170
63 99 176
62 99 168
62 99 172
62 98 171
62 99 173
61 98 170
62 98 172
63 99 172
62 99 168
62 98 174
62 99 171
62 99 176
62 99 175
62 98 169
62 99 176
62 99 174
62 99 174
61 98 177
119 145 200
195 217 248
206 227 255
206 227 255
206 227 255
206 227 255
206 227 255
206 227 255
206 227 255
205 227 255
205 227 255
205 227 255
205 227 255
205 227 255
205 227 255
205 227 255
205 227 255
205 227 255
205 227 255
205 227 255
205 227 255
205 226 255
205 226 255
205 226 255
205 226 255
205 226 255
205 226 255
205 226 255
205 226 255
205 226 255
204 226 255
204 226 255
204 226 255
204 226 255
204 226 255
204 226 255
204 226 255
204 226 255
204 226 255
204 226 255
204 226 255
204 226 255
204 226 255
204 226 255
204 226 255
204 226 255
204 226 255
204 226 255
204 226 255
204 226 255
204 226 255
204 226 255
204 226 255
204 226 255
203 226 255
203 226 255
203 226 255
203 226 255
203 226 255
203 226 255
203 226 255
203 226 255
203 226 255
203 226 255
203 226 255
203 226 255
203 226 255
203 226 255
203 225 255
203 225 255
203 225 255
203 225 255
203 225 255
203 225 255
203 225 255
203 225 255
203 225 255
203 225 255
203 225 255
203 225 255
203 225 255
203 225 255
203 225 255
203 225 255
203 225 255
203 225 255
203 225 255
203 225 255
203 225 255
203 225 255
203 225 255
203 225 255
203 225 255
203 225 255
203 225 255
203 225 255
203 225 255
203 225 255
203 225 255
203 225 255
203 225 255
203 225 255
203 225 255
203 225 255
203 225 255
203 225 255
203 225 255
203 225 255
203 225 255
203 225 255
203 225 255
203 225 255
203 225 255
203 225 255
203 225 255
203 225 255
203 225 255
203 225 255
203 225 255
203 225 255
203 225 255
203 225 255
203 225 255
203 225 255
203 225 255
203 225 255
203 225 255
203 225 255
203 225 255
203 225 255
203 225 255
203 225 255
203 225 255
203 225 255
203 225 255
203 226 255
203 226 255
203 226 255
203 226 255
203 226 255
203 226 255
203 226 255
203 226 255
203 226 255
203 226 255
203 226 255
203 226 255
203 226 255
203 226 255
204 226 255
204 226 255
204 226 255
204 226 255
204 226 255
204 226 255
204 226 255
204 226 255
204 226 255
204 226 255
204 226 255
204 226 255
204 226 255
204 226 255
204 226 255
204 226 255
204 226 255
204 226 255
204 226 255
204 226 255
204 226 255
204 226 255
204 226 255
204 226 255
205 226 255
205 226 255
205 226 255
205 226 255
205 226 255
205 226 255
205 226 255
205 226 255
205 226 255
205 227 255
205 227 255
205 227 255
205 227 255
205 227 255
205 227 255
205 227 255
205 227 255
205 227 255
205 227 255
205 227 255
205 227 255
206 227 255
206 227 255
206 227 255
206 227 255
206 227 255
206 227 255
206 227 255
206 227 255
206 227 255
206 227 255
206 227 255
206 227 255
206 227 255
206 227 255
206 227 255
206 227 255
206 227 255
206 227 255
206 227 255
206 227 255
207 227 255
207 227 255
207 227 255
207 227 255
207 227 255
207 228 255
207 228 255
207 228 255
62 98 163
62 98 166
62 99 167
62 98 162
62 98 162
63 99 166
61 97 152
62 98 162
62 99 167
62 98 163
62 97 155
63 99 164
63 99 166
62 98 165
62 98 161
62 98 163
62 98 162
62 98 163
61 97 153
61 97 156
61 97 164
62 98 162
62 98 161
61 97 157
61 97 163
62 97 157
62 98 163
62 98 163
62 98 164
61 97 154
61 97 160
62 99 170
61 97 154
62 98 163
62 98 165
61 97 160
62 98 161
61 97 155
61 97 156
63 99 160
62 98 162
62 98 160
62 98 163
61 97 154
62 99 167
61 97 151
63 99 164
62 97 154
62 98 162
62 98 165
62 98 162
61 97 160
63 99 166
62 98 158
62 98 162
62 98 161
62 99 168
62 97 157
62 98 155
62 98 162
62 98 162
62 97 154
62 98 167
62 98 165
63 99 167
62 98 158
62 98 164
62 98 165
62 98 163
62 98 167
62 99 165
62 98 166
61 97 152
62 97 158
63 98 158
62 99 166
61 97 154
62 98 163
62 98 163
62 98 161
62 98 158
62 98 162
60 97 159
62 98 160
61 97 159
61 97 157
61 97 156
62 99 166
62 98 161
63 99 166
62 98 157
63 99 167
62 98 163
62 98 157
62 98 167
62 98 159
63 99 170
62 98 163
62 98 167
62 98 168
63 99 173
63 99 168
62 98 162
62 98 165
62 98 159
63 99 170
62 98 161
62 98 165
62 98 163
62 99 165
62 99 170
63 99 169
61 97 155
62 98 162
63 99 165
62 99 171
63 99 167
61 97 158
63 99 166
62 98 163
62 98 165
61 97 160
62 99 165
62 98 161
63 99 166
62 99 169
62 98 170
63 99 168
62 98 167
62 98 164
62 99 171
62 99 166
63 99 170
62 98 164
62 98 165
62 98 161
62 99 164
62 98 164
63 99 171
61 98 166
62 98 164
62 98 162
62 98 168
62 98 164
62 98 170
63 99 163
63 99 168
62 99 168
61 97 164
63 99 167
62 98 167
61 97 159
62 98 169
62 98 166
63 99 172
62 98 164
62 99 169
62 98 169
62 98 166
62 98 169
62 98 169
62 99 172
63 99 172
62 99 171
61 98 164
62 99 169
62 98 171
62 99 171
63 99 173
62 99 172
62 98 174
62 98 174
61 98 171
62 98 174
61 97 170
61 98 172
62 99 176
61 98 176
62 99 178
78 110 181
178 199 234
206 227 255
206 227 255
206 227 255
206 227 255
206 227 255
206 227 255
206 227 255
206 227 255
205 227 255
205 227 255
205 227 255
205 227 255
205 227 255
205 227 255
205 227 255
205 227 255
205 227 255
205 227 255
205 227 255
205 227 255
205 227 255
205 226 255
205 226 255
205 226 255
205 226 255
205 226 255
205 226 255
205 226 255
205 226 255
204 226 255
204 226 255
204 226 255
204 226 255
204 226 255
204 226 255
204 226 255
204 226 255
204 226 255
204 226 255
204 226 255
204 226 255
204 226 255
204 226 255
204 226 255
204 226 255
204 226 255
204 226 255
204 226 255
204 226 255
204 226 255
204 226 255
204 226 255
204 226 255
204 226 255
203 226 255
203 226 255
203 226 255
203 226 255
203 226 255
203 226 255
203 226 255
203 226 255
203 226 255
203 226 255
203 226 255
203 226 255
203 226 255
203 226 255
203 226 255
203 225 255
203 225 255
203 225 255
203 225 255
203 225 255
203 225 255
203 225 255
203 225 255
203 225 255
203 225 255
203 225 255
203 225 255
203 225 255
203 225 255
203 225 255
203 225 255
203 225 255
203 225 255
203 225 255
203 225 255
203 225 255
203 225 255
203 225 255
203 225 255
203 225 255
203 225 255
203 225 255
203 225 255
203 225 255
203 225 255
203 225 255
203 225 255
203 225 255
203 225 255
203 225 255
203 225 255
203 225 255
203 225 255
203 225 255
203 225 255
203 225 255
203 225 255
203 225 255
203 225 255
203 225 255
203 225 255
203 225 255
203 225 255
203 225 255
203 225 255
203 225 255
203 225 255
203 225 255
203 225 255
203 225 255
203 225 255
203 225 255
203 225 255
203 225 255
203 226 255
203 226 255
203 226 255
203 226 255
203 226 255
203 226 255
203 226 255
203 226 255
203 226 255
203 226 255
203 226 255
203 226 255
203 226 255
203 226 255
203 226 255
204 226 255
204 226 255
204 226 255
204 226 255
204 226 255
204 226 255
204 226 255
204 226 255
204 226 255
204 226 255
204 226 255
204 226 255
204 226 255
204 226 255
204 226 255
204 226 255
204 226 255
204 226 255
204 226 255
204 226 255
204 226 255
204 226 255
204 226 255
204 226 255
204 226 255
205 226 255
205 226 255
205 226 255
205 226 255
205 226 255
205 226 255
205 226 255
205 226 255
205 227 255
205 227 255
205 227 255
205 227 255
205 227 255
205 227 255
205 227 255
205 227 255
205 227 255
205 227 255
205 227 255
205 227 255
205 227 255
206 227 255
206 227 255
206 227 255
206 227 255
206 227 255
206 227 255
206 227 255
206 227 255
206 227 255
206 227 255
206 227 255
206 227 255
206 227 255
206 227 255
206 227 255
206 227 255
206 227 255
206 227 255
206 227 255
206 227 255
207 227 255
207 227 255
207 227 255
207 227 255
207 227 255
207 228 255
207 228 255
207 228 255
207 228 255
207 228 255
61 97 154
62 98 159
62 98 167
62 98 162
62 98 164
62 98 164
62 98 158
62 98 164
61 97 157
63 99 168
62 98 162
62 98 160
61 97 158
61 97 156
62 98 167
62 98 160
62 98 154
62 98 166
62 99 165
62 98 162
62 98 161
62 98 160
61 98 162
62 98 164
61 97 151
62 98 160
61 97 159
62 98 165
61 97 151
62 98 164
62 98 158
61 97 156
62 98 163
61 97 158
62 98 161
63 99 162
62 98 164
62 98 162
62 98 160
62 98 163
61 97 161
62 98 161
62 99 166
62 98 158
62 98 158
62 99 170
62 98 158
62 98 160
62 98 163
62 98 163
62 97 161
62 98 165
62 98 162
62 98 166
62 98 164
62 99 166
62 98 160
62 98 167
63 99 167
61 97 160
61 98 161
61 97 157
61 98 163
62 98 160
61 97 160
63 99 167
62 98 160
62 98 159
61 98 164
62 98 160
62 98 167
62 99 164
61 97 158
63 99 163
61 98 163
61 97 161
62 98 164
63 99 166
62 98 163
62 98 158
63 99 167
61 97 153
62 98 162
62 98 157
63 99 166
63 99 165
62 98 159
63 99 165
62 98 161
62 98 166
62 98 163
61 97 157
62 98 164
62 98 160
62 99 166
63 99 168
62 98 160
62 99 170
62 99 167
62 98 157
62 98 156
62 98 163
62 98 167
62 98 163
62 98 160
62 99 169
62 98 164
61 97 159
62 98 167
62 98 164
62 99 166
62 99 168
63 99 171
62 99 169
62 98 166
63 99 165
62 98 166
62 98 157
61 97 161
61 97 161
62 99 167
62 98 166
63 99 167
62 98 163
63 99 170
62 98 161
63 99 167
63 99 170
62 98 169
61 97 153
62 98 163
62 98 166
62 98 162
62 98 160
61 97 161
63 99 168
62 99 170
63 99 167
62 98 165
63 99 166
63 99 171
62 98 169
62 98 161
62 99 168
62 98 166
62 98 165
62 98 166
62 99 169
62 98 164
62 98 171
63 99 172
63 99 172
62 99 169
63 99 174
63 99 173
62 99 171
62 99 170
61 98 169
61 98 168
62 98 172
62 98 167
62 98 171
62 99 169
63 99 175
61 98 171
62 99 173
62 99 171
62 99 170
62 99 172
62 98 169
62 98 169
63 99 174
61 97 170
62 99 175
62 99 173
63 99 174
62 99 175
62 99 175
62 98 173
61 98 173
62 98 175
146 169 217
204 225 254
206 227 255
206 227 255
206 227 255
206 227 255
206 227 255
206 227 255
206 227 255
206 227 255
206 227 255
205 227 255
205 227 255
205 227 255
205 227 255
205 227 255
205 227 255
205 227 255
205 227 255
205 227 255
205 227 255
205 227 255
205 227 255
205 226 255
205 226 255
205 226 255
205 226 255
205 226 255
205 226 255
205 226 255
205 226 255
205 226 255
204 226 255
204 226 255
204 226 255
204 226 255
204 226 255
204 226 255
204 226 255
204 226 255
204 226 255
204 226 255
204 226 255
204 226 255
204 226 255
204 226 255
204 226 255
204 226 255
204 226 255
204 226 255
204 226 255
204 226 255
204 226 255
204 226 255
204 226 255
204 226 255
204 226 255
204 226 255
203 226 255
203 226 255
203 226 255
203 226 255
203 226 255
203 226 255
203 226 255
203 226 255
203 226 255
203 226 255
203 226 255
203 226 255
203 226 255
203 226 255
203 226 255
203 226 255
203 225 255
203 225 255
203 225 255
203 225 255
203 225 255
203 225 255
203 225 255
203 225 255
203 225 255
203 225 255
203 225 255
203 225 255
203 225 255
203 225 255
203 225 255
203 225 255
203 225 255
203 225 255
203 225 255
203 225 255
203 225 255
203 225 255
203 225 255
203 225 255
203 225 255
203 225 255
203 225 255
203 225 255
203 225 255
203 225 255
203 225 255
203 225 255
203 225 255
203 225 255
203 225 255
203 225 255
203 225 255
203 225 255
203 225 255
203 225 255
203 225 255
203 225 255
203 225 255
203 225 255
203 225 255
203 225 255
203 225 255
203 225 255
203 225 255
203 226 255
203 226 255
203 226 255
203 226 255
203 226 255
203 226 255
203 226 255
203 226 255
203 226 255
203 226 255
203 226 255
203 226 255
203 226 255
203 226 255
203 226 255
203 226 255
203 226 255
204 226 255
204 226 255
204 226 255
204 226 255
204 226 255
204 226 255
204 226 255
204 226 255
204 226 255
204 226 255
204 226 255
204 226 255
204 226 255
204 226 255
204 226 255
204 226 255
204 226 255
204 226 255
204 226 255
204 226 255
204 226 255
204 226 255
204 226 255
204 226 255
204 226 255
205 226 255
205 226 255
205 226 255
205 226 255
205 226 255
205 226 255
205 226 255
205 226 255
205 226 255
205 227 255
205 227 255
205 227 255
205 227 255
205 227 255
205 227 255
205 227 255
205 227 255
205 227 255
205 227 255
205 227 255
205 227 255
205 227 255
206 227 255
206 227 255
206 227 255
206 227 255
206 227 255
206 227 255
206 227 255
206 227 255
206 227 255
206 227 255
206 227 255
206 227 255
206 227 255
206 227 255
206 227 255
206 227 255
206 227 255
206 227 255
206 227 255
206 227 255
207 227 255
207 227 255
207 227 255
207 227 255
207 227 255
207 228 255
207 228 255
207 228 255
207 228 255
207 228 255
207 228 255
207 228 255
61 97 161
62 98 154
62 98 163
62 98 158
61 97 153
62 99 166
61 96 158
61 97 157
62 98 163
62 98 159
62 98 164
61 97 155
60 96 155
62 98 160
62 98 163
61 97 147
63 99 167
62 98 164
63 99 170
61 97 157
62 97 156
62 98 165
62 98 166
61 97 153
61 97 157
62 98 157
63 99 165
62 98 165
61 98 159
62 98 161
61 97 156
62 98 160
62 98 162
61 97 157
62 98 158
61 97 156
62 98 161
61 97 160
62 98 164
61 97 157
61 97 155
62 98 162
63 99 165
62 98 162
62 98 161
62 98 161
62 98 162
61 97 159
62 98 163
61 97 163
61 97 159
63 98 158
62 98 162
61 97 163
62 98 158
62 98 159
62 98 159
62 98 159
62 98 168
63 99 167
61 96 152
62 98 156
61 97 160
61 98 159
62 97 153
62 98 161
62 99 166
63 99 162
62 98 162
61 98 169
63 99 164
62 98 160
62 99 166
62 98 162
61 97 156
62 98 164
62 98 162
62 98 159
63 99 168
63 99 165
62 98 163
62 98 166
63 99 166
63 99 170
62 98 165
61 97 150
63 99 163
62 99 166
63 99 167
62 98 165
62 99 165
62 98 156
62 98 162
62 98 162
62 98 163
63 99 170
62 98 163
62 98 163
62 99 165
63 99 168
62 98 164
62 98 157
62 98 166
62 98 158
62 99 168
62 98 165
62 98 163
62 98 166
61 97 159
62 99 168
62 98 168
62 98 163
62 98 165
63 99 166
62 98 163
62 98 168
61 98 159
62 98 161
61 97 155
62 98 168
63 99 164
61 98 164
62 98 163
62 98 163
63 100 176
62 98 162
62 98 166
62 98 164
61 98 164
61 98 163
62 98 167
63 99 164
61 98 161
62 98 160
62 98 165
63 99 170
62 98 163
62 99 171
63 99 164
61 98 160
63 99 165
62 98 165
63 99 167
62 99 166
61 98 160
62 99 169
62 98 165
62 99 167
62 99 175
62 99 169
62 99 173
62 99 172
62 98 165
62 98 170
62 99 171
62 99 172
62 99 173
63 99 166
62 98 170
63 99 169
62 98 167
63 100 177
62 99 173
62 98 168
63 99 172
61 98 167
62 99 173
61 98 167
62 98 169
63 99 174
63 99 164
62 98 168
62 98 170
62 98 169
62 98 174
62 98 170
62 98 170
63 99 174
62 99 179
62 99 178
62 99 178
62 99 175
120 145 201
191 213 246
206 227 255
206 227 255
206 227 255
206 227 255
206 227 255
206 227 255
206 227 255
206 227 255
206 227 255
206 227 255
205 227 255
205 227 255
205 227 255
205 227 255
205 227 255
205 227 255
205 227 255
205 227 255
205 227 255
205 227 255
205 227 255
205 227 255
205 227 255
205 226 255
205 226 255
205 226 255
205 226 255
205 226 255
205 226 255
205 226 255
205 226 255
205 226 255
204 226 255
204 226 255
204 226 255
204 226 255
204 226 255
204 226 255
204 226 255
204 226 255
204 226 255
204 226 255
204 226 255
204 226 255
204 226 255
204 226 255
204 226 255
204 226 255
204 226 255
204 226 255
204 226 255
204 226 255
204 226 255
204 226 255
204 226 255
204 226 255
204 226 255
204 226 255
203 226 255
203 226 255
203 226 255
203 226 255
203 226 255
203 226 255
203 226 255
203 226 255
203 226 255
203 226 255
203 226 255
203 226 255
203 226 255
203 226 255
203 226 255
203 226 255
203 226 255
203 226 255
203 225 255
203 225 255
203 225 255
203 225 255
203 225 255
203 225 255
203 225 255
203 225 255
203 225 255
203 225 255
203 225 255
203 225 255
203 225 255
203 225 255
203 225 255
203 225 255
203 225 255
203 225 255
203 225 255
203 225 255
203 225 255
203 225 255
203 225 255
203 225 255
203 225 255
203 225 255
203 225 255
203 225 255
203 225 255
203 225 255
203 225 255
203 225 255
203 225 255
203 225 255
203 225 255
203 225 255
203 225 255
203 225 255
203 225 255
203 226 255
203 226 255
203 226 255
203 226 255
203 226 255
203 226 255
203 226 255
203 226 255
203 226 255
203 226 255
203 226 255
203 226 255
203 226 255
203 226 255
203 226 255
203 226 255
203 226 255
203 226 255
204 226 255
204 226 255
204 226 255
204 226 255
204 226 255
204 226 255
204 226 255
204 226 255
204 226 255
204 226 255
204 226 255
204 226 255
204 226 255
204 226 255
204 226 255
204 226 255
204 226 255
204 226 255
204 226 255
204 226 255
204 226 255
204 226 255
204 226 255
204 226 255
204 226 255
204 226 255
205 226 255
205 226 255
205 226 255
205 226 255
205 226 255
205 226 255
205 226 255
205 226 255
205 226 255
205 226 255
205 227 255
205 227 255
205 227 255
205 227 255
205 227 255
205 227 255
205 227 255
205 227 255
205 227 255
205 227 255
205 227 255
205 227 255
206 227 255
206 227 255
206 227 255
206 227 255
206 227 255
206 227 255
206 227 255
206 227 255
206 227 255
206 227 255
206 227 255
206 227 255
206 227 255
206 227 255
206 227 255
206 227 255
206 227 255
206 227 255
206 227 255
206 227 255
207 227 255
207 227 255
207 227 255
207 227 255
207 227 255
207 228 255
207 228 255
207 228 255
207 228 255
207 228 255
207 228 255
207 228 255
207 228 255
207 228 255
207 228 255
62 98 161
62 98 158
63 99 165
62 98 164
62 98 163
62 98 162
62 98 156
62 98 160
62 99 168
62 98 162
61 97 154
62 98 160
61 97 155
62 98 153
61 97 158
61 97 157
61 97 162
62 98 164
61 96 150
61 97 160
61 97 157
61 97 155
61 97 155
62 98 162
62 97 159
59 95 150
62 97 155
62 98 165
62 98 159
62 98 159
62 98 165
62 97 152
62 98 161
60 96 159
63 99 164
62 98 156
62 99 163
62 98 164
62 98 161
61 97 155
61 96 152
61 97 156
62 98 163
62 98 159
63 99 163
62 98 161
62 98 162
62 99 164
62 98 159
62 98 162
61 97 160
62 98 165
61 97 163
62 98 159
61 98 159
62 98 158
63 99 167
61 97 154
62 98 163
62 98 165
62 97 156
62 97 154
62 98 162
61 97 157
62 98 162
62 98 166
61 97 156
62 97 159
62 98 161
62 98 164
62 98 158
62 98 158
61 97 156
61 97 155
62 98 162
61 97 156
62 98 163
62 98 162
62 98 164
62 98 165
63 99 165
62 98 163
62 98 157
62 98 161
61 97 159
62 98 164
62 98 161
62 98 164
62 99 169
62 98 162
62 98 160
61 97 156
61 98 163
61 97 160
61 98 162
62 97 158
62 98 163
62 98 162
62 98 163
62 98 160
62 98 163
62 98 161
62 98 163
62 98 164
63 99 165
61 97 164
62 98 162
63 99 163
62 99 164
62 98 164
62 98 159
61 96 156
62 98 168
62 99 167
62 99 166
61 98 161
62 98 162
62 98 165
62 98 164
62 98 162
62 98 163
62 98 165
62 98 164
61 98 165
62 99 165
62 98 167
62 98 162
62 98 166
62 98 159
62 98 168
62 98 165
62 99 170
61 98 164
62 98 165
62 99 167
62 98 161
62 98 164
62 98 165
62 98 165
62 99 173
62 98 162
62 98 165
62 98 159
62 98 163
62 99 169
62 98 162
61 98 166
62 98 165
62 99 169
62 98 167
62 99 171
61 97 165
62 98 163
62 98 168
63 99 169
62 98 168
63 99 166
62 98 165
62 99 169
62 98 169
62 98 166
62 98 166
63 99 170
61 98 165
62 99 173
62 99 165
61 98 171
62 98 164
62 99 171
62 99 174
62 98 170
62 99 177
62 98 169
62 99 171
62 98 170
62 98 172
61 98 174
62 99 173
61 98 174
62 98 175
62 99 177
62 99 176
63 99 176
67 102 176
167 189 229
206 227 255
206 227 255
206 227 255
206 227 255
206 227 255
206 227 255
206 227 255
206 227 255
206 227 255
206 227 255
206 227 255
206 227 255
205 227 255
205 227 255
205 227 255
205 227 255
205 227 255
205 227 255
205 227 255
205 227 255
205 227 255
205 227 255
205 227 255
205 227 255
205 226 255
205 226 255
205 226 255
205 226 255
205 226 255
205 226 255
205 226 255
205 226 255
205 226 255
204 226 255
204 226 255
204 226 255
204 226 255
204 226 255
204 226 255
204 226 255
204 226 255
204 226 255
204 226 255
204 226 255
204 226 255
204 226 255
204 226 255
204 226 255
204 226 255
204 226 255
204 226 255
204 226 255
204 226 255
204 226 255
204 226 255
204 226 255
204 226 255
204 226 255
204 226 255
204 226 255
204 226 255
203 226 255
203 226 255
203 226 255
203 226 255
203 226 255
203 226 255
203 226 255
203 226 255
203 226 255
203 226 255
203 226 255
203 226 255
203 226 255
203 226 255
203 226 255
203 226 255
203 226 255
203 226 255
203 226 255
203 226 255
203 226 255
203 226 255
203 226 255
203 225 255
203 225 255
203 225 255
203 225 255
203 225 255
203 225 255
203 225 255
203 225 255
203 225 255
203 225 255
203 225 255
203 225 255
203 225 255
203 225 255
203 225 255
203 225 255
203 225 255
203 225 255
203 225 255
203 225 255
203 225 255
203 225 255
203 226 255
203 226 255
203 226 255
203 226 255
203 226 255
203 226 255
203 226 255
203 226 255
203 226 255
203 226 255
203 226 255
203 226 255
203 226 255
203 226 255
203 226 255
203 226 255
203 226 255
203 226 255
203 226 255
203 226 255
203 226 255
203 226 255
204 226 255
204 226 255
204 226 255
204 226 255
204 226 255
204 226 255
204 226 255
204 226 255
204 226 255
204 226 255
204 226 255
204 226 255
204 226 255
204 226 255
204 226 255
204 226 255
204 226 255
204 226 255
204 226 255
204 226 255
204 226 255
204 226 255
204 226 255
204 226 255
204 226 255
204 226 255
204 226 255
204 226 255
205 226 255
205 226 255
205 226 255
205 226 255
205 226 255
205 226 255
205 226 255
205 226 255
205 226 255
205 227 255
205 227 255
205 227 255
205 227 255
205 227 255
205 227 255
205 227 255
205 227 255
205 227 255
205 227 255
205 227 255
205 227 255
205 227 255
206 227 255
206 227 255
206 227 255
206 227 255
206 227 255
206 227 255
206 227 255
206 227 255
206 227 255
206 227 255
206 227 255
206 227 255
206 227 255
206 227 255
206 227 255
206 227 255
206 227 255
206 227 255
206 227 255
206 227 255
207 227 255
207 227 255
207 227 255
207 227 255
207 227 255
207 228 255
207 228 255
207 228 255
207 228 255
207 228 255
207 228 255
207 228 255
207 228 255
207 228 255
207 228 255
207 228 255
207 228 255
61 98 166
61 97 152
62 98 163
62 98 158
62 98 161
62 98 157
63 99 161
62 98 161
62 98 163
61 97 158
62 98 160
62 98 164
62 99 166
61 97 153
63 99 166
62 98 163
61 97 161
62 99 167
62 98 159
62 98 168
62 98 167
62 98 159
60 96 153
62 98 156
62 98 160
62 98 164
62 98 167
62 98 162
62 98 164
62 98 159
62 98 161
62 98 166
61 97 157
62 97 155
61 97 158
62 97 157
62 98 157
62 98 160
61 97 155
61 98 160
61 97 156
62 98 159
63 99 167
63 99 165
62 97 158
62 98 161
61 97 155
63 99 164
62 99 165
61 98 161
61 97 161
61 97 164
62 98 159
61 98 162
62 97 160
62 99 168
63 99 165
62 98 161
61 97 157
61 98 160
62 98 158
62 99 164
62 98 167
62 97 157
63 99 170
63 99 164
62 98 165
61 97 152
62 98 164
62 98 161
62 98 164
62 98 160
62 98 160
62 98 159
61 97 159
63 99 160
62 98 159
61 97 157
62 98 164
62 98 162
62 98 158
62 98 164
62 98 163
62 98 167
62 98 161
61 97 162
62 99 167
62 98 163
62 98 166
63 99 165
62 98 161
61 97 157
61 98 164
61 97 158
62 98 164
62 98 162
63 99 169
62 98 165
62 98 161
61 97 159
62 98 162
63 99 166
62 98 154
62 98 161
62 98 166
62 98 161
62 98 161
63 99 165
61 98 162
62 98 166
62 99 169
61 97 151
62 98 167
61 98 161
63 99 169
61 97 157
61 97 156
62 98 159
62 98 163
62 98 166
63 99 170
62 98 166
63 99 171
63 99 164
62 99 169
62 98 165
62 98 165
63 99 168
62 98 164
61 98 165
63 99 169
62 98 164
62 98 160
61 97 167
63 99 171
62 98 168
62 98 165
61 97 166
62 98 162
62 98 162
62 99 167
62 98 166
62 98 167
62 98 162
62 99 168
61 97 157
62 98 166
61 98 166
62 98 164
62 98 162
63 99 170
62 98 166
61 97 160
63 99 170
62 98 163
62 98 168
62 98 164
62 98 169
62 98 163
62 99 169
62 99 167
61 98 165
62 99 173
62 98 169
62 99 172
62 98 170
62 98 165
62 98 175
62 98 166
62 98 169
61 97 161
62 98 164
62 99 171
62 99 175
62 98 172
61 97 168
61 98 171
62 99 175
62 98 170
62 98 172
63 99 175
62 99 171
61 98 171
61 98 174
65 101 179
156 179 221
204 225 254
206 227 255
206 227 255
206 227 255
206 227 255
206 227 255
206 227 255
206 227 255
206 227 255
206 227 255
206 227 255
206 227 255
206 227 255
205 227 255
205 227 255
205 227 255
205 227 255
205 227 255
205 227 255
205 227 255
205 227 255
205 227 255
205 227 255
205 227 255
205 227 255
205 227 255
205 226 255
205 226 255
205 226 255
205 226 255
205 226 255
205 226 255
205 226 255
205 226 255
205 226 255
204 226 255
204 226 255
204 226 255
204 226 255
204 226 255
204 226 255
204 226 255
204 226 255
204 226 255
204 226 255
204 226 255
204 226 255
204 226 255
204 226 255
204 226 255
204 226 255
204 226 255
204 226 255
204 226 255
204 226 255
204 226 255
204 226 255
204 226 255
204 226 255
204 226 255
204 226 255
204 226 255
204 226 255
204 226 255
203 226 255
203 226 255
203 226 255
203 226 255
203 226 255
203 226 255
203 226 255
203 226 255
203 226 255
203 226 255
203 226 255
203 226 255
203 226 255
203 226 255
203 226 255
203 226 255
203 226 255
203 226 255
203 226 255
203 226 255
203 226 255
203 226 255
203 226 255
203 226 255
203 226 255
203 226 255
203 226 255
203 226 255
203 226 255
203 226 255
203 226 255
203 226 255
203 226 255
203 226 255
203 226 255
203 226 255
203 226 255
203 226 255
203 226 255
203 226 255
203 226 255
203 226 255
203 226 255
203 226 255
203 226 255
203 226 255
203 226 255
203 226 255
203 226 255
203 226 255
203 226 255
203 226 255
203 226 255
203 226 255
203 226 255
203 226 255
203 226 255
203 226 255
203 226 255
204 226 255
204 226 255
204 226 255
204 226 255
204 226 255
204 226 255
204 226 255
204 226 255
204 226 255
204 226 255
204 226 255
204 226 255
204 226 255
204 226 255
204 226 255
204 226 255
204 226 255
204 226 255
204 226 255
204 226 255
204 226 255
204 226 255
204 226 255
204 226 255
204 226 255
204 226 255
204 226 255
204 226 255
204 226 255
205 226 255
205 226 255
205 226 255
205 226 255
205 226 255
205 226 255
205 226 255
205 226 255
205 226 255
205 227 255
205 227 255
205 227 255
205 227 255
205 227 255
205 227 255
205 227 255
205 227 255
205 227 255
205 227 255
205 227 255
205 227 255
205 227 255
206 227 255
206 227 255
206 227 255
206 227 255
206 227 255
206 227 255
206 227 255
206 227 255
206 227 255
206 227 255
206 227 255
206 227 255
206 227 255
206 227 255
206 227 255
206 227 255
206 227 255
206 227 255
206 227 255
206 227 255
206 227 255
207 227 255
207 227 255
207 227 255
207 227 255
207 228 255
207 228 255
207 228 255
207 228 255
207 228 255
207 228 255
207 228 255
207 228 255
207 228 255
207 228 255
207 228 255
207 228 255
207 228 255
207 228 255
207 228 255
62 97 157
61 97 160
62 98 164
62 98 161
62 98 163
62 98 158
62 98 162
62 97 153
61 97 160
61 97 158
62 98 163
62 98 161
62 98 162
62 98 160
62 98 161
62 98 163
62 98 162
62 97 156
62 98 159
62 98 161
62 98 162
62 97 154
62 98 164
61 97 163
62 98 163
62 98 166
61 97 160
61 97 154
63 99 166
61 97 153
60 96 150
62 98 165
62 98 161
62 98 158
62 98 164
62 98 161
62 97 154
62 98 161
61 97 154
62 98 160
61 97 158
62 98 156
62 98 161
62 98 159
62 97 159
62 98 162
62 98 159
62 98 161
62 98 160
62 99 165
62 99 163
62 98 163
62 98 159
62 98 156
62 97 157
61 97 151
61 98 164
61 97 156
63 99 168
62 98 157
62 98 160
62 98 160
63 99 168
62 98 160
61 97 155
61 97 158
62 98 161
62 98 162
62 98 160
62 99 164
62 98 158
61 97 155
62 98 163
63 98 162
62 98 160
62 98 156
61 98 166
62 99 164
61 97 157
62 98 161
62 98 164
62 97 161
62 98 158
62 98 164
62 98 158
63 99 165
62 98 159
61 97 151
61 97 161
61 97 159
62 98 161
61 97 156
62 98 165
62 98 162
61 98 159
62 98 162
62 98 163
62 98 163
62 99 166
61 97 158
62 98 168
61 97 158
63 99 164
63 99 165
62 98 160
62 98 166
62 98 160
62 98 161
62 98 171
61 97 161
62 98 157
61 97 157
61 97 157
62 98 163
62 99 172
62 98 166
62 98 163
61 97 163
62 98 166
61 98 161
62 98 163
62 98 166
63 99 170
62 98 160
62 99 169
63 99 173
63 99 169
63 99 168
61 98 164
61 97 159
62 99 167
62 99 169
62 98 159
62 98 159
62 98 168
62 98 159
62 98 158
62 99 172
62 98 164
62 99 170
61 97 161
61 98 167
62 98 165
62 98 163
62 99 169
62 99 170
62 99 167
62 98 158
62 99 165
62 98 162
62 98 165
62 98 156
63 99 173
62 99 169
62 98 167
63 99 170
62 99 171
61 98 167
62 99 173
63 99 172
62 99 168
62 98 165
62 99 168
61 97 162
62 99 177
63 99 171
62 98 169
62 98 167
61 98 167
62 98 170
62 99 173
62 99 172
62 98 170
62 99 177
62 98 168
62 99 174
62 99 173
62 99 172
62 99 171
62 99 173
62 99 172
62 99 175
62 99 176
62 99 173
62 98 174
62 98 174
111 137 196
202 223 253
206 227 255
206 227 255
206 227 255
206 227 255
206 227 255
206 227 255
206 227 255
206 227 255
206 227 255
206 227 255
206 227 255
206 227 255
206 227 255
206 227 255
205 227 255
205 227 255
205 227 255
205 227 255
205 227 255
205 227 255
205 227 255
205 227 255
205 227 255
205 227 255
205 227 255
205 227 255
205 226 255
205 226 255
205 226 255
205 226 255
205 226 255
205 226 255
205 226 255
205 226 255
205 226 255
205 226 255
204 226 255
204 226 255
204 226 255
204 226 255
204 226 255
204 226 255
204 226 255
204 226 255
204 226 255
204 226 255
204 226 255
204 226 255
204 226 255
204 226 255
204 226 255
204 226 255
204 226 255
204 226 255
204 226 255
204 226 255
204 226 255
204 226 255
204 226 255
204 226 255
204 226 255
204 226 255
204 226 255
204 226 255
204 226 255
204 226 255
204 226 255
203 226 255
203 226 255
203 226 255
203 226 255
203 226 255
203 226 255
203 226 255
203 226 255
203 226 255
203 226 255
203 226 255
203 226 255
203 226 255
203 226 255
203 226 255
203 226 255
203 226 255
203 226 255
203 226 255
203 226 255
203 226 255
203 226 255
203 226 255
203 226 255
203 226 255
203 226 255
203 226 255
203 226 255
203 226 255
203 226 255
203 226 255
203 226 255
203 226 255
203 226 255
203 226 255
203 226 255
203 226 255
203 226 255
203 226 255
203 226 255
203 226 255
203 226 255
203 226 255
203 226 255
203 226 255
203 226 255
203 226 255
203 226 255
203 226 255
204 226 255
204 226 255
204 226 255
204 226 255
204 226 255
204 226 255
204 226 255
204 226 255
204 226 255
204 226 255
204 226 255
204 226 255
204 226 255
204 226 255
204 226 255
204 226 255
204 226 255
204 226 255
204 226 255
204 226 255
204 226 255
204 226 255
204 226 255
204 226 255
204 226 255
204 226 255
204 226 255
204 226 255
204 226 255
204 226 255
204 226 255
205 226 255
205 226 255
205 226 255
205 226 255
205 226 255
205 226 255
205 226 255
205 226 255
205 226 255
205 226 255
205 227 255
205 227 255
205 227 255
205 227 255
205 227 255
205 227 255
205 227 255
205 227 255
205 227 255
205 227 255
205 227 255
205 227 255
205 227 255
206 227 255
206 227 255
206 227 255
206 227 255
206 227 255
206 227 255
206 227 255
206 227 255
206 227 255
206 227 255
206 227 255
206 227 255
206 227 255
206 227 255
206 227 255
206 227 255
206 227 255
206 227 255
206 227 255
206 227 255
207 227 255
207 227 255
207 227 255
207 227 255
207 227 255
207 228 255
207 228 255
207 228 255
207 228 255
207 228 255
207 228 255
207 228 255
207 228 255
207 228 255
207 228 255
207 228 255
207 228 255
207 228 255
207 228 255
207 228 255
207 228 255
208 228 255
61 97 159
61 97 161
62 98 157
62 98 160
62 98 156
61 97 160
63 99 161
63 99 163
62 98 159
61 96 155
62 98 159
62 98 159
62 97 156
61 97 159
60 96 150
60 96 156
62 98 165
62 98 160
61 97 160
63 99 163
62 97 159
62 97 155
62 98 159
61 97 161
62 98 162
61 97 159
61 97 156
62 98 157
62 98 155
62 98 164
61 97 154
62 98 163
62 98 165
61 97 158
62 98 158
60 96 155
62 99 164
62 98 163
62 98 161
61 97 156
61 98 163
62 98 163
62 98 163
62 98 168
61 97 152
61 97 153
63 99 162
62 98 162
62 98 161
62 98 159
62 98 159
61 97 159
61 97 157
62 97 153
62 99 165
62 98 161
62 98 165
62 98 163
62 98 159
62 98 157
62 98 162
63 99 170
62 97 156
62 99 165
62 99 163
62 98 163
62 98 159
62 98 156
61 97 157
62 98 160
63 99 167
62 98 159
62 98 161
62 98 157
62 98 163
61 97 155
61 97 155
62 98 160
62 98 163
61 98 162
62 98 165
62 99 165
62 98 162
62 98 165
62 97 153
62 99 166
62 98 158
61 98 160
62 98 161
62 98 162
61 97 157
62 98 161
62 98 158
61 98 166
62 98 160
61 97 157
63 99 161
62 98 164
61 97 157
62 98 160
62 98 164
62 98 166
63 99 167
61 97 157
62 98 163
61 98 163
61 97 158
62 98 160
62 99 169
62 98 166
63 99 167
62 98 159
62 98 165
62 98 162
62 98 160
62 98 162
62 98 162
63 99 167
62 98 161
62 98 164
62 98 165
62 98 163
62 98 158
62 98 164
62 98 164
62 98 164
62 98 162
62 98 167
62 98 164
62 98 163
62 99 167
62 99 167
62 98 164
62 98 160
62 98 168
61 98 163
62 98 165
62 98 166
62 98 164
62 98 163
61 98 166
62 98 165
62 98 160
62 98 166
61 98 164
62 98 164
63 99 165
62 99 173
62 98 166
62 98 164
62 98 166
62 99 170
61 97 159
63 99 170
62 98 165
62 98 170
62 98 165
62 98 168
62 98 158
62 98 166
62 98 167
61 96 161
62 98 167
61 98 162
62 98 168
62 99 165
62 99 168
63 99 168
62 99 168
62 98 171
62 99 173
62 98 171
62 98 173
62 98 171
62 98 166
62 98 167
62 99 170
61 97 171
62 98 174
63 99 175
62 99 173
62 98 169
62 98 172
62 98 171
61 98 171
61 97 169
63 99 177
81 112 183
182 204 239
206 227 255
206 227 255
206 227 255
206 227 255
206 227 255
206 227 255
206 227 255
206 227 255
206 227 255
206 227 255
206 227 255
206 227 255
206 227 255
206 227 255
206 227 255
205 227 255
205 227 255
205 227 255
205 227 255
205 227 255
205 227 255
205 227 255
205 227 255
205 227 255
205 227 255
205 227 255
205 227 255
205 227 255
205 226 255
205 226 255
205 226 255
205 226 255
205 226 255
205 226 255
205 226 255
205 226 255
205 226 255
205 226 255
204 226 255
204 226 255
204 226 255
204 226 255
204 226 255
204 226 255
204 226 255
204 226 255
204 226 255
204 226 255
204 226 255
204 226 255
204 226 255
204 226 255
204 226 255
204 226 255
204 226 255
204 226 255
204 226 255
204 226 255
204 226 255
204 226 255
204 226 255
204 226 255
204 226 255
204 226 255
204 226 255
204 226 255
204 226 255
204 226 255
204 226 255
204 226 255
204 226 255
204 226 255
203 226 255
203 226 255
203 226 255
203 226 255
203 226 255
203 226 255
203 226 255
203 226 255
203 226 255
203 226 255
203 226 255
203 226 255
203 226 255
203 226 255
203 226 255
203 226 255
203 226 255
203 226 255
203 226 255
203 226 255
203 226 255
203 226 255
203 226 255
203 226 255
203 226 255
203 226 255
203 226 255
203 226 255
203 226 255
203 226 255
203 226 255
203 226 255
203 226 255
203 226 255
203 226 255
203 226 255
203 226 255
204 226 255
204 226 255
204 226 255
204 226 255
204 226 255
204 226 255
204 226 255
204 226 255
204 226 255
204 226 255
204 226 255
204 226 255
204 226 255
204 226 255
204 226 255
204 226 255
204 226 255
204 226 255
204 226 255
204 226 255
204 226 255
204 226 255
204 226 255
204 226 255
204 226 255
204 226 255
204 226 255
204 226 255
204 226 255
204 226 255
204 226 255
204 226 255
204 226 255
204 226 255
205 226 255
205 226 255
205 226 255
205 226 255
205 226 255
205 226 255
205 226 255
205 226 255
205 226 255
205 226 255
205 227 255
205 227 255
205 227 255
205 227 255
205 227 255
205 227 255
205 227 255
205 227 255
205 227 255
205 227 255
205 227 255
205 227 255
205 227 255
206 227 255
206 227 255
206 227 255
206 227 255
206 227 255
206 227 255
206 227 255
206 227 255
206 227 255
206 227 255
206 227 255
206 227 255
206 227 255
206 227 255
206 227 255
206 227 255
206 227 255
206 227 255
206 227 255
206 227 255
206 227 255
207 227 255
207 227 255
207 227 255
207 227 255
207 227 255
207 228 255
207 228 255
207 228 255
207 228 255
207 228 255
207 228 255
207 228 255
207 228 255
207 228 255
207 228 255
207 228 255
207 228 255
207 228 255
207 228 255
207 228 255
208 228 255
208 228 255
208 228 255
208 228 255
62 98 163
62 98 158
61 98 165
62 98 161
61 96 156
61 97 158
62 98 163
61 98 161
62 98 160
62 98 165
62 98 164
62 98 157
62 99 169
61 98 158
62 98 167
62 98 161
62 98 160
61 97 153
61 97 159
61 98 164
62 98 160
62 98 162
62 98 159
61 98 161
62 99 169
61 97 152
62 98 162
61 97 155
62 98 160
61 97 156
62 98 163
62 98 159
61 97 154
61 97 156
63 98 157
62 98 164
62 98 165
62 98 158
61 97 156
62 98 161
62 98 157
62 98 159
62 98 155
62 98 159
60 96 153
62 98 159
61 97 154
62 98 158
61 97 155
63 99 162
61 97 155
63 98 162
61 97 154
61 97 160
61 97 159
61 96 153
62 98 163
61 97 158
62 98 162
62 98 159
62 98 164
62 98 158
62 98 160
63 99 162
61 97 153
61 96 153
61 97 155
62 98 156
62 98 159
62 98 162
62 97 153
63 99 161
63 99 162
61 97 157
62 98 159
62 97 152
62 98 162
61 97 156
62 98 162
62 98 155
62 98 153
61 97 156
61 97 158
62 98 156
63 99 167
62 98 165
63 99 167
61 97 161
62 98 164
62 98 160
61 97 159
63 99 162
62 99 169
62 98 156
62 98 162
62 98 160
62 99 168
62 98 166
61 97 162
62 98 161
61 97 157
61 97 154
62 98 162
62 98 164
62 98 159
61 98 162
62 99 164
62 98 164
62 98 158
63 99 165
63 99 162
63 99 170
62 98 166
62 98 159
62 98 159
62 98 163
61 96 151
62 98 167
62 99 164
62 98 165
63 99 163
61 97 158
62 98 163
62 98 166
62 98 162
62 97 160
63 99 171
61 97 161
62 99 169
61 97 159
63 99 168
63 99 169
62 99 166
62 98 166
61 97 156
62 98 162
63 99 170
62 98 161
62 99 168
62 98 163
61 97 156
62 98 162
62 98 164
62 98 169
62 98 163
63 99 174
62 99 166
62 98 169
62 98 162
63 99 165
62 98 168
61 97 162
62 98 163
62 99 168
63 99 170
61 98 160
62 98 164
62 99 170
62 98 165
62 98 166
62 99 168
61 97 162
61 98 170
61 97 164
62 98 165
62 99 170
61 98 164
62 99 174
63 99 169
63 99 171
63 99 174
61 97 168
61 98 170
62 99 171
62 98 170
62 99 173
60 97 165
62 98 168
62 98 171
61 97 168
63 99 173
62 99 170
62 99 172
61 97 168
61 98 176
62 99 175
62 98 168
63 99 176
74 107 180
171 193 232
206 227 255
206 227 255
206 227 255
206 227 255
206 227 255
206 227 255
206 227 255
206 227 255
206 227 255
206 227 255
206 227 255
206 227 255
206 227 255
206 227 255
206 227 255
206 227 255
206 227 255
205 227 255
205 227 255
205 227 255
205 227 255
205 227 255
205 227 255
205 227 255
205 227 255
205 227 255
205 227 255
205 227 255
205 227 255
205 227 255
205 226 255
205 226 255
205 226 255
205 226 255
205 226 255
205 226 255
205 226 255
205 226 255
205 226 255
205 226 255
204 226 255
204 226 255
204 226 255
204 226 255
204 226 255
204 226 255
204 226 255
204 226 255
204 226 255
204 226 255
204 226 255
204 226 255
204 226 255
204 226 255
204 226 255
204 226 255
204 226 255
204 226 255
204 226 255
204 226 255
204 226 255
204 226 255
204 226 255
204 226 255
204 226 255
204 226 255
204 226 255
204 226 255
204 226 255
204 226 255
204 226 255
204 226 255
204 226 255
204 226 255
204 226 255
204 226 255
204 226 255
204 226 255
204 226 255
203 226 255
203 226 255
203 226 255
203 226 255
203 226 255
203 226 255
203 226 255
203 226 255
203 226 255
203 226 255
203 226 255
203 226 255
203 226 255
203 226 255
203 226 255
203 226 255
203 226 255
203 226 255
203 226 255
203 226 255
204 226 255
204 226 255
204 226 255
204 226 255
204 226 255
204 226 255
204 226 255
204 226 255
204 226 255
204 226 255
204 226 255
204 226 255
204 226 255
204 226 255
204 226 255
204 226 255
204 226 255
204 226 255
204 226 255
204 226 255
204 226 255
204 226 255
204 226 255
204 226 255
204 226 255
204 226 255
204 226 255
204 226 255
204 226 255
204 226 255
204 226 255
204 226 255
204 226 255
204 226 255
204 226 255
204 226 255
204 226 255
204 226 255
204 226 255
204 226 255
205 226 255
205 226 255
205 226 255
205 226 255
205 226 255
205 226 255
205 226 255
205 226 255
205 226 255
205 226 255
205 227 255
205 227 255
205 227 255
205 227 255
205 227 255
205 227 255
205 227 255
205 227 255
205 227 255
205 227 255
205 227 255
205 227 255
205 227 255
205 227 255
206 227 255
206 227 255
206 227 255
206 227 255
206 227 255
206 227 255
206 227 255
206 227 255
206 227 255
206 227 255
206 227 255
206 227 255
206 227 255
206 227 255
206 227 255
206 227 255
206 227 255
206 227 255
206 227 255
206 227 255
207 227 255
207 227 255
207 227 255
207 227 255
207 227 255
207 228 255
207 228 255
207 228 255
207 228 255
207 228 255
207 228 255
207 228 255
207 228 255
207 228 255
207 228 255
207 228 255
207 228 255
207 228 255
207 228 255
207 228 255
208 228 255
208 228 255
208 228 255
208 228 255
208 228 255
208 228 255
208 228 255
61 97 158
61 97 160
61 97 156
62 98 158
61 96 155
62 98 163
61 97 161
62 98 156
61 97 155
61 97 158
62 98 162
62 98 159
61 97 152
61 97 159
62 98 161
61 98 163
62 98 155
61 97 155
62 98 159
62 97 157
62 98 164
61 98 162
62 98 161
62 97 159
62 98 161
63 99 164
60 96 154
62 97 157
62 98 161
62 98 156
61 98 162
61 97 154
62 99 166
62 98 157
62 97 159
63 99 162
62 98 165
62 98 162
63 99 166
61 96 155
61 97 157
62 98 165
62 98 161
62 98 161
62 98 157
62 98 159
63 98 159
62 98 159
61 98 162
62 98 163
62 98 164
62 98 165
62 98 163
62 98 154
62 97 156
62 98 161
62 98 159
61 97 157
61 97 158
62 98 161
61 97 157
62 98 164
61 97 151
61 97 158
61 97 158
61 97 156
62 98 161
61 97 155
62 98 164
62 98 160
62 97 156
62 98 162
61 98 164
61 97 157
61 97 153
62 97 155
62 98 161
63 99 164
62 99 166
62 98 162
62 98 160
61 97 156
62 98 160
61 98 164
61 97 153
61 97 160
62 98 159
61 97 157
62 98 164
62 98 163
61 96 154
62 98 163
62 98 163
62 98 168
62 98 159
62 98 160
62 98 157
62 99 163
61 97 161
62 98 159
63 98 163
62 98 161
62 98 159
61 98 164
62 98 166
63 99 168
63 99 167
62 98 158
62 98 163
62 98 163
62 98 164
61 97 157
62 98 160
62 98 160
62 98 159
63 99 169
61 97 160
62 98 165
62 98 164
62 99 167
62 98 164
62 98 164
63 99 168
62 98 170
62 98 166
62 98 165
62 98 162
62 98 163
63 100 173
63 99 167
62 98 158
62 98 161
63 99 168
62 99 163
61 98 164
61 98 164
61 98 160
62 99 165
62 98 164
61 98 159
61 97 158
63 99 166
62 99 169
62 98 165
62 98 162
62 98 166
62 98 165
63 99 168
62 98 161
62 98 168
63 99 171
62 98 161
63 99 167
62 98 165
62 98 163
62 99 165
61 97 165
62 99 173
62 98 159
62 98 164
63 99 173
62 99 166
63 99 169
62 98 161
62 98 169
62 98 169
62 99 173
62 99 172
62 98 166
62 98 170
62 98 168
62 98 166
62 99 174
63 99 166
62 98 168
62 98 169
62 99 174
62 99 171
62 98 168
62 98 166
62 98 174
62 98 169
62 98 171
62 99 173
61 98 170
63 99 176
61 97 172
62 98 171
62 98 176
62 99 173
136 160 206
203 224 253
206 227 255
206 227 255
206 227 255
206 227 255
206 227 255
206 227 255
206 227 255
206 227 255
206 227 255
206 227 255
206 227 255
206 227 255
206 227 255
206 227 255
206 227 255
206 227 255
206 227 255
205 227 255
205 227 255
205 227 255
205 227 255
205 227 255
205 227 255
205 227 255
205 227 255
205 227 255
205 227 255
205 227 255
205 227 255
205 227 255
205 227 255
205 226 255
205 226 255
205 226 255
205 226 255
205 226 255
205 226 255
205 226 255
205 226 255
205 226 255
205 226 255
204 226 255
204 226 255
204 226 255
204 226 255
204 226 255
204 226 255
204 226 255
204 226 255
204 226 255
204 226 255
204 226 255
204 226 255
204 226 255
204 226 255
204 226 255
204 226 255
204 226 255
204 226 255
204 226 255
204 226 255
204 226 255
204 226 255
204 226 255
204 226 255
204 226 255
204 226 255
204 226 255
204 226 255
204 226 255
204 226 255
204 226 255
204 226 255
204 226 255
204 226 255
204 226 255
204 226 255
204 226 255
204 226 255
204 226 255
204 226 255
204 226 255
204 226 255
204 226 255
204 226 255
204 226 255
204 226 255
204 226 255
204 226 255
204 226 255
204 226 255
204 226 255
204 226 255
204 226 255
204 226 255
204 226 255
204 226 255
204 226 255
204 226 255
204 226 255
204 226 255
204 226 255
204 226 255
204 226 255
204 226 255
204 226 255
204 226 255
204 226 255
204 226 255
204 226 255
204 226 255
204 226 255
204 226 255
204 226 255
204 226 255
204 226 255
204 226 255
204 226 255
204 226 255
204 226 255
204 226 255
204 226 255
204 226 255
204 226 255
204 226 255
204 226 255
204 226 255
204 226 255
204 226 255
204 226 255
204 226 255
204 226 255
204 226 255
204 226 255
205 226 255
205 226 255
205 226 255
205 226 255
205 226 255
205 226 255
205 226 255
205 226 255
205 226 255
205 226 255
205 227 255
205 227 255
205 227 255
205 227 255
205 227 255
205 227 255
205 227 255
205 227 255
205 227 255
205 227 255
205 227 255
205 227 255
205 227 255
205 227 255
206 227 255
206 227 255
206 227 255
206 227 255
206 227 255
206 227 255
206 227 255
206 227 255
206 227 255
206 227 255
206 227 255
206 227 255
206 227 255
206 227 255
206 227 255
206 227 255
206 227 255
206 227 255
206 227 255
206 227 255
206 227 255
207 227 255
207 227 255
207 227 255
207 227 255
207 228 255
207 228 255
207 228 255
207 228 255
207 228 255
207 228 255
207 228 255
207 228 255
207 228 255
207 228 255
207 228 255
207 228 255
207 228 255
207 228 255
207 228 255
207 228 255
208 228 255
208 228 255
208 228 255
208 228 255
208 228 255
208 228 255
208 228 255
208 228 255
208 228 255
61 97 160
62 99 167
61 97 156
62 98 167
62 98 160
62 98 159
61 97 158
62 98 160
62 98 159
63 99 161
61 98 164
62 98 159
62 97 155
62 98 156
62 98 161
62 98 160
62 97 151
63 99 163
62 98 161
61 97 155
63 98 163
62 98 157
61 97 156
62 97 158
62 97 155
62 98 163
62 98 158
62 98 157
62 98 163
61 97 157
61 98 164
62 98 154
62 98 161
62 98 158
61 97 158
60 96 147
61 97 154
61 97 158
62 98 161
61 97 157
61 97 152
62 98 162
62 98 162
62 97 160
62 98 161
62 98 158
62 98 161
62 98 159
63 99 163
63 99 161
62 98 159
62 98 158
63 99 164
62 98 157
61 97 158
62 98 159
62 98 160
62 98 161
63 99 165
61 97 158
62 98 160
62 99 168
62 98 161
61 97 156
61 97 159
62 97 153
62 99 167
62 98 159
62 98 161
62 98 162
61 98 162
61 97 156
61 97 158
62 98 160
62 98 164
62 97 150
62 98 162
61 97 160
62 98 159
62 98 161
62 98 161
62 98 157
63 99 162
61 97 156
63 99 161
62 98 155
63 99 168
61 97 156
61 97 157
62 98 156
61 98 161
62 99 166
62 98 159
61 97 152
62 98 160
62 98 165
61 97 156
61 97 156
62 98 165
61 98 160
63 99 167
62 98 158
62 99 164
62 98 162
62 99 163
62 98 163
63 99 165
61 97 156
62 98 161
62 97 159
62 98 164
62 98 161
62 98 161
61 97 155
62 98 159
62 98 162
62 98 161
61 98 162
62 98 161
62 98 158
62 98 160
62 98 165
62 98 159
62 98 164
62 98 162
62 97 156
62 98 159
63 99 166
63 99 168
62 98 163
62 98 161
62 98 163
62 99 167
62 98 161
62 98 162
62 98 169
63 99 164
64 100 172
62 98 167
62 99 166
62 97 161
62 98 162
62 98 163
62 98 169
62 99 168
62 98 162
62 99 164
62 99 169
62 99 168
62 99 166
63 99 170
62 98 166
62 99 169
62 98 161
61 97 159
61 98 166
62 98 164
62 98 165
63 99 171
61 98 165
62 99 170
63 100 174
62 99 168
62 98 165
63 99 171
62 98 164
62 98 162
62 99 172
62 98 167
62 98 166
62 98 169
62 98 165
62 99 171
63 99 169
62 99 170
62 98 167
62 98 168
62 99 175
60 96 161
62 98 167
61 97 164
62 98 173
62 99 174
61 98 168
62 98 173
61 98 170
62 98 169
61 98 174
62 98 171
62 98 174
62 98 174
115 141 199
198 219 249
206 227 255
206 227 255
206 227 255
206 227 255
206 227 255
206 227 255
206 227 255
206 227 255
206 227 255
206 227 255
206 227 255
206 227 255
206 227 255
206 227 255
206 227 255
206 227 255
206 227 255
206 227 255
206 227 255
205 227 255
205 227 255
205 227 255
205 227 255
205 227 255
205 227 255
205 227 255
205 227 255
205 227 255
205 227 255
205 227 255
205 227 255
205 227 255
205 227 255
205 226 255
205 226 255
205 226 255
205 226 255
205 226 255
205 226 255
205 226 255
205 226 255
205 226 255
205 226 255
205 226 255
204 226 255
204 226 255
204 226 255
204 226 255
204 226 255
204 226 255
204 226 255
204 226 255
204 226 255
204 226 255
204 226 255
204 226 255
204 226 255
204 226 255
204 226 255
204 226 255
204 226 255
204 226 255
204 226 255
204 226 255
204 226 255
204 226 255
204 226 255
204 226 255
204 226 255
204 226 255
204 226 255
204 226 255
204 226 255
204 226 255
204 226 255
204 226 255
204 226 255
204 226 255
204 226 255
204 226 255
204 226 255
204 226 255
204 226 255
204 226 255
204 226 255
204 226 255
204 226 255
204 226 255
204 226 255
204 226 255
204 226 255
204 226 255
204 226 255
204 226 255
204 226 255
204 226 255
204 226 255
204 226 255
204 226 255
204 226 255
204 226 255
204 226 255
204 226 255
204 226 255
204 226 255
204 226 255
204 226 255
204 226 255
204 226 255
204 226 255
204 226 255
204 226 255
204 226 255
204 226 255
204 226 255
204 226 255
204 226 255
204 226 255
204 226 255
204 226 255
204 226 255
204 226 255
204 226 255
204 226 255
204 226 255
204 226 255
204 226 255
204 226 255
204 226 255
204 226 255
205 226 255
205 226 255
205 226 255
205 226 255
205 226 255
205 226 255
205 226 255
205 226 255
205 226 255
205 226 255
205 227 255
205 227 255
205 227 255
205 227 255
205 227 255
205 227 255
205 227 255
205 227 255
205 227 255
205 227 255
205 227 255
205 227 255
205 227 255
205 227 255
206 227 255
206 227 255
206 227 255
206 227 255
206 227 255
206 227 255
206 227 255
206 227 255
206 227 255
206 227 255
206 227 255
206 227 255
206 227 255
206 227 255
206 227 255
206 227 255
206 227 255
206 227 255
206 227 255
206 227 255
206 227 255
207 227 255
207 227 255
207 227 255
207 227 255
207 227 255
207 228 255
207 228 255
207 228 255
207 228 255
207 228 255
207 228 255
207 228 255
207 228 255
207 228 255
207 228 255
207 228 255
207 228 255
207 228 255
207 228 255
207 228 255
208 228 255
208 228 255
208 228 255
208 228 255
208 228 255
208 228 255
208 228 255
208 228 255
208 228 255
208 228 255
208 228 255
208 228 255
61 97 156
62 98 162
62 98 161
61 97 157
61 97 160
61 97 158
62 98 164
62 97 155
62 98 156
62 98 161
62 98 154
62 98 158
62 98 161
61 97 158
62 98 164
62 98 159
62 98 160
62 98 160
61 97 159
62 97 158
62 98 160
62 98 163
63 99 164
61 97 155
62 97 154
62 97 159
62 98 162
61 97 156
62 98 163
62 97 159
62 98 157
63 98 160
63 99 160
62 98 159
61 97 156
62 97 158
61 97 149
61 97 148
61 97 156
62 98 160
61 97 156
62 98 163
61 97 155
63 99 161
61 97 154
62 98 154
62 98 157
61 97 155
62 98 158
61 97 157
62 98 158
62 98 157
62 98 163
62 98 163
61 97 155
62 98 165
62 98 162
62 98 163
62 97 155
63 98 161
61 97 151
62 98 161
61 97 160
61 97 160
61 97 153
62 98 159
61 97 159
62 98 165
62 98 157
63 99 166
61 97 159
62 98 161
62 98 161
62 97 154
61 97 152
62 98 160
61 97 155
62 98 161
62 98 161
62 98 161
61 97 158
61 97 160
61 97 159
62 98 162
62 98 159
62 98 159
61 97 154
62 98 159
62 98 161
60 96 150
62 98 164
61 97 157
62 98 158
63 99 170
62 98 164
62 98 160
62 98 163
62 99 164
62 98 159
60 96 154
62 99 167
62 98 166
61 98 161
62 98 156
62 98 161
61 97 154
63 98 162
61 97 158
62 98 158
62 98 163
62 98 165
62 98 158
63 99 163
62 98 161
62 98 162
62 98 164
62 98 165
62 98 159
62 98 160
61 97 157
61 97 158
62 98 165
61 97 156
62 98 165
62 98 162
62 98 168
61 97 156
62 98 163
62 98 166
61 97 159
62 97 153
62 98 165
62 98 159
62 98 162
61 97 155
62 99 170
62 99 165
62 98 163
61 97 154
63 99 168
62 98 160
62 98 169
62 98 162
62 98 165
61 97 159
62 98 166
62 98 164
62 98 163
62 98 165
62 98 160
62 98 166
62 98 162
62 99 170
62 98 163
63 99 165
61 97 157
63 99 165
62 99 165
62 98 170
63 99 164
62 99 170
62 99 166
62 98 165
61 97 162
62 98 160
61 98 163
62 98 167
63 99 166
61 98 168
62 98 168
61 98 160
61 98 161
62 98 168
62 98 168
62 98 168
62 98 170
63 99 174
61 98 169
61 97 165
61 98 166
62 98 170
61 97 165
62 98 167
61 98 171
62 98 170
62 98 174
61 98 167
62 99 174
62 99 171
61 97 169
62 99 175
61 98 172
90 119 186
189 210 242
206 227 255
206 227 255
206 227 255
206 227 255
206 227 255
206 227 255
206 227 255
206 227 255
206 227 255
206 227 255
206 227 255
206 227 255
206 227 255
206 227 255
206 227 255
206 227 255
206 227 255
206 227 255
206 227 255
206 227 255
206 227 255
205 227 255
205 227 255
205 227 255
205 227 255
205 227 255
205 227 255
205 227 255
205 227 255
205 227 255
205 227 255
205 227 255
205 227 255
205 227 255
205 227 255
205 226 255
205 226 255
205 226 255
205 226 255
205 226 255
205 226 255
205 226 255
205 226 255
205 226 255
205 226 255
205 226 255
204 226 255
204 226 255
204 226 255
204 226 255
204 226 255
204 226 255
204 226 255
204 226 255
204 226 255
204 226 255
204 226 255
204 226 255
204 226 255
204 226 255
204 226 255
204 226 255
204 226 255
204 226 255
204 226 255
204 226 255
204 226 255
204 226 255
204 226 255
204 226 255
204 226 255
204 226 255
204 226 255
204 226 255
204 226 255
204 226 255
204 226 255
204 226 255
204 226 255
204 226 255
204 226 255
204 226 255
204 226 255
204 226 255
204 226 255
204 226 255
204 226 255
204 226 255
204 226 255
204 226 255
204 226 255
204 226 255
204 226 255
204 226 255
204 226 255
204 226 255
204 226 255
204 226 255
204 226 255
204 226 255
204 226 255
204 226 255
204 226 255
204 226 255
204 226 255
204 226 255
204 226 255
204 226 255
204 226 255
204 226 255
204 226 255
204 226 255
204 226 255
204 226 255
204 226 255
204 226 255
204 226 255
204 226 255
204 226 255
204 226 255
204 226 255
204 226 255
204 226 255
204 226 255
204 226 255
205 226 255
205 226 255
205 226 255
205 226 255
205 226 255
205 226 255
205 226 255
205 226 255
205 226 255
205 226 255
205 226 255
205 227 255
205 227 255
205 227 255
205 227 255
205 227 255
205 227 255
205 227 255
205 227 255
205 227 255
205 227 255
205 227 255
205 227 255
205 227 255
205 227 255
206 227 255
206 227 255
206 227 255
206 227 255
206 227 255
206 227 255
206 227 255
206 227 255
206 227 255
206 227 255
206 227 255
206 227 255
206 227 255
206 227 255
206 227 255
206 227 255
206 227 255
206 227 255
206 227 255
206 227 255
206 227 255
207 227 255
207 227 255
207 227 255
207 227 255
207 227 255
207 228 255
207 228 255
207 228 255
207 228 255
207 228 255
207 228 255
207 228 255
207 228 255
207 228 255
207 228 255
207 228 255
207 228 255
207 228 255
207 228 255
207 228 255
207 228 255
208 228 255
208 228 255
208 228 255
208 228 255
208 228 255
208 228 255
208 228 255
208 228 255
208 228 255
208 228 255
208 228 255
208 228 255
208 228 255
208 228 255
61 96 150
61 97 157
62 98 160
61 97 152
61 97 160
61 97 153
62 98 161
62 98 162
62 98 158
62 98 161
62 98 162
62 98 160
62 98 156
61 97 157
62 98 162
62 98 158
62 98 161
61 97 159
62 98 156
62 98 157
61 97 151
61 97 160
62 98 164
61 97 165
62 98 158
62 97 153
62 99 168
62 98 158
62 98 156
62 98 155
62 98 162
62 98 159
62 98 163
62 98 158
62 98 160
62 97 152
61 97 156
61 97 155
62 98 159
61 97 152
61 97 155
62 98 158
62 98 161
61 96 152
61 97 151
62 98 159
62 97 158
61 97 153
63 98 159
61 97 153
62 97 153
62 98 161
62 97 156
62 97 160
62 98 157
61 97 155
62 98 161
62 98 157
62 99 163
61 97 155
62 98 161
62 99 164
62 98 157
62 98 161
62 98 162
62 98 160
62 98 159
61 97 155
62 98 160
62 99 166
62 97 154
61 97 149
62 98 161
62 98 159
61 97 159
61 96 154
61 97 154
61 97 157
62 98 161
62 98 159
62 97 158
62 98 158
61 97 154
61 97 158
62 98 156
61 97 157
63 99 161
63 99 162
62 98 164
63 99 165
61 97 158
61 97 156
61 97 160
62 98 163
63 100 169
61 97 151
62 98 161
62 99 164
62 98 167
61 97 157
62 98 157
61 97 157
62 97 153
62 98 165
62 98 162
62 98 160
61 96 153
61 97 156
63 98 160
62 98 159
61 97 152
62 98 155
62 97 159
61 98 160
63 99 164
61 96 152
62 98 158
62 98 158
63 99 168
62 98 158
62 98 160
62 98 162
62 98 167
63 99 163
60 96 149
63 99 172
62 98 167
63 99 168
61 97 161
62 98 164
61 97 159
62 99 166
63 99 162
62 98 162
62 98 160
62 99 164
61 97 157
62 98 163
62 98 161
62 98 165
62 98 166
61 97 161
62 97 158
61 97 157
62 98 161
62 98 158
63 99 169
62 99 166
61 97 158
62 98 162
61 97 160
62 99 167
61 97 160
62 98 162
63 99 171
62 99 168
62 99 168
62 98 167
61 97 163
62 98 165
62 98 166
63 99 168
61 97 162
61 98 162
62 98 166
63 99 170
62 99 169
62 98 166
62 98 163
61 97 160
62 98 170
63 99 171
62 98 165
63 99 168
62 98 163
62 99 172
62 98 166
62 98 166
61 98 170
62 98 169
62 98 172
62 98 169
62 99 172
62 98 166
62 98 166
61 98 166
62 99 173
62 99 174
62 99 173
62 98 170
62 98 174
62 98 172
62 98 170
76 109 183
168 190 229
207 227 255
206 227 255
206 227 255
206 227 255
206 227 255
206 227 255
206 227 255
206 227 255
206 227 255
206 227 255
206 227 255
206 227 255
206 227 255
206 227 255
206 227 255
206 227 255
206 227 255
206 227 255
206 227 255
206 227 255
206 227 255
206 227 255
206 227 255
205 227 255
205 227 255
205 227 255
205 227 255
205 227 255
205 227 255
205 227 255
205 227 255
205 227 255
205 227 255
205 227 255
205 227 255
205 227 255
205 227 255
205 226 255
205 226 255
205 226 255
205 226 255
205 226 255
205 226 255
205 226 255
205 226 255
205 226 255
205 226 255
205 226 255
205 226 255
204 226 255
204 226 255
204 226 255
204 226 255
204 226 255
204 226 255
204 226 255
204 226 255
204 226 255
204 226 255
204 226 255
204 226 255
204 226 255
204 226 255
204 226 255
204 226 255
204 226 255
204 226 255
204 226 255
204 226 255
204 226 255
204 226 255
204 226 255
204 226 255
204 226 255
204 226 255
204 226 255
204 226 255
204 226 255
204 226 255
204 226 255
204 226 255
204 226 255
204 226 255
204 226 255
204 226 255
204 226 255
204 226 255
204 226 255
204 226 255
204 226 255
204 226 255
204 226 255
204 226 255
204 226 255
204 226 255
204 226 255
204 226 255
204 226 255
204 226 255
204 226 255
204 226 255
204 226 255
204 226 255
204 226 255
204 226 255
204 226 255
204 226 255
204 226 255
204 226 255
204 226 255
204 226 255
204 226 255
204 226 255
204 226 255
204 226 255
204 226 255
204 226 255
204 226 255
204 226 255
204 226 255
205 226 255
205 226 255
205 226 255
205 226 255
205 226 255
205 226 255
205 226 255
205 226 255
205 226 255
205 226 255
205 226 255
205 226 255
205 227 255
205 227 255
205 227 255
205 227 255
205 227 255
205 227 255
205 227 255
205 227 255
205 227 255
205 227 255
205 227 255
205 227 255
205 227 255
205 227 255
206 227 255
206 227 255
206 227 255
206 227 255
206 227 255
206 227 255
206 227 255
206 227 255
206 227 255
206 227 255
206 227 255
206 227 255
206 227 255
206 227 255
206 227 255
206 227 255
206 227 255
206 227 255
206 227 255
206 227 255
206 227 255
206 227 255
207 227 255
207 227 255
207 227 255
207 227 255
207 227 255
207 228 255
207 228 255
207 228 255
207 228 255
207 228 255
207 228 255
207 228 255
207 228 255
207 228 255
207 228 255
207 228 255
207 228 255
207 228 255
207 228 255
207 228 255
208 228 255
208 228 255
208 228 255
208 228 255
208 228 255
208 228 255
208 228 255
208 228 255
208 228 255
208 228 255
208 228 255
208 228 255
208 228 255
208 228 255
208 228 255
208 228 255
208 228 255
62 98 165
62 98 157
62 98 162
62 98 158
61 97 156
60 96 148
62 98 160
61 96 151
61 97 154
61 97 152
62 98 159
61 97 158
62 98 160
61 97 159
62 98 158
61 97 157
63 99 160
62 98 165
62 98 158
61 97 156
62 98 162
62 98 156
62 98 159
62 98 159
62 98 157
61 97 151
61 97 153
62 98 158
62 98 158
62 98 154
62 98 159
62 99 166
62 98 160
61 97 155
61 96 149
62 98 156
61 97 157
62 98 157
62 99 166
61 98 163
62 98 160
63 99 163
62 98 158
63 99 164
61 97 154
62 98 153
61 97 154
61 97 155
62 98 158
62 98 164
62 98 160
61 97 158
61 96 152
62 98 162
61 96 148
61 97 158
62 97 154
62 97 160
62 98 164
62 98 162
61 97 154
62 99 165
62 98 159
61 97 157
60 96 152
62 97 160
62 98 155
62 97 156
61 97 153
61 97 154
62 98 156
63 99 163
61 98 161
62 98 163
62 98 161
62 97 155
62 98 161
61 97 154
63 99 165
61 97 154
61 98 162
62 98 162
61 97 161
62 98 163
62 98 153
62 98 158
63 99 165
62 98 160
61 97 159
60 96 154
62 98 165
62 98 161
62 98 160
62 98 165
62 98 164
63 99 168
62 98 162
62 98 158
62 98 162
62 98 159
61 97 155
62 98 161
62 98 163
62 98 161
61 97 157
62 98 165
62 98 165
61 97 157
62 99 170
61 96 154
62 98 161
61 98 161
62 98 160
61 97 159
62 99 169
63 98 160
61 97 161
63 99 166
62 99 164
62 98 162
62 98 163
62 98 167
61 98 161
62 98 159
61 97 159
62 98 162
61 98 161
61 97 154
62 98 162
62 98 165
62 98 163
61 97 161
63 99 163
62 98 166
62 98 166
63 99 166
62 98 163
62 98 162
62 98 161
62 98 162
62 98 164
62 98 165
62 98 162
62 98 165
63 99 169
63 99 167
62 98 161
63 99 168
63 99 163
62 98 162
62 98 157
62 98 161
63 99 167
62 99 168
62 98 165
63 99 166
62 98 162
62 98 161
62 98 160
62 98 168
61 98 161
62 99 171
62 98 168
62 98 163
61 97 160
62 98 168
62 99 169
62 98 161
62 98 164
62 99 165
63 99 173
62 98 166
61 97 161
61 98 165
62 99 172
62 99 167
62 98 168
62 98 167
62 99 174
61 98 165
62 98 169
62 98 170
64 100 173
60 97 171
61 97 167
62 98 167
62 98 170
62 98 171
62 99 176
62 99 174
62 99 171
61 97 169
62 99 175
61 97 168
70 104 177
162 185 226
207 227 255
207 227 255
207 227 255
206 227 255
206 227 255
206 227 255
206 227 255
206 227 255
206 227 255
206 227 255
206 227 255
206 227 255
206 227 255
206 227 255
206 227 255
206 227 255
206 227 255
206 227 255
206 227 255
206 227 255
206 227 255
206 227 255
206 227 255
206 227 255
206 227 255
205 227 255
205 227 255
205 227 255
205 227 255
205 227 255
205 227 255
205 227 255
205 227 255
205 227 255
205 227 255
205 227 255
205 227 255
205 227 255
205 227 255
205 227 255
205 226 255
205 226 255
205 226 255
205 226 255
205 226 255
205 226 255
205 226 255
205 226 255
205 226 255
205 226 255
205 226 255
205 226 255
204 226 255
204 226 255
204 226 255
204 226 255
204 226 255
204 226 255
204 226 255
204 226 255
204 226 255
204 226 255
204 226 255
204 226 255
204 226 255
204 226 255
204 226 255
204 226 255
204 226 255
204 226 255
204 226 255
204 226 255
204 226 255
204 226 255
204 226 255
204 226 255
204 226 255
204 226 255
204 226 255
204 226 255
204 226 255
204 226 255
204 226 255
204 226 255
204 226 255
204 226 255
204 226 255
204 226 255
204 226 255
204 226 255
204 226 255
204 226 255
204 226 255
204 226 255
204 226 255
204 226 255
204 226 255
204 226 255
204 226 255
204 226 255
204 226 255
204 226 255
204 226 255
204 226 255
204 226 255
204 226 255
204 226 255
204 226 255
204 226 255
204 226 255
204 226 255
204 226 255
204 226 255
204 226 255
204 226 255
205 226 255
205 226 255
205 226 255
205 226 255
205 226 255
205 226 255
205 226 255
205 226 255
205 226 255
205 226 255
205 226 255
205 226 255
205 227 255
205 227 255
205 227 255
205 227 255
205 227 255
205 227 255
205 227 255
205 227 255
205 227 255
205 227 255
205 227 255
205 227 255
205 227 255
205 227 255
205 227 255
205 227 255
206 227 255
206 227 255
206 227 255
206 227 255
206 227 255
206 227 255
206 227 255
206 227 255
206 227 255
206 227 255
206 227 255
206 227 255
206 227 255
206 227 255
206 227 255
206 227 255
206 227 255
206 227 255
206 227 255
206 227 255
206 227 255
207 227 255
207 227 255
207 227 255
207 227 255
207 227 255
207 228 255
207 228 255
207 228 255
207 228 255
207 228 255
207 228 255
207 228 255
207 228 255
207 228 255
207 228 255
207 228 255
207 228 255
207 228 255
207 228 255
207 228 255
207 228 255
208 228 255
208 228 255
208 228 255
208 228 255
208 228 255
208 228 255
208 228 255
208 228 255
208 228 255
208 228 255
208 228 255
208 228 255
208 228 255
208 228 255
208 228 255
208 228 255
208 228 255
208 228 255
208 228 255
61 97 154
62 98 161
61 97 158
60 96 151
60 96 152
62 98 161
62 98 160
62 97 157
61 97 153
61 97 157
62 97 158
62 98 162
62 98 165
61 97 158
62 98 163
61 96 151
62 98 156
61 97 155
61 96 149
62 98 160
61 97 161
62 97 155
62 98 164
61 97 155
61 97 158
61 97 155
62 98 158
62 99 166
60 95 151
61 97 153
62 98 159
62 98 159
62 98 159
60 96 149
61 97 160
62 98 158
61 98 158
62 98 163
63 99 166
62 98 160
61 97 161
62 99 167
62 98 157
61 97 156
62 98 159
62 98 158
61 97 151
62 98 161
62 99 164
61 97 154
62 98 161
62 98 157
62 98 162
62 98 156
61 96 153
61 97 157
62 98 165
62 98 159
62 98 159
62 98 162
63 99 163
63 99 165
61 96 150
61 98 159
62 98 157
61 97 159
62 98 163
62 97 155
62 98 162
62 98 164
62 98 160
63 99 164
61 97 158
62 99 167
61 98 163
62 98 165
61 97 157
61 97 158
62 98 158
61 97 159
62 97 153
61 97 152
61 97 156
63 99 160
62 98 163
61 97 155
61 97 160
62 98 159
62 98 158
61 97 154
62 98 162
61 97 160
61 97 150
60 97 155
62 97 156
62 98 162
62 98 161
61 97 157
62 98 159
62 98 157
62 98 163
61 97 154
62 98 163
62 98 160
61 97 157
62 98 160
63 99 168
62 98 160
63 99 162
62 98 162
61 97 163
62 98 163
62 98 164
61 97 157
62 98 163
62 99 165
62 98 158
62 98 155
62 98 159
61 98 162
62 98 160
62 98 161
62 98 165
61 97 157
62 98 162
63 99 165
62 98 166
62 98 165
62 97 154
62 98 162
63 99 168
62 99 169
61 97 154
62 98 166
62 98 166
63 99 169
62 98 162
62 98 162
62 98 169
63 99 169
62 98 164
63 99 163
62 98 159
62 99 167
62 98 157
62 98 163
62 99 170
62 98 160
62 98 162
62 98 166
61 98 162
61 97 159
62 98 161
61 97 161
62 98 166
62 99 170
62 98 161
61 97 157
62 98 168
63 99 171
63 99 170
62 98 163
61 97 159
62 98 162
61 98 166
62 98 169
62 97 162
62 98 167
62 99 165
62 99 167
62 98 164
61 98 166
62 98 164
61 97 161
62 99 170
62 99 170
62 98 171
62 98 165
63 99 175
61 98 171
63 99 171
61 98 167
61 97 167
61 97 165
61 96 155
61 98 170
62 98 164
62 98 170
62 98 170
62 98 170
62 98 169
62 98 170
62 98 167
61 98 174
60 96 168
61 97 170
138 161 209
204 225 254
207 227 255
207 227 255
207 227 255
207 227 255
206 227 255
206 227 255
206 227 255
206 227 255
206 227 255
206 227 255
206 227 255
206 227 255
206 227 255
206 227 255
206 227 255
206 227 255
206 227 255
206 227 255
206 227 255
206 227 255
206 227 255
206 227 255
206 227 255
206 227 255
206 227 255
206 227 255
205 227 255
205 227 255
205 227 255
205 227 255
205 227 255
205 227 255
205 227 255
205 227 255
205 227 255
205 227 255
205 227 255
205 227 255
205 227 255
205 227 255
205 227 255
205 226 255
205 226 255
205 226 255
205 226 255
205 226 255
205 226 255
205 226 255
205 226 255
205 226 255
205 226 255
205 226 255
205 226 255
205 226 255
205 226 255
204 226 255
204 226 255
204 226 255
204 226 255
204 226 255
204 226 255
204 226 255
204 226 255
204 226 255
204 226 255
204 226 255
204 226 255
204 226 255
204 226 255
204 226 255
204 226 255
204 226 255
204 226 255
204 226 255
204 226 255
204 226 255
204 226 255
204 226 255
204 226 255
204 226 255
204 226 255
204 226 255
204 226 255
204 226 255
204 226 255
204 226 255
204 226 255
204 226 255
204 226 255
204 226 255
204 226 255
204 226 255
204 226 255
204 226 255
204 226 255
204 226 255
204 226 255
204 226 255
204 226 255
204 226 255
204 226 255
204 226 255
204 226 255
204 226 255
204 226 255
204 226 255
204 226 255
204 226 255
205 226 255
205 226 255
205 226 255
205 226 255
205 226 255
205 226 255
205 226 255
205 226 255
205 226 255
205 226 255
205 226 255
205 226 255
205 226 255
205 226 255
205 227 255
205 227 255
205 227 255
205 227 255
205 227 255
205 227 255
205 227 255
205 227 255
205 227 255
205 227 255
205 227 255
205 227 255
205 227 255
205 227 255
205 227 255
205 227 255
206 227 255
206 227 255
206 227 255
206 227 255
206 227 255
206 227 255
206 227 255
206 227 255
206 227 255
206 227 255
206 227 255
206 227 255
206 227 255
206 227 255
206 227 255
206 227 255
206 227 255
206 227 255
206 227 255
206 227 255
206 227 255
206 227 255
207 227 255
207 227 255
207 227 255
207 227 255
207 228 255
207 228 255
207 228 255
207 228 255
207 228 255
207 228 255
207 228 255
207 228 255
207 228 255
207 228 255
207 228 255
207 228 255
207 228 255
207 228 255
207 228 255
207 228 255
208 228 255
208 228 255
208 228 255
208 228 255
208 228 255
208 228 255
208 228 255
208 228 255
208 228 255
208 228 255
208 228 255
208 228 255
208 228 255
208 228 255
208 228 255
208 228 255
208 228 255
208 228 255
208 228 255
208 228 255
208 228 255
209 228 255
62 98 164
61 97 156
62 98 161
61 97 154
60 96 155
62 98 160
63 99 167
62 98 161
61 97 161
62 97 157
61 97 159
61 97 155
61 97 158
61 97 158
62 98 158
61 97 156
61 97 157
61 97 159
61 97 155
61 97 157
62 98 160
62 98 165
62 98 161
61 97 156
61 96 149
61 97 160
61 97 153
62 98 160
61 97 155
62 98 159
61 97 157
62 98 156
61 96 152
61 97 153
62 97 152
62 98 158
62 98 160
61 97 158
62 98 159
62 98 166
62 98 163
60 96 152
63 99 165
62 98 160
61 97 155
61 97 151
61 97 156
62 98 162
61 97 157
62 98 158
62 98 155
61 98 159
61 97 156
63 99 168
61 97 151
63 99 169
62 98 155
62 98 157
62 98 161
63 99 162
62 98 163
61 97 157
62 98 160
62 97 159
62 98 164
62 99 166
62 98 163
61 97 156
61 97 160
62 98 154
61 98 159
61 97 156
61 97 156
62 98 164
62 98 158
61 97 154
62 98 167
62 97 155
61 97 157
62 98 159
62 97 155
62 98 160
62 98 163
62 98 163
61 96 153
61 98 160
62 98 164
61 98 161
62 98 159
61 97 155
62 98 164
62 98 160
63 99 167
61 97 158
62 98 160
62 97 153
62 98 168
62 97 153
62 98 155
62 98 164
62 98 159
62 98 160
61 97 157
62 98 160
63 99 163
62 98 158
61 97 160
61 97 162
62 98 156
61 98 162
62 98 159
63 99 165
62 98 161
62 98 162
62 98 164
61 97 153
61 97 155
62 97 157
62 98 160
62 98 162
61 97 153
61 97 158
61 97 153
62 98 159
62 98 163
61 97 161
62 98 160
61 97 156
63 99 164
62 98 164
62 99 164
62 98 161
62 98 155
62 98 161
61 97 157
62 98 164
62 98 163
62 98 158
62 98 157
61 97 155
62 98 162
62 98 163
62 98 161
61 97 158
61 97 160
62 98 164
62 99 172
63 99 164
62 98 164
62 98 167
62 98 161
61 97 155
62 98 166
63 100 173
62 98 165
62 98 165
62 98 159
62 98 163
62 98 165
62 98 164
61 97 161
62 98 159
62 99 173
62 98 165
62 98 160
62 98 160
62 98 163
61 97 159
62 98 162
62 98 172
62 99 167
62 99 164
62 99 170
63 99 167
62 99 170
62 98 170
63 99 169
62 98 164
62 99 169
62 99 168
62 99 174
63 99 170
62 99 168
62 98 166
62 98 171
62 99 171
62 97 166
63 99 171
62 98 170
62 98 170
61 97 162
62 98 175
62 98 170
62 99 176
61 98 170
61 98 171
62 99 177
125 149 201
201 222 251
207 228 255
207 227 255
207 227 255
207 227 255
207 227 255
207 227 255
206 227 255
206 227 255
206 227 255
206 227 255
206 227 255
206 227 255
206 227 255
206 227 255
206 227 255
206 227 255
206 227 255
206 227 255
206 227 255
206 227 255
206 227 255
206 227 255
206 227 255
206 227 255
206 227 255
206 227 255
206 227 255
206 227 255
205 227 255
205 227 255
205 227 255
205 227 255
205 227 255
205 227 255
205 227 255
205 227 255
205 227 255
205 227 255
205 227 255
205 227 255
205 227 255
205 227 255
205 227 255
205 227 255
205 226 255
205 226 255
205 226 255
205 226 255
205 226 255
205 226 255
205 226 255
205 226 255
205 226 255
205 226 255
205 226 255
205 226 255
205 226 255
205 226 255
205 226 255
205 226 255
204 226 255
204 226 255
204 226 255
204 226 255
204 226 255
204 226 255
204 226 255
204 226 255
204 226 255
204 226 255
204 226 255
204 226 255
204 226 255
204 226 255
204 226 255
204 226 255
204 226 255
204 226 255
204 226 255
204 226 255
204 226 255
204 226 255
204 226 255
204 226 255
204 226 255
204 226 255
204 226 255
204 226 255
204 226 255
204 226 255
204 226 255
204 226 255
204 226 255
204 226 255
204 226 255
204 226 255
204 226 255
204 226 255
204 226 255
204 226 255
204 226 255
205 226 255
205 226 255
205 226 255
205 226 255
205 226 255
205 226 255
205 226 255
205 226 255
205 226 255
205 226 255
205 226 255
205 226 255
205 226 255
205 226 255
205 226 255
205 226 255
205 227 255
205 227 255
205 227 255
205 227 255
205 227 255
205 227 255
205 227 255
205 227 255
205 227 255
205 227 255
205 227 255
205 227 255
205 227 255
205 227 255
205 227 255
205 227 255
206 227 255
206 227 255
206 227 255
206 227 255
206 227 255
206 227 255
206 227 255
206 227 255
206 227 255
206 227 255
206 227 255
206 227 255
206 227 255
206 227 255
206 227 255
206 227 255
206 227 255
206 227 255
206 227 255
206 227 255
206 227 255
206 227 255
206 227 255
207 227 255
207 227 255
207 227 255
207 227 255
207 227 255
207 228 255
207 228 255
207 228 255
207 228 255
207 228 255
207 228 255
207 228 255
207 228 255
207 228 255
207 228 255
207 228 255
207 228 255
207 228 255
207 228 255
207 228 255
208 228 255
208 228 255
208 228 255
208 228 255
208 228 255
208 228 255
208 228 255
208 228 255
208 228 255
208 228 255
208 228 255
208 228 255
208 228 255
208 228 255
208 228 255
208 228 255
208 228 255
208 228 255
208 228 255
208 228 255
208 228 255
209 228 255
209 229 255
209 229 255
209 229 255
61 97 152
62 97 159
61 97 151
61 97 156
61 97 155
61 97 154
61 97 154
61 97 162
61 97 155
62 98 162
61 97 153
61 97 155
62 98 159
61 97 160
62 98 160
62 99 167
61 97 157
62 98 161
61 97 156
61 97 151
61 97 156
62 97 158
61 97 155
62 98 163
62 98 156
62 97 157
62 98 161
62 98 159
61 97 153
62 98 157
62 98 163
62 97 156
62 98 159
61 97 157
62 98 163
61 97 152
63 98 162
62 97 159
62 98 162
62 98 159
61 97 152
61 97 161
62 98 164
62 98 158
62 97 155
62 98 158
61 97 153
61 97 156
62 98 162
61 97 161
62 98 158
62 98 160
62 97 158
61 97 158
62 97 152
61 97 161
61 97 156
62 98 163
62 98 159
62 98 156
62 99 163
61 97 154
61 97 152
63 99 164
63 99 163
61 97 155
62 98 162
61 97 155
63 99 163
62 98 157
62 98 161
61 98 164
63 99 162
62 97 156
63 99 163
62 97 153
62 98 160
60 96 149
61 97 154
62 97 153
61 97 155
62 98 161
62 98 156
61 97 157
62 98 161
62 98 158
62 98 163
63 99 166
62 98 159
62 98 163
62 98 162
62 98 161
61 97 155
62 98 160
61 97 157
62 98 161
62 98 163
62 98 157
62 98 158
63 99 170
62 98 162
62 98 159
61 97 154
62 98 163
62 98 163
62 98 160
63 98 163
61 97 154
62 98 165
62 99 169
63 99 163
62 97 154
62 98 166
62 98 167
63 99 167
62 98 162
63 99 170
63 99 162
62 97 155
63 98 161
62 97 157
62 98 158
62 98 160
62 98 157
63 99 167
62 98 164
61 98 164
62 98 163
62 99 167
62 98 163
62 98 161
62 97 156
62 98 161
61 97 155
61 97 159
62 98 160
63 99 165
63 99 165
62 98 158
61 97 159
62 97 157
62 98 166
62 98 160
62 97 163
61 97 161
63 99 171
60 96 154
63 99 164
63 99 167
62 98 160
62 99 170
62 98 165
61 97 162
61 97 153
62 98 169
62 98 162
62 98 160
62 98 160
62 98 163
62 98 162
62 98 161
62 98 160
62 98 165
63 99 164
61 97 160
62 97 160
62 98 163
62 98 162
63 98 163
62 98 162
63 99 168
62 99 170
62 98 159
61 96 165
63 99 166
62 98 167
62 98 170
63 99 173
62 98 168
61 98 160
62 99 172
63 99 170
62 98 169
62 98 166
62 98 167
61 97 167
62 98 169
62 98 170
62 98 172
61 97 165
63 100 176
62 98 172
62 99 174
62 98 170
62 98 174
61 97 169
62 99 173
62 98 172
113 139 197
198 219 249
207 228 255
207 228 255
207 227 255
207 227 255
207 227 255
207 227 255
207 227 255
206 227 255
206 227 255
206 227 255
206 227 255
206 227 255
206 227 255
206 227 255
206 227 255
206 227 255
206 227 255
206 227 255
206 227 255
206 227 255
206 227 255
206 227 255
206 227 255
206 227 255
206 227 255
206 227 255
206 227 255
206 227 255
206 227 255
206 227 255
205 227 255
205 227 255
205 227 255
205 227 255
205 227 255
205 227 255
205 227 255
205 227 255
205 227 255
205 227 255
205 227 255
205 227 255
205 227 255
205 227 255
205 227 255
205 227 255
205 227 255
205 226 255
205 226 255
205 226 255
205 226 255
205 226 255
205 226 255
205 226 255
205 226 255
205 226 255
205 226 255
205 226 255
205 226 255
205 226 255
205 226 255
205 226 255
205 226 255
205 226 255
205 226 255
205 226 255
205 226 255
205 226 255
204 226 255
204 226 255
204 226 255
204 226 255
204 226 255
204 226 255
204 226 255
204 226 255
204 226 255
204 226 255
204 226 255
204 226 255
204 226 255
204 226 255
204 226 255
204 226 255
204 226 255
204 226 255
204 226 255
204 226 255
204 226 255
204 226 255
204 226 255
204 226 255
205 226 255
205 226 255
205 226 255
205 226 255
205 226 255
205 226 255
205 226 255
205 226 255
205 226 255
205 226 255
205 226 255
205 226 255
205 226 255
205 226 255
205 226 255
205 226 255
205 226 255
205 226 255
205 226 255
205 226 255
205 227 255
205 227 255
205 227 255
205 227 255
205 227 255
205 227 255
205 227 255
205 227 255
205 227 255
205 227 255
205 227 255
205 227 255
205 227 255
205 227 255
205 227 255
205 227 255
205 227 255
206 227 255
206 227 255
206 227 255
206 227 255
206 227 255
206 227 255
206 227 255
206 227 255
206 227 255
206 227 255
206 227 255
206 227 255
206 227 255
206 227 255
206 227 255
206 227 255
206 227 255
206 227 255
206 227 255
206 227 255
206 227 255
206 227 255
206 227 255
207 227 255
207 227 255
207 227 255
207 227 255
207 227 255
207 228 255
207 228 255
207 228 255
207 228 255
207 228 255
207 228 255
207 228 255
207 228 255
207 228 255
207 228 255
207 228 255
207 228 255
207 228 255
207 228 255
207 228 255
208 228 255
208 228 255
208 228 255
208 228 255
208 228 255
208 228 255
208 228 255
208 228 255
208 228 255
208 228 255
208 228 255
208 228 255
208 228 255
208 228 255
208 228 255
208 228 255
208 228 255
208 228 255
208 228 255
208 228 255
208 228 255
209 228 255
209 228 255
209 229 255
209 229 255
209 229 255
209 229 255
209 229 255
62 98 157
61 97 158
62 98 162
62 98 156
61 97 149
62 97 161
61 97 161
62 97 153
62 99 162
61 97 158
62 98 162
61 97 156
61 97 154
61 97 158
61 97 153
63 99 161
61 97 154
61 97 153
62 98 158
61 97 153
62 98 162
60 96 151
61 97 154
62 98 157
61 96 148
63 99 164
61 98 161
62 98 160
62 98 156
62 98 166
61 97 159
62 98 158
62 98 159
63 99 161
62 98 159
62 98 157
62 98 162
62 98 153
61 97 155
61 97 156
61 97 161
61 97 149
62 98 152
62 98 162
61 97 156
62 97 158
60 96 151
61 97 158
62 98 160
62 98 156
61 97 157
62 98 162
63 99 162
62 99 163
62 98 158
62 98 161
62 98 156
61 97 153
62 97 157
61 97 155
62 98 160
61 97 151
61 97 159
62 98 153
61 97 155
62 98 162
62 98 164
62 97 155
62 98 157
62 97 153
62 98 160
61 97 154
62 98 161
62 97 158
61 97 154
62 97 155
62 98 159
62 98 162
62 98 157
62 97 160
62 98 163
62 98 165
62 98 163
61 97 163
62 98 162
62 97 151
61 97 155
62 97 153
62 98 160
62 98 161
61 97 162
62 98 164
62 99 163
61 97 154
62 98 160
61 97 155
62 99 163
62 98 161
62 98 160
63 99 162
62 98 164
63 99 165
62 98 159
62 98 163
63 99 169
62 98 157
61 97 157
61 98 162
61 98 158
62 98 158
62 98 161
62 98 163
62 98 159
62 98 157
61 97 154
62 98 163
61 97 152
62 98 162
61 97 161
62 98 159
62 98 160
62 98 158
62 98 156
62 98 162
62 98 163
62 98 159
62 98 161
62 98 160
62 98 164
62 98 159
62 98 166
62 98 164
63 99 165
62 99 166
63 99 167
63 99 166
62 98 158
61 97 159
63 99 163
61 97 161
62 99 163
62 98 157
62 99 164
62 98 166
62 98 161
62 98 165
62 97 158
63 99 168
62 98 160
62 98 166
60 96 152
62 99 164
61 98 160
63 99 167
61 98 161
62 98 162
62 98 160
62 98 166
61 97 162
62 99 165
62 98 164
62 98 165
62 98 164
62 99 167
62 98 165
60 96 161
63 99 169
62 98 162
62 99 170
62 98 164
62 98 166
62 99 168
61 97 164
61 97 163
61 97 161
62 98 165
62 98 172
62 98 166
62 98 168
63 99 173
62 98 169
62 98 166
62 98 168
62 99 169
61 97 169
62 99 170
62 98 171
61 96 164
63 99 171
62 98 168
61 98 168
62 98 170
62 98 166
62 99 174
61 98 170
61 98 172
62 99 174
61 98 172
61 96 168
96 123 183
188 209 243
207 228 255
207 228 255
207 228 255
207 228 255
207 227 255
207 227 255
207 227 255
207 227 255
207 227 255
206 227 255
206 227 255
206 227 255
206 227 255
206 227 255
206 227 255
206 227 255
206 227 255
206 227 255
206 227 255
206 227 255
206 227 255
206 227 255
206 227 255
206 227 255
206 227 255
206 227 255
206 227 255
206 227 255
206 227 255
206 227 255
206 227 255
206 227 255
206 227 255
205 227 255
205 227 255
205 227 255
205 227 255
205 227 255
205 227 255
205 227 255
205 227 255
205 227 255
205 227 255
205 227 255
205 227 255
205 227 255
205 227 255
205 227 255
205 227 255
205 227 255
205 227 255
205 227 255
205 226 255
205 226 255
205 226 255
205 226 255
205 226 255
205 226 255
205 226 255
205 226 255
205 226 255
205 226 255
205 226 255
205 226 255
205 226 255
205 226 255
205 226 255
205 226 255
205 226 255
205 226 255
205 226 255
205 226 255
205 226 255
205 226 255
205 226 255
205 226 255
205 226 255
205 226 255
205 226 255
205 226 255
205 226 255
205 226 255
205 226 255
205 226 255
205 226 255
205 226 255
205 226 255
205 226 255
205 226 255
205 226 255
205 226 255
205 226 255
205 226 255
205 226 255
205 226 255
205 226 255
205 226 255
205 226 255
205 226 255
205 226 255
205 226 255
205 226 255
205 226 255
205 226 255
205 226 255
205 226 255
205 227 255
205 227 255
205 227 255
205 227 255
205 227 255
205 227 255
205 227 255
205 227 255
205 227 255
205 227 255
205 227 255
205 227 255
205 227 255
205 227 255
205 227 255
205 227 255
205 227 255
205 227 255
205 227 255
206 227 255
206 227 255
206 227 255
206 227 255
206 227 255
206 227 255
206 227 255
206 227 255
206 227 255
206 227 255
206 227 255
206 227 255
206 227 255
206 227 255
206 227 255
206 227 255
206 227 255
206 227 255
206 227 255
206 227 255
206 227 255
206 227 255
206 227 255
207 227 255
207 227 255
207 227 255
207 227 255
207 227 255
207 228 255
207 228 255
207 228 255
207 228 255
207 228 255
207 228 255
207 228 255
207 228 255
207 228 255
207 228 255
207 228 255
207 228 255
207 228 255
207 228 255
207 228 255
207 228 255
208 228 255
208 228 255
208 228 255
208 228 255
208 228 255
208 228 255
208 228 255
208 228 255
208 228 255
208 228 255
208 228 255
208 228 255
208 228 255
208 228 255
208 228 255
208 228 255
208 228 255
208 228 255
208 228 255
208 228 255
209 228 255
209 228 255
209 229 255
209 229 255
209 229 255
209 229 255
209 229 255
209 229 255
209 229 255
209 229 255
61 97 155
62 97 153
63 99 166
61 97 154
62 98 159
62 98 163
61 97 151
62 98 161
60 96 151
61 97 159
62 98 159
62 98 154
61 97 155
62 98 159
62 98 161
63 99 160
61 96 155
62 98 163
62 98 157
62 98 153
61 96 150
62 98 162
60 96 148
61 97 153
61 98 161
61 98 163
61 96 148
60 96 157
62 98 160
61 97 157
61 97 157
62 98 159
62 98 155
62 98 160
62 98 155
62 98 156
61 97 158
62 98 163
61 97 154
60 96 145
60 96 156
60 95 150
62 98 160
61 97 155
61 97 161
61 96 150
61 97 154
62 98 164
61 97 149
61 97 156
62 98 156
62 98 162
62 98 161
61 96 149
62 98 164
61 97 160
61 97 153
62 98 159
62 98 157
63 99 160
61 97 157
61 97 154
62 98 158
62 98 157
62 98 160
61 97 158
61 97 154
61 97 156
63 99 170
62 98 160
62 98 161
60 96 148
61 97 159
62 97 158
62 98 161
61 97 156
62 98 157
63 98 162
63 99 163
62 98 164
62 98 158
62 98 160
60 96 157
61 97 158
62 98 165
61 96 153
63 98 160
62 98 157
62 98 165
61 97 155
61 97 153
62 98 159
61 97 155
62 98 162
62 98 164
62 98 160
61 97 149
62 98 163
61 97 156
62 98 160
62 98 160
61 96 159
62 98 161
62 98 159
61 98 160
61 97 154
61 97 157
61 97 152
62 98 164
62 98 155
61 97 158
62 99 164
62 98 159
62 98 162
62 98 159
61 97 157
61 97 154
61 96 150
63 99 164
62 98 159
62 98 161
63 99 161
62 98 157
62 98 162
62 97 158
62 98 159
62 98 160
61 97 155
63 99 164
61 97 158
62 98 164
62 98 164
62 98 165
62 98 163
61 98 159
61 97 162
62 97 151
62 98 164
62 98 162
63 99 166
62 98 165
62 98 158
62 98 165
62 98 162
61 98 160
61 98 161
62 98 163
62 97 151
62 99 167
62 98 159
63 98 163
62 99 170
62 98 163
61 98 159
62 98 162
61 97 158
62 98 163
62 98 166
62 98 167
63 99 165
62 98 167
62 98 162
62 98 166
62 98 165
62 99 166
61 96 160
63 99 167
62 98 164
61 98 161
62 99 169
63 99 170
63 99 172
62 98 161
61 98 161
61 97 160
61 98 165
62 98 164
62 98 164
62 98 162
63 99 170
62 98 168
62 98 173
61 97 164
62 98 166
61 97 164
62 98 171
62 98 171
62 98 168
62 98 164
61 98 168
61 98 165
61 98 169
61 96 161
61 98 172
61 97 168
62 99 173
62 98 172
62 99 174
60 96 169
61 97 171
75 108 177
177 199 233
207 228 255
207 228 255
207 228 255
207 228 255
207 228 255
207 228 255
207 227 255
207 227 255
207 227 255
207 227 255
207 227 255
206 227 255
206 227 255
206 227 255
206 227 255
206 227 255
206 227 255
206 227 255
206 227 255
206 227 255
206 227 255
206 227 255
206 227 255
206 227 255
206 227 255
206 227 255
206 227 255
206 227 255
206 227 255
206 227 255
206 227 255
206 227 255
206 227 255
206 227 255
206 227 255
205 227 255
205 227 255
205 227 255
205 227 255
205 227 255
205 227 255
205 227 255
205 227 255
205 227 255
205 227 255
205 227 255
205 227 255
205 227 255
205 227 255
205 227 255
205 227 255
205 227 255
205 227 255
205 227 255
205 227 255
205 227 255
205 227 255
205 226 255
205 226 255
205 226 255
205 226 255
205 226 255
205 226 255
205 226 255
205 226 255
205 226 255
205 226 255
205 226 255
205 226 255
205 226 255
205 226 255
205 226 255
205 226 255
205 226 255
205 226 255
205 226 255
205 226 255
205 226 255
205 226 255
205 226 255
205 226 255
205 226 255
205 226 255
205 226 255
205 226 255
205 226 255
205 226 255
205 226 255
205 226 255
205 226 255
205 226 255
205 226 255
205 226 255
205 226 255
205 226 255
205 226 255
205 226 255
205 226 255
205 227 255
205 227 255
205 227 255
205 227 255
205 227 255
205 227 255
205 227 255
205 227 255
205 227 255
205 227 255
205 227 255
205 227 255
205 227 255
205 227 255
205 227 255
205 227 255
205 227 255
205 227 255
205 227 255
205 227 255
205 227 255
205 227 255
206 227 255
206 227 255
206 227 255
206 227 255
206 227 255
206 227 255
206 227 255
206 227 255
206 227 255
206 227 255
206 227 255
206 227 255
206 227 255
206 227 255
206 227 255
206 227 255
206 227 255
206 227 255
206 227 255
206 227 255
206 227 255
206 227 255
206 227 255
206 227 255
207 227 255
207 227 255
207 227 255
207 227 255
207 227 255
207 228 255
207 228 255
207 228 255
207 228 255
207 228 255
207 228 255
207 228 255
207 228 255
207 228 255
207 228 255
207 228 255
207 228 255
207 228 255
207 228 255
207 228 255
207 228 255
208 228 255
208 228 255
208 228 255
208 228 255
208 228 255
208 228 255
208 228 255
208 228 255
208 228 255
208 228 255
208 228 255
208 228 255
208 228 255
208 228 255
208 228 255
208 228 255
208 228 255
208 228 255
208 228 255
208 228 255
208 228 255
209 228 255
209 229 255
209 229 255
209 229 255
209 229 255
209 229 255
209 229 255
209 229 255
209 229 255
209 229 255
209 229 255
209 229 255
61 97 158
61 96 153
61 97 156
61 96 151
61 97 152
61 97 152
61 97 155
62 98 156
61 97 161
61 97 156
61 97 162
62 97 155
61 97 150
61 97 160
61 96 144
62 98 163
62 97 155
62 98 160
61 97 160
61 96 148
61 97 160
61 96 147
62 98 160
62 98 157
62 98 158
62 98 156
61 97 154
62 97 152
61 97 154
61 97 160
61 97 155
61 96 152
62 98 158
62 98 160
62 98 150
63 98 158
62 97 155
61 97 151
61 97 150
62 98 157
61 97 157
61 97 157
61 96 149
62 97 160
62 98 157
62 97 156
62 97 154
62 98 158
61 97 152
62 98 160
62 98 161
61 97 157
62 98 159
62 98 160
61 97 157
62 98 158
61 97 156
61 96 150
61 96 152
62 98 165
62 98 162
62 97 157
61 97 155
62 99 163
60 95 153
62 97 152
61 97 148
61 97 154
62 97 157
62 98 157
61 96 151
61 97 156
61 97 156
61 97 156
62 98 157
63 99 163
62 98 160
63 99 167
61 97 161
63 99 164
62 98 157
62 98 163
62 97 157
63 99 160
61 97 158
62 98 157
62 98 155
61 97 156
62 97 156
62 98 160
63 99 163
62 98 163
61 97 151
61 97 156
62 98 164
62 97 150
61 98 159
63 99 163
62 98 158
63 99 162
62 98 151
62 98 164
63 98 160
62 98 161
62 97 156
63 99 166
62 97 158
61 97 159
62 98 158
61 97 156
61 97 154
61 97 158
62 98 155
62 98 160
62 98 162
61 97 156
61 97 156
61 96 153
62 98 158
62 98 158
63 99 163
62 98 162
62 99 166
61 97 154
62 98 160
63 99 163
63 99 161
62 98 159
62 98 163
62 98 161
62 98 160
63 99 164
62 98 163
62 97 157
61 97 162
61 97 153
62 98 164
62 97 154
61 97 157
62 98 159
62 98 159
62 98 159
61 97 153
62 98 163
61 97 155
62 98 158
61 98 164
61 97 157
61 97 161
62 98 161
62 98 155
62 98 167
62 98 160
62 98 159
62 98 161
61 98 161
61 97 158
62 99 169
62 99 169
61 97 156
62 98 162
62 98 160
63 99 163
62 98 163
63 99 172
61 97 159
62 98 161
63 99 171
62 98 161
62 99 168
63 99 167
62 98 167
62 98 167
62 98 167
63 99 172
63 99 167
62 98 163
62 98 166
62 98 166
61 97 162
62 98 167
63 99 171
62 98 166
62 98 170
61 97 168
62 99 168
62 98 167
62 98 164
62 98 172
62 98 170
64 100 173
62 98 169
62 98 170
62 98 170
62 98 171
62 98 170
60 97 167
61 98 170
61 97 166
61 97 169
62 99 174
72 105 174
175 197 233
207 228 255
207 228 255
207 228 255
207 228 255
207 228 255
207 228 255
207 228 255
207 228 255
207 227 255
207 227 255
207 227 255
207 227 255
207 227 255
206 227 255
206 227 255
206 227 255
206 227 255
206 227 255
206 227 255
206 227 255
206 227 255
206 227 255
206 227 255
206 227 255
206 227 255
206 227 255
206 227 255
206 227 255
206 227 255
206 227 255
206 227 255
206 227 255
206 227 255
206 227 255
206 227 255
206 227 255
206 227 255
206 227 255
205 227 255
205 227 255
205 227 255
205 227 255
205 227 255
205 227 255
205 227 255
205 227 255
205 227 255
205 227 255
205 227 255
205 227 255
205 227 255
205 227 255
205 227 255
205 227 255
205 227 255
205 227 255
205 227 255
205 227 255
205 227 255
205 227 255
205 227 255
205 227 255
205 227 255
205 227 255
205 226 255
205 226 255
205 226 255
205 226 255
205 226 255
205 226 255
205 226 255
205 226 255
205 226 255
205 226 255
205 226 255
205 226 255
205 226 255
205 226 255
205 226 255
205 226 255
205 226 255
205 226 255
205 226 255
205 226 255
205 226 255
205 226 255
205 226 255
205 226 255
205 226 255
205 227 255
205 227 255
205 227 255
205 227 255
205 227 255
205 227 255
205 227 255
205 227 255
205 227 255
205 227 255
205 227 255
205 227 255
205 227 255
205 227 255
205 227 255
205 227 255
205 227 255
205 227 255
205 227 255
205 227 255
205 227 255
205 227 255
205 227 255
205 227 255
205 227 255
205 227 255
206 227 255
206 227 255
206 227 255
206 227 255
206 227 255
206 227 255
206 227 255
206 227 255
206 227 255
206 227 255
206 227 255
206 227 255
206 227 255
206 227 255
206 227 255
206 227 255
206 227 255
206 227 255
206 227 255
206 227 255
206 227 255
206 227 255
206 227 255
206 227 255
206 227 255
207 227 255
207 227 255
207 227 255
207 227 255
207 227 255
207 228 255
207 228 255
207 228 255
207 228 255
207 228 255
207 228 255
207 228 255
207 228 255
207 228 255
207 228 255
207 228 255
207 228 255
207 228 255
207 228 255
207 228 255
207 228 255
208 228 255
208 228 255
208 228 255
208 228 255
208 228 255
208 228 255
208 228 255
208 228 255
208 228 255
208 228 255
208 228 255
208 228 255
208 228 255
208 228 255
208 228 255
208 228 255
208 228 255
208 228 255
208 228 255
208 228 255
209 228 255
209 228 255
209 229 255
209 229 255
209 229 255
209 229 255
209 229 255
209 229 255
209 229 255
209 229 255
209 229 255
209 229 255
209 229 255
209 229 255
209 229 255
209 229 255
61 97 155
60 96 152
62 98 161
61 97 154
62 98 160
62 98 159
62 98 160
63 99 167
60 96 154
63 99 164
62 98 156
61 96 147
62 98 152
60 96 154
62 97 156
61 97 156
61 96 145
61 97 153
61 97 158
61 97 152
62 98 165
62 98 163
61 97 155
62 98 157
62 98 163
61 97 162
62 97 157
62 98 160
61 97 150
62 98 159
62 98 156
62 98 157
61 97 151
60 95 147
61 97 153
61 97 150
61 96 152
61 97 154
62 98 163
61 97 159
61 97 152
62 98 158
62 98 157
61 97 153
62 98 156
62 98 156
61 97 158
61 97 155
62 98 164
61 97 153
63 99 165
60 96 156
62 98 153
62 98 159
62 98 160
61 97 153
61 97 158
62 97 156
62 97 158
60 96 150
61 97 158
61 97 153
62 98 164
63 99 166
61 97 153
62 98 160
61 97 158
63 99 163
62 98 161
62 98 152
61 97 158
62 98 166
62 97 158
61 97 155
62 99 169
62 98 161
62 97 158
62 98 156
61 97 156
61 97 157
62 98 163
62 98 159
61 97 156
62 98 157
62 98 157
62 98 161
61 97 161
61 96 151
61 97 154
61 97 153
62 97 152
61 97 152
61 97 153
61 97 157
62 98 153
63 98 166
62 99 167
61 97 160
61 97 161
62 98 158
61 97 149
62 98 158
62 98 160
61 96 153
62 98 162
61 97 153
61 97 157
62 98 161
61 97 154
61 98 164
61 97 157
62 98 158
63 99 167
62 98 162
62 98 158
61 97 156
61 97 157
62 98 158
61 97 159
61 96 157
62 98 160
61 96 148
62 98 161
63 98 160
62 98 161
61 98 162
61 96 156
61 97 166
62 98 160
61 97 160
61 96 151
62 98 161
62 98 164
61 97 155
61 97 153
62 98 167
61 97 157
63 99 167
62 99 170
61 97 158
62 97 158
62 98 164
61 97 157
62 98 163
62 98 157
62 98 158
62 98 160
62 97 154
63 99 164
62 99 168
61 97 159
61 97 161
61 97 156
62 98 162
62 98 159
63 99 167
62 98 164
62 98 162
62 98 164
62 98 160
62 98 161
61 97 159
63 98 159
63 98 159
62 98 163
62 98 165
62 98 168
63 99 165
62 98 164
63 99 167
62 98 163
62 99 170
62 98 164
62 98 162
61 97 161
63 99 170
61 98 162
62 98 161
62 98 163
62 98 165
62 98 163
62 97 161
62 98 166
62 98 168
62 97 162
62 98 160
62 99 169
61 96 162
61 97 163
62 98 170
62 99 170
61 98 167
62 98 164
62 98 173
62 98 170
62 97 167
62 98 167
62 97 163
63 99 171
62 98 168
61 97 169
61 97 166
65 100 173
170 191 229
207 228 255
207 228 255
207 228 255
207 228 255
207 228 255
207 228 255
207 228 255
207 228 255
207 228 255
207 228 255
207 227 255
207 227 255
207 227 255
207 227 255
207 227 255
206 227 255
206 227 255
206 227 255
206 227 255
206 227 255
206 227 255
206 227 255
206 227 255
206 227 255
206 227 255
206 227 255
206 227 255
206 227 255
206 227 255
206 227 255
206 227 255
206 227 255
206 227 255
206 227 255
206 227 255
206 227 255
206 227 255
206 227 255
206 227 255
206 227 255
206 227 255
206 227 255
205 227 255
205 227 255
205 227 255
205 227 255
205 227 255
205 227 255
205 227 255
205 227 255
205 227 255
205 227 255
205 227 255
205 227 255
205 227 255
205 227 255
205 227 255
205 227 255
205 227 255
205 227 255
205 227 255
205 227 255
205 227 255
205 227 255
205 227 255
205 227 255
205 227 255
205 227 255
205 227 255
205 227 255
205 227 255
205 227 255
205 227 255
205 227 255
205 227 255
205 227 255
205 227 255
205 227 255
205 227 255
205 227 255
205 227 255
205 227 255
205 227 255
205 227 255
205 227 255
205 227 255
205 227 255
205 227 255
205 227 255
205 227 255
205 227 255
205 227 255
205 227 255
205 227 255
205 227 255
205 227 255
205 227 255
205 227 255
205 227 255
205 227 255
205 227 255
205 227 255
205 227 255
205 227 255
205 227 255
205 227 255
205 227 255
205 227 255
205 227 255
205 227 255
206 227 255
206 227 255
206 227 255
206 227 255
206 227 255
206 227 255
206 227 255
206 227 255
206 227 255
206 227 255
206 227 255
206 227 255
206 227 255
206 227 255
206 227 255
206 227 255
206 227 255
206 227 255
206 227 255
206 227 255
206 227 255
206 227 255
206 227 255
206 227 255
206 227 255
206 227 255
207 227 255
207 227 255
207 227 255
207 227 255
207 227 255
207 228 255
207 228 255
207 228 255
207 228 255
207 228 255
207 228 255
207 228 255
207 228 255
207 228 255
207 228 255
207 228 255
207 228 255
207 228 255
207 228 255
207 228 255
207 228 255
208 228 255
208 228 255
208 228 255
208 228 255
208 228 255
208 228 255
208 228 255
208 228 255
208 228 255
208 228 255
208 228 255
208 228 255
208 228 255
208 228 255
208 228 255
208 228 255
208 228 255
208 228 255
208 228 255
208 228 255
208 228 255
209 228 255
209 229 255
209 229 255
209 229 255
209 229 255
209 229 255
209 229 255
209 229 255
209 229 255
209 229 255
209 229 255
209 229 255
209 229 255
209 229 255
209 229 255
209 229 255
209 229 255
209 229 255
61 96 149
62 98 161
62 97 158
61 96 153
61 97 159
62 98 158
62 98 158
61 97 154
60 96 152
62 97 151
61 97 152
61 97 162
62 98 156
61 97 154
60 96 145
61 97 154
61 97 150
61 97 158
62 98 154
62 97 154
62 98 164
62 97 155
60 96 152
61 97 155
62 98 159
61 97 161
61 97 154
61 97 154
61 97 157
61 97 158
62 98 161
61 96 148
61 97 154
63 99 170
60 96 156
61 97 156
61 97 151
61 96 147
62 98 160
61 97 154
62 98 156
62 98 160
61 96 149
62 98 157
61 96 151
61 97 159
62 98 154
61 97 158
61 97 157
61 97 154
62 97 157
61 97 152
62 98 158
61 97 151
61 97 150
61 97 153
61 97 157
61 97 151
61 96 154
62 97 158
60 96 149
61 97 153
62 98 153
62 98 161
61 97 152
61 97 157
62 97 155
62 98 160
63 99 164
62 98 160
62 98 155
61 97 160
62 97 158
62 98 164
62 98 161
61 97 155
62 98 163
62 98 163
62 98 160
62 98 158
61 97 153
62 98 161
61 97 150
61 96 152
62 99 164
62 98 157
62 98 160
62 99 167
62 97 157
63 99 164
62 97 153
61 97 156
62 98 157
62 98 164
61 97 155
63 99 166
61 97 159
62 98 158
63 99 160
61 96 145
61 96 151
62 98 164
62 98 158
62 98 159
62 98 157
61 96 145
62 98 160
61 97 156
61 98 161
61 97 154
61 97 153
62 98 163
62 98 164
63 99 164
62 98 162
62 98 159
62 98 160
63 99 166
61 97 153
62 97 155
61 96 149
62 98 156
62 98 163
62 98 166
61 97 160
62 98 162
62 98 154
62 98 160
63 99 164
62 97 156
62 98 166
62 98 162
62 98 161
60 96 145
62 98 157
62 98 162
61 96 148
62 98 168
62 98 162
62 98 164
62 98 160
61 97 158
62 98 162
62 98 158
61 98 160
62 98 162
61 97 161
63 99 166
63 100 167
63 99 165
62 99 164
62 98 158
63 99 169
62 99 166
63 99 160
62 98 166
62 97 160
62 98 165
62 98 161
61 98 164
61 97 161
62 98 162
61 98 163
62 98 167
62 98 164
62 98 162
61 97 159
61 97 162
62 98 163
61 97 166
62 98 161
62 99 167
63 99 171
61 98 165
62 98 159
61 97 163
62 99 166
61 97 160
62 98 167
61 97 161
62 98 170
62 98 168
61 97 160
62 99 169
63 99 171
62 98 170
62 98 168
62 98 165
62 98 165
61 98 163
62 98 168
61 98 167
62 98 166
62 98 169
62 98 164
61 97 167
61 97 167
61 97 168
61 98 166
61 97 172
61 97 169
61 97 167
61 98 174
62 98 174
155 178 220
207 228 255
207 228 255
207 228 255
207 228 255
207 228 255
207 228 255
207 228 255
207 228 255
207 228 255
207 228 255
207 228 255
207 228 255
207 227 255
207 227 255
207 227 255
207 227 255
207 227 255
207 227 255
206 227 255
206 227 255
206 227 255
206 227 255
206 227 255
206 227 255
206 227 255
206 227 255
206 227 255
206 227 255
206 227 255
206 227 255
206 227 255
206 227 255
206 227 255
206 227 255
206 227 255
206 227 255
206 227 255
206 227 255
206 227 255
206 227 255
206 227 255
206 227 255
206 227 255
206 227 255
206 227 255
205 227 255
205 227 255
205 227 255
205 227 255
205 227 255
205 227 255
205 227 255
205 227 255
205 227 255
205 227 255
205 227 255
205 227 255
205 227 255
205 227 255
205 227 255
205 227 255
205 227 255
205 227 255
205 227 255
205 227 255
205 227 255
205 227 255
205 227 255
205 227 255
205 227 255
205 227 255
205 227 255
205 227 255
205 227 255
205 227 255
205 227 255
205 227 255
205 227 255
205 227 255
205 227 255
205 227 255
205 227 255
205 227 255
205 227 255
205 227 255
205 227 255
205 227 255
205 227 255
205 227 255
205 227 255
205 227 255
205 227 255
205 227 255
205 227 255
205 227 255
205 227 255
205 227 255
205 227 255
205 227 255
205 227 255
205 227 255
205 227 255
205 227 255
205 227 255
206 227 255
206 227 255
206 227 255
206 227 255
206 227 255
206 227 255
206 227 255
206 227 255
206 227 255
206 227 255
206 227 255
206 227 255
206 227 255
206 227 255
206 227 255
206 227 255
206 227 255
206 227 255
206 227 255
206 227 255
206 227 255
206 227 255
206 227 255
206 227 255
206 227 255
206 227 255
206 227 255
206 227 255
207 227 255
207 227 255
207 227 255
207 227 255
207 227 255
207 228 255
207 228 255
207 228 255
207 228 255
207 228 255
207 228 255
207 228 255
207 228 255
207 228 255
207 228 255
207 228 255
207 228 255
207 228 255
207 228 255
207 228 255
207 228 255
208 228 255
208 228 255
208 228 255
208 228 255
208 228 255
208 228 255
208 228 255
208 228 255
208 228 255
208 228 255
208 228 255
208 228 255
208 228 255
208 228 255
208 228 255
208 228 255
208 228 255
208 228 255
208 228 255
208 228 255
208 228 255
209 228 255
209 229 255
209 229 255
209 229 255
209 229 255
209 229 255
209 229 255
209 229 255
209 229 255
209 229 255
209 229 255
209 229 255
209 229 255
209 229 255
209 229 255
209 229 255
209 229 255
209 229 255
209 229 255
209 229 255
209 229 255
61 97 151
61 97 155
61 98 159
62 97 157
61 96 157
61 97 156
62 98 163
61 97 157
61 97 159
61 96 151
62 97 154
61 97 156
61 97 156
62 98 161
61 97 157
61 96 150
62 98 158
61 97 157
61 97 161
61 97 153
61 97 153
62 97 157
61 97 154
62 97 153
61 97 157
62 98 159
62 97 154
60 96 148
62 97 156
61 97 153
61 97 152
61 97 159
61 97 155
62 98 159
61 97 155
62 97 150
61 97 151
62 98 164
61 97 157
61 97 155
62 98 161
61 97 149
62 98 161
61 97 157
61 96 152
61 98 158
61 97 158
62 98 154
61 97 159
61 97 153
62 98 166
62 98 158
61 97 156
61 97 156
61 97 155
62 97 152
62 98 154
61 97 154
61 97 156
60 96 151
61 97 157
62 98 162
61 97 150
61 97 154
61 97 151
61 97 154
62 97 153
61 97 153
62 98 156
62 98 157
61 97 155
61 97 157
62 98 156
62 98 157
62 99 166
62 98 158
62 97 155
61 97 155
61 97 157
62 98 162
61 97 151
61 97 158
61 97 157
61 97 152
62 98 164
61 97 153
61 96 147
61 97 159
61 96 152
62 98 161
62 99 167
61 97 156
60 96 151
63 98 156
62 98 160
62 98 160
62 98 158
62 98 163
62 99 168
61 97 156
61 97 156
62 98 163
61 97 161
60 96 153
61 97 153
61 97 155
63 99 162
62 98 158
62 97 152
62 98 161
61 97 157
62 98 159
62 97 157
62 98 162
63 99 164
61 97 155
62 99 164
62 98 159
62 98 158
62 98 162
62 98 162
63 99 161
62 98 162
63 99 165
63 99 165
62 98 160
63 99 163
62 98 162
61 97 153
60 96 145
61 97 154
62 99 168
62 98 154
62 98 161
62 98 158
62 98 164
62 98 165
61 97 159
62 98 161
62 98 163
61 97 159
62 98 163
62 98 164
62 98 158
62 98 161
62 98 157
61 97 153
63 99 168
62 98 156
62 98 165
62 98 160
62 98 161
61 96 150
61 98 164
63 99 164
61 97 151
61 97 153
62 98 163
62 98 160
62 98 156
62 98 167
62 98 164
62 99 165
61 97 159
62 98 164
62 98 162
62 98 161
62 98 167
62 99 168
63 99 171
63 99 169
62 98 162
62 98 167
62 98 166
63 99 169
62 98 162
62 98 164
62 98 167
62 99 171
61 97 162
61 98 165
62 98 168
61 97 162
62 98 166
62 98 165
63 99 170
62 98 167
62 98 165
63 100 176
62 98 170
64 100 170
62 98 170
61 97 166
63 99 167
61 97 163
63 99 174
61 98 169
61 97 166
62 98 169
62 98 170
62 99 168
62 99 172
62 98 173
61 97 169
61 97 176
140 163 212
207 228 255
207 228 255
207 228 255
207 228 255
207 228 255
207 228 255
207 228 255
207 228 255
207 228 255
207 228 255
207 228 255
207 228 255
207 228 255
207 228 255
207 227 255
207 227 255
207 227 255
207 227 255
207 227 255
207 227 255
206 227 255
206 227 255
206 227 255
206 227 255
206 227 255
206 227 255
206 227 255
206 227 255
206 227 255
206 227 255
206 227 255
206 227 255
206 227 255
206 227 255
206 227 255
206 227 255
206 227 255
206 227 255
206 227 255
206 227 255
206 227 255
206 227 255
206 227 255
206 227 255
206 227 255
206 227 255
206 227 255
206 227 255
206 227 255
206 227 255
205 227 255
205 227 255
205 227 255
205 227 255
205 227 255
205 227 255
205 227 255
205 227 255
205 227 255
205 227 255
205 227 255
205 227 255
205 227 255
205 227 255
205 227 255
205 227 255
205 227 255
205 227 255
205 227 255
205 227 255
205 227 255
205 227 255
205 227 255
205 227 255
205 227 255
205 227 255
205 227 255
205 227 255
205 227 255
205 227 255
205 227 255
205 227 255
205 227 255
205 227 255
205 227 255
205 227 255
205 227 255
205 227 255
205 227 255
205 227 255
205 227 255
205 227 255
205 227 255
205 227 255
205 227 255
205 227 255
205 227 255
206 227 255
206 227 255
206 227 255
206 227 255
206 227 255
206 227 255
206 227 255
206 227 255
206 227 255
206 227 255
206 227 255
206 227 255
206 227 255
206 227 255
206 227 255
206 227 255
206 227 255
206 227 255
206 227 255
206 227 255
206 227 255
206 227 255
206 227 255
206 227 255
206 227 255
206 227 255
206 227 255
206 227 255
206 227 255
206 227 255
207 227 255
207 227 255
207 227 255
207 227 255
207 227 255
207 227 255
207 228 255
207 228 255
207 228 255
207 228 255
207 228 255
207 228 255
207 228 255
207 228 255
207 228 255
207 228 255
207 228 255
207 228 255
207 228 255
207 228 255
207 228 255
207 228 255
208 228 255
208 228 255
208 228 255
208 228 255
208 228 255
208 228 255
208 228 255
208 228 255
208 228 255
208 228 255
208 228 255
208 228 255
208 228 255
208 228 255
208 228 255
208 228 255
208 228 255
208 228 255
208 228 255
208 228 255
208 228 255
209 228 255
209 228 255
209 229 255
209 229 255
209 229 255
209 229 255
209 229 255
209 229 255
209 229 255
209 229 255
209 229 255
209 229 255
209 229 255
209 229 255
209 229 255
209 229 255
209 229 255
209 229 255
209 229 255
209 229 255
209 229 255
210 229 255
210 229 255
210 229 255
62 98 159
61 97 152
61 97 155
62 98 165
62 98 165
62 98 155
62 98 159
62 98 166
62 98 157
60 95 143
62 98 160
60 95 150
62 97 152
61 97 155
62 98 159
61 97 157
63 99 164
62 98 158
62 97 151
62 98 157
61 96 144
62 98 155
63 99 163
61 97 153
61 97 158
61 98 160
61 97 157
61 96 150
63 99 162
61 97 149
61 97 150
61 97 156
61 97 158
62 98 158
61 97 153
61 97 161
62 98 157
62 97 154
62 98 159
62 98 161
61 97 161
62 97 157
61 97 162
61 97 154
61 97 148
61 97 152
61 97 155
62 97 152
61 97 158
63 99 166
61 96 148
62 98 160
61 97 151
62 98 162
62 98 164
61 97 159
62 98 161
62 98 159
62 98 160
61 97 152
61 97 155
61 97 156
62 97 155
62 98 162
62 97 157
62 97 157
62 98 160
62 97 155
62 97 154
62 98 158
61 97 159
62 98 157
62 98 155
63 99 161
61 97 152
62 97 159
61 97 155
62 98 156
60 96 148
61 97 152
62 98 158
62 98 159
63 99 166
62 98 161
61 97 152
62 98 159
62 97 153
62 97 155
61 97 155
62 98 166
62 97 152
62 97 159
61 97 155
61 97 156
62 98 154
62 98 160
62 98 157
62 98 165
63 99 165
62 98 157
61 96 152
61 97 156
62 98 159
62 98 156
62 97 156
62 98 160
62 97 155
61 97 153
62 98 158
62 98 160
62 98 159
61 97 154
61 97 162
62 98 161
60 96 150
62 97 152
62 98 156
63 99 165
62 97 155
61 98 159
61 97 159
62 98 161
61 97 157
61 97 153
61 97 160
62 98 165
62 98 157
63 99 158
62 98 161
61 96 152
63 99 165
62 99 165
62 98 160
62 98 159
62 98 161
62 98 156
61 97 157
62 98 160
62 98 163
62 97 156
62 98 161
62 98 169
61 96 154
62 97 160
61 97 156
62 98 163
62 98 160
62 98 156
62 98 162
62 99 169
61 97 155
62 98 161
63 99 162
61 98 160
62 98 159
63 99 166
62 98 155
62 98 162
62 99 166
63 99 169
62 98 167
62 98 161
62 97 156
61 97 163
63 98 159
61 97 158
62 98 156
62 98 159
62 98 167
62 98 161
62 98 166
62 98 170
62 98 166
61 97 155
63 99 168
62 98 163
61 97 158
61 97 155
62 98 167
62 98 170
61 98 163
62 98 166
62 98 162
62 98 169
62 98 165
61 97 166
61 97 167
61 98 165
63 99 170
62 98 167
61 97 162
61 97 167
61 97 162
62 98 167
63 99 165
62 98 167
63 99 168
62 98 167
61 97 169
61 97 171
62 98 169
62 98 173
63 99 176
61 97 168
63 99 172
61 97 169
144 166 211
206 226 254
207 228 255
207 228 255
207 228 255
207 228 255
207 228 255
207 228 255
207 228 255
207 228 255
207 228 255
207 228 255
207 228 255
207 228 255
207 228 255
207 228 255
207 228 255
207 228 255
207 227 255
207 227 255
207 227 255
207 227 255
207 227 255
207 227 255
206 227 255
206 227 255
206 227 255
206 227 255
206 227 255
206 227 255
206 227 255
206 227 255
206 227 255
206 227 255
206 227 255
206 227 255
206 227 255
206 227 255
206 227 255
206 227 255
206 227 255
206 227 255
206 227 255
206 227 255
206 227 255
206 227 255
206 227 255
206 227 255
206 227 255
206 227 255
206 227 255
206 227 255
206 227 255
206 227 255
206 227 255
206 227 255
206 227 255
206 227 255
205 227 255
205 227 255
205 227 255
205 227 255
205 227 255
205 227 255
205 227 255
205 227 255
205 227 255
205 227 255
205 227 255
205 227 255
205 227 255
205 227 255
205 227 255
205 227 255
205 227 255
205 227 255
205 227 255
205 227 255
205 227 255
205 227 255
205 227 255
205 227 255
205 227 255
205 227 255
205 227 255
205 227 255
205 227 255
205 227 255
205 227 255
206 227 255
206 227 255
206 227 255
206 227 255
206 227 255
206 227 255
206 227 255
206 227 255
206 227 255
206 227 255
206 227 255
206 227 255
206 227 255
206 227 255
206 227 255
206 227 255
206 227 255
206 227 255
206 227 255
206 227 255
206 227 255
206 227 255
206 227 255
206 227 255
206 227 255
206 227 255
206 227 255
206 227 255
206 227 255
206 227 255
206 227 255
206 227 255
206 227 255
206 227 255
206 227 255
207 227 255
207 227 255
207 227 255
207 227 255
207 227 255
207 228 255
207 228 255
207 228 255
207 228 255
207 228 255
207 228 255
207 228 255
207 228 255
207 228 255
207 228 255
207 228 255
207 228 255
207 228 255
207 228 255
207 228 255
207 228 255
207 228 255
208 228 255
208 228 255
208 228 255
208 228 255
208 228 255
208 228 255
208 228 255
208 228 255
208 228 255
208 228 255
208 228 255
208 228 255
208 228 255
208 228 255
208 228 255
208 228 255
208 228 255
208 228 255
208 228 255
208 228 255
208 228 255
209 228 255
209 229 255
209 229 255
209 229 255
209 229 255
209 229 255
209 229 255
209 229 255
209 229 255
209 229 255
209 229 255
209 229 255
209 229 255
209 229 255
209 229 255
209 229 255
209 229 255
209 229 255
209 229 255
209 229 255
209 229 255
210 229 255
210 229 255
210 229 255
210 229 255
210 229 255
210 229 255
61 97 155
60 96 151
61 97 159
61 97 158
60 96 151
63 99 164
62 98 160
62 98 158
60 96 153
61 97 156
62 98 162
61 96 150
61 96 154
61 97 151
62 98 159
61 97 149
61 97 156
61 97 153
62 98 155
61 97 158
62 97 154
62 97 158
62 97 151
61 97 159
61 96 144
61 96 153
60 96 149
61 97 152
60 96 152
62 98 157
62 97 157
62 98 160
61 97 149
60 95 141
62 98 157
61 97 155
61 97 158
61 97 148
61 97 157
60 96 150
62 98 157
62 97 159
63 98 158
62 98 161
61 97 150
62 98 160
61 97 157
61 96 150
62 98 167
60 96 155
61 96 149
62 97 156
61 97 155
62 98 155
61 97 154
62 99 166
62 98 157
62 98 156
62 98 152
61 97 149
60 96 149
62 98 157
61 96 150
61 96 156
61 97 151
61 97 156
62 98 164
63 99 161
62 98 157
62 97 155
62 98 153
62 99 163
63 99 162
62 98 157
61 97 154
62 98 157
61 97 156
61 97 152
62 98 157
62 98 160
62 98 149
61 97 153
61 97 145
62 98 158
62 98 158
61 97 158
62 98 161
62 97 156
62 97 159
61 97 154
62 98 164
62 98 163
62 98 163
61 97 148
61 97 153
61 97 160
62 97 157
62 97 153
61 97 151
61 97 158
62 98 159
63 99 163
62 97 155
61 97 156
62 97 157
61 97 153
62 97 157
61 96 156
62 98 158
62 98 164
62 98 163
62 98 159
62 98 157
63 99 165
62 98 159
62 98 157
61 97 156
61 97 153
61 97 159
62 98 161
62 97 155
62 98 159
62 98 158
62 98 157
62 98 160
61 97 155
63 99 160
62 98 164
62 98 155
62 98 159
61 97 162
61 97 159
62 97 160
61 97 156
62 98 153
62 98 162
62 98 157
62 98 159
62 98 158
63 99 165
61 97 157
61 97 154
62 98 160
61 97 156
62 98 158
62 97 150
62 98 163
62 98 161
61 97 153
62 98 158
61 97 158
61 97 155
63 99 166
62 99 165
62 98 162
62 98 160
63 99 162
62 98 162
62 98 164
62 98 160
61 98 169
62 98 166
61 98 163
61 97 158
62 98 161
62 98 162
61 97 164
62 98 161
61 97 159
62 98 160
63 99 167
61 97 160
62 98 163
61 97 163
61 97 159
61 98 161
62 97 161
62 97 159
62 98 161
62 98 166
62 98 163
62 98 167
63 99 169
62 99 169
62 98 163
62 98 167
63 99 166
62 98 166
62 98 168
60 96 166
61 97 162
61 98 164
62 99 172
62 98 166
61 97 166
61 97 162
62 98 164
62 98 170
62 98 165
61 97 167
62 97 166
61 97 167
61 98 166
63 99 174
62 99 174
61 96 165
61 97 170
137 160 204
206 226 254
208 228 255
207 228 255
207 228 255
207 228 255
207 228 255
207 228 255
207 228 255
207 228 255
207 228 255
207 228 255
207 228 255
207 228 255
207 228 255
207 228 255
207 228 255
207 228 255
207 228 255
207 228 255
207 227 255
207 227 255
207 227 255
207 227 255
207 227 255
207 227 255
206 227 255
206 227 255
206 227 255
206 227 255
206 227 255
206 227 255
206 227 255
206 227 255
206 227 255
206 227 255
206 227 255
206 227 255
206 227 255
206 227 255
206 227 255
206 227 255
206 227 255
206 227 255
206 227 255
206 227 255
206 227 255
206 227 255
206 227 255
206 227 255
206 227 255
206 227 255
206 227 255
206 227 255
206 227 255
206 227 255
206 227 255
206 227 255
206 227 255
206 227 255
206 227 255
206 227 255
206 227 255
206 227 255
206 227 255
206 227 255
206 227 255
206 227 255
206 227 255
206 227 255
206 227 255
206 227 255
206 227 255
206 227 255
206 227 255
206 227 255
206 227 255
206 227 255
206 227 255
206 227 255
206 227 255
206 227 255
206 227 255
206 227 255
206 227 255
206 227 255
206 227 255
206 227 255
206 227 255
206 227 255
206 227 255
206 227 255
206 227 255
206 227 255
206 227 255
206 227 255
206 227 255
206 227 255
206 227 255
206 227 255
206 227 255
206 227 255
206 227 255
206 227 255
206 227 255
206 227 255
206 227 255
206 227 255
206 227 255
206 227 255
206 227 255
206 227 255
206 227 255
206 227 255
206 227 255
206 227 255
206 227 255
206 227 255
206 227 255
207 227 255
207 227 255
207 227 255
207 227 255
207 227 255
207 227 255
207 228 255
207 228 255
207 228 255
207 228 255
207 228 255
207 228 255
207 228 255
207 228 255
207 228 255
207 228 255
207 228 255
207 228 255
207 228 255
207 228 255
207 228 255
207 228 255
207 228 255
208 228 255
208 228 255
208 228 255
208 228 255
208 228 255
208 228 255
208 228 255
208 228 255
208 228 255
208 228 255
208 228 255
208 228 255
208 228 255
208 228 255
208 228 255
208 228 255
208 228 255
208 228 255
208 228 255
208 228 255
208 228 255
209 228 255
209 228 255
209 229 255
209 229 255
209 229 255
209 229 255
209 229 255
209 229 255
209 229 255
209 229 255
209 229 255
209 229 255
209 229 255
209 229 255
209 229 255
209 229 255
209 229 255
209 229 255
209 229 255
209 229 255
209 229 255
210 229 255
210 229 255
210 229 255
210 229 255
210 229 255
210 229 255
210 229 255
210 229 255
210 229 255
61 96 151
60 96 158
60 96 145
62 98 156
63 99 162
61 97 154
61 97 156
61 97 160
62 98 162
61 96 153
60 96 147
62 97 158
61 97 152
61 98 164
62 98 156
62 98 154
61 97 155
63 98 159
61 97 159
61 97 151
62 98 160
62 97 153
61 97 151
61 96 151
60 96 154
61 97 158
62 97 156
61 97 159
61 96 148
61 97 150
61 97 155
62 98 158
61 97 149
62 98 157
61 97 158
61 97 156
62 98 158
62 98 163
60 96 149
62 98 160
61 97 158
62 97 154
61 97 148
62 97 158
61 97 158
61 96 150
61 98 161
61 96 154
61 97 155
62 97 158
61 97 151
62 98 159
62 97 158
61 97 153
62 98 156
62 98 159
61 97 152
61 97 154
61 97 157
62 98 153
62 98 157
61 97 156
61 97 148
62 98 159
60 96 148
61 97 155
62 98 157
61 97 149
60 96 152
63 98 165
61 97 156
62 97 151
61 97 152
62 98 158
62 98 155
62 98 159
63 99 167
61 96 150
61 96 150
62 98 162
61 97 152
62 98 156
62 98 159
61 97 156
61 96 148
62 97 156
62 98 159
61 97 157
61 96 147
61 97 150
62 98 159
62 99 166
62 97 153
61 96 154
61 96 153
62 98 160
62 98 162
63 99 164
61 97 152
62 98 161
62 98 159
63 98 161
63 99 162
61 97 149
61 97 154
62 97 157
63 98 163
61 96 153
62 98 158
61 97 153
61 97 153
62 98 162
61 97 155
61 97 162
62 97 161
61 97 156
60 96 153
62 97 157
62 98 156
62 98 159
61 96 154
61 97 152
61 97 153
62 98 162
62 98 161
61 96 157
62 98 158
61 97 161
62 98 163
61 97 156
62 98 162
61 97 152
62 98 160
61 97 157
62 98 160
61 97 155
62 98 163
61 97 157
63 99 166
63 99 166
62 97 151
63 99 167
62 98 161
62 98 156
63 99 163
62 99 168
61 97 160
62 98 156
62 97 156
61 97 157
61 97 158
62 98 162
63 98 160
61 97 157
61 97 154
62 98 157
61 96 158
62 98 162
62 98 159
62 98 165
62 98 167
62 98 163
62 98 161
63 99 162
62 98 162
62 98 162
62 98 161
62 98 161
61 96 152
61 97 155
61 97 160
61 97 158
62 98 157
61 97 163
62 98 164
63 99 167
62 98 169
61 97 157
62 98 163
63 99 168
62 98 159
61 97 158
63 98 165
62 99 170
61 97 163
62 98 163
62 99 169
62 98 168
61 98 163
61 97 165
62 98 163
61 97 160
62 98 166
61 97 162
62 98 164
62 98 165
62 98 171
61 98 170
61 96 170
61 97 162
61 97 167
60 95 158
60 96 156
61 98 168
61 97 171
61 96 164
62 98 175
61 97 168
115 140 194
206 226 253
208 228 255
208 228 255
208 228 255
207 228 255
207 228 255
207 228 255
207 228 255
207 228 255
207 228 255
207 228 255
207 228 255
207 228 255
207 228 255
207 228 255
207 228 255
207 228 255
207 228 255
207 228 255
207 228 255
207 228 255
207 228 255
207 227 255
207 227 255
207 227 255
207 227 255
207 227 255
207 227 255
206 227 255
206 227 255
206 227 255
206 227 255
206 227 255
206 227 255
206 227 255
206 227 255
206 227 255
206 227 255
206 227 255
206 227 255
206 227 255
206 227 255
206 227 255
206 227 255
206 227 255
206 227 255
206 227 255
206 227 255
206 227 255
206 227 255
206 227 255
206 227 255
206 227 255
206 227 255
206 227 255
206 227 255
206 227 255
206 227 255
206 227 255
206 227 255
206 227 255
206 227 255
206 227 255
206 227 255
206 227 255
206 227 255
206 227 255
206 227 255
206 227 255
206 227 255
206 227 255
206 227 255
206 227 255
206 227 255
206 227 255
206 227 255
206 227 255
206 227 255
206 227 255
206 227 255
206 227 255
206 227 255
206 227 255
206 227 255
206 227 255
206 227 255
206 227 255
206 227 255
206 227 255
206 227 255
206 227 255
206 227 255
206 227 255
206 227 255
206 227 255
206 227 255
206 227 255
206 227 255
206 227 255
206 227 255
206 227 255
206 227 255
206 227 255
206 227 255
206 227 255
206 227 255
206 227 255
206 227 255
206 227 255
206 227 255
206 227 255
206 227 255
206 227 255
207 227 255
207 227 255
207 227 255
207 227 255
207 227 255
207 227 255
207 228 255
207 228 255
207 228 255
207 228 255
207 228 255
207 228 255
207 228 255
207 228 255
207 228 255
207 228 255
207 228 255
207 228 255
207 228 255
207 228 255
207 228 255
207 228 255
207 228 255
207 228 255
208 228 255
208 228 255
208 228 255
208 228 255
208 228 255
208 228 255
208 228 255
208 228 255
208 228 255
208 228 255
208 228 255
208 228 255
208 228 255
208 228 255
208 228 255
208 228 255
208 228 255
208 228 255
208 228 255
208 228 255
208 228 255
209 228 255
209 229 255
209 229 255
209 229 255
209 229 255
209 229 255
209 229 255
209 229 255
209 229 255
209 229 255
209 229 255
209 229 255
209 229 255
209 229 255
209 229 255
209 229 255
209 229 255
209 229 255
209 229 255
209 229 255
209 229 255
210 229 255
210 229 255
210 229 255
210 229 255
210 229 255
210 229 255
210 229 255
210 229 255
210 229 255
210 229 255
210 229 255
210 229 255
62 98 159
61 97 155
62 97 158
61 97 152
61 97 157
61 97 159
61 96 157
62 98 156
61 97 161
62 97 154
61 96 151
61 97 151
61 97 151
61 96 148
62 98 162
61 97 155
62 97 155
61 97 152
61 96 150
61 97 153
62 98 159
62 98 158
63 99 164
62 99 163
62 97 155
62 98 154
61 96 147
62 98 156
61 97 159
62 98 159
62 98 165
61 96 154
62 98 155
61 97 152
61 97 152
62 98 155
62 97 152
61 97 158
61 97 158
62 98 160
62 98 161
61 97 154
62 97 154
62 98 156
61 97 153
62 98 160
61 97 150
61 97 155
62 97 155
63 98 160
61 97 158
60 95 152
61 97 156
63 99 161
60 96 149
61 97 156
62 97 159
62 97 152
62 97 155
61 96 148
62 97 153
61 97 157
62 98 157
62 98 154
61 97 150
62 98 156
61 97 158
62 98 159
61 96 151
61 97 157
62 97 151
62 97 154
61 97 150
61 97 155
61 97 153
61 97 158
61 97 156
62 98 162
63 99 160
62 98 163
61 97 158
62 98 159
62 98 159
61 97 156
61 98 161
62 98 155
63 98 159
60 94 143
61 97 153
60 96 147
62 98 155
62 98 158
60 96 145
62 98 161
61 97 156
61 97 159
62 97 150
62 97 151
61 97 154
61 97 161
62 97 157
61 97 156
62 98 156
61 97 159
61 97 155
62 98 159
62 97 153
62 98 157
62 98 158
61 97 155
63 98 157
61 97 151
62 97 154
61 97 156
62 97 156
63 99 159
61 97 154
61 97 152
61 97 152
62 97 156
61 96 152
60 96 153
62 98 159
62 98 160
61 97 156
62 98 167
62 98 166
61 96 155
62 98 158
62 97 156
61 96 151
62 98 155
62 98 163
61 96 155
61 97 158
62 98 163
61 97 158
62 98 159
62 97 160
62 98 157
62 98 165
62 98 158
62 98 160
62 98 162
62 98 159
61 97 154
62 97 157
62 98 165
61 98 163
61 97 158
61 97 154
63 99 163
62 98 163
61 96 154
62 98 159
62 97 158
64 100 169
63 99 167
62 98 160
61 97 155
61 98 161
62 98 157
61 97 159
63 99 162
62 97 158
62 98 165
61 97 159
62 98 159
61 97 158
62 98 163
61 97 155
62 98 165
63 99 163
61 97 155
63 99 162
61 97 152
63 98 164
62 99 165
61 97 162
62 97 159
62 97 162
61 97 166
62 98 164
61 96 155
61 97 165
61 97 158
62 98 167
61 97 163
63 99 169
63 100 172
62 97 160
62 98 165
60 95 158
63 99 170
62 98 164
61 97 164
61 96 163
62 97 164
62 98 171
62 98 163
61 97 168
63 99 170
62 98 169
62 99 169
61 97 170
60 96 166
61 97 168
63 99 172
61 97 168
113 138 193
204 224 253
208 228 255
208 228 255
208 228 255
208 228 255
208 228 255
208 228 255
207 228 255
207 228 255
207 228 255
207 228 255
207 228 255
207 228 255
207 228 255
207 228 255
207 228 255
207 228 255
207 228 255
207 228 255
207 228 255
207 228 255
207 228 255
207 228 255
207 228 255
207 228 255
207 227 255
207 227 255
207 227 255
207 227 255
207 227 255
207 227 255
207 227 255
206 227 255
206 227 255
206 227 255
206 227 255
206 227 255
206 227 255
206 227 255
206 227 255
206 227 255
206 227 255
206 227 255
206 227 255
206 227 255
206 227 255
206 227 255
206 227 255
206 227 255
206 227 255
206 227 255
206 227 255
206 227 255
206 227 255
206 227 255
206 227 255
206 227 255
206 227 255
206 227 255
206 227 255
206 227 255
206 227 255
206 227 255
206 227 255
206 227 255
206 227 255
206 227 255
206 227 255
206 227 255
206 227 255
206 227 255
206 227 255
206 227 255
206 227 255
206 227 255
206 227 255
206 227 255
206 227 255
206 227 255
206 227 255
206 227 255
206 227 255
206 227 255
206 227 255
206 227 255
206 227 255
206 227 255
206 227 255
206 227 255
206 227 255
206 227 255
206 227 255
206 227 255
206 227 255
206 227 255
206 227 255
206 227 255
206 227 255
206 227 255
206 227 255
206 227 255
206 227 255
206 227 255
206 227 255
206 227 255
206 227 255
206 227 255
206 227 255
207 227 255
207 227 255
207 227 255
207 227 255
207 227 255
207 227 255
207 228 255
207 228 255
207 228 255
207 228 255
207 228 255
207 228 255
207 228 255
207 228 255
207 228 255
207 228 255
207 228 255
207 228 255
207 228 255
207 228 255
207 228 255
207 228 255
207 228 255
207 228 255
207 228 255
208 228 255
208 228 255
208 228 255
208 228 255
208 228 255
208 228 255
208 228 255
208 228 255
208 228 255
208 228 255
208 228 255
208 228 255
208 228 255
208 228 255
208 228 255
208 228 255
208 228 255
208 228 255
208 228 255
208 228 255
208 228 255
209 228 255
209 229 255
209 229 255
209 229 255
209 229 255
209 229 255
209 229 255
209 229 255
209 229 255
209 229 255
209 229 255
209 229 255
209 229 255
209 229 255
209 229 255
209 229 255
209 229 255
209 229 255
209 229 255
209 229 255
209 229 255
210 229 255
210 229 255
210 229 255
210 229 255
210 229 255
210 229 255
210 229 255
210 229 255
210 229 255
210 229 255
210 229 255
210 229 255
210 229 255
210 229 255
210 229 255
61 97 157
62 98 162
63 99 168
61 97 155
62 98 162
61 97 160
62 98 165
62 98 161
62 98 160
63 99 160
61 97 155
60 96 155
62 97 155
62 98 155
62 98 159
61 97 161
62 98 159
62 97 158
60 95 153
61 97 150
62 97 158
62 97 154
62 97 155
61 97 149
62 98 163
61 96 151
61 97 149
61 97 157
62 98 156
61 97 155
61 97 154
61 96 155
61 96 150
61 97 152
63 98 160
61 97 153
62 97 154
61 97 156
61 97 152
61 97 156
62 98 162
62 98 151
61 97 154
60 96 151
61 97 157
60 96 151
61 97 150
61 97 152
62 98 157
62 97 150
61 97 155
63 98 161
61 97 154
61 97 155
60 96 150
62 98 160
61 97 162
61 97 158
61 97 151
61 97 157
62 98 158
60 96 148
62 98 155
61 96 150
61 97 154
62 98 157
62 98 160
61 97 152
62 97 150
61 97 154
61 97 155
62 98 158
61 97 159
61 97 150
61 97 151
62 97 150
61 97 157
61 97 154
62 97 156
61 97 155
62 97 153
62 98 156
61 97 153
62 99 164
61 97 156
62 97 152
61 96 151
62 97 153
61 97 160
62 98 155
62 98 155
62 97 153
61 97 157
62 97 155
62 98 159
61 97 159
60 95 149
61 97 160
61 97 157
61 97 155
61 97 153
62 98 158
61 97 151
61 97 151
62 97 154
63 98 162
63 99 163
62 98 155
62 98 159
60 96 151
61 97 160
61 97 155
62 98 159
62 97 155
62 98 163
62 98 159
61 97 152
62 98 165
61 97 160
62 98 162
62 98 160
61 96 149
62 97 154
62 98 160
62 98 155
62 98 162
61 96 150
62 97 150
61 97 160
61 97 155
61 97 157
60 96 153
62 98 162
61 97 156
62 98 158
63 99 165
62 98 163
62 98 159
61 97 155
62 97 155
62 98 165
62 98 154
62 98 158
61 97 156
61 97 153
62 98 163
61 97 156
61 97 155
62 98 160
61 97 164
60 96 154
61 97 153
62 98 157
61 97 155
62 98 159
61 97 157
62 98 163
62 99 164
62 98 163
62 98 159
63 99 165
62 97 154
62 99 166
62 98 161
62 97 162
62 98 162
62 98 158
62 98 162
62 99 165
62 98 165
61 97 157
62 97 158
62 98 164
63 99 165
62 98 160
62 97 163
62 98 165
62 98 166
62 98 163
61 97 163
61 97 159
62 97 158
62 98 166
61 97 160
62 98 164
62 98 164
62 98 165
61 97 164
62 99 168
62 98 163
62 98 172
62 98 168
62 98 169
62 97 163
61 97 161
62 98 167
62 97 163
62 98 167
62 98 165
62 98 170
61 96 160
61 96 165
61 97 169
62 98 166
61 96 167
61 97 166
62 97 169
61 97 168
61 97 166
61 97 171
113 139 196
205 225 254
208 228 255
208 228 255
208 228 255
208 228 255
208 228 255
208 228 255
208 228 255
208 228 255
207 228 255
207 228 255
207 228 255
207 228 255
207 228 255
207 228 255
207 228 255
207 228 255
207 228 255
207 228 255
207 228 255
207 228 255
207 228 255
207 228 255
207 228 255
207 228 255
207 228 255
207 228 255
207 228 255
207 227 255
207 227 255
207 227 255
207 227 255
207 227 255
207 227 255
207 227 255
206 227 255
206 227 255
206 227 255
206 227 255
206 227 255
206 227 255
206 227 255
206 227 255
206 227 255
206 227 255
206 227 255
206 227 255
206 227 255
206 227 255
206 227 255
206 227 255
206 227 255
206 227 255
206 227 255
206 227 255
206 227 255
206 227 255
206 227 255
206 227 255
206 227 255
206 227 255
206 227 255
206 227 255
206 227 255
206 227 255
206 227 255
206 227 255
206 227 255
206 227 255
206 227 255
206 227 255
206 227 255
206 227 255
206 227 255
206 227 255
206 227 255
206 227 255
206 227 255
206 227 255
206 227 255
206 227 255
206 227 255
206 227 255
206 227 255
206 227 255
206 227 255
206 227 255
206 227 255
206 227 255
206 227 255
206 227 255
206 227 255
206 227 255
206 227 255
206 227 255
206 227 255
206 227 255
206 227 255
206 227 255
206 227 255
206 227 255
206 227 255
207 227 255
207 227 255
207 227 255
207 227 255
207 227 255
207 227 255
207 227 255
207 228 255
207 228 255
207 228 255
207 228 255
207 228 255
207 228 255
207 228 255
207 228 255
207 228 255
207 228 255
207 228 255
207 228 255
207 228 255
207 228 255
207 228 255
207 228 255
207 228 255
207 228 255
207 228 255
208 228 255
208 228 255
208 228 255
208 228 255
208 228 255
208 228 255
208 228 255
208 228 255
208 228 255
208 228 255
208 228 255
208 228 255
208 228 255
208 228 255
208 228 255
208 228 255
208 228 255
208 228 255
208 228 255
208 228 255
208 228 255
208 228 255
209 228 255
209 229 255
209 229 255
209 229 255
209 229 255
209 229 255
209 229 255
209 229 255
209 229 255
209 229 255
209 229 255
209 229 255
209 229 255
209 229 255
209 229 255
209 229 255
209 229 255
209 229 255
209 229 255
209 229 255
209 229 255
210 229 255
210 229 255
210 229 255
210 229 255
210 229 255
210 229 255
210 229 255
210 229 255
210 229 255
210 229 255
210 229 255
210 229 255
210 229 255
210 229 255
210 229 255
210 229 255
210 229 255
210 229 255
61 97 154
61 98 159
61 97 159
60 96 157
62 98 156
62 98 159
61 97 157
62 98 159
62 97 156
60 96 161
62 98 159
61 96 150
62 97 157
62 97 162
62 97 155
62 97 155
62 98 162
62 98 156
62 98 157
62 98 157
62 97 153
62 98 158
62 98 159
61 97 156
62 98 158
61 96 149
61 97 153
62 98 162
61 97 158
61 97 157
61 97 155
60 96 152
61 96 153
62 98 153
62 97 150
60 96 150
62 97 154
62 98 152
62 98 156
60 96 150
62 97 152
62 98 160
62 98 160
61 97 153
61 97 159
62 98 163
61 96 151
63 98 157
61 96 157
61 97 153
61 97 153
61 97 158
61 96 153
61 97 154
62 97 153
63 98 156
62 97 153
62 98 159
62 97 158
62 98 158
61 96 152
63 98 157
62 98 159
62 98 159
62 98 160
61 97 152
62 98 154
62 98 161
61 97 154
61 97 149
61 97 151
62 99 167
62 98 159
62 97 156
61 96 144
60 95 145
62 98 161
61 97 158
61 97 157
61 97 155
61 97 158
61 96 145
62 97 157
61 97 152
61 97 152
61 98 159
62 97 154
61 97 151
60 96 147
61 97 155
61 97 151
61 97 157
61 97 154
62 97 157
62 97 157
61 97 159
61 97 159
62 99 164
62 98 159
62 98 153
62 98 167
62 98 159
62 97 155
61 97 151
62 98 158
62 98 156
62 98 159
62 98 161
61 97 155
62 97 156
61 97 152
63 99 167
62 98 162
63 99 163
61 96 153
61 97 151
61 97 152
61 97 151
61 97 155
62 97 155
62 98 162
62 98 157
62 98 158
62 98 161
62 98 159
61 96 153
62 98 156
62 97 158
61 97 152
61 97 153
61 97 152
62 97 157
62 97 154
62 99 165
62 98 156
62 98 157
62 97 157
62 98 159
62 97 152
61 98 158
62 98 162
61 97 152
63 98 159
62 98 158
61 97 162
61 97 150
62 98 156
63 99 166
63 99 163
62 98 159
63 99 166
63 99 161
62 98 158
62 98 159
62 98 162
62 98 160
62 98 161
61 97 152
62 98 159
61 97 155
62 97 160
62 97 157
63 98 162
62 98 159
61 97 158
62 98 166
61 97 151
61 97 160
61 97 160
61 97 157
62 98 161
62 98 161
62 97 158
63 99 167
62 99 167
62 98 161
62 98 166
62 98 166
61 96 153
62 98 164
62 98 164
62 98 167
62 98 162
63 99 169
62 98 160
61 97 157
63 98 166
62 99 168
61 97 163
62 98 164
61 97 163
62 98 163
62 98 163
62 98 161
62 98 168
62 98 171
62 98 166
62 98 171
63 99 172
61 97 164
62 97 163
61 97 160
62 98 164
61 97 163
62 98 166
60 96 163
61 96 167
61 96 164
62 98 169
61 97 172
62 98 170
128 152 202
205 225 254
208 228 255
208 228 255
208 228 255
208 228 255
208 228 255
208 228 255
208 228 255
208 228 255
208 228 255
208 228 255
208 228 255
207 228 255
207 228 255
207 228 255
207 228 255
207 228 255
207 228 255
207 228 255
207 228 255
207 228 255
207 228 255
207 228 255
207 228 255
207 228 255
207 228 255
207 228 255
207 228 255
207 228 255
207 228 255
207 228 255
207 228 255
207 227 255
207 227 255
207 227 255
207 227 255
207 227 255
207 227 255
207 227 255
207 227 255
206 227 255
206 227 255
206 227 255
206 227 255
206 227 255
206 227 255
206 227 255
206 227 255
206 227 255
206 227 255
206 227 255
206 227 255
206 227 255
206 227 255
206 227 255
206 227 255
206 227 255
206 227 255
206 227 255
206 227 255
206 227 255
206 227 255
206 227 255
206 227 255
206 227 255
206 227 255
206 227 255
206 227 255
206 227 255
206 227 255
206 227 255
206 227 255
206 227 255
206 227 255
206 227 255
206 227 255
206 227 255
206 227 255
206 227 255
206 227 255
206 227 255
206 227 255
206 227 255
206 227 255
206 227 255
206 227 255
206 227 255
206 227 255
206 227 255
206 227 255
206 227 255
206 227 255
206 227 255
206 227 255
206 227 255
207 227 255
207 227 255
207 227 255
207 227 255
207 227 255
207 227 255
207 227 255
207 227 255
207 227 255
207 228 255
207 228 255
207 228 255
207 228 255
207 228 255
207 228 255
207 228 255
207 228 255
207 228 255
207 228 255
207 228 255
207 228 255
207 228 255
207 228 255
207 228 255
207 228 255
207 228 255
207 228 255
207 228 255
208 228 255
208 228 255
208 228 255
208 228 255
208 228 255
208 228 255
208 228 255
208 228 255
208 228 255
208 228 255
208 228 255
208 228 255
208 228 255
208 228 255
208 228 255
208 228 255
208 228 255
208 228 255
208 228 255
208 228 255
208 228 255
208 228 255
208 228 255
209 228 255
209 229 255
209 229 255
209 229 255
209 229 255
209 229 255
209 229 255
209 229 255
209 229 255
209 229 255
209 229 255
209 229 255
209 229 255
209 229 255
209 229 255
209 229 255
209 229 255
209 229 255
209 229 255
209 229 255
209 229 255
210 229 255
210 229 255
210 229 255
210 229 255
210 229 255
210 229 255
210 229 255
210 229 255
210 229 255
210 229 255
210 229 255
210 229 255
210 229 255
210 229 255
210 229 255
210 229 255
210 229 255
210 229 255
210 229 255
210 230 255
210 230 255
61 96 154
61 97 159
62 98 162
61 97 159
61 97 149
61 97 154
61 97 159
61 97 155
61 97 152
60 95 144
62 97 154
61 97 155
61 97 151
61 97 149
61 97 152
62 97 155
62 98 159
63 99 162
62 97 156
61 97 153
62 98 161
60 96 145
61 97 153
62 97 153
62 98 154
61 97 156
62 97 155
61 96 144
60 95 144
62 98 157
62 98 158
60 96 144
62 97 151
62 97 153
62 98 157
61 97 158
61 97 151
62 98 157
61 97 154
61 97 154
61 96 154
61 97 153
60 95 141
61 97 159
62 98 156
61 97 152
61 97 154
61 97 153
61 97 156
61 97 156
61 97 156
61 97 157
62 97 157
62 98 158
60 96 152
61 97 152
61 97 153
61 96 151
61 97 151
62 98 161
62 98 162
61 97 153
61 96 145
60 96 150
61 97 149
62 98 162
60 95 145
62 97 156
62 98 161
62 98 156
61 97 161
61 97 157
62 97 156
62 98 161
63 98 162
62 98 161
62 98 160
62 97 155
61 97 156
62 98 152
62 98 160
61 97 155
62 98 159
61 97 151
61 97 160
60 96 151
62 97 156
61 97 145
61 97 151
61 97 148
61 97 156
61 96 155
62 98 163
62 98 155
62 98 158
62 98 160
62 98 156
61 97 155
62 97 156
62 98 159
63 99 161
61 97 151
61 97 152
62 97 157
62 98 157
60 95 143
61 97 155
62 98 159
62 98 159
62 98 160
61 97 153
62 98 160
62 98 165
62 98 159
63 99 163
62 98 157
62 98 156
63 98 157
62 98 161
61 97 152
61 97 153
61 97 159
62 97 157
62 98 163
62 98 155
62 97 151
62 98 158
61 97 156
62 98 163
62 97 155
62 98 155
61 97 152
61 97 158
61 98 159
61 97 156
62 98 158
61 97 156
61 97 151
62 98 159
62 98 156
62 97 155
61 97 156
62 98 164
62 98 168
62 98 158
62 98 157
61 97 155
61 97 154
62 98 159
62 98 161
63 99 164
62 98 164
61 97 157
62 97 159
62 98 164
62 97 157
62 98 164
62 98 164
62 97 158
61 97 160
62 98 159
63 99 165
61 97 159
62 98 157
62 98 159
62 98 156
61 97 152
61 97 156
62 98 162
62 98 163
62 98 160
62 98 159
62 97 158
62 98 164
61 97 159
61 97 157
62 97 162
62 98 161
61 97 163
62 98 166
62 98 162
61 97 156
62 97 154
61 97 163
63 99 168
61 98 159
62 98 163
61 97 165
63 99 167
61 97 158
62 98 167
62 98 164
62 98 167
63 98 170
62 97 158
62 98 162
62 98 168
62 98 165
61 96 155
62 97 166
62 98 168
62 99 169
62 97 167
62 98 168
61 97 167
60 96 166
62 97 163
60 96 165
62 98 171
62 97 166
62 98 170
61 98 173
120 145 200
205 225 254
208 228 255
208 228 255
208 228 255
208 228 255
208 228 255
208 228 255
208 228 255
208 228 255
208 228 255
208 228 255
208 228 255
208 228 255
208 228 255
207 228 255
207 228 255
207 228 255
207 228 255
207 228 255
207 228 255
207 228 255
207 228 255
207 228 255
207 228 255
207 228 255
207 228 255
207 228 255
207 228 255
207 228 255
207 228 255
207 228 255
207 228 255
207 228 255
207 228 255
207 228 255
207 228 255
207 227 255
207 227 255
207 227 255
207 227 255
207 227 255
207 227 255
207 227 255
207 227 255
207 227 255
206 227 255
206 227 255
206 227 255
206 227 255
206 227 255
206 227 255
206 227 255
206 227 255
206 227 255
206 227 255
206 227 255
206 227 255
206 227 255
206 227 255
206 227 255
206 227 255
206 227 255
206 227 255
206 227 255
206 227 255
206 227 255
206 227 255
206 227 255
206 227 255
206 227 255
206 227 255
206 227 255
206 227 255
206 227 255
206 227 255
206 227 255
206 227 255
206 227 255
206 227 255
206 227 255
206 227 255
206 227 255
206 227 255
206 227 255
206 227 255
206 227 255
206 227 255
206 227 255
207 227 255
207 227 255
207 227 255
207 227 255
207 227 255
207 227 255
207 227 255
207 227 255
207 227 255
207 228 255
207 228 255
207 228 255
207 228 255
207 228 255
207 228 255
207 228 255
207 228 255
207 228 255
207 228 255
207 228 255
207 228 255
207 228 255
207 228 255
207 228 255
207 228 255
207 228 255
207 228 255
207 228 255
207 228 255
207 228 255
207 228 255
208 228 255
208 228 255
208 228 255
208 228 255
208 228 255
208 228 255
208 228 255
208 228 255
208 228 255
208 228 255
208 228 255
208 228 255
208 228 255
208 228 255
208 228 255
208 228 255
208 228 255
208 228 255
208 228 255
208 228 255
208 228 255
208 228 255
209 228 255
209 228 255
209 229 255
209 229 255
209 229 255
209 229 255
209 229 255
209 229 255
209 229 255
209 229 255
209 229 255
209 229 255
209 229 255
209 229 255
209 229 255
209 229 255
209 229 255
209 229 255
209 229 255
209 229 255
209 229 255
210 229 255
210 229 255
210 229 255
210 229 255
210 229 255
210 229 255
210 229 255
210 229 255
210 229 255
210 229 255
210 229 255
210 229 255
210 229 255
210 229 255
210 229 255
210 229 255
210 229 255
210 229 255
210 229 255
210 230 255
210 230 255
210 230 255
211 230 255
211 230 255
211 230 255
61 97 159
61 97 155
61 96 154
61 97 154
62 99 167
61 96 149
62 98 161
61 97 154
61 97 154
62 97 154
62 98 157
60 96 145
62 98 154
61 97 152
62 98 158
60 96 151
61 96 150
61 97 151
61 97 159
61 97 158
62 98 155
62 97 153
60 96 143
61 97 155
61 97 151
61 97 160
62 98 158
61 97 149
62 97 156
62 98 156
61 97 157
62 98 158
62 98 159
60 96 141
61 96 152
61 97 156
62 98 159
62 97 157
61 97 150
61 97 152
61 97 150
61 97 150
62 97 154
61 96 147
60 96 140
61 97 148
61 97 150
61 97 154
62 98 163
62 98 160
63 98 158
61 97 154
62 98 157
62 98 155
61 96 150
60 95 137
60 95 144
62 97 159
63 98 165
61 96 152
61 97 152
61 97 150
62 97 150
61 96 153
61 97 149
62 98 159
62 98 160
61 97 156
62 97 152
62 98 159
62 98 157
62 97 154
62 97 152
61 97 154
61 97 153
62 97 153
62 98 157
62 98 166
62 97 156
61 97 153
61 96 150
61 97 152
62 98 160
62 97 152
61 97 155
62 98 158
62 98 159
62 97 154
62 97 156
62 98 158
62 97 149
61 97 156
61 97 152
62 97 148
62 98 160
61 98 158
61 97 152
62 98 162
60 96 147
60 96 148
61 97 153
61 97 153
62 98 157
62 98 159
61 97 154
60 95 147
62 98 159
62 97 154
62 98 160
61 96 155
61 97 153
61 97 155
62 98 155
62 98 157
61 97 155
61 97 155
62 98 158
61 97 153
61 96 148
63 99 164
62 98 161
60 96 149
61 97 151
61 97 150
61 97 153
63 98 157
62 98 158
61 97 157
61 97 152
62 98 160
62 98 162
62 98 157
62 98 160
62 99 163
62 98 160
61 97 157
62 98 160
61 98 162
62 97 158
62 98 163
63 100 170
62 98 161
61 97 159
61 97 150
61 97 158
62 98 162
62 98 160
62 98 160
61 96 153
61 97 157
62 97 155
61 97 155
62 98 163
62 98 161
62 98 158
62 98 160
62 98 161
61 97 152
62 98 159
61 97 155
62 98 158
62 98 159
62 98 161
61 97 157
61 97 161
62 97 158
62 98 158
62 98 160
61 97 161
62 98 158
62 98 159
62 97 162
62 98 158
62 97 160
61 97 155
62 98 164
63 99 164
62 98 165
62 98 160
63 98 162
61 97 159
61 97 156
62 98 164
63 99 167
61 97 159
62 98 163
61 97 158
63 98 164
61 97 158
62 98 162
62 97 160
62 97 164
61 97 155
60 96 158
61 97 160
62 97 161
63 98 160
62 98 163
60 95 151
61 98 169
62 98 164
62 97 162
62 99 170
62 97 165
61 97 166
62 98 163
62 98 169
61 95 161
62 98 165
62 99 172
61 96 165
62 98 172
61 97 169
111 136 188
204 224 252
208 228 255
208 228 255
208 228 255
208 228 255
208 228 255
208 228 255
208 228 255
208 228 255
208 228 255
208 228 255
208 228 255
208 228 255
208 228 255
208 228 255
208 228 255
208 228 255
207 228 255
207 228 255
207 228 255
207 228 255
207 228 255
207 228 255
207 228 255
207 228 255
207 228 255
207 228 255
207 228 255
207 228 255
207 228 255
207 228 255
207 228 255
207 228 255
207 228 255
207 228 255
207 228 255
207 228 255
207 228 255
207 228 255
207 228 255
207 228 255
207 227 255
207 227 255
207 227 255
207 227 255
207 227 255
207 227 255
207 227 255
207 227 255
207 227 255
207 227 255
207 227 255
207 227 255
207 227 255
206 227 255
206 227 255
206 227 255
206 227 255
206 227 255
206 227 255
206 227 255
206 227 255
206 227 255
206 227 255
206 227 255
206 227 255
206 227 255
206 227 255
206 227 255
206 227 255
206 227 255
206 227 255
206 227 255
206 227 255
206 227 255
206 227 255
206 227 255
207 227 255
207 227 255
207 227 255
207 227 255
207 227 255
207 227 255
207 227 255
207 227 255
207 227 255
207 227 255
207 227 255
207 227 255
207 227 255
207 227 255
207 228 255
207 228 255
207 228 255
207 228 255
207 228 255
207 228 255
207 228 255
207 228 255
207 228 255
207 228 255
207 228 255
207 228 255
207 228 255
207 228 255
207 228 255
207 228 255
207 228 255
207 228 255
207 228 255
207 228 255
207 228 255
207 228 255
207 228 255
208 228 255
208 228 255
208 228 255
208 228 255
208 228 255
208 228 255
208 228 255
208 228 255
208 228 255
208 228 255
208 228 255
208 228 255
208 228 255
208 228 255
208 228 255
208 228 255
208 228 255
208 228 255
208 228 255
208 228 255
208 228 255
208 228 255
208 228 255
209 228 255
209 229 255
209 229 255
209 229 255
209 229 255
209 229 255
209 229 255
209 229 255
209 229 255
209 229 255
209 229 255
209 229 255
209 229 255
209 229 255
209 229 255
209 229 255
209 229 255
209 229 255
209 229 255
209 229 255
209 229 255
210 229 255
210 229 255
210 229 255
210 229 255
210 229 255
210 229 255
210 229 255
210 229 255
210 229 255
210 229 255
210 229 255
210 229 255
210 229 255
210 229 255
210 229 255
210 229 255
210 229 255
210 229 255
210 229 255
210 229 255
210 230 255
210 230 255
211 230 255
211 230 255
211 230 255
211 230 255
211 230 255
211 230 255
65 100 157
62 98 161
61 97 156
61 97 154
61 97 152
61 96 154
61 97 156
62 98 159
61 97 151
62 97 152
60 96 150
61 96 151
62 98 163
61 96 150
60 96 150
62 98 157
62 98 156
61 97 155
61 97 150
62 98 162
60 95 145
61 96 152
61 97 151
60 95 154
62 99 165
62 98 157
60 95 149
62 97 154
60 96 148
61 96 148
60 96 150
62 98 150
61 96 150
61 97 157
61 97 152
60 96 155
60 96 151
62 98 159
61 97 155
61 97 151
61 97 158
61 96 153
61 97 156
62 98 159
62 97 155
62 97 154
62 97 156
62 98 159
62 97 157
62 98 156
60 96 150
62 98 158
61 97 153
62 98 160
61 97 157
61 97 156
62 98 157
60 96 143
61 96 151
63 98 160
62 98 159
63 99 163
61 97 151
62 97 152
62 97 151
62 98 162
61 96 152
62 98 158
62 98 155
62 98 160
62 98 163
62 98 155
63 98 161
61 97 153
62 97 154
62 98 154
61 97 156
60 96 155
62 98 152
61 97 153
62 98 158
61 96 149
61 96 149
62 97 153
62 98 160
61 96 149
62 97 152
62 98 156
62 98 156
63 98 158
62 98 156
62 98 154
61 97 151
61 97 145
61 97 151
61 97 156
61 97 154
60 95 134
62 98 158
62 97 153
62 97 154
61 97 155
62 97 155
61 97 154
60 95 145
62 97 151
62 98 160
61 97 152
61 97 153
62 97 150
62 98 163
61 97 157
62 98 157
61 96 153
62 97 161
62 98 159
62 97 150
61 97 154
63 99 167
62 98 163
62 98 159
62 98 156
62 98 156
62 98 159
62 97 152
63 99 161
61 97 154
61 97 153
62 97 155
61 96 150
61 97 157
62 98 157
62 98 161
62 98 164
62 98 163
62 98 159
62 97 155
63 99 162
62 98 159
62 98 156
61 97 157
61 96 154
61 97 151
62 98 162
62 98 159
61 97 155
61 97 156
62 98 156
62 98 159
61 97 155
62 98 164
60 96 144
62 98 156
61 96 145
62 98 159
62 98 158
62 98 157
62 98 157
62 98 159
61 97 159
62 98 158
62 98 160
61 97 154
63 98 158
62 98 161
61 97 159
61 97 157
62 98 161
62 98 159
61 97 157
62 98 159
62 98 161
61 97 161
63 99 165
61 97 158
62 97 156
63 99 167
62 98 163
62 98 162
61 97 158
61 97 155
62 98 160
62 98 160
62 97 158
63 99 164
61 97 160
62 98 165
62 99 168
62 98 162
62 98 158
62 97 158
62 98 165
62 98 167
60 96 159
62 98 163
61 96 157
62 98 163
62 97 161
62 98 169
61 97 162
62 98 166
61 97 167
62 98 164
61 96 160
62 97 164
62 98 165
62 98 170
61 98 166
60 95 160
62 98 169
61 96 166
62 97 171
60 96 168
60 94 161
123 147 198
205 226 253
208 228 255
208 228 255
208 228 255
208 228 255
208 228 255
208 228 255
208 228 255
208 228 255
208 228 255
208 228 255
208 228 255
208 228 255
208 228 255
208 228 255
208 228 255
208 228 255
208 228 255
208 228 255
208 228 255
207 228 255
207 228 255
207 228 255
207 228 255
207 228 255
207 228 255
207 228 255
207 228 255
207 228 255
207 228 255
207 228 255
207 228 255
207 228 255
207 228 255
207 228 255
207 228 255
207 228 255
207 228 255
207 228 255
207 228 255
207 228 255
207 228 255
207 228 255
207 228 255
207 228 255
207 228 255
207 228 255
207 227 255
207 227 255
207 227 255
207 227 255
207 227 255
207 227 255
207 227 255
207 227 255
207 227 255
207 227 255
207 227 255
207 227 255
207 227 255
207 227 255
207 227 255
207 227 255
207 227 255
207 227 255
207 227 255
207 227 255
207 227 255
207 227 255
207 227 255
207 227 255
207 227 255
207 227 255
207 227 255
207 227 255
207 227 255
207 227 255
207 227 255
207 227 255
207 227 255
207 227 255
207 227 255
207 228 255
207 228 255
207 228 255
207 228 255
207 228 255
207 228 255
207 228 255
207 228 255
207 228 255
207 228 255
207 228 255
207 228 255
207 228 255
207 228 255
207 228 255
207 228 255
207 228 255
207 228 255
207 228 255
207 228 255
207 228 255
207 228 255
207 228 255
207 228 255
207 228 255
207 228 255
207 228 255
208 228 255
208 228 255
208 228 255
208 228 255
208 228 255
208 228 255
208 228 255
208 228 255
208 228 255
208 228 255
208 228 255
208 228 255
208 228 255
208 228 255
208 228 255
208 228 255
208 228 255
208 228 255
208 228 255
208 228 255
208 228 255
208 228 255
208 228 255
209 228 255
209 228 255
209 229 255
209 229 255
209 229 255
209 229 255
209 229 255
209 229 255
209 229 255
209 229 255
209 229 255
209 229 255
209 229 255
209 229 255
209 229 255
209 229 255
209 229 255
209 229 255
209 229 255
209 229 255
209 229 255
209 229 255
210 229 255
210 229 255
210 229 255
210 229 255
210 229 255
210 229 255
210 229 255
210 229 255
210 229 255
210 229 255
210 229 255
210 229 255
210 229 255
210 229 255
210 229 255
210 229 255
210 229 255
210 229 255
210 229 255
210 230 255
210 230 255
211 230 255
211 230 255
211 230 255
211 230 255
211 230 255
211 230 255
211 230 255
211 230 255
211 230 255
211 230 255
177 196 226
62 98 157
61 96 149
62 98 163
61 96 151
62 98 164
61 96 151
60 96 156
61 96 148
60 96 148
62 98 161
61 96 148
62 98 156
61 97 152
61 97 153
61 96 155
62 97 154
62 98 162
61 97 157
62 98 155
61 97 156
61 97 159
62 98 160
62 97 156
61 97 155
61 96 147
61 96 154
62 98 158
61 97 154
60 95 149
61 96 151
61 96 149
62 98 156
62 98 156
61 97 154
62 97 155
61 96 149
61 97 152
62 98 159
62 97 150
61 97 161
62 97 156
61 97 155
61 96 144
61 97 156
60 96 155
62 97 156
61 97 155
62 97 158
60 96 147
61 96 153
61 97 157
61 97 155
61 97 151
61 97 152
61 97 155
61 97 156
61 96 148
62 97 149
61 97 155
61 97 151
62 98 163
61 97 157
62 98 157
61 96 151
62 97 156
62 98 159
62 97 155
61 97 151
60 96 150
62 97 149
62 98 156
62 98 156
62 98 158
61 96 151
61 96 151
62 97 150
61 96 149
62 98 158
61 97 153
62 98 161
61 97 154
62 98 157
62 98 154
61 97 153
62 97 152
62 98 160
62 97 154
62 98 154
61 97 150
63 98 158
62 98 155
62 97 152
62 97 155
62 98 159
62 98 159
62 97 152
62 98 155
62 97 157
62 97 147
61 97 152
62 97 159
61 97 158
60 95 141
61 97 158
63 99 167
61 97 147
61 97 158
62 98 162
62 98 154
62 97 153
62 98 155
62 98 157
62 97 156
61 97 156
62 98 158
63 98 157
62 98 157
62 98 159
61 97 157
62 98 156
61 97 156
62 98 156
61 97 156
61 96 148
62 98 157
62 98 158
60 96 148
61 97 151
61 96 148
62 97 156
62 98 155
62 97 156
63 99 162
63 99 163
62 97 152
61 97 154
62 97 149
62 98 160
63 98 159
62 98 162
62 98 157
62 98 159
62 98 151
60 96 147
62 97 159
61 97 156
61 97 153
62 97 160
62 98 159
62 97 156
62 98 161
62 98 161
61 97 160
61 97 155
62 98 158
60 96 158
62 98 164
61 97 150
62 97 159
61 97 155
61 97 159
61 97 151
62 97 159
61 97 154
62 98 161
60 96 154
62 98 162
60 96 153
61 96 154
61 96 150
61 97 158
61 97 158
62 98 157
62 98 159
62 98 162
62 98 162
62 97 159
62 98 162
61 97 158
62 98 161
62 98 165
62 98 163
61 97 158
62 97 160
61 96 161
61 97 154
63 98 162
62 99 166
62 98 164
62 98 166
63 99 172
62 99 168
61 97 152
62 98 160
62 98 166
61 97 160
61 97 159
62 97 160
62 98 165
62 98 169
62 99 168
61 97 160
61 96 159
62 98 163
61 97 172
62 98 166
61 97 166
61 98 167
60 95 159
61 97 166
61 96 166
60 95 166
61 95 163
61 96 168
118 142 194
208 228 255
208 228 255
208 228 255
208 228 255
208 228 255
208 228 255
208 228 255
208 228 255
208 228 255
208 228 255
208 228 255
208 228 255
208 228 255
208 228 255
208 228 255
208 228 255
208 228 255
208 228 255
208 228 255
208 228 255
208 228 255
208 228 255
208 228 255
208 228 255
207 228 255
207 228 255
207 228 255
207 228 255
207 228 255
207 228 255
207 228 255
207 228 255
207 228 255
207 228 255
207 228 255
207 228 255
207 228 255
207 228 255
207 228 255
207 228 255
207 228 255
207 228 255
207 228 255
207 228 255
207 228 255
207 228 255
207 228 255
207 228 255
207 228 255
207 228 255
207 228 255
207 228 255
207 228 255
207 228 255
207 228 255
207 228 255
207 228 255
207 228 255
207 228 255
207 228 255
207 228 255
207 228 255
207 228 255
207 228 255
207 228 255
207 228 255
207 228 255
207 228 255
207 228 255
207 228 255
207 228 255
207 228 255
207 228 255
207 228 255
207 228 255
207 228 255
207 228 255
207 228 255
207 228 255
207 228 255
207 228 255
207 228 255
207 228 255
207 228 255
207 228 255
207 228 255
207 228 255
207 228 255
207 228 255
207 228 255
207 228 255
207 228 255
207 228 255
207 228 255
207 228 255
207 228 255
207 228 255
207 228 255
207 228 255
207 228 255
207 228 255
207 228 255
207 228 255
208 228 255
208 228 255
208 228 255
208 228 255
208 228 255
208 228 255
208 228 255
208 228 255
208 228 255
208 228 255
208 228 255
208 228 255
208 228 255
208 228 255
208 228 255
208 228 255
208 228 255
208 228 255
208 228 255
208 228 255
208 228 255
208 228 255
208 228 255
208 228 255
208 228 255
209 228 255
209 228 255
209 229 255
209 229 255
209 229 255
209 229 255
209 229 255
209 229 255
209 229 255
209 229 255
209 229 255
209 229 255
209 229 255
209 229 255
209 229 255
209 229 255
209 229 255
209 229 255
209 229 255
209 229 255
209 229 255
210 229 255
210 229 255
210 229 255
210 229 255
210 229 255
210 229 255
210 229 255
210 229 255
210 229 255
210 229 255
210 229 255
210 229 255
210 229 255
210 229 255
210 229 255
210 229 255
210 229 255
210 229 255
210 229 255
210 229 255
210 230 255
210 230 255
211 230 255
211 230 255
211 230 255
211 230 255
211 230 255
211 230 255
211 230 255
211 230 255
211 230 255
211 230 255
211 230 255
211 230 255
211 230 255
216 232 255
157 177 209
59 95 154
61 97 155
61 97 155
61 97 151
62 98 154
61 96 154
61 97 149
60 96 147
61 96 148
62 98 157
61 96 148
62 97 153
61 96 149
62 98 160
61 97 154
62 98 159
60 96 153
62 98 158
62 98 157
62 98 158
61 98 161
60 95 155
62 98 158
61 97 150
60 96 148
61 96 149
63 98 160
62 98 159
62 97 155
61 96 144
62 98 159
61 97 153
62 98 154
61 97 153
61 97 155
61 97 155
61 96 152
61 97 155
62 98 157
61 96 145
61 97 154
61 97 145
61 97 153
62 98 158
62 97 157
62 98 161
61 96 145
61 97 156
61 96 151
61 96 151
60 95 140
61 97 152
61 97 154
61 97 156
62 97 152
62 97 152
62 98 161
61 97 152
61 97 150
62 97 156
62 98 156
62 97 152
61 97 158
62 98 158
61 97 156
60 96 145
62 98 158
61 97 157
61 96 144
62 97 149
61 97 155
62 98 160
62 97 153
61 97 153
61 97 152
62 97 147
61 97 152
62 98 158
61 96 152
61 97 160
62 97 151
62 98 158
61 97 151
62 98 158
62 97 157
61 96 153
62 98 158
62 98 159
62 97 150
61 97 159
61 97 151
61 97 154
61 97 153
61 97 153
61 97 152
61 96 139
62 97 156
61 97 157
61 97 160
61 97 156
61 97 154
61 97 152
62 98 159
62 98 161
61 97 152
62 98 158
61 97 157
61 97 149
62 98 162
61 97 155
60 95 148
61 97 154
62 98 162
61 96 144
61 96 148
61 96 154
61 97 156
61 97 158
61 96 149
61 97 154
62 98 157
62 98 161
61 96 148
61 97 152
61 97 155
62 98 155
62 98 161
61 97 156
61 97 151
62 98 154
62 98 158
62 98 160
62 98 162
62 98 158
60 96 149
62 98 157
62 97 147
62 98 160
61 97 154
62 98 158
63 98 166
62 98 160
62 97 155
61 97 156
61 97 151
62 98 161
61 97 158
61 97 159
63 98 160
61 97 153
62 98 159
62 98 160
61 96 148
61 97 156
62 97 159
61 96 152
62 98 154
61 96 154
60 96 149
62 98 158
63 99 162
62 98 162
62 98 158
62 98 163
62 98 162
61 97 154
62 98 156
62 98 160
60 96 150
62 98 165
62 97 154
62 98 158
62 98 159
61 97 162
62 98 161
62 98 163
61 96 157
62 98 155
61 97 157
61 97 161
61 97 161
61 97 161
62 98 158
62 97 159
61 97 159
62 99 164
62 98 155
62 98 162
63 99 169
62 97 161
62 98 170
61 97 162
61 97 158
61 97 162
62 97 162
61 97 165
61 97 166
61 97 164
61 96 161
61 97 160
62 98 170
61 96 156
61 97 161
61 96 161
61 97 166
61 96 160
63 98 167
61 96 166
61 97 166
62 98 170
62 98 174
61 97 172
60 96 166
61 97 171
146 168 212
209 228 255
209 228 255
208 228 255
208 228 255
208 228 255
208 228 255
208 228 255
208 228 255
208 228 255
208 228 255
208 228 255
208 228 255
208 228 255
208 228 255
208 228 255
208 228 255
208 228 255
208 228 255
208 228 255
208 228 255
208 228 255
208 228 255
208 228 255
208 228 255
208 228 255
208 228 255
208 228 255
208 228 255
207 228 255
207 228 255
207 228 255
207 228 255
207 228 255
207 228 255
207 228 255
207 228 255
207 228 255
207 228 255
207 228 255
207 228 255
207 228 255
207 228 255
207 228 255
207 228 255
207 228 255
207 228 255
207 228 255
207 228 255
207 228 255
207 228 255
207 228 255
207 228 255
207 228 255
207 228 255
207 228 255
207 228 255
207 228 255
207 228 255
207 228 255
207 228 255
207 228 255
207 228 255
207 228 255
207 228 255
207 228 255
207 228 255
207 228 255
207 228 255
207 228 255
207 228 255
207 228 255
207 228 255
207 228 255
207 228 255
207 228 255
207 228 255
207 228 255
207 228 255
207 228 255
207 228 255
207 228 255
207 228 255
207 228 255
207 228 255
207 228 255
207 228 255
207 228 255
207 228 255
207 228 255
207 228 255
207 228 255
207 228 255
207 228 255
207 228 255
207 228 255
207 228 255
207 228 255
208 228 255
208 228 255
208 228 255
208 228 255
208 228 255
208 228 255
208 228 255
208 228 255
208 228 255
208 228 255
208 228 255
208 228 255
208 228 255
208 228 255
208 228 255
208 228 255
208 228 255
208 228 255
208 228 255
208 228 255
208 228 255
208 228 255
208 228 255
208 228 255
208 228 255
208 228 255
209 228 255
209 228 255
209 229 255
209 229 255
209 229 255
209 229 255
209 229 255
209 229 255
209 229 255
209 229 255
209 229 255
209 229 255
209 229 255
209 229 255
209 229 255
209 229 255
209 229 255
209 229 255
209 229 255
209 229 255
209 229 255
209 229 255
210 229 255
210 229 255
210 229 255
210 229 255
210 229 255
210 229 255
210 229 255
210 229 255
210 229 255
210 229 255
210 229 255
210 229 255
210 229 255
210 229 255
210 229 255
210 229 255
210 229 255
210 229 255
210 229 255
210 230 255
210 230 255
210 230 255
211 230 255
211 230 255
211 230 255
211 230 255
211 230 255
211 230 255
211 230 255
211 230 255
211 230 255
211 230 255
211 230 255
211 230 255
211 230 255
211 230 255
211 230 255
211 230 255
216 232 255
215 232 255
133 155 193
63 99 162
60 96 155
60 96 144
62 97 154
61 97 160
62 98 160
60 95 149
61 97 155
62 98 161
61 97 152
62 97 155
61 96 153
61 97 154
61 97 163
61 97 153
61 96 144
62 98 159
61 97 155
62 98 163
60 96 150
61 97 155
62 97 152
62 98 155
61 96 145
62 98 159
62 97 154
61 97 152
61 96 145
61 97 157
61 97 160
61 96 147
62 97 152
62 98 156
61 97 150
61 97 153
61 97 155
61 97 154
61 96 152
62 98 152
62 97 160
61 96 150
62 98 154
61 97 148
61 96 144
61 97 150
62 97 154
61 96 148
61 97 152
61 97 152
61 96 154
61 97 153
61 96 149
61 97 154
61 97 153
62 98 158
62 98 152
60 96 150
60 96 144
63 99 160
61 96 144
61 96 148
61 97 157
62 97 159
62 98 156
61 97 156
60 96 147
61 97 154
62 98 158
61 97 156
62 98 158
61 97 151
63 99 159
61 96 151
61 97 149
61 97 154
61 96 152
61 97 152
61 96 147
62 98 158
61 97 155
61 97 153
61 97 155
62 98 158
62 97 151
61 97 154
61 97 150
62 97 155
62 98 162
62 98 156
61 97 155
62 99 167
60 95 142
63 98 159
61 96 152
62 98 157
63 98 161
62 98 157
63 99 162
62 98 160
60 96 155
62 97 155
63 99 162
61 97 153
62 97 156
61 96 157
62 97 151
63 98 161
62 98 155
62 98 159
61 96 150
63 98 156
62 98 157
62 97 156
62 98 157
62 98 160
63 98 164
61 97 156
62 98 154
61 98 159
63 99 168
63 99 163
61 97 145
63 99 163
61 97 156
62 98 159
61 97 157
63 99 163
62 98 163
62 98 159
62 98 160
61 97 155
61 97 154
61 97 158
63 98 155
62 98 159
62 97 155
62 97 156
61 97 156
63 98 163
63 99 164
63 98 167
61 96 157
62 97 158
62 98 156
62 98 157
62 98 158
62 98 163
63 99 165
62 98 158
62 98 158
60 96 156
63 99 163
62 97 157
62 98 161
61 97 152
62 98 159
61 97 161
62 98 166
62 98 159
61 97 157
63 99 166
61 97 151
63 98 165
62 98 157
62 97 159
61 96 152
62 98 164
62 98 163
62 98 164
62 97 158
62 99 164
62 98 159
62 98 158
61 97 159
62 98 167
62 98 162
62 98 159
62 98 161
62 97 161
62 99 164
61 97 160
61 96 152
61 97 158
62 98 161
62 98 163
62 98 166
61 97 155
61 96 153
62 98 157
62 98 165
62 98 164
61 97 161
62 97 159
61 97 162
62 98 164
62 98 167
61 98 164
60 96 159
62 98 166
62 97 163
63 98 169
62 97 162
61 97 159
61 96 161
61 97 163
62 97 169
62 98 163
61 96 159
62 97 164
62 97 169
61 97 171
61 96 166
61 97 167
62 97 170
150 172 214
209 229 255
209 229 255
209 229 255
209 228 255
209 228 255
208 228 255
208 228 255
208 228 255
208 228 255
208 228 255
208 228 255
208 228 255
208 228 255
208 228 255
208 228 255
208 228 255
208 228 255
208 228 255
208 228 255
208 228 255
208 228 255
208 228 255
208 228 255
208 228 255
208 228 255
208 228 255
208 228 255
208 228 255
208 228 255
208 228 255
208 228 255
208 228 255
207 228 255
207 228 255
207 228 255
207 228 255
207 228 255
207 228 255
207 228 255
207 228 255
207 228 255
207 228 255
207 228 255
207 228 255
207 228 255
207 228 255
207 228 255
207 228 255
207 228 255
207 228 255
207 228 255
207 228 255
207 228 255
207 228 255
207 228 255
207 228 255
207 228 255
207 228 255
207 228 255
207 228 255
207 228 255
207 228 255
207 228 255
207 228 255
207 228 255
207 228 255
207 228 255
207 228 255
207 228 255
207 228 255
207 228 255
207 228 255
207 228 255
207 228 255
207 228 255
207 228 255
207 228 255
207 228 255
207 228 255
207 228 255
207 228 255
207 228 255
207 228 255
207 228 255
207 228 255
207 228 255
207 228 255
207 228 255
207 228 255
207 228 255
207 228 255
208 228 255
208 228 255
208 228 255
208 228 255
208 228 255
208 228 255
208 228 255
208 228 255
208 228 255
208 228 255
208 228 255
208 228 255
208 228 255
208 228 255
208 228 255
208 228 255
208 228 255
208 228 255
208 228 255
208 228 255
208 228 255
208 228 255
208 228 255
208 228 255
208 228 255
208 228 255
208 228 255
209 228 255
209 228 255
209 229 255
209 229 255
209 229 255
209 229 255
209 229 255
209 229 255
209 229 255
209 229 255
209 229 255
209 229 255
209 229 255
209 229 255
209 229 255
209 229 255
209 229 255
209 229 255
209 229 255
209 229 255
209 229 255
209 229 255
209 229 255
210 229 255
210 229 255
210 229 255
210 229 255
210 229 255
210 229 255
210 229 255
210 229 255
210 229 255
210 229 255
210 229 255
210 229 255
210 229 255
210 229 255
210 229 255
210 229 255
210 229 255
210 229 255
210 229 255
210 230 255
210 230 255
211 230 255
211 230 255
211 230 255
211 230 255
211 230 255
211 230 255
211 230 255
211 230 255
211 230 255
211 230 255
211 230 255
211 230 255
211 230 255
211 230 255
211 230 255
211 230 255
211 230 255
211 230 255
211 230 255
211 230 255
216 233 255
216 233 255
211 228 252
109 134 184
62 98 157
61 96 159
61 97 158
61 96 148
61 97 151
62 98 158
61 97 151
61 97 157
61 96 153
63 99 164
61 97 157
61 97 157
61 97 153
60 95 150
61 97 149
61 96 152
61 97 157
59 95 141
60 96 145
61 97 155
61 97 151
61 97 150
61 97 151
61 96 154
60 96 149
61 97 157
61 96 149
61 97 156
62 97 152
62 98 156
61 97 148
62 98 158
62 97 152
61 96 150
61 97 158
61 97 152
61 96 151
60 96 149
61 97 147
61 96 151
61 96 144
62 97 152
62 97 157
61 97 152
62 98 155
62 98 155
62 97 158
62 98 155
61 96 149
60 95 149
61 96 155
61 97 153
63 98 156
62 98 159
62 97 154
62 98 159
62 98 160
61 96 148
61 97 157
60 96 147
62 97 153
61 97 147
60 96 151
62 97 156
61 97 157
61 97 153
61 96 149
62 98 157
60 96 148
62 97 150
62 98 158
62 97 158
62 97 154
62 97 151
62 97 158
62 98 154
61 97 156
61 96 148
62 98 154
62 98 160
61 97 152
61 96 149
60 96 154
62 98 157
62 97 157
61 97 150
61 97 157
61 97 153
62 98 157
62 98 153
61 96 153
61 97 157
61 97 149
61 97 154
61 96 147
62 98 155
63 98 159
62 97 152
61 96 155
63 99 163
62 97 155
63 99 169
61 97 150
62 97 156
62 98 158
62 98 154
60 95 143
62 98 158
62 97 155
61 96 149
61 97 157
60 96 149
62 97 162
61 97 155
61 97 153
62 98 155
62 98 163
61 97 150
62 98 155
62 98 156
62 98 155
61 96 149
61 96 150
61 97 149
62 98 161
62 97 151
61 96 145
61 97 155
60 96 150
60 96 153
61 97 154
62 97 153
61 97 157
61 97 155
61 96 149
62 98 158
60 96 150
62 98 160
62 98 160
62 98 159
62 98 159
62 98 163
62 98 155
60 96 156
61 96 155
62 97 154
61 96 148
62 98 155
61 97 160
62 97 156
62 97 151
62 97 156
62 98 160
61 96 151
60 96 153
61 97 161
62 98 156
63 99 162
62 98 161
61 97 157
63 98 157
62 98 162
62 98 159
62 98 157
61 96 148
62 98 156
63 99 163
62 98 162
62 98 159
61 97 154
61 97 156
61 97 160
62 98 160
62 98 163
62 97 158
62 99 168
62 98 159
61 96 156
63 99 165
62 98 162
62 98 165
62 98 162
62 98 167
62 98 163
62 98 166
62 97 159
61 97 164
63 99 167
62 98 162
62 99 162
62 99 167
62 98 169
61 97 151
62 98 163
62 97 162
62 98 167
61 96 157
61 98 167
61 97 164
61 97 168
61 97 166
62 97 164
61 97 157
61 96 153
61 97 164
61 97 161
61 97 164
61 96 167
61 96 161
61 96 160
61 97 165
61 97 168
61 96 165
61 97 169
166 187 225
209 229 255
209 229 255
209 229 255
209 229 255
209 229 255
209 229 255
209 228 255
209 228 255
208 228 255
208 228 255
208 228 255
208 228 255
208 228 255
208 228 255
208 228 255
208 228 255
208 228 255
208 228 255
208 228 255
208 228 255
208 228 255
208 228 255
208 228 255
208 228 255
208 228 255
208 228 255
208 228 255
208 228 255
208 228 255
208 228 255
208 228 255
208 228 255
208 228 255
208 228 255
208 228 255
208 228 255
208 228 255
208 228 255
207 228 255
207 228 255
207 228 255
207 228 255
207 228 255
207 228 255
207 228 255
207 228 255
207 228 255
207 228 255
207 228 255
207 228 255
207 228 255
207 228 255
207 228 255
207 228 255
207 228 255
207 228 255
207 228 255
207 228 255
207 228 255
207 228 255
207 228 255
207 228 255
207 228 255
207 228 255
207 228 255
207 228 255
207 228 255
207 228 255
207 228 255
207 228 255
207 228 255
207 228 255
207 228 255
207 228 255
207 228 255
207 228 255
207 228 255
207 228 255
207 228 255
207 228 255
207 228 255
207 228 255
207 228 255
208 228 255
208 228 255
208 228 255
208 228 255
208 228 255
208 228 255
208 228 255
208 228 255
208 228 255
208 228 255
208 228 255
208 228 255
208 228 255
208 228 255
208 228 255
208 228 255
208 228 255
208 228 255
208 228 255
208 228 255
208 228 255
208 228 255
208 228 255
208 228 255
208 228 255
208 228 255
208 228 255
208 228 255
208 228 255
208 228 255
209 228 255
209 228 255
209 229 255
209 229 255
209 229 255
209 229 255
209 229 255
209 229 255
209 229 255
209 229 255
209 229 255
209 229 255
209 229 255
209 229 255
209 229 255
209 229 255
209 229 255
209 229 255
209 229 255
209 229 255
209 229 255
209 229 255
209 229 255
210 229 255
210 229 255
210 229 255
210 229 255
210 229 255
210 229 255
210 229 255
210 229 255
210 229 255
210 229 255
210 229 255
210 229 255
210 229 255
210 229 255
210 229 255
210 229 255
210 229 255
210 229 255
210 229 255
210 230 255
210 230 255
210 230 255
211 230 255
211 230 255
211 230 255
211 230 255
211 230 255
211 230 255
211 230 255
211 230 255
211 230 255
211 230 255
211 230 255
211 230 255
211 230 255
211 230 255
211 230 255
211 230 255
211 230 255
211 230 255
211 230 255
211 230 255
211 230 255
211 230 255
211 230 255
216 233 255
216 233 255
216 233 255
207 224 249
89 117 171
62 97 156
61 96 151
61 96 150
61 96 154
61 97 156
61 97 158
62 98 157
61 97 148
61 97 158
63 99 164
62 98 159
61 96 150
62 97 152
60 96 141
63 98 155
61 97 158
62 97 154
62 97 154
62 98 160
61 96 156
61 96 154
61 97 155
62 97 156
61 97 154
62 97 153
62 98 158
62 98 158
61 97 155
61 97 159
62 98 154
61 96 147
62 98 159
62 98 158
60 95 144
61 97 153
60 96 153
62 98 154
61 96 151
61 96 151
61 96 152
62 97 150
62 97 152
62 99 163
61 96 149
61 97 154
62 97 155
62 98 161
62 97 154
61 96 150
61 96 148
61 97 152
60 96 143
61 97 153
62 97 156
60 95 144
61 96 151
61 97 157
62 97 154
62 98 158
61 97 148
62 97 155
62 98 156
62 98 153
61 96 148
61 96 148
62 98 155
61 96 151
62 98 155
61 96 149
62 98 160
62 98 163
61 97 145
62 97 150
61 96 152
62 97 150
62 98 159
61 96 151
61 97 158
62 97 153
61 96 149
61 96 148
61 96 144
60 96 150
61 97 152
62 98 159
61 97 149
61 97 153
61 96 152
61 96 152
62 98 158
62 98 156
60 96 143
61 97 156
61 97 152
61 98 158
62 98 162
62 98 159
62 97 152
61 97 157
61 97 151
62 97 151
61 96 150
61 97 156
61 97 149
62 97 151
62 97 156
61 96 150
61 97 151
62 97 150
62 97 153
62 98 153
63 99 163
62 97 157
61 97 153
61 96 152
62 98 157
61 96 143
63 99 163
61 97 155
62 98 155
62 98 159
62 98 157
61 97 154
61 97 155
61 97 155
62 97 154
61 97 152
62 98 162
61 97 150
62 98 157
62 98 161
61 96 149
61 97 159
62 97 154
62 98 163
62 98 152
61 97 154
63 98 162
62 98 163
61 97 152
61 97 149
62 97 156
62 98 152
62 97 155
61 97 151
62 98 157
62 97 156
62 98 158
62 98 159
61 97 154
62 98 162
61 97 157
61 97 154
61 97 153
62 98 162
61 97 153
61 97 154
62 98 160
63 99 167
62 98 160
61 98 161
62 98 164
62 98 164
62 97 152
62 98 161
61 97 161
62 98 158
62 98 156
61 97 158
61 97 158
62 98 166
61 97 156
61 97 154
63 99 166
63 99 166
62 97 157
62 98 163
62 98 164
62 98 158
62 98 158
61 97 160
62 98 162
61 97 158
61 97 158
63 99 168
61 97 156
60 96 155
62 98 161
63 98 163
62 98 163
62 97 164
61 97 162
62 97 161
61 96 159
61 96 161
61 97 159
62 97 162
62 97 164
61 97 160
61 97 160
62 98 163
62 97 160
62 98 168
62 98 166
61 96 160
62 98 168
63 98 168
61 96 162
62 97 167
61 97 164
60 95 164
61 96 166
61 96 166
62 97 168
156 178 219
209 229 255
209 229 255
209 229 255
209 229 255
209 229 255
209 229 255
209 229 255
209 229 255
209 229 255
209 228 255
209 228 255
208 228 255
208 228 255
208 228 255
208 228 255
208 228 255
208 228 255
208 228 255
208 228 255
208 228 255
208 228 255
208 228 255
208 228 255
208 228 255
208 228 255
208 228 255
208 228 255
208 228 255
208 228 255
208 228 255
208 228 255
208 228 255
208 228 255
208 228 255
208 228 255
208 228 255
208 228 255
208 228 255
208 228 255
208 228 255
208 228 255
208 228 255
208 228 255
208 228 255
208 228 255
208 228 255
208 228 255
207 228 255
207 228 255
207 228 255
207 228 255
207 228 255
207 228 255
207 228 255
207 228 255
207 228 255
207 228 255
207 228 255
207 228 255
207 228 255
207 228 255
207 228 255
207 228 255
207 228 255
207 228 255
207 228 255
207 228 255
207 228 255
207 228 255
207 228 255
207 228 255
208 228 255
208 228 255
208 228 255
208 228 255
208 228 255
208 228 255
208 228 255
208 228 255
208 228 255
208 228 255
208 228 255
208 228 255
208 228 255
208 228 255
208 228 255
208 228 255
208 228 255
208 228 255
208 228 255
208 228 255
208 228 255
208 228 255
208 228 255
208 228 255
208 228 255
208 228 255
208 228 255
208 228 255
208 228 255
208 228 255
208 228 255
208 228 255
208 228 255
208 228 255
208 228 255
208 228 255
208 228 255
209 228 255
209 228 255
209 229 255
209 229 255
209 229 255
209 229 255
209 229 255
209 229 255
209 229 255
209 229 255
209 229 255
209 229 255
209 229 255
209 229 255
209 229 255
209 229 255
209 229 255
209 229 255
209 229 255
209 229 255
209 229 255
209 229 255
209 229 255
210 229 255
210 229 255
210 229 255
210 229 255
210 229 255
210 229 255
210 229 255
210 229 255
210 229 255
210 229 255
210 229 255
210 229 255
210 229 255
210 229 255
210 229 255
210 229 255
210 229 255
210 229 255
210 229 255
210 229 255
210 230 255
210 230 255
211 230 255
211 230 255
211 230 255
211 230 255
211 230 255
211 230 255
211 230 255
211 230 255
211 230 255
211 230 255
211 230 255
211 230 255
211 230 255
211 230 255
211 230 255
211 230 255
211 230 255
211 230 255
211 230 255
211 230 255
211 230 255
211 230 255
211 230 255
212 230 255
212 230 255
212 230 255
212 230 255
216 233 255
216 233 255
216 233 255
216 233 255
186 204 235
71 104 160
60 96 151
61 97 152
61 97 157
61 96 143
61 97 158
61 97 154
61 96 154
60 96 150
61 97 153
61 97 153
62 98 160
62 97 152
62 97 155
61 97 152
61 96 150
62 98 156
60 95 141
60 96 154
61 95 150
62 98 160
62 97 154
61 97 151
61 96 150
61 97 157
61 97 154
62 97 151
62 97 154
61 97 150
61 96 149
62 98 158
61 96 153
61 96 151
61 97 152
63 99 162
62 97 155
62 97 152
62 97 156
62 98 157
62 97 151
61 96 149
61 97 151
61 96 144
61 96 150
61 97 149
61 96 144
62 97 158
61 96 148
61 97 149
61 96 144
61 97 156
60 96 148
60 96 144
62 98 160
62 97 156
61 97 145
60 96 147
61 97 149
61 97 149
62 97 154
60 95 143
62 97 157
61 97 150
61 97 156
61 96 150
61 97 152
61 96 147
61 97 156
62 98 161
62 97 153
60 96 145
63 99 162
61 97 152
61 96 149
62 98 160
61 96 142
63 98 158
62 98 155
61 97 155
60 95 145
62 97 156
61 97 159
62 97 155
60 95 136
62 98 159
61 96 150
62 98 151
61 97 148
62 98 156
61 96 152
61 97 155
61 96 145
62 97 153
62 97 151
61 97 148
61 97 152
61 97 151
61 96 144
60 95 144
62 98 162
62 98 157
62 97 155
62 98 158
60 95 143
61 97 153
61 96 148
62 98 161
62 98 157
63 98 159
63 98 157
61 97 155
61 97 153
62 98 156
61 97 158
61 97 153
60 96 150
61 97 151
61 97 149
61 97 149
62 98 161
61 97 148
62 97 150
62 97 157
61 97 155
62 98 152
62 97 151
62 98 156
62 98 157
62 98 155
61 97 154
61 97 152
61 96 148
62 98 156
60 96 150
62 97 150
61 97 155
61 96 147
61 97 152
61 97 153
61 97 158
61 97 149
61 97 155
61 97 153
62 98 161
62 98 155
60 96 151
62 98 160
62 97 151
62 97 157
61 97 155
62 97 154
62 98 160
62 98 159
62 98 164
61 97 150
62 98 160
61 97 158
62 97 152
60 96 151
62 98 155
62 98 162
62 98 157
61 97 155
62 97 151
62 97 159
63 98 161
62 97 156
62 98 160
62 97 155
62 98 158
61 97 159
62 98 161
62 98 159
62 98 161
61 96 155
61 97 159
62 97 153
61 96 150
61 97 157
61 96 151
62 98 159
63 99 168
61 96 156
62 98 158
63 99 166
62 98 165
62 97 157
62 98 165
61 97 161
62 98 161
62 98 162
61 98 165
62 98 164
61 96 156
62 99 168
63 99 166
62 98 164
61 97 165
61 97 158
63 99 167
62 98 165
60 95 154
60 96 157
61 97 162
62 97 165
61 97 159
62 97 160
62 98 168
62 98 169
62 98 167
61 96 162
61 97 166
61 96 163
62 97 166
68 101 168
172 193 231
209 229 255
209 229 255
209 229 255
209 229 255
209 229 255
209 229 255
209 229 255
209 229 255
209 229 255
209 229 255
209 229 255
209 229 255
209 229 255
209 228 255
208 228 255
208 228 255
208 228 255
208 228 255
208 228 255
208 228 255
208 228 255
208 228 255
208 228 255
208 228 255
208 228 255
208 228 255
208 228 255
208 228 255
208 228 255
208 228 255
208 228 255
208 228 255
208 228 255
208 228 255
208 228 255
208 228 255
208 228 255
208 228 255
208 228 255
208 228 255
208 228 255
208 228 255
208 228 255
208 228 255
208 228 255
208 228 255
208 228 255
208 228 255
208 228 255
208 228 255
208 228 255
208 228 255
208 228 255
208 228 255
208 228 255
208 228 255
208 228 255
208 228 255
208 228 255
208 228 255
208 228 255
208 228 255
208 228 255
208 228 255
208 228 255
208 228 255
208 228 255
208 228 255
208 228 255
208 228 255
208 228 255
208 228 255
208 228 255
208 228 255
208 228 255
208 228 255
208 228 255
208 228 255
208 228 255
208 228 255
208 228 255
208 228 255
208 228 255
208 228 255
208 228 255
208 228 255
208 228 255
208 228 255
208 228 255
208 228 255
208 228 255
208 228 255
208 228 255
208 228 255
208 228 255
208 228 255
208 228 255
208 228 255
208 228 255
208 228 255
208 228 255
208 228 255
209 228 255
209 228 255
209 228 255
209 229 255
209 229 255
209 229 255
209 229 255
209 229 255
209 229 255
209 229 255
209 229 255
209 229 255
209 229 255
209 229 255
209 229 255
209 229 255
209 229 255
209 229 255
209 229 255
209 229 255
209 229 255
209 229 255
209 229 255
209 229 255
210 229 255
210 229 255
210 229 255
210 229 255
210 229 255
210 229 255
210 229 255
210 229 255
210 229 255
210 229 255
210 229 255
210 229 255
210 229 255
210 229 255
210 229 255
210 229 255
210 229 255
210 229 255
210 229 255
210 229 255
210 230 255
210 230 255
210 230 255
211 230 255
211 230 255
211 230 255
211 230 255
211 230 255
211 230 255
211 230 255
211 230 255
211 230 255
211 230 255
211 230 255
211 230 255
211 230 255
211 230 255
211 230 255
211 230 255
211 230 255
211 230 255
211 230 255
211 230 255
211 230 255
211 230 255
212 230 255
212 230 255
212 230 255
212 230 255
212 230 255
212 230 255
212 230 255
212 230 255
216 233 255
216 233 255
216 233 255
216 233 255
216 233 255
180 198 226
74 106 157
61 97 156
60 96 151
61 96 150
61 96 150
61 97 149
61 96 158
62 98 159
61 96 150
61 96 149
61 96 148
61 96 150
61 97 158
60 96 149
62 97 155
62 98 157
61 97 152
61 97 153
61 96 151
60 96 153
59 95 142
61 96 148
62 98 156
61 97 154
61 97 150
60 95 144
62 97 152
61 97 154
61 97 148
61 97 153
62 97 152
62 98 154
62 97 153
61 96 152
62 98 154
61 96 147
61 97 158
61 96 149
62 98 155
61 96 148
59 94 134
61 97 153
62 97 155
62 98 162
61 97 158
61 97 152
61 96 144
61 96 150
60 95 145
61 97 152
60 96 148
62 98 159
61 96 147
61 97 153
61 97 154
62 98 159
61 96 148
62 98 162
61 96 149
61 97 152
60 95 140
62 98 157
62 97 153
61 96 147
62 98 154
61 97 158
61 96 145
62 98 162
62 97 159
62 98 154
62 97 154
61 96 148
62 98 158
61 97 153
62 97 155
62 97 154
61 96 151
61 96 151
62 97 151
61 96 145
62 98 155
61 97 153
61 97 158
62 98 161
62 97 150
60 96 145
62 98 161
60 96 152
61 97 151
61 97 155
62 98 162
61 97 149
60 95 148
62 98 160
62 97 157
61 97 152
61 97 152
61 97 151
61 97 160
62 98 159
61 97 153
62 98 157
62 98 155
62 97 153
61 97 151
61 97 155
62 98 156
62 98 160
62 98 155
62 97 153
62 98 163
61 96 151
63 99 164
61 97 154
61 97 150
61 97 157
61 97 147
60 96 150
61 97 155
61 97 150
60 96 148
62 98 157
62 97 157
61 96 152
61 96 151
62 97 160
61 97 151
62 97 148
62 98 154
62 98 160
61 97 155
61 97 154
62 98 161
62 98 160
62 97 158
62 98 157
62 98 158
61 96 149
61 96 148
61 97 151
61 97 158
62 98 158
61 97 156
61 96 151
62 98 161
62 98 156
62 98 156
62 98 163
61 96 151
62 98 164
62 98 160
61 97 159
61 96 147
62 98 157
61 96 148
60 96 152
62 98 160
62 98 160
63 99 163
61 97 155
61 97 163
62 98 158
63 99 164
61 96 153
61 97 160
62 98 156
62 98 157
61 97 160
61 97 155
62 97 156
61 97 156
61 97 152
62 97 155
62 97 157
61 96 156
62 97 153
63 99 167
63 99 164
62 97 153
62 98 162
61 97 149
62 97 155
61 96 162
62 98 158
62 98 163
62 98 163
62 97 163
62 97 161
62 98 165
62 98 164
62 98 164
62 97 162
61 96 154
62 98 162
61 97 159
62 98 162
61 97 160
62 97 165
63 98 166
62 98 165
61 96 159
61 97 159
61 96 154
62 98 165
61 98 164
62 98 169
62 98 160
61 96 163
60 96 162
61 97 166
59 95 163
60 95 157
61 97 164
62 97 166
62 95 160
190 210 242
209 229 255
209 229 255
209 229 255
209 229 255
209 229 255
209 229 255
209 229 255
209 229 255
209 229 255
209 229 255
209 229 255
209 229 255
209 229 255
209 229 255
209 229 255
209 229 255
209 228 255
209 228 255
208 228 255
208 228 255
208 228 255
208 228 255
208 228 255
208 228 255
208 228 255
208 228 255
208 228 255
208 228 255
208 228 255
208 228 255
208 228 255
208 228 255
208 228 255
208 228 255
208 228 255
208 228 255
208 228 255
208 228 255
208 228 255
208 228 255
208 228 255
208 228 255
208 228 255
208 228 255
208 228 255
208 228 255
208 228 255
208 228 255
208 228 255
208 228 255
208 228 255
206 226 253
193 210 230
175 188 198
169 180 184
157 168 174
156 162 150
147 150 134
151 156 142
160 168 164
173 184 187
185 199 210
193 209 226
204 224 250
208 228 255
208 228 255
208 228 255
208 228 255
208 228 255
208 228 255
208 228 255
208 228 255
208 228 255
208 228 255
208 228 255
208 228 255
208 228 255
208 228 255
208 228 255
208 228 255
208 228 255
208 228 255
208 228 255
208 228 255
208 228 255
208 228 255
208 228 255
208 228 255
208 228 255
208 228 255
208 228 255
208 228 255
208 228 255
208 228 255
208 228 255
208 228 255
208 228 255
209 228 255
209 228 255
209 229 255
209 229 255
209 229 255
209 229 255
209 229 255
209 229 255
209 229 255
209 229 255
209 229 255
209 229 255
209 229 255
209 229 255
209 229 255
209 229 255
209 229 255
209 229 255
209 229 255
209 229 255
209 229 255
209 229 255
209 229 255
209 229 255
209 229 255
210 229 255
210 229 255
210 229 255
210 229 255
210 229 255
210 229 255
210 229 255
210 229 255
210 229 255
210 229 255
210 229 255
210 229 255
210 229 255
210 229 255
210 229 255
210 229 255
210 229 255
210 229 255
210 229 255
210 230 255
210 230 255
210 230 255
211 230 255
211 230 255
211 230 255
211 230 255
211 230 255
211 230 255
211 230 255
211 230 255
211 230 255
211 230 255
211 230 255
211 230 255
211 230 255
211 230 255
211 230 255
211 230 255
211 230 255
211 230 255
211 230 255
211 230 255
211 230 255
211 230 255
212 230 255
212 230 255
212 230 255
212 230 255
212 230 255
212 230 255
212 230 255
212 230 255
212 230 255
212 230 255
212 230 255
212 230 255
216 233 255
216 233 255
216 233 255
216 233 255
216 233 255
216 233 255
150 170 203
62 97 155
60 96 151
62 98 159
62 97 152
59 94 141
60 97 157
61 96 151
61 97 156
60 96 151
61 97 150
61 96 148
60 96 148
62 97 155
62 97 152
61 96 148
61 96 150
62 97 156
60 96 150
61 97 151
61 96 147
61 97 153
61 97 149
63 99 162
62 97 148
61 96 140
60 96 150
63 99 164
61 97 151
61 96 151
61 97 145
61 96 147
62 98 155
61 97 153
62 97 155
61 97 158
60 96 143
61 97 156
62 97 152
61 97 152
61 97 153
61 97 156
61 97 156
62 97 152
61 97 154
61 96 147
60 96 148
62 98 155
61 97 156
62 98 161
62 98 161
61 96 153
60 96 147
61 97 153
61 97 147
62 97 155
61 97 152
62 98 158
61 97 153
60 96 144
62 98 152
62 98 153
61 96 141
61 97 159
61 96 149
62 98 157
61 96 144
62 98 156
61 96 147
62 97 151
60 96 143
61 97 144
61 97 149
62 97 150
61 96 148
63 98 157
63 98 162
62 98 157
61 97 155
62 97 151
62 98 158
61 97 151
61 97 145
61 97 153
61 97 151
62 98 160
62 97 153
61 96 145
61 97 152
61 97 155
61 97 153
61 96 148
62 98 162
61 97 152
61 97 148
61 97 150
62 98 155
62 97 156
61 96 144
62 98 153
61 97 154
61 96 152
61 97 151
61 97 150
62 97 152
61 97 154
63 99 162
62 98 156
61 97 151
61 97 154
62 97 151
62 98 156
63 99 159
62 98 157
61 96 154
62 97 155
62 97 152
61 97 144
61 97 154
62 97 151
61 97 157
62 98 158
62 98 154
61 97 151
62 98 162
61 97 153
61 97 159
62 98 159
61 97 154
61 97 151
61 97 154
61 96 153
62 98 161
61 96 148
61 97 156
62 98 158
61 97 151
61 96 148
61 96 144
63 98 160
62 97 154
61 97 151
62 98 156
61 97 153
61 97 162
61 97 150
62 97 158
62 98 161
62 97 155
62 97 153
62 97 152
63 99 162
62 98 161
62 98 155
61 97 158
61 97 158
61 96 149
63 99 161
63 99 160
62 97 157
61 97 154
62 98 159
61 97 156
62 98 162
62 97 155
61 97 153
63 98 153
61 97 159
62 98 160
62 98 153
61 97 165
61 96 159
60 96 144
62 98 160
60 96 153
62 97 155
61 97 159
61 96 154
60 96 153
62 97 162
61 97 158
62 97 160
61 97 153
61 97 156
62 98 164
62 98 165
63 99 164
61 96 158
61 97 157
61 96 152
61 97 161
62 97 160
62 98 164
61 97 163
61 96 156
62 97 164
61 97 162
61 97 164
61 97 159
61 96 158
61 97 161
60 95 151
62 98 161
61 95 152
61 97 162
62 98 167
61 96 161
61 97 159
61 96 154
60 94 153
62 98 171
61 96 162
62 98 169
60 94 163
62 97 169
87 115 174
193 213 244
209 229 255
209 229 255
209 229 255
209 229 255
209 229 255
209 229 255
209 229 255
209 229 255
209 229 255
209 229 255
209 229 255
209 229 255
209 229 255
209 229 255
209 229 255
209 229 255
209 229 255
209 229 255
209 229 255
209 229 255
209 228 255
209 228 255
209 228 255
208 228 255
208 228 255
208 228 255
208 228 255
208 228 255
208 228 255
208 228 255
208 228 255
208 228 255
208 228 255
208 228 255
208 228 255
208 228 255
208 228 255
208 228 255
208 228 255
208 228 255
208 228 255
208 228 255
208 228 255
208 228 255
208 228 255
208 228 255
208 228 255
205 224 250
179 193 203
146 152 143
128 127 92
120 119 80
130 128 86
124 123 83
132 130 87
135 134 90
126 125 84
135 134 90
135 132 88
128 126 84
144 142 95
124 123 82
142 140 96
154 160 148
176 189 200
203 223 247
208 228 255
208 228 255
208 228 255
208 228 255
208 228 255
208 228 255
208 228 255
208 228 255
208 228 255
208 228 255
208 228 255
208 228 255
208 228 255
208 228 255
208 228 255
208 228 255
208 228 255
208 228 255
208 228 255
208 228 255
208 228 255
208 228 255
208 228 255
208 228 255
209 228 255
209 228 255
209 229 255
209 229 255
209 229 255
209 229 255
209 229 255
209 229 255
209 229 255
209 229 255
209 229 255
209 229 255
209 229 255
209 229 255
209 229 255
209 229 255
209 229 255
209 229 255
209 229 255
209 229 255
209 229 255
209 229 255
209 229 255
209 229 255
209 229 255
209 229 255
209 229 255
210 229 255
210 229 255
210 229 255
210 229 255
210 229 255
210 229 255
210 229 255
210 229 255
210 229 255
210 229 255
210 229 255
210 229 255
210 229 255
210 229 255
210 229 255
210 229 255
210 229 255
210 229 255
210 229 255
210 229 255
210 230 255
210 230 255
211 230 255
211 230 255
211 230 255
211 230 255
211 230 255
211 230 255
211 230 255
211 230 255
211 230 255
211 230 255
211 230 255
211 230 255
211 230 255
211 230 255
211 230 255
211 230 255
211 230 255
211 230 255
211 230 255
211 230 255
211 230 255
211 230 255
211 230 255
212 230 255
212 230 255
212 230 255
212 230 255
212 230 255
212 230 255
212 230 255
212 230 255
212 230 255
212 230 255
212 230 255
212 230 255
212 230 255
212 230 255
212 230 255
216 233 255
216 233 255
216 233 255
216 233 255
216 233 255
216 233 255
216 233 255
148 168 205
62 97 157
61 97 151
61 97 155
61 97 152
62 97 159
61 97 153
61 97 153
60 95 151
61 97 151
61 97 151
61 96 149
60 95 144
61 97 154
61 97 150
61 97 151
62 97 152
62 98 157
60 96 144
61 97 152
61 96 155
61 97 153
62 98 158
63 99 165
62 97 155
61 96 149
62 98 161
61 97 150
61 97 156
61 97 149
62 98 158
60 95 143
61 96 150
62 98 162
61 97 154
60 96 150
61 97 150
62 98 162
61 97 155
62 98 158
62 97 154
61 97 153
61 96 154
61 97 144
60 96 150
61 97 144
61 97 152
60 95 148
62 98 161
62 98 159
61 97 153
62 97 157
61 96 148
62 98 159
61 96 149
60 96 156
61 96 154
61 97 151
62 98 159
61 97 156
62 98 156
62 98 157
61 96 142
61 97 154
63 99 160
62 98 161
60 96 147
61 96 154
61 97 152
61 96 147
62 98 158
61 97 148
62 97 157
61 96 149
61 97 149
62 97 154
62 97 153
59 95 147
61 97 151
62 97 155
61 97 150
62 98 156
61 96 148
61 97 151
61 96 153
62 98 157
62 98 158
61 97 152
61 96 152
61 97 156
62 98 156
63 99 160
60 95 147
62 98 159
62 97 154
61 97 155
61 96 149
62 97 152
61 97 151
61 96 148
62 98 157
62 97 154
62 97 147
61 96 145
61 97 154
62 98 161
61 96 150
61 96 147
61 97 149
61 97 144
62 98 155
61 96 144
61 96 148
61 97 151
62 98 159
62 98 158
61 96 150
61 97 154
61 97 155
61 96 142
62 98 154
62 98 162
62 98 160
61 97 150
61 97 153
61 97 150
61 97 154
61 97 152
61 97 153
62 99 162
61 97 155
62 97 158
62 97 154
61 97 154
61 97 159
61 97 156
62 98 163
62 98 160
62 98 159
61 97 154
62 98 159
62 97 153
62 97 158
61 97 153
61 97 156
62 98 159
62 98 155
61 97 153
62 98 161
62 98 156
60 96 151
62 97 155
61 97 157
62 97 150
62 98 154
61 97 151
61 97 153
62 97 161
61 97 155
62 98 154
60 96 149
63 98 160
61 97 156
62 98 164
62 97 153
61 97 156
62 97 154
63 98 162
62 98 165
62 98 160
61 96 155
62 97 158
62 98 159
62 98 160
62 98 163
61 97 158
61 96 150
62 98 164
62 97 160
62 98 157
62 98 159
62 98 165
62 98 162
62 97 158
61 98 163
62 97 155
62 98 162
61 97 157
61 97 159
61 97 159
61 97 158
61 96 151
62 98 162
62 98 164
61 96 156
62 98 163
61 96 154
62 97 161
61 97 161
62 98 165
61 97 161
62 97 161
62 97 167
61 96 151
61 97 162
63 99 170
62 97 165
61 96 161
61 97 165
62 98 170
61 96 157
60 94 158
61 96 161
60 94 156
61 96 166
90 118 179
199 219 248
209 229 255
209 229 255
209 229 255
209 229 255
209 229 255
209 229 255
209 229 255
209 229 255
209 229 255
209 229 255
209 229 255
209 229 255
209 229 255
209 229 255
209 229 255
209 229 255
209 229 255
209 229 255
209 229 255
209 229 255
209 229 255
209 229 255
209 229 255
209 229 255
209 229 255
209 229 255
209 228 255
209 228 255
208 228 255
208 228 255
208 228 255
208 228 255
208 228 255
208 228 255
208 228 255
208 228 255
208 228 255
208 228 255
208 228 255
208 228 255
208 228 255
208 228 255
208 228 255
208 228 255
196 213 234
156 164 159
139 139 99
123 122 81
137 135 90
131 130 87
135 133 89
136 134 90
136 134 90
137 135 90
132 131 87
137 135 90
125 124 84
140 139 93
137 135 90
139 137 91
139 137 92
140 138 93
134 133 89
137 134 89
138 138 97
160 168 165
189 205 223
208 228 255
208 228 255
208 228 255
208 228 255
208 228 255
208 228 255
208 228 255
208 228 255
208 228 255
208 228 255
208 228 255
208 228 255
208 228 255
208 228 255
208 228 255
208 228 255
209 228 255
209 228 255
209 229 255
209 229 255
209 229 255
209 229 255
209 229 255
209 229 255
209 229 255
209 229 255
209 229 255
209 229 255
209 229 255
209 229 255
209 229 255
209 229 255
209 229 255
209 229 255
209 229 255
209 229 255
209 229 255
209 229 255
209 229 255
209 229 255
209 229 255
209 229 255
209 229 255
209 229 255
210 229 255
210 229 255
210 229 255
210 229 255
210 229 255
210 229 255
210 229 255
210 229 255
210 229 255
210 229 255
210 229 255
210 229 255
210 229 255
210 229 255
210 229 255
210 229 255
210 229 255
210 229 255
210 229 255
210 229 255
210 229 255
210 230 255
210 230 255
211 230 255
211 230 255
211 230 255
211 230 255
211 230 255
211 230 255
211 230 255
211 230 255
211 230 255
211 230 255
211 230 255
211 230 255
211 230 255
211 230 255
211 230 255
211 230 255
211 230 255
211 230 255
211 230 255
211 230 255
211 230 255
211 230 255
211 230 255
212 230 255
212 230 255
212 230 255
212 230 255
212 230 255
212 230 255
212 230 255
212 230 255
212 230 255
212 230 255
212 230 255
212 230 255
212 230 255
212 230 255
212 230 255
212 230 255
212 230 255
212 231 255
212 231 255
216 233 255
216 233 255
216 233 255
216 233 255
216 233 255
216 233 255
216 233 255
216 233 255
147 167 204
61 97 151
62 98 160
61 97 149
61 97 158
62 97 150
61 97 155
62 98 160
62 97 154
61 96 151
62 98 160
62 97 159
61 97 159
60 95 145
62 97 150
60 96 141
60 96 148
61 97 150
61 96 147
62 98 157
61 97 150
62 97 152
60 95 150
62 97 154
61 97 150
61 97 156
60 95 148
62 98 156
60 96 150
61 97 145
61 97 149
62 97 154
62 97 154
60 96 150
61 96 149
62 98 161
61 97 150
62 97 152
61 96 147
62 98 158
61 96 150
61 96 152
60 96 153
61 96 142
61 97 152
61 97 155
61 97 154
60 96 153
61 96 145
61 97 151
61 97 154
60 96 141
62 98 158
62 97 159
61 97 153
60 96 144
60 96 151
62 98 158
62 98 156
63 99 161
62 98 154
60 95 139
62 98 158
59 95 141
61 97 151
60 96 140
62 97 151
61 97 152
62 97 144
61 97 154
61 97 157
61 97 153
62 98 158
61 96 147
61 97 152
60 96 145
60 96 147
62 98 161
63 99 160
61 96 145
60 96 151
61 97 155
61 96 148
62 98 157
61 97 152
62 98 155
61 97 149
62 97 151
60 95 144
62 98 165
61 97 153
61 96 151
60 96 144
61 97 150
60 95 141
61 97 158
62 98 159
61 97 148
62 98 158
62 97 158
60 95 142
62 97 154
60 96 141
62 97 159
62 98 157
61 97 155
61 97 144
62 97 152
61 97 147
61 96 150
63 98 158
63 98 157
62 97 155
61 97 155
61 97 155
61 97 150
61 97 148
62 97 150
61 97 147
62 98 156
61 96 154
61 96 151
61 96 151
62 97 154
63 99 160
62 98 155
62 97 153
62 98 155
61 97 150
62 98 155
61 96 150
63 99 157
62 97 153
61 97 150
61 97 156
61 97 151
62 98 159
62 97 156
61 97 155
62 98 159
61 97 156
63 99 167
62 98 158
62 98 160
61 97 152
62 98 159
62 98 156
62 98 157
62 98 162
61 97 150
62 98 159
63 99 161
61 97 154
61 96 154
62 98 158
62 98 159
61 97 157
63 99 170
61 97 156
60 95 148
62 98 159
62 97 154
60 95 151
61 96 146
61 97 153
62 98 163
62 98 165
63 99 163
61 97 155
61 96 153
62 98 157
61 97 155
62 98 153
62 98 161
61 97 155
61 97 155
62 98 158
61 97 157
62 97 153
62 98 159
62 98 161
62 98 159
61 97 158
61 97 157
61 97 159
62 97 157
61 97 161
61 97 162
63 98 163
62 97 162
62 98 165
61 97 161
61 96 154
62 98 165
61 97 154
61 96 151
61 96 154
61 96 162
61 96 161
62 98 163
61 97 159
61 97 161
62 97 161
62 97 164
60 95 157
61 96 162
62 97 162
62 98 166
62 97 166
62 97 160
60 95 152
61 96 165
61 96 164
61 96 168
61 96 163
115 140 190
205 224 252
210 229 255
210 229 255
210 229 255
209 229 255
209 229 255
209 229 255
209 229 255
209 229 255
209 229 255
209 229 255
209 229 255
209 229 255
209 229 255
209 229 255
209 229 255
209 229 255
209 229 255
209 229 255
209 229 255
209 229 255
209 229 255
209 229 255
209 229 255
209 229 255
209 229 255
209 229 255
209 229 255
209 229 255
209 229 255
209 229 255
209 229 255
209 229 255
209 228 255
209 228 255
209 228 255
209 228 255
208 228 255
208 228 255
208 228 255
208 228 255
208 228 255
198 215 234
154 162 160
132 129 86
126 123 82
128 126 84
140 139 93
141 139 93
141 139 93
136 135 90
147 145 97
143 142 95
126 125 84
129 128 86
151 149 99
132 130 87
136 135 90
136 135 90
137 136 91
136 134 90
129 127 85
141 140 94
135 133 88
137 135 90
128 126 84
128 127 87
158 163 154
198 215 236
208 228 255
208 228 255
208 228 255
208 228 255
208 228 255
208 228 255
209 228 255
209 228 255
209 228 255
209 229 255
209 229 255
209 229 255
209 229 255
209 229 255
209 229 255
209 229 255
209 229 255
209 229 255
209 229 255
209 229 255
209 229 255
209 229 255
209 229 255
209 229 255
209 229 255
209 229 255
209 229 255
209 229 255
209 229 255
209 229 255
209 229 255
209 229 255
209 229 255
209 229 255
209 229 255
209 229 255
209 229 255
209 229 255
210 229 255
210 229 255
210 229 255
210 229 255
210 229 255
210 229 255
210 229 255
210 229 255
210 229 255
210 229 255
210 229 255
210 229 255
210 229 255
210 229 255
210 229 255
210 229 255
210 229 255
210 229 255
210 229 255
210 229 255
210 229 255
210 230 255
210 230 255
211 230 255
211 230 255
211 230 255
211 230 255
211 230 255
211 230 255
211 230 255
211 230 255
211 230 255
211 230 255
211 230 255
211 230 255
211 230 255
211 230 255
211 230 255
211 230 255
211 230 255
211 230 255
211 230 255
211 230 255
211 230 255
211 230 255
211 230 255
212 230 255
212 230 255
212 230 255
212 230 255
212 230 255
212 230 255
212 230 255
212 230 255
212 230 255
212 230 255
212 230 255
212 230 255
212 230 255
212 230 255
212 230 255
212 230 255
212 230 255
212 231 255
212 231 255
212 231 255
212 231 255
212 231 255
212 231 255
217 233 255
217 233 255
217 233 255
216 233 255
216 233 255
216 233 255
216 233 255
216 233 255
216 233 255
118 142 181
61 97 160
61 96 152
62 98 163
61 97 154
61 96 147
61 96 153
62 97 154
62 97 151
62 98 156
60 96 147
62 97 151
62 98 160
61 97 151
61 96 152
61 97 154
61 97 154
60 96 152
61 97 157
61 97 153
61 97 159
61 96 145
60 96 143
61 97 152
61 97 155
62 98 164
61 96 152
63 99 161
61 97 154
62 97 158
61 97 152
61 96 145
60 96 148
61 97 150
61 97 153
63 98 157
62 98 156
62 98 161
60 95 145
60 95 143
61 96 150
61 96 148
62 97 157
61 97 152
62 98 157
59 94 141
61 97 155
61 96 149
62 97 149
61 97 153
63 98 160
61 96 147
62 97 157
61 96 145
61 97 154
61 97 151
61 96 145
62 98 155
62 97 152
61 96 151
61 96 153
61 97 148
61 97 152
62 98 154
62 97 152
62 97 152
61 96 149
61 96 147
62 97 154
61 97 152
61 96 156
61 96 149
62 97 155
62 97 148
61 96 144
62 98 157
63 99 162
62 98 154
61 96 149
61 96 144
61 97 152
61 96 150
63 99 163
62 98 156
62 97 155
62 97 154
62 97 155
61 96 150
62 97 153
62 97 155
61 97 148
62 97 151
60 96 147
61 97 155
61 97 149
61 96 144
62 97 148
62 98 154
62 97 144
62 98 157
61 97 149
62 98 154
60 95 145
61 97 156
62 97 152
62 98 159
60 95 148
62 98 159
61 96 150
61 96 148
61 97 155
61 97 154
62 98 161
62 97 154
62 97 158
61 97 148
62 98 160
61 96 150
62 98 158
61 97 157
62 98 160
61 96 148
62 97 153
60 95 144
61 97 151
61 97 150
62 98 156
62 98 156
62 98 159
63 99 162
61 97 159
62 97 147
61 96 152
63 98 151
62 97 159
61 96 150
62 98 164
61 96 152
62 98 160
62 97 154
62 98 158
61 97 154
61 97 152
61 97 154
61 96 145
62 98 157
62 98 160
61 97 157
61 97 157
61 97 156
63 99 172
62 97 152
62 98 160
62 98 158
62 98 158
61 97 155
63 99 162
61 96 150
63 98 160
62 98 160
61 97 158
62 98 161
62 98 164
62 97 155
61 97 159
61 96 145
62 98 157
62 98 158
61 97 149
63 98 161
63 99 165
62 98 155
62 98 159
61 97 159
61 96 149
62 98 161
60 96 149
62 98 156
62 97 156
61 96 152
62 98 160
61 96 156
62 97 160
62 97 158
62 97 165
62 98 163
60 96 155
62 97 159
62 98 159
61 97 165
62 98 160
61 97 156
61 96 160
61 97 158
61 96 157
61 96 158
61 96 156
62 97 155
62 98 160
62 97 160
60 95 151
61 97 162
61 97 161
61 97 158
61 96 161
61 96 159
62 97 165
61 95 158
60 95 161
61 97 163
61 96 156
61 96 166
61 96 166
61 96 168
61 95 161
141 163 210
210 229 255
210 229 255
210 229 255
210 229 255
210 229 255
210 229 255
210 229 255
210 229 255
209 229 255
209 229 255
209 229 255
209 229 255
209 229 255
209 229 255
209 229 255
209 229 255
209 229 255
209 229 255
209 229 255
209 229 255
209 229 255
209 229 255
209 229 255
209 229 255
209 229 255
209 229 255
209 229 255
209 229 255
209 229 255
209 229 255
209 229 255
209 229 255
209 229 255
209 229 255
209 229 255
209 229 255
209 229 255
209 229 255
209 229 255
205 225 252
168 178 180
138 136 93
126 124 83
131 130 87
152 150 100
139 138 93
140 139 93
136 135 90
139 138 93
141 139 93
130 129 87
139 137 92
148 146 98
145 143 96
143 142 95
134 133 90
128 127 85
142 140 94
137 135 90
138 136 91
145 144 97
144 142 95
146 144 97
136 134 89
137 136 91
128 126 84
135 132 87
141 138 92
171 180 178
206 226 252
209 229 255
209 229 255
209 229 255
209 229 255
209 229 255
209 229 255
209 229 255
209 229 255
209 229 255
209 229 255
209 229 255
209 229 255
209 229 255
209 229 255
209 229 255
209 229 255
209 229 255
209 229 255
209 229 255
209 229 255
209 229 255
209 229 255
209 229 255
209 229 255
209 229 255
209 229 255
209 229 255
209 229 255
209 229 255
209 229 255
209 229 255
210 229 255
210 229 255
210 229 255
210 229 255
210 229 255
210 229 255
210 229 255
210 229 255
210 229 255
210 229 255
210 229 255
210 229 255
210 229 255
210 229 255
210 229 255
210 229 255
210 229 255
210 229 255
210 229 255
210 229 255
210 229 255
210 230 255
210 230 255
210 230 255
211 230 255
211 230 255
211 230 255
211 230 255
211 230 255
211 230 255
211 230 255
211 230 255
211 230 255
211 230 255
211 230 255
211 230 255
211 230 255
211 230 255
211 230 255
211 230 255
211 230 255
211 230 255
211 230 255
211 230 255
211 230 255
211 230 255
211 230 255
212 230 255
212 230 255
212 230 255
212 230 255
212 230 255
212 230 255
212 230 255
212 230 255
212 230 255
212 230 255
212 230 255
212 230 255
212 230 255
212 230 255
212 230 255
212 230 255
212 230 255
212 231 255
212 231 255
212 231 255
212 231 255
212 231 255
212 231 255
212 231 255
213 231 255
213 231 255
213 231 255
217 233 255
217 233 255
217 233 255
217 233 255
217 233 255
217 233 255
217 233 255
217 233 255
217 233 255
215 231 254
124 146 181
61 96 152
60 95 144
61 97 158
60 95 143
60 96 147
60 96 152
61 97 154
61 96 147
60 96 147
60 95 145
61 97 155
60 95 152
61 97 149
60 95 145
62 98 159
61 97 154
61 97 152
62 97 157
61 97 158
61 97 148
61 97 155
61 97 149
61 97 154
61 97 152
61 97 152
61 97 147
61 96 149
61 96 152
62 97 154
62 97 154
61 97 153
61 97 149
62 97 154
61 97 148
61 96 155
61 97 150
62 97 157
62 98 154
61 97 145
61 97 153
60 94 141
62 97 145
60 96 145
61 97 145
62 97 157
61 96 143
61 96 147
61 97 154
61 97 149
61 97 150
61 97 151
62 97 156
61 97 154
62 97 156
62 98 156
61 97 152
61 97 154
60 96 151
61 97 152
61 97 152
61 96 145
61 97 152
60 96 149
62 97 156
59 94 140
61 96 143
62 98 158
62 97 153
61 97 154
62 97 145
61 97 153
61 96 148
60 95 147
61 96 147
61 96 149
61 96 143
61 97 154
62 97 155
61 96 149
62 98 161
61 97 150
62 97 155
61 96 147
60 95 142
61 97 151
62 97 153
61 96 143
62 98 159
61 96 142
61 96 148
60 96 143
62 97 156
61 96 143
61 96 147
61 97 152
63 99 164
61 97 150
62 97 154
62 97 151
62 97 152
60 95 144
61 96 151
62 97 152
61 97 150
62 98 154
61 97 150
61 96 149
61 96 153
62 98 153
62 97 152
61 97 150
61 97 151
62 97 155
62 97 152
61 97 148
63 99 161
62 97 155
61 96 151
61 97 152
61 97 152
61 97 152
62 97 155
62 97 155
62 97 155
61 97 154
62 97 147
61 97 156
62 97 152
61 97 155
62 97 153
61 97 153
62 98 158
62 98 160
63 98 163
60 95 149
62 98 153
62 97 157
62 98 155
61 96 145
62 98 157
62 98 151
61 98 158
62 98 159
61 97 151
62 98 163
62 98 154
62 97 153
62 98 161
62 98 156
61 96 152
62 97 145
62 98 155
62 97 157
60 95 143
61 96 153
61 96 149
62 98 160
61 97 154
62 98 156
61 97 155
62 98 158
62 97 147
62 98 158
63 99 161
62 97 158
62 98 158
61 97 153
62 97 156
62 98 155
62 98 159
62 98 157
62 97 159
61 97 149
62 97 159
62 97 152
61 97 158
62 98 163
61 97 153
62 98 159
62 98 162
62 98 160
61 96 152
61 97 164
61 97 160
61 97 152
61 97 150
61 97 159
61 97 158
61 96 153
61 96 160
61 97 158
61 97 161
61 97 159
62 97 155
62 98 159
61 97 159
62 97 156
61 96 154
62 97 158
62 98 164
61 96 156
61 96 153
61 96 162
61 96 161
62 97 164
61 96 157
61 97 162
61 96 162
59 93 150
61 96 161
61 95 161
61 98 169
60 95 161
61 96 162
152 173 214
210 229 255
210 229 255
210 229 255
210 229 255
210 229 255
210 229 255
210 229 255
210 229 255
210 229 255
210 229 255
210 229 255
210 229 255
209 229 255
209 229 255
209 229 255
209 229 255
209 229 255
209 229 255
209 229 255
209 229 255
209 229 255
209 229 255
209 229 255
209 229 255
209 229 255
209 229 255
209 229 255
209 229 255
209 229 255
209 229 255
209 229 255
209 229 255
209 229 255
209 229 255
209 229 255
209 229 255
209 229 255
195 212 233
154 158 145
137 135 90
136 133 88
129 127 85
138 136 91
127 126 84
130 129 87
142 141 95
136 135 90
139 138 93
132 131 88
140 139 93
135 134 90
143 142 95
140 139 93
139 138 93
144 143 96
140 139 93
135 134 90
144 143 96
145 145 97
133 132 89
140 139 93
134 133 89
132 131 88
126 125 84
138 135 90
145 143 95
131 129 86
119 117 78
146 146 118
195 210 227
209 229 255
209 229 255
209 229 255
209 229 255
209 229 255
209 229 255
209 229 255
209 229 255
209 229 255
209 229 255
209 229 255
209 229 255
209 229 255
209 229 255
209 229 255
209 229 255
209 229 255
209 229 255
209 229 255
209 229 255
209 229 255
209 229 255
209 229 255
209 229 255
209 229 255
210 229 255
210 229 255
210 229 255
210 229 255
210 229 255
210 229 255
210 229 255
210 229 255
210 229 255
210 229 255
210 229 255
210 229 255
210 229 255
210 229 255
210 229 255
210 229 255
210 229 255
210 229 255
210 229 255
210 229 255
210 229 255
210 229 255
210 230 255
210 230 255
210 230 255
211 230 255
211 230 255
211 230 255
211 230 255
211 230 255
211 230 255
211 230 255
211 230 255
211 230 255
211 230 255
211 230 255
211 230 255
211 230 255
211 230 255
211 230 255
211 230 255
211 230 255
211 230 255
211 230 255
211 230 255
211 230 255
211 230 255
211 230 255
212 230 255
212 230 255
212 230 255
212 230 255
212 230 255
212 230 255
212 230 255
212 230 255
212 230 255
212 230 255
212 230 255
212 230 255
212 230 255
212 230 255
212 230 255
212 230 255
212 230 255
212 231 255
212 231 255
212 231 255
212 231 255
212 231 255
212 231 255
212 231 255
213 231 255
213 231 255
213 231 255
213 231 255
213 231 255
213 231 255
213 231 255
217 233 255
217 233 255
217 233 255
217 233 255
217 233 255
217 233 255
217 233 255
217 233 255
217 233 255
217 233 255
215 231 253
136 157 194
61 96 149
61 97 157
62 97 153
61 97 154
61 97 155
62 97 159
62 98 155
61 97 155
61 97 149
61 96 147
61 96 140
62 97 150
62 98 158
60 95 151
61 96 151
61 97 154
61 96 145
61 96 152
62 98 154
60 95 145
61 97 152
60 95 140
62 98 153
62 97 156
62 97 158
61 97 149
60 96 142
61 97 154
61 97 147
61 97 149
60 95 142
62 98 155
61 97 149
62 97 156
62 98 154
60 96 148
62 97 156
61 97 152
61 96 150
62 97 159
62 97 151
59 94 141
61 96 145
61 97 156
62 98 155
62 98 154
60 96 145
61 97 155
61 96 148
62 98 161
61 96 149
61 97 156
62 97 155
62 97 155
61 97 147
62 97 151
61 97 150
61 96 153
61 96 153
61 97 153
61 96 142
62 98 159
62 97 151
60 96 154
61 97 151
62 97 151
61 96 148
61 96 147
62 98 155
61 97 151
61 96 152
61 97 153
61 97 152
62 97 155
62 98 156
61 97 152
61 96 147
60 96 154
61 96 149
62 98 155
61 97 149
61 96 145
62 98 154
61 97 148
61 97 148
62 97 152
62 98 157
62 98 156
61 97 152
61 97 147
61 96 145
62 97 156
62 98 157
62 98 152
62 97 150
62 97 148
62 98 157
62 97 153
62 98 152
61 97 147
62 98 154
62 98 155
62 98 156
63 99 161
61 97 152
61 96 144
62 97 150
63 99 160
63 98 158
61 97 149
61 97 147
61 97 153
61 97 152
61 97 151
61 97 153
61 96 148
61 97 151
61 97 156
61 97 152
63 99 159
62 97 153
62 98 152
62 98 159
61 97 149
61 97 153
61 97 152
61 97 150
62 97 157
62 97 154
61 97 150
62 98 157
61 97 157
62 97 151
61 97 156
62 98 158
62 98 153
61 97 153
63 98 160
61 97 157
61 96 148
62 97 155
62 97 153
61 96 149
62 98 159
62 98 159
62 97 152
60 96 153
62 98 162
62 98 159
63 98 158
62 98 158
61 97 156
62 98 158
62 97 152
62 97 150
62 98 162
61 97 157
63 99 162
62 98 156
61 96 149
62 98 159
61 97 153
62 98 158
61 96 152
61 97 156
62 97 157
61 96 147
62 97 158
61 97 154
61 96 148
62 98 159
61 96 150
62 98 166
62 98 158
61 97 155
62 97 156
60 96 145
63 98 160
62 98 160
62 97 160
62 97 159
61 96 156
62 97 151
60 96 153
61 97 158
62 97 161
62 97 158
60 96 148
62 97 154
62 98 156
61 96 153
62 98 162
60 95 155
62 97 152
62 97 164
62 98 166
61 96 158
61 97 162
61 97 160
60 95 153
62 97 165
62 97 157
60 96 158
62 97 158
61 96 158
61 96 154
60 95 162
61 96 153
60 95 166
61 96 161
61 96 164
60 95 160
60 94 159
61 95 160
179 199 232
210 229 255
210 229 255
210 229 255
210 229 255
210 229 255
210 229 255
210 229 255
210 229 255
210 229 255
210 229 255
210 229 255
210 229 255
210 229 255
210 229 255
210 229 255
210 229 255
210 229 255
209 229 255
209 229 255
209 229 255
209 229 255
209 229 255
209 229 255
209 229 255
209 229 255
209 229 255
209 229 255
209 229 255
209 229 255
209 229 255
209 229 255
209 229 255
209 229 255
209 229 255
209 229 255
173 185 194
135 134 100
136 133 88
132 129 86
142 141 94
138 136 91
130 129 86
143 141 95
137 134 90
135 134 90
133 132 89
146 145 97
148 146 97
149 148 100
135 134 90
145 144 97
136 135 91
143 142 95
148 146 98
144 143 96
131 130 87
146 146 98
134 133 89
139 138 93
148 148 99
149 148 99
144 142 95
138 136 91
134 132 88
148 145 97
129 127 84
137 134 89
135 133 88
128 126 89
187 201 212
209 229 255
209 229 255
209 229 255
209 229 255
209 229 255
209 229 255
209 229 255
209 229 255
209 229 255
209 229 255
209 229 255
209 229 255
209 229 255
209 229 255
209 229 255
209 229 255
209 229 255
209 229 255
210 229 255
210 229 255
210 229 255
210 229 255
210 229 255
210 229 255
210 229 255
210 229 255
210 229 255
210 229 255
210 229 255
210 229 255
210 229 255
210 229 255
210 229 255
210 229 255
210 229 255
210 229 255
210 229 255
210 229 255
210 229 255
210 229 255
210 229 255
210 229 255
210 230 255
210 230 255
210 230 255
211 230 255
211 230 255
211 230 255
211 230 255
211 230 255
211 230 255
211 230 255
211 230 255
211 230 255
211 230 255
211 230 255
211 230 255
211 230 255
211 230 255
211 230 255
211 230 255
211 230 255
211 230 255
211 230 255
211 230 255
211 230 255
211 230 255
211 230 255
212 230 255
212 230 255
212 230 255
212 230 255
212 230 255
212 230 255
212 230 255
212 230 255
212 230 255
212 230 255
212 230 255
212 230 255
212 230 255
212 230 255
212 230 255
212 230 255
212 230 255
212 231 255
212 231 255
212 231 255
212 231 255
212 231 255
212 231 255
212 231 255
213 231 255
213 231 255
213 231 255
213 231 255
213 231 255
213 231 255
213 231 255
213 231 255
213 231 255
213 231 255
213 231 255
217 233 255
217 233 255
217 233 255
217 233 255
217 233 255
217 233 255
217 233 255
217 233 255
217 233 255
217 233 255
217 233 255
213 229 252
122 145 180
61 97 145
61 97 155
61 97 153
62 98 155
61 96 147
62 98 158
60 96 151
61 96 151
61 96 148
60 95 144
60 95 148
61 97 158
61 96 151
61 97 148
62 97 153
61 97 152
61 96 145
60 95 145
60 95 142
61 97 154
60 96 148
61 97 154
62 97 149
60 95 141
61 96 152
60 96 149
60 96 144
61 97 151
62 97 153
62 97 151
61 96 140
62 97 149
62 98 154
61 97 145
59 94 137
61 96 147
61 96 151
60 95 142
61 97 148
61 97 152
60 95 139
61 97 142
62 97 153
60 96 144
61 96 150
60 95 152
60 95 143
61 96 154
61 97 152
60 95 148
60 96 149
62 97 151
61 97 154
61 97 157
63 98 158
61 96 147
60 96 149
62 97 153
62 97 153
62 98 155
61 97 147
60 96 148
62 97 148
61 97 156
62 97 151
61 96 152
61 97 151
62 98 156
61 97 149
61 96 149
61 97 151
61 96 144
61 97 150
62 98 153
62 97 149
62 98 157
62 97 155
62 98 158
63 99 162
62 98 154
61 97 154
61 96 151
61 96 150
62 97 157
61 97 151
62 97 143
61 97 152
60 96 141
62 97 157
62 97 148
59 94 137
62 97 152
61 96 147
61 97 155
60 95 144
61 97 150
62 98 155
61 96 151
61 97 151
62 98 157
62 97 154
61 97 152
62 97 158
61 96 145
61 96 149
60 96 143
60 96 151
60 96 143
63 99 161
62 97 152
60 95 144
62 98 154
62 98 155
61 96 150
62 97 151
61 97 148
62 97 153
61 96 147
61 97 153
61 97 152
62 98 159
61 97 154
61 97 158
61 96 143
61 97 148
62 98 160
60 95 150
61 96 151
62 98 153
62 98 157
62 97 151
62 98 154
62 98 158
61 97 151
62 97 151
62 98 154
62 98 161
62 98 153
62 98 155
62 97 150
61 97 154
61 97 154
62 97 154
62 97 155
62 97 159
61 97 155
62 97 151
62 98 156
61 97 152
61 96 148
62 97 151
61 96 150
61 97 155
60 96 144
62 98 165
62 97 155
62 97 153
61 97 152
61 97 153
62 98 154
62 98 165
62 98 159
61 97 149
62 98 157
62 97 157
61 96 147
62 97 155
62 97 153
61 97 157
62 98 161
62 97 156
61 97 153
62 98 161
63 99 163
62 97 153
61 96 148
61 96 151
61 96 154
62 98 160
61 96 152
61 97 155
62 99 171
62 97 159
62 99 167
61 97 147
62 97 155
62 98 161
60 95 156
62 98 159
61 97 160
60 96 154
60 95 152
62 98 158
60 95 149
62 98 163
61 96 156
63 99 169
61 97 159
61 96 156
62 97 160
62 97 161
60 95 156
62 98 165
62 97 160
61 97 162
62 97 163
61 96 158
61 97 163
61 96 163
60 94 156
61 96 160
61 96 160
60 95 156
78 108 167
196 216 246
210 229 255
210 229 255
210 229 255
210 229 255
210 229 255
210 229 255
210 229 255
210 229 255
210 229 255
210 229 255
210 229 255
210 229 255
210 229 255
210 229 255
210 229 255
210 229 255
210 229 255
210 229 255
210 229 255
210 229 255
210 229 255
210 229 255
210 229 255
209 229 255
209 229 255
209 229 255
209 229 255
209 229 255
209 229 255
209 229 255
209 229 255
209 229 255
209 229 255
169 181 192
134 132 88
135 133 88
134 132 88
138 136 91
143 142 95
141 139 93
149 147 98
143 142 95
146 144 96
142 141 96
149 148 99
139 138 93
139 139 93
144 143 96
140 139 94
138 137 92
141 140 95
142 141 95
150 148 99
153 151 101
147 145 97
155 154 103
150 148 99
145 144 97
138 137 93
140 138 93
149 148 99
135 134 90
143 141 94
148 146 97
143 141 94
140 138 91
132 130 85
135 132 88
134 131 87
173 184 188
209 229 255
209 229 255
209 229 255
209 229 255
209 229 255
209 229 255
209 229 255
209 229 255
209 229 255
209 229 255
209 229 255
210 229 255
210 229 255
210 229 255
210 229 255
210 229 255
210 229 255
210 229 255
210 229 255
210 229 255
210 229 255
210 229 255
210 229 255
210 229 255
210 229 255
210 229 255
210 229 255
210 229 255
210 229 255
210 229 255
210 229 255
210 229 255
210 229 255
210 229 255
210 229 255
210 229 255
210 230 255
210 230 255
210 230 255
211 230 255
211 230 255
211 230 255
211 230 255
211 230 255
211 230 255
211 230 255
211 230 255
211 230 255
211 230 255
211 230 255
211 230 255
211 230 255
211 230 255
211 230 255
211 230 255
211 230 255
211 230 255
211 230 255
211 230 255
211 230 255
211 230 255
211 230 255
211 230 255
212 230 255
212 230 255
212 230 255
212 230 255
212 230 255
212 230 255
212 230 255
212 230 255
212 230 255
212 230 255
212 230 255
212 230 255
212 230 255
212 230 255
212 230 255
212 230 255
212 231 255
212 231 255
212 231 255
212 231 255
212 231 255
212 231 255
212 231 255
213 231 255
213 231 255
213 231 255
213 231 255
213 231 255
213 231 255
213 231 255
213 231 255
213 231 255
213 231 255
213 231 255
213 231 255
213 231 255
213 231 255
213 231 255
213 231 255
217 233 255
217 233 255
217 233 255
217 233 255
217 233 255
217 233 255
217 233 255
217 233 255
217 233 255
217 233 255
217 233 255
217 233 255
213 229 252
101 127 176
61 97 157
61 97 152
61 97 153
61 96 151
61 96 143
61 97 151
61 96 145
61 97 153
61 97 149
62 98 156
60 96 145
61 97 150
62 98 156
61 97 152
62 97 150
62 97 152
61 96 147
60 95 143
61 96 145
60 96 144
61 97 148
62 97 153
62 98 156
62 98 154
61 96 147
62 97 153
62 98 161
61 96 145
60 96 149
61 96 148
61 96 153
61 96 156
61 97 150
60 96 147
61 96 149
62 98 156
61 97 153
60 96 147
61 97 144
60 95 147
60 95 144
61 97 153
61 96 143
62 98 156
60 96 150
61 97 151
61 96 150
61 97 150
61 97 150
61 97 151
61 97 153
61 97 150
62 97 148
60 96 142
61 97 154
60 96 153
60 96 150
60 95 150
60 96 144
62 97 151
61 97 148
61 97 153
60 95 144
60 96 150
61 96 143
61 97 150
60 95 147
61 97 152
62 97 148
61 96 145
61 96 145
61 97 149
62 98 156
62 97 153
62 98 159
61 97 149
62 97 149
60 95 147
61 96 143
62 97 153
61 96 150
63 98 158
62 98 154
60 95 147
62 97 147
61 96 145
61 97 149
62 97 149
62 97 149
62 98 154
61 97 151
62 97 153
61 97 148
61 96 144
63 98 155
61 97 155
62 98 153
60 96 144
61 97 147
62 97 152
60 96 145
62 97 149
62 97 152
61 97 153
60 96 147
61 96 147
62 97 153
61 96 149
61 96 149
62 97 155
61 96 148
62 97 157
61 97 154
61 97 158
63 99 159
62 97 152
61 97 156
62 97 152
62 98 159
61 97 152
62 97 153
62 98 159
62 98 159
61 96 147
61 97 157
62 98 156
62 98 156
59 94 139
62 97 150
61 96 152
62 98 160
61 97 155
62 98 156
60 96 145
61 97 153
61 96 141
61 96 144
62 98 157
63 99 159
62 97 155
61 97 148
61 96 154
61 96 144
61 97 151
61 96 148
62 97 155
61 96 148
62 98 164
61 97 152
61 96 142
63 98 161
61 96 153
62 97 148
61 96 143
61 97 148
62 98 164
62 98 157
62 98 155
62 98 159
63 99 163
61 96 156
62 98 157
61 97 157
60 96 151
61 96 150
62 98 154
61 97 158
61 97 153
61 96 155
62 97 156
63 98 157
62 98 155
62 98 155
62 98 156
62 98 154
61 97 157
62 98 161
61 97 148
62 97 160
62 98 159
62 98 157
62 97 154
62 98 158
61 97 150
62 98 163
61 97 156
62 97 152
62 99 165
62 98 157
62 97 164
62 98 162
61 96 155
61 96 149
61 96 153
62 97 164
61 97 159
61 95 156
60 95 154
61 96 157
61 95 153
61 96 154
61 97 160
61 96 157
61 97 158
61 97 166
59 93 145
60 95 152
62 97 161
61 96 160
62 96 158
60 95 154
61 96 165
61 95 161
86 114 174
203 222 250
210 230 255
210 229 255
210 229 255
210 229 255
210 229 255
210 229 255
210 229 255
210 229 255
210 229 255
210 229 255
210 229 255
210 229 255
210 229 255
210 229 255
210 229 255
210 229 255
210 229 255
210 229 255
210 229 255
210 229 255
210 229 255
210 229 255
210 229 255
210 229 255
210 229 255
210 229 255
210 229 255
210 229 255
210 229 255
210 229 255
209 229 255
180 192 202
124 123 82
132 131 87
129 127 85
144 142 95
140 138 93
132 131 88
141 139 93
138 138 93
129 128 86
148 147 100
143 142 95
143 142 96
144 143 96
148 147 99
143 142 96
145 144 97
147 145 97
139 139 94
148 146 98
141 140 94
150 149 100
144 143 97
153 153 103
141 140 94
151 150 101
149 148 100
144 142 95
153 151 101
141 139 93
138 137 91
143 142 95
133 132 89
137 136 91
147 144 95
139 136 90
136 133 87
133 130 86
165 173 172
208 228 254
210 229 255
210 229 255
210 229 255
210 229 255
210 229 255
210 229 255
210 229 255
210 229 255
210 229 255
210 229 255
210 229 255
210 229 255
210 229 255
210 229 255
210 229 255
210 229 255
210 229 255
210 229 255
210 229 255
210 229 255
210 229 255
210 229 255
210 229 255
210 229 255
210 229 255
210 229 255
210 229 255
210 229 255
210 229 255
210 230 255
210 230 255
210 230 255
211 230 255
211 230 255
211 230 255
211 230 255
211 230 255
211 230 255
211 230 255
211 230 255
211 230 255
211 230 255
211 230 255
211 230 255
211 230 255
211 230 255
211 230 255
211 230 255
211 230 255
211 230 255
211 230 255
211 230 255
211 230 255
211 230 255
211 230 255
211 230 255
212 230 255
212 230 255
212 230 255
212 230 255
212 230 255
212 230 255
212 230 255
212 230 255
212 230 255
212 230 255
212 230 255
212 230 255
212 230 255
212 230 255
212 230 255
212 230 255
212 230 255
212 231 255
212 231 255
212 231 255
212 231 255
212 231 255
212 231 255
212 231 255
213 231 255
213 231 255
213 231 255
213 231 255
213 231 255
213 231 255
213 231 255
213 231 255
213 231 255
213 231 255
213 231 255
213 231 255
213 231 255
213 231 255
213 231 255
213 231 255
213 231 255
213 231 255
213 231 255
213 231 255
217 233 255
217 233 255
217 233 255
217 233 255
217 233 255
217 233 255
217 233 255
217 233 255
217 233 255
217 233 255
217 233 255
217 233 255
217 233 255
215 231 254
120 143 179
60 96 153
60 96 150
62 98 157
61 96 151
61 96 150
62 98 160
61 97 149
62 98 158
60 95 142
62 98 157
61 96 150
61 97 149
60 96 147
62 97 156
61 96 149
61 97 153
61 97 152
62 98 157
61 96 148
60 95 139
62 98 154
61 96 147
61 97 154
62 97 150
61 97 151
60 95 137
61 97 150
61 96 148
61 96 148
62 98 155
61 97 149
61 97 149
61 97 155
61 97 153
63 98 155
61 96 145
59 94 143
61 97 156
60 95 143
62 97 153
61 97 147
61 97 149
60 94 142
61 97 152
61 96 148
61 96 155
61 97 153
61 97 156
61 96 142
61 97 152
62 98 159
62 97 154
61 97 151
62 98 156
61 97 151
63 98 159
62 98 154
60 96 144
61 96 155
62 97 154
61 97 153
61 97 148
61 96 150
61 96 155
62 97 153
61 96 145
60 95 144
61 96 150
61 97 152
61 96 148
62 98 151
61 96 149
61 97 148
60 95 148
61 97 156
62 97 157
61 96 151
61 96 149
61 97 151
61 97 154
62 97 154
60 96 145
62 97 151
60 95 149
62 98 156
60 95 148
62 98 154
62 98 153
63 98 159
61 96 150
61 96 145
62 98 160
62 97 152
61 96 152
60 95 142
60 95 145
61 97 153
61 96 150
62 98 155
61 97 145
62 98 160
62 98 159
61 97 155
62 98 154
62 98 156
61 96 150
61 96 145
61 96 148
62 98 155
61 96 150
61 96 150
62 98 159
62 98 159
62 98 157
61 96 151
62 97 152
62 98 157
61 96 152
61 97 153
61 97 149
62 98 162
62 98 156
61 97 152
61 97 152
60 94 145
61 97 153
61 97 150
60 95 140
62 97 156
61 96 152
61 97 160
61 96 147
62 98 158
61 96 151
61 97 152
62 98 157
63 98 152
61 96 157
61 96 148
61 97 152
62 98 161
62 98 158
61 97 151
62 97 155
60 96 155
62 97 148
61 96 148
61 97 147
60 96 151
62 97 160
62 98 156
62 97 155
61 97 149
62 98 156
62 98 159
61 97 150
63 99 163
62 98 157
61 97 155
61 97 157
62 98 163
62 97 153
61 95 150
62 98 161
61 96 149
61 97 150
61 97 152
61 96 149
61 96 154
61 96 157
60 95 149
61 97 150
60 96 150
61 97 154
61 97 157
62 97 152
62 98 158
60 95 155
62 98 162
61 96 148
62 98 162
61 97 156
60 95 152
60 96 159
62 98 159
63 99 164
62 98 163
62 98 158
62 98 156
62 98 160
62 97 159
61 96 156
62 98 167
61 97 158
61 97 164
63 98 161
61 96 156
61 96 153
63 98 166
61 97 161
60 95 157
61 96 163
61 97 160
61 96 154
62 97 158
60 96 159
61 95 158
62 97 160
60 94 154
61 96 160
59 93 155
59 94 158
60 93 156
117 140 188
210 229 255
211 230 255
211 230 255
210 230 255
210 230 255
210 230 255
210 229 255
210 229 255
210 229 255
210 229 255
210 229 255
210 229 255
210 229 255
210 229 255
210 229 255
210 229 255
210 229 255
210 229 255
210 229 255
210 229 255
210 229 255
210 229 255
210 229 255
210 229 255
210 229 255
210 229 255
210 229 255
210 229 255
210 229 255
210 229 255
177 190 199
133 131 87
140 137 91
145 143 95
130 129 86
128 127 86
144 142 96
145 144 96
143 141 95
142 140 94
149 147 99
135 134 90
150 149 100
141 140 94
144 144 97
136 135 91
145 143 96
144 143 97
146 145 98
148 146 98
151 150 101
153 152 103
139 138 93
146 145 97
140 139 93
149 148 99
144 143 96
152 151 101
141 139 93
145 145 97
147 145 97
144 142 95
146 145 97
153 150 100
150 147 97
129 127 85
137 135 90
125 122 81
130 127 84
135 132 87
166 175 178
210 229 255
210 229 255
210 229 255
210 229 255
210 229 255
210 229 255
210 229 255
210 229 255
210 229 255
210 229 255
210 229 255
210 229 255
210 229 255
210 229 255
210 229 255
210 229 255
210 229 255
210 229 255
210 229 255
210 229 255
210 229 255
210 229 255
210 229 255
210 229 255
210 230 255
210 230 255
210 230 255
211 230 255
211 230 255
211 230 255
211 230 255
211 230 255
211 230 255
211 230 255
211 230 255
211 230 255
211 230 255
211 230 255
211 230 255
211 230 255
211 230 255
211 230 255
211 230 255
211 230 255
211 230 255
211 230 255
211 230 255
211 230 255
211 230 255
211 230 255
211 230 255
211 230 255
212 230 255
212 230 255
212 230 255
212 230 255
212 230 255
212 230 255
212 230 255
212 230 255
212 230 255
212 230 255
212 230 255
212 230 255
212 230 255
212 230 255
212 230 255
212 230 255
212 230 255
212 231 255
212 231 255
212 231 255
212 231 255
212 231 255
212 231 255
212 231 255
213 231 255
213 231 255
213 231 255
213 231 255
213 231 255
213 231 255
213 231 255
213 231 255
213 231 255
213 231 255
213 231 255
213 231 255
213 231 255
213 231 255
213 231 255
213 231 255
213 231 255
213 231 255
213 231 255
213 231 255
213 231 255
213 231 255
213 231 255
213 231 255
217 233 255
217 233 255
217 233 255
217 233 255
217 233 255
217 233 255
217 233 255
217 233 255
217 233 255
217 233 255
217 233 255
217 233 255
217 233 255
217 233 255
209 225 250
105 130 170
60 95 149
61 96 148
62 97 149
60 96 148
61 97 145
61 97 159
61 97 154
61 97 154
61 96 147
60 96 140
61 97 151
60 96 147
61 96 147
62 98 163
61 96 150
61 96 142
61 96 145
61 97 153
59 94 140
62 98 158
61 96 150
61 97 156
60 96 148
62 97 153
61 96 148
61 96 150
60 96 149
61 96 151
61 97 156
60 95 145
61 96 149
61 96 144
61 97 145
61 97 154
61 97 153
62 98 160
61 96 149
60 95 144
61 96 144
62 98 153
61 96 152
61 97 153
60 95 141
61 96 143
61 96 154
61 96 141
62 97 150
61 96 143
61 96 145
60 96 148
61 97 150
62 97 152
61 97 154
61 97 150
61 96 143
61 97 151
61 96 148
61 96 148
62 97 158
61 97 153
60 96 143
61 96 150
62 98 158
61 96 144
61 97 152
62 97 153
61 97 152
62 98 155
62 97 150
61 97 150
61 96 148
60 96 156
61 97 147
61 96 148
62 97 157
62 97 150
61 96 147
62 98 153
62 98 156
62 97 144
61 97 152
61 97 151
61 96 147
61 97 151
63 98 160
61 96 145
61 97 150
62 97 155
61 97 151
61 97 153
61 97 148
61 96 148
61 96 148
62 97 154
61 96 157
61 97 155
61 96 151
62 97 151
61 97 149
62 98 157
60 95 148
62 98 157
61 97 149
62 97 154
61 97 156
62 98 155
60 96 150
62 98 151
61 97 156
62 98 152
61 96 142
62 98 158
60 95 139
62 98 156
62 97 153
62 98 155
61 97 149
61 97 152
61 97 150
61 97 155
61 96 143
61 96 145
61 96 154
61 97 152
62 97 154
62 98 157
62 98 157
61 96 144
62 97 156
61 96 150
61 96 148
63 98 157
61 97 156
62 97 152
61 96 149
62 97 151
62 97 155
61 97 152
62 97 154
62 98 158
61 96 145
61 97 151
62 98 158
61 96 153
62 97 154
62 97 153
62 98 155
60 96 144
62 98 153
62 97 151
61 96 148
61 97 152
62 97 149
62 98 159
62 97 156
61 97 152
61 97 154
61 97 152
62 98 158
61 97 151
62 98 161
62 97 158
60 96 150
61 97 157
61 97 155
61 96 150
61 97 157
61 97 154
62 98 156
62 98 159
61 97 158
61 97 157
62 97 154
62 97 158
61 96 156
61 97 160
62 98 163
62 98 159
61 96 153
63 98 162
61 97 148
62 98 159
63 98 158
62 97 155
61 97 155
60 95 140
61 97 158
62 97 152
62 98 161
61 97 154
61 97 156
63 98 162
61 96 151
62 98 159
62 97 159
61 97 160
61 97 161
62 97 157
62 99 163
61 96 154
62 97 157
60 95 150
61 96 158
61 97 164
59 94 149
60 94 154
61 96 160
60 95 157
60 95 158
60 95 164
62 97 168
58 91 152
60 94 158
151 172 212
211 230 255
211 230 255
211 230 255
211 230 255
211 230 255
211 230 255
211 230 255
211 230 255
210 230 255
210 230 255
210 230 255
210 229 255
210 229 255
210 229 255
210 229 255
210 229 255
210 229 255
210 229 255
210 229 255
210 229 255
210 229 255
210 229 255
210 229 255
210 229 255
210 229 255
210 229 255
210 229 255
210 229 255
188 202 217
140 136 89
122 120 79
136 134 89
140 139 93
144 142 95
137 136 92
141 139 93
139 138 94
142 140 94
145 143 96
151 149 101
141 140 94
154 153 103
150 149 99
149 147 99
142 141 95
148 147 99
155 154 103
141 140 94
148 146 98
150 149 100
153 152 102
150 149 100
148 146 98
149 147 99
141 140 94
147 145 97
145 144 97
140 139 93
146 145 97
145 143 96
139 138 93
149 147 97
152 149 99
148 145 97
143 141 94
132 129 85
131 129 85
141 139 93
133 131 86
134 132 87
184 198 210
210 229 255
210 229 255
210 229 255
210 229 255
210 229 255
210 229 255
210 229 255
210 229 255
210 229 255
210 229 255
210 229 255
210 229 255
210 229 255
210 229 255
210 229 255
210 229 255
210 229 255
210 230 255
210 230 255
210 230 255
211 230 255
211 230 255
211 230 255
211 230 255
211 230 255
211 230 255
211 230 255
211 230 255
211 230 255
211 230 255
211 230 255
211 230 255
211 230 255
211 230 255
211 230 255
211 230 255
211 230 255
211 230 255
211 230 255
211 230 255
211 230 255
211 230 255
211 230 255
211 230 255
211 230 255
211 230 255
212 230 255
212 230 255
212 230 255
212 230 255
212 230 255
212 230 255
212 230 255
212 230 255
212 230 255
212 230 255
212 230 255
212 230 255
212 230 255
212 230 255
212 230 255
212 230 255
212 230 255
212 231 255
212 231 255
212 231 255
212 231 255
212 231 255
212 231 255
212 231 255
213 231 255
213 231 255
213 231 255
213 231 255
213 231 255
213 231 255
213 231 255
213 231 255
213 231 255
213 231 255
213 231 255
213 231 255
213 231 255
213 231 255
213 231 255
213 231 255
213 231 255
213 231 255
213 231 255
213 231 255
213 231 255
213 231 255
213 231 255
213 231 255
213 231 255
213 231 255
214 231 255
214 231 255
214 231 255
217 233 255
217 233 255
217 233 255
217 233 255
217 233 255
217 233 255
217 233 255
217 233 255
217 233 255
217 233 255
217 233 255
217 233 255
217 233 255
217 233 255
217 233 255
214 230 254
108 133 181
60 96 150
61 97 152
61 96 148
60 95 147
61 96 149
61 96 151
61 96 149
60 96 150
61 96 145
61 97 153
61 96 149
60 96 145
62 98 158
61 96 145
62 97 148
60 95 147
62 98 159
62 98 158
62 98 162
61 96 152
61 96 153
61 97 151
61 97 144
60 95 142
61 97 154
61 97 155
60 95 143
61 96 147
61 96 150
62 98 157
60 95 141
61 96 144
61 97 154
62 97 150
61 96 147
61 97 145
61 96 149
61 97 157
62 97 153
61 96 148
60 95 142
61 96 143
61 96 145
62 97 152
62 98 157
61 96 150
61 96 151
61 97 151
60 96 147
61 96 150
62 98 161
62 97 153
60 96 151
62 97 153
62 98 151
61 96 137
60 96 149
60 96 145
60 95 142
61 97 145
62 97 145
62 98 153
61 97 147
61 96 145
61 97 145
62 97 155
61 96 147
61 96 147
62 98 158
61 97 149
61 97 151
60 95 148
62 97 150
62 97 152
62 98 156
62 98 156
61 96 144
62 98 157
62 97 154
61 97 158
62 98 162
61 97 148
60 95 145
61 97 153
62 98 157
61 96 149
61 97 151
61 96 142
61 96 149
61 96 147
61 96 150
62 98 158
60 96 150
62 97 153
61 96 147
61 96 143
61 97 151
60 96 136
62 98 159
62 98 160
62 97 148
62 97 153
61 96 151
61 96 147
61 97 155
61 97 151
61 97 147
61 96 143
61 97 151
62 98 157
62 98 151
62 97 151
61 97 149
61 97 151
61 96 148
61 97 153
62 98 152
62 98 156
61 96 148
60 95 149
62 97 155
62 97 158
61 97 156
61 97 153
62 97 152
61 96 143
61 96 151
61 96 150
61 97 151
61 97 150
61 97 152
61 97 152
61 97 155
62 97 157
61 96 150
62 97 150
61 96 153
61 97 145
61 97 156
61 96 147
61 96 145
62 98 155
61 96 152
62 97 154
61 96 151
62 97 151
62 97 156
61 96 148
62 97 153
62 97 152
60 96 145
61 96 145
61 97 151
61 97 149
61 97 156
61 97 156
61 96 150
62 98 148
61 97 157
60 96 149
61 97 151
62 98 153
61 97 156
61 97 154
61 96 147
62 97 152
62 98 158
61 96 148
61 96 150
60 95 144
61 97 155
61 97 157
61 96 151
62 97 156
60 96 148
61 96 152
61 96 151
61 97 158
61 97 157
62 97 160
61 96 160
61 97 159
61 96 152
61 97 156
62 97 164
62 97 150
62 98 160
61 96 153
61 97 161
60 95 155
61 97 158
62 97 158
61 96 153
61 96 152
61 96 156
61 96 150
61 97 159
61 96 151
61 97 158
62 98 162
60 95 151
62 97 158
61 96 160
61 97 156
62 98 167
62 98 166
59 94 154
61 95 162
61 96 155
60 94 154
60 94 159
60 94 156
60 94 157
188 208 238
211 230 255
211 230 255
211 230 255
211 230 255
211 230 255
211 230 255
211 230 255
211 230 255
211 230 255
211 230 255
211 230 255
211 230 255
211 230 255
210 230 255
210 230 255
210 230 255
210 229 255
210 229 255
210 229 255
210 229 255
210 229 255
210 229 255
210 229 255
210 229 255
210 229 255
210 229 255
196 212 230
125 124 89
132 131 88
137 135 91
139 137 91
138 138 93
141 140 94
144 143 97
146 144 97
143 142 96
145 144 96
148 147 99
150 148 99
148 146 98
151 149 101
140 139 93
149 147 99
144 143 96
136 135 90
147 146 98
150 149 100
154 152 102
147 146 98
158 156 104
148 146 98
147 145 97
149 147 99
150 149 99
157 155 104
148 146 98
153 152 102
153 150 100
152 150 101
148 147 98
153 151 101
146 145 97
148 146 97
150 147 97
139 137 91
141 140 93
134 131 87
131 128 84
138 135 89
130 125 80
179 192 202
210 229 255
210 229 255
210 229 255
210 229 255
210 229 255
210 229 255
210 229 255
210 229 255
210 229 255
210 229 255
210 230 255
210 230 255
210 230 255
211 230 255
211 230 255
211 230 255
211 230 255
211 230 255
211 230 255
211 230 255
211 230 255
211 230 255
211 230 255
211 230 255
211 230 255
211 230 255
211 230 255
211 230 255
211 230 255
211 230 255
211 230 255
211 230 255
211 230 255
211 230 255
211 230 255
211 230 255
211 230 255
211 230 255
211 230 255
211 230 255
212 230 255
212 230 255
212 230 255
212 230 255
212 230 255
212 230 255
212 230 255
212 230 255
212 230 255
212 230 255
212 230 255
212 230 255
212 230 255
212 230 255
212 230 255
212 230 255
212 230 255
212 231 255
212 231 255
212 231 255
212 231 255
212 231 255
212 231 255
212 231 255
212 231 255
213 231 255
213 231 255
213 231 255
213 231 255
213 231 255
213 231 255
213 231 255
213 231 255
213 231 255
213 231 255
213 231 255
213 231 255
213 231 255
213 231 255
213 231 255
213 231 255
213 231 255
213 231 255
213 231 255
213 231 255
213 231 255
213 231 255
213 231 255
213 231 255
213 231 255
214 231 255
214 231 255
214 231 255
214 231 255
214 231 255
214 231 255
214 231 255
214 231 255
217 233 255
217 233 255
217 233 255
217 233 255
217 233 255
217 233 255
217 233 255
217 233 255
217 233 255
217 233 255
217 233 255
217 233 255
217 233 255
217 233 255
217 233 255
217 233 255
212 228 252
128 150 185
60 96 147
60 95 142
60 96 149
61 96 141
60 96 150
62 98 161
62 97 154
60 96 142
60 96 147
61 97 157
60 95 142
61 97 151
61 97 152
61 96 147
61 97 154
59 95 142
61 96 147
61 97 151
61 97 147
62 97 150
61 96 149
61 97 155
61 96 142
61 96 152
61 96 148
61 97 153
61 96 149
61 97 155
61 97 154
61 96 145
61 96 148
61 97 151
59 95 141
60 95 144
60 95 143
61 96 139
61 96 149
61 96 145
61 97 147
61 96 145
60 95 141
61 97 151
60 95 149
61 97 152
61 96 145
61 97 151
60 95 142
62 97 145
60 96 144
61 97 151
61 97 155
62 98 158
60 96 148
62 98 160
62 97 149
61 96 148
61 96 144
62 98 154
62 97 150
62 97 155
60 95 139
61 97 151
61 97 148
61 96 143
62 98 156
61 96 145
61 96 152
62 97 151
60 95 140
61 96 149
61 97 147
61 96 143
62 97 154
61 96 148
61 96 148
61 96 150
61 96 145
61 97 151
60 95 147
61 96 143
60 95 137
61 97 152
62 98 159
61 96 155
61 96 147
61 96 149
61 97 152
61 97 147
61 97 153
62 97 156
62 98 158
60 96 147
62 97 154
61 97 152
61 97 151
62 97 151
62 97 159
60 96 147
62 98 152
59 95 144
60 96 148
62 97 154
61 96 151
60 96 148
61 96 145
60 95 142
61 97 151
61 96 152
61 97 150
62 97 152
62 97 151
61 96 144
62 98 156
60 96 143
61 96 148
61 97 154
61 97 152
60 95 143
61 96 149
61 96 150
61 96 142
62 97 155
61 96 148
62 97 156
62 97 150
62 97 154
61 97 159
62 98 160
61 97 152
61 97 153
62 97 151
61 97 152
61 97 155
61 96 155
62 97 151
62 97 155
62 98 157
61 97 149
61 97 153
61 97 153
61 97 151
61 97 154
61 97 149
63 98 159
62 97 156
62 98 159
61 97 153
60 96 150
61 97 153
61 96 149
61 97 156
63 98 159
61 96 148
61 97 156
62 98 155
62 97 151
61 97 153
61 96 151
61 97 153
62 98 155
62 97 151
62 97 155
63 99 163
62 98 156
62 98 158
62 97 157
62 97 153
61 97 151
62 97 155
62 98 162
62 98 157
62 98 159
62 96 154
60 95 151
61 97 156
61 96 150
61 96 141
61 96 149
62 98 160
62 97 151
62 98 162
60 96 150
61 96 151
61 97 158
61 97 161
61 96 145
61 97 156
61 97 161
60 95 151
62 97 157
60 95 146
60 95 149
60 95 153
61 97 152
62 97 157
61 96 155
61 96 154
61 95 152
61 97 156
61 97 161
62 97 160
61 96 161
61 95 154
61 96 156
60 95 157
59 93 152
61 95 157
61 96 156
62 96 155
59 93 152
61 95 161
60 94 163
75 106 171
196 215 242
211 230 255
211 230 255
211 230 255
211 230 255
211 230 255
211 230 255
211 230 255
211 230 255
211 230 255
211 230 255
211 230 255
211 230 255
211 230 255
211 230 255
211 230 255
211 230 255
211 230 255
211 230 255
211 230 255
210 230 255
210 230 255
210 230 255
210 230 255
210 230 255
204 222 244
138 139 113
134 130 85
137 135 89
129 127 86
141 139 94
130 130 88
145 143 96
132 131 89
144 142 95
134 133 89
156 155 104
149 148 100
148 147 99
152 151 102
142 140 94
146 145 98
145 144 97
148 147 99
150 149 101
144 143 96
152 151 101
151 150 101
155 153 103
157 154 103
152 151 101
148 147 99
152 150 101
145 143 95
149 147 98
154 152 101
146 145 97
159 157 104
154 152 101
141 139 93
156 154 103
142 140 93
153 151 101
138 136 90
149 146 97
144 142 95
137 135 90
136 133 87
133 130 86
142 139 91
154 152 114
208 225 246
210 230 255
210 230 255
210 230 255
210 230 255
211 230 255
211 230 255
211 230 255
211 230 255
211 230 255
211 230 255
211 230 255
211 230 255
211 230 255
211 230 255
211 230 255
211 230 255
211 230 255
211 230 255
211 230 255
211 230 255
211 230 255
211 230 255
211 230 255
211 230 255
211 230 255
211 230 255
211 230 255
211 230 255
211 230 255
211 230 255
211 230 255
211 230 255
211 230 255
211 230 255
212 230 255
212 230 255
212 230 255
212 230 255
212 230 255
212 230 255
212 230 255
212 230 255
212 230 255
212 230 255
212 230 255
212 230 255
212 230 255
212 230 255
212 230 255
212 230 255
212 230 255
212 230 255
212 231 255
212 231 255
212 231 255
212 231 255
212 231 255
212 231 255
212 231 255
213 231 255
213 231 255
213 231 255
213 231 255
213 231 255
213 231 255
213 231 255
213 231 255
213 231 255
213 231 255
213 231 255
213 231 255
213 231 255
213 231 255
213 231 255
213 231 255
213 231 255
213 231 255
213 231 255
213 231 255
213 231 255
213 231 255
213 231 255
213 231 255
213 231 255
213 231 255
214 231 255
214 231 255
214 231 255
214 231 255
214 231 255
214 231 255
214 231 255
214 231 255
214 231 255
214 231 255
214 231 255
214 231 255
220 235 255
218 234 255
217 233 255
217 233 255
217 233 255
217 233 255
217 233 255
217 233 255
217 233 255
217 233 255
217 233 255
217 233 255
217 233 255
217 233 255
217 233 255
217 233 255
217 233 255
213 229 252
117 140 180
60 95 145
61 96 151
61 96 147
60 95 151
60 95 153
62 98 157
62 97 150
62 97 151
59 95 139
62 98 157
61 96 148
61 97 153
61 96 145
60 95 142
60 96 144
59 94 139
61 96 147
61 97 151
60 95 144
62 97 153
62 97 152
61 97 151
60 95 137
61 97 157
62 97 157
61 97 149
61 97 151
61 96 147
60 96 149
61 97 157
61 96 150
60 95 148
60 96 144
61 97 143
61 96 144
60 95 145
61 96 148
62 97 150
61 96 150
60 96 142
60 96 151
61 97 149
61 96 149
62 97 151
61 96 143
61 96 145
62 98 153
61 97 154
61 96 155
61 97 150
62 98 157
62 97 147
62 97 151
61 96 147
61 96 151
61 96 144
61 96 141
61 96 145
62 97 147
60 96 142
62 98 151
62 98 158
60 95 148
62 97 153
61 96 148
60 96 150
62 98 152
60 95 141
61 96 152
61 96 143
60 95 143
61 96 150
62 98 152
61 96 151
61 96 148
60 96 144
61 96 154
61 97 155
61 96 149
61 96 145
61 96 151
61 97 151
61 97 149
62 98 158
61 97 151
62 97 156
61 97 152
61 96 155
61 97 142
61 96 137
60 96 143
61 97 151
61 96 148
61 96 147
61 96 149
62 98 155
62 98 151
61 97 148
61 96 145
61 96 152
61 97 149
61 96 145
61 96 144
62 98 152
61 96 148
60 96 144
62 97 151
61 97 151
61 96 142
62 98 159
61 96 149
61 96 151
62 97 154
62 98 157
62 97 152
62 97 151
60 95 139
63 99 160
62 98 159
61 97 150
61 96 147
61 96 150
61 97 153
61 97 151
62 97 150
61 96 155
61 97 153
61 96 144
61 97 158
61 96 151
60 95 139
61 96 150
61 97 156
61 97 158
61 96 152
62 98 153
62 98 153
61 97 157
61 96 151
62 97 151
61 97 147
61 96 153
62 97 155
61 96 150
62 97 155
61 97 148
61 97 156
61 96 148
62 98 160
62 98 159
60 95 145
61 96 147
62 97 153
62 98 153
62 97 157
61 97 145
61 96 150
62 97 153
62 97 150
62 97 158
61 97 155
61 96 157
63 99 168
62 97 156
61 97 155
62 97 161
62 98 157
62 98 156
61 97 154
62 98 158
62 97 151
61 96 144
61 96 148
62 97 153
63 98 154
61 96 155
61 96 154
61 97 151
61 96 148
61 96 154
61 97 161
61 97 156
62 97 161
61 96 150
62 97 156
61 97 154
61 97 158
62 98 164
62 97 159
61 96 152
60 94 143
62 98 161
60 95 156
61 96 155
61 97 156
62 98 166
63 98 159
61 96 158
61 96 159
61 96 157
60 95 153
61 97 162
60 94 151
59 94 147
60 94 152
60 94 157
60 95 154
61 95 157
60 95 155
58 91 152
59 94 152
59 92 150
108 131 176
210 229 255
211 230 255
211 230 255
211 230 255
211 230 255
211 230 255
211 230 255
211 230 255
211 230 255
211 230 255
211 230 255
211 230 255
211 230 255
211 230 255
211 230 255
211 230 255
211 230 255
211 230 255
211 230 255
211 230 255
211 230 255
211 230 255
211 230 255
209 227 253
150 155 147
128 126 84
128 126 83
140 139 93
123 121 82
136 135 91
142 141 95
127 125 84
141 141 96
137 137 93
145 144 96
150 149 100
148 147 99
154 153 103
152 152 102
150 149 101
145 144 97
152 151 102
148 146 98
148 148 100
158 156 104
153 151 102
157 155 104
152 150 100
156 154 103
159 157 105
156 154 103
153 151 101
153 151 101
152 150 100
149 147 98
152 150 100
155 154 103
151 149 99
152 150 100
149 147 97
143 140 93
147 145 97
137 135 90
142 140 93
139 136 89
142 140 93
134 131 87
145 142 93
137 135 88
136 133 87
154 160 148
210 229 254
211 230 255
211 230 255
211 230 255
211 230 255
211 230 255
211 230 255
211 230 255
211 230 255
211 230 255
211 230 255
211 230 255
211 230 255
211 230 255
211 230 255
211 230 255
211 230 255
211 230 255
211 230 255
211 230 255
211 230 255
211 230 255
211 230 255
211 230 255
211 230 255
211 230 255
211 230 255
211 230 255
211 230 255
212 230 255
212 230 255
212 230 255
212 230 255
212 230 255
212 230 255
212 230 255
212 230 255
212 230 255
212 230 255
212 230 255
212 230 255
212 230 255
212 230 255
212 230 255
212 230 255
212 230 255
212 230 255
212 231 255
212 231 255
212 231 255
212 231 255
212 231 255
212 231 255
212 231 255
213 231 255
213 231 255
213 231 255
213 231 255
213 231 255
213 231 255
213 231 255
213 231 255
213 231 255
213 231 255
213 231 255
213 231 255
213 231 255
213 231 255
213 231 255
213 231 255
213 231 255
213 231 255
213 231 255
213 231 255
213 231 255
213 231 255
213 231 255
213 231 255
213 231 255
213 231 255
214 231 255
214 231 255
214 231 255
214 231 255
214 231 255
214 231 255
214 231 255
214 231 255
214 231 255
214 231 255
214 231 255
214 231 255
214 231 255
214 231 255
214 232 255
214 232 255
214 232 255
220 235 255
221 235 255
221 235 255
218 234 255
217 233 255
217 233 255
217 233 255
217 233 255
217 233 255
217 233 255
217 233 255
217 233 255
217 233 255
217 233 255
217 233 255
217 233 255
217 233 255
217 233 255
212 229 252
131 153 188
61 97 154
61 97 150
61 97 151
61 97 155
61 97 151
60 95 145
61 96 150
60 96 145
62 98 155
61 96 153
61 96 153
61 96 149
61 97 154
62 97 154
62 98 162
60 95 136
62 97 152
62 97 156
60 95 145
61 97 148
62 97 161
61 96 151
61 96 141
61 96 139
61 97 147
61 96 143
59 94 142
60 96 152
61 97 151
61 96 140
60 96 142
62 97 152
61 96 148
61 97 155
60 95 143
61 96 149
61 97 152
62 97 149
61 97 149
61 96 143
62 97 152
62 98 151
61 97 152
60 95 148
62 97 157
61 96 145
61 96 148
61 97 151
61 96 145
62 98 154
61 96 152
62 98 153
60 95 145
61 96 142
60 96 141
62 97 148
61 97 142
61 97 147
62 97 152
61 96 144
61 97 151
60 95 142
61 96 144
61 97 149
62 98 161
60 96 141
63 98 157
61 96 151
61 96 142
61 96 148
62 97 151
60 96 148
61 96 150
61 96 147
61 96 145
61 97 152
62 98 158
61 96 147
61 96 150
62 98 154
61 96 150
61 96 143
61 96 142
61 96 148
61 96 145
62 97 151
61 97 151
62 97 152
62 98 156
61 96 143
62 98 159
61 96 150
61 96 153
61 97 152
59 94 140
61 97 150
60 96 143
61 96 147
61 96 149
60 96 143
60 96 150
61 97 144
62 98 157
61 96 143
61 96 147
62 97 155
61 96 145
61 97 155
62 97 150
62 97 151
60 95 147
61 96 151
61 97 153
61 97 155
62 97 152
62 97 156
61 97 148
61 96 143
61 97 151
62 98 156
61 96 145
61 96 144
61 96 137
62 97 155
61 97 151
61 96 149
60 95 139
60 96 150
62 97 154
62 98 155
61 96 149
61 97 155
62 98 156
61 96 150
61 96 148
62 97 157
62 97 151
60 95 141
61 97 161
62 98 148
62 97 156
60 96 148
61 96 149
62 98 152
60 95 141
61 97 154
61 97 150
62 97 148
61 96 148
63 98 152
62 97 154
61 96 155
62 98 153
62 97 149
62 97 150
61 97 155
61 97 153
60 96 157
62 97 155
62 97 158
62 98 159
63 98 159
60 96 152
62 97 153
61 97 151
61 96 152
62 97 152
62 98 156
62 98 151
60 95 142
62 97 151
62 98 160
62 98 159
62 97 154
62 97 150
61 97 154
63 99 164
61 95 147
61 96 150
62 97 151
60 95 145
62 97 153
61 96 148
62 97 155
61 96 151
62 97 160
61 97 157
61 96 147
61 97 152
61 97 151
61 97 155
61 95 153
61 96 150
61 97 159
62 97 158
62 97 159
61 96 159
60 95 159
60 95 152
60 95 154
61 96 155
60 95 148
60 95 149
60 95 157
60 93 156
60 95 154
59 93 151
60 95 156
60 95 154
60 95 161
59 92 149
60 93 157
157 177 214
211 230 255
211 230 255
211 230 255
211 230 255
211 230 255
211 230 255
211 230 255
211 230 255
211 230 255
211 230 255
211 230 255
211 230 255
211 230 255
211 230 255
211 230 255
211 230 255
211 230 255
211 230 255
211 230 255
211 230 255
211 230 255
211 230 255
179 192 202
128 125 82
141 139 93
137 136 92
134 133 90
135 134 91
136 134 91
134 134 91
149 146 97
144 143 97
145 144 98
143 142 95
148 147 99
152 150 101
150 149 101
156 155 104
157 156 105
155 154 104
155 154 103
153 151 101
155 153 102
157 155 103
154 152 102
156 154 103
156 154 103
154 152 102
146 145 97
159 157 105
154 152 102
149 148 100
152 149 99
144 142 95
152 149 99
152 150 101
148 147 98
152 149 99
156 154 103
146 144 97
153 150 99
148 146 97
147 145 96
141 139 92
152 148 97
147 144 96
138 136 89
142 139 90
138 136 90
135 133 85
176 187 193
211 230 255
211 230 255
211 230 255
211 230 255
211 230 255
211 230 255
211 230 255
211 230 255
211 230 255
211 230 255
211 230 255
211 230 255
211 230 255
211 230 255
211 230 255
211 230 255
211 230 255
211 230 255
211 230 255
211 230 255
211 230 255
211 230 255
212 230 255
212 230 255
212 230 255
212 230 255
212 230 255
212 230 255
212 230 255
212 230 255
212 230 255
212 230 255
212 230 255
212 230 255
212 230 255
212 230 255
212 230 255
212 230 255
212 230 255
212 230 255
212 230 255
212 231 255
212 231 255
212 231 255
212 231 255
212 231 255
212 231 255
212 231 255
213 231 255
213 231 255
213 231 255
213 231 255
213 231 255
213 231 255
213 231 255
213 231 255
213 231 255
213 231 255
213 231 255
213 231 255
213 231 255
213 231 255
213 231 255
213 231 255
213 231 255
213 231 255
213 231 255
213 231 255
213 231 255
213 231 255
213 231 255
213 231 255
213 231 255
213 231 255
214 231 255
214 231 255
214 231 255
214 231 255
214 231 255
214 231 255
214 231 255
214 231 255
214 231 255
214 231 255
214 231 255
214 231 255
214 231 255
214 231 255
214 232 255
214 232 255
214 232 255
214 232 255
214 232 255
214 232 255
214 232 255
214 232 255
219 234 255
220 235 255
220 235 255
221 235 255
220 235 255
219 234 255
218 233 255
218 233 255
218 233 255
218 233 255
218 233 255
217 233 255
217 233 255
217 233 255
217 233 255
217 233 255
217 233 255
217 233 255
217 233 255
214 231 254
136 157 191
61 96 149
61 96 148
62 97 154
60 95 144
62 97 147
62 98 156
60 96 151
60 96 152
61 96 143
61 97 152
60 96 147
61 97 154
62 98 155
61 97 151
62 98 153
61 96 145
61 96 148
60 96 148
61 97 151
60 95 151
61 96 144
61 96 153
60 95 135
61 96 150
61 96 150
61 96 143
60 96 145
61 96 152
60 96 145
61 97 153
61 96 142
60 95 144
60 96 144
62 98 157
61 96 144
61 96 149
61 96 142
61 97 148
61 96 140
61 97 147
62 97 147
62 97 150
61 96 142
61 96 142
61 97 145
62 97 148
61 96 148
61 96 148
61 96 145
60 95 139
61 96 142
61 97 154
61 96 145
62 97 152
60 96 149
62 98 155
61 96 147
60 96 148
61 96 145
62 97 151
62 97 148
61 97 148
61 96 152
62 98 161
61 96 154
61 96 140
62 98 154
60 94 141
62 97 155
59 94 135
60 96 148
61 97 151
62 98 159
61 97 149
61 97 154
61 96 144
61 97 149
61 97 151
62 98 155
62 97 148
61 96 149
61 97 147
61 96 151
62 98 151
62 97 154
60 95 141
61 96 148
62 97 153
61 96 144
60 96 151
60 95 147
61 97 160
61 97 148
62 98 153
61 96 149
61 96 149
61 97 149
61 97 158
61 97 151
61 97 149
61 96 147
62 98 160
61 96 143
63 98 158
61 96 150
62 97 152
61 97 153
60 95 145
61 97 155
61 97 148
60 96 145
62 97 153
61 97 151
61 97 148
61 96 147
61 97 148
61 97 147
62 97 151
61 97 154
61 97 150
61 96 147
62 98 153
62 97 152
61 97 145
62 98 161
62 98 157
61 96 148
62 97 154
62 98 160
61 96 149
61 96 148
61 97 151
63 98 159
61 96 147
61 97 154
59 94 134
61 97 155
61 96 145
62 98 151
62 97 155
62 98 149
62 98 157
62 97 151
61 97 147
62 97 156
61 96 152
61 96 147
61 96 148
62 97 148
62 98 153
59 94 144
62 98 158
61 97 147
62 97 158
61 96 147
61 97 153
61 96 143
62 98 156
61 96 151
59 95 148
61 96 151
62 98 161
62 98 162
61 97 155
60 96 150
62 97 156
61 97 150
60 96 155
61 97 154
62 97 155
62 98 158
61 97 152
62 97 152
62 97 158
62 98 157
62 97 154
62 98 156
62 97 149
61 96 152
61 96 154
61 95 149
61 96 154
61 96 152
62 98 161
61 97 158
62 97 158
61 97 153
60 96 152
61 96 158
61 96 152
61 96 154
61 96 150
61 97 161
61 96 156
60 95 153
61 96 154
62 97 157
61 96 156
61 96 157
61 96 155
60 94 147
61 96 155
61 96 160
61 95 154
59 94 147
60 94 150
60 94 155
61 96 159
60 94 157
60 95 161
59 91 151
61 96 160
191 210 238
212 230 255
212 230 255
212 230 255
212 230 255
212 230 255
212 230 255
211 230 255
211 230 255
211 230 255
211 230 255
211 230 255
211 230 255
211 230 255
211 230 255
211 230 255
211 230 255
211 230 255
211 230 255
211 230 255
211 230 255
200 217 239
135 133 97
123 121 79
136 134 90
139 136 90
145 143 96
133 132 89
136 135 92
139 138 94
142 140 94
149 146 98
144 143 97
142 141 96
144 143 96
144 144 98
146 145 99
147 146 99
144 142 95
155 153 103
149 147 99
151 149 100
156 154 103
161 159 106
149 148 99
154 152 102
164 161 108
151 149 100
162 159 106
158 156 104
159 156 104
153 151 101
158 155 103
148 146 98
154 151 101
156 153 102
153 151 101
152 150 100
161 158 106
151 149 99
152 151 99
151 149 99
146 143 95
146 144 96
147 145 95
146 142 93
145 141 92
137 134 88
135 131 86
141 138 90
135 133 93
199 215 234
211 230 255
211 230 255
211 230 255
211 230 255
211 230 255
211 230 255
211 230 255
211 230 255
211 230 255
211 230 255
211 230 255
211 230 255
211 230 255
211 230 255
211 230 255
212 230 255
212 230 255
212 230 255
212 230 255
212 230 255
212 230 255
212 230 255
212 230 255
212 230 255
212 230 255
212 230 255
212 230 255
212 230 255
212 230 255
212 230 255
212 230 255
212 230 255
212 230 255
212 230 255
212 231 255
212 231 255
212 231 255
212 231 255
212 231 255
212 231 255
212 231 255
212 231 255
213 231 255
213 231 255
213 231 255
213 231 255
213 231 255
213 231 255
213 231 255
213 231 255
213 231 255
213 231 255
213 231 255
213 231 255
213 231 255
213 231 255
213 231 255
213 231 255
213 231 255
213 231 255
213 231 255
213 231 255
213 231 255
213 231 255
213 231 255
213 231 255
213 231 255
213 231 255
214 231 255
214 231 255
214 231 255
214 231 255
214 231 255
214 231 255
214 231 255
214 231 255
214 231 255
214 231 255
214 231 255
214 231 255
214 231 255
214 231 255
214 232 255
214 232 255
214 232 255
214 232 255
214 232 255
214 232 255
214 232 255
214 232 255
214 232 255
214 232 255
214 232 255
214 232 255
214 232 255
219 234 255
219 234 255
219 234 255
220 235 255
220 235 255
221 235 255
220 235 255
219 234 255
218 234 255
218 234 255
218 234 255
218 233 255
218 233 255
218 233 255
218 233 255
218 233 255
218 233 255
218 233 255
218 233 255
218 233 255
214 231 254
131 152 182
61 97 149
61 96 154
61 96 149
61 96 148
61 97 155
60 96 154
60 95 142
61 97 156
60 96 144
62 97 153
61 96 149
60 95 144
60 96 147
61 97 147
61 97 148
61 96 151
60 96 144
62 97 148
61 96 150
62 98 154
62 97 150
61 96 153
61 97 147
61 97 150
62 97 152
62 97 149
62 97 150
62 97 149
61 96 144
60 96 149
61 96 147
61 96 150
61 96 143
61 96 147
61 96 147
60 95 143
61 97 153
60 95 149
61 96 153
60 95 137
60 94 142
60 95 139
60 95 141
61 97 148
61 96 141
61 96 135
61 96 142
60 95 145
61 97 152
61 97 154
60 96 150
60 95 149
61 97 156
63 98 155
61 95 143
60 96 145
60 95 141
60 95 140
61 96 151
61 97 148
60 95 139
61 96 148
60 95 145
61 96 149
60 95 148
61 97 154
61 96 143
62 98 156
61 97 153
61 97 150
61 97 152
61 96 149
59 94 135
61 96 150
61 96 144
61 96 150
61 97 151
60 95 148
61 96 149
61 97 153
62 97 156
61 97 150
61 97 155
61 97 153
62 98 154
60 95 142
63 98 157
62 97 149
60 96 149
61 96 150
62 97 152
62 97 154
59 95 144
61 96 143
61 97 154
61 97 148
61 96 150
61 97 153
62 98 161
60 95 140
61 97 152
61 97 152
62 97 148
62 97 150
61 97 151
62 97 154
61 97 145
62 98 156
62 97 151
60 95 137
60 95 139
62 98 156
61 96 143
60 95 136
62 97 150
61 97 149
61 96 147
61 97 149
61 97 153
62 97 150
61 97 143
61 96 148
62 98 156
61 96 149
61 96 143
60 95 140
61 96 154
62 98 162
61 96 145
61 97 150
62 97 151
60 95 135
62 97 151
61 97 153
61 97 151
61 96 144
62 97 153
61 96 150
61 97 152
62 97 151
61 96 150
61 97 148
61 97 151
61 97 145
61 96 150
60 95 148
62 97 149
60 96 145
61 97 149
60 96 145
62 97 148
61 96 148
62 98 155
61 96 154
62 98 154
60 96 148
62 98 164
60 95 142
62 98 150
61 97 148
61 97 153
62 97 152
61 96 147
62 98 155
62 98 156
62 97 153
60 95 153
61 97 150
63 98 163
62 98 159
61 97 157
61 97 152
60 95 140
61 96 151
61 96 158
61 97 151
61 97 153
61 97 153
62 98 160
60 96 148
61 97 153
62 98 159
62 98 156
61 96 152
61 96 153
61 97 156
61 96 155
61 97 155
61 97 160
60 96 159
61 96 154
60 95 155
60 96 154
60 95 149
61 96 157
61 96 152
60 94 147
61 97 161
60 95 153
60 96 156
62 97 166
61 97 155
60 95 155
60 94 153
60 95 157
59 93 148
62 97 160
59 93 152
59 94 154
60 94 155
58 91 149
94 119 171
207 225 252
212 230 255
212 230 255
212 230 255
212 230 255
212 230 255
212 230 255
212 230 255
212 230 255
212 230 255
212 230 255
212 230 255
212 230 255
211 230 255
211 230 255
211 230 255
211 230 255
211 230 255
211 230 255
211 230 255
166 172 167
140 137 91
130 127 85
139 137 92
141 139 93
141 140 94
140 140 96
142 140 94
141 140 94
148 147 100
143 143 97
144 142 97
140 139 94
147 145 98
147 145 98
153 152 102
140 138 93
151 149 99
154 153 104
155 154 104
156 154 103
166 164 109
156 153 102
153 151 102
149 147 98
163 160 107
157 155 104
156 154 103
155 152 101
158 156 105
156 152 101
161 158 105
157 155 103
151 149 99
154 152 102
161 159 106
155 153 102
161 160 106
150 148 98
149 146 96
146 144 96
150 147 97
147 145 95
148 145 95
155 152 99
152 149 97
149 145 94
147 143 93
136 134 87
134 131 84
152 157 147
211 230 255
211 230 255
211 230 255
211 230 255
211 230 255
211 230 255
211 230 255
212 230 255
212 230 255
212 230 255
212 230 255
212 230 255
212 230 255
212 230 255
212 230 255
212 230 255
212 230 255
212 230 255
212 230 255
212 230 255
212 230 255
212 230 255
212 230 255
212 230 255
212 230 255
212 230 255
212 230 255
212 230 255
212 230 255
212 231 255
212 231 255
212 231 255
212 231 255
212 231 255
212 231 255
212 231 255
212 231 255
213 231 255
213 231 255
213 231 255
213 231 255
213 231 255
213 231 255
213 231 255
213 231 255
213 231 255
213 231 255
213 231 255
213 231 255
213 231 255
213 231 255
213 231 255
213 231 255
213 231 255
213 231 255
213 231 255
213 231 255
213 231 255
213 231 255
213 231 255
213 231 255
213 231 255
214 231 255
214 231 255
214 231 255
214 231 255
214 231 255
214 231 255
214 231 255
214 231 255
214 231 255
214 231 255
214 231 255
214 231 255
214 231 255
214 231 255
214 231 255
214 232 255
214 232 255
214 232 255
214 232 255
214 232 255
214 232 255
214 232 255
214 232 255
214 232 255
214 232 255
214 232 255
214 232 255
214 232 255
214 232 255
215 232 255
215 232 255
215 232 255
215 232 255
218 234 255
218 234 255
219 234 255
219 234 255
219 234 255
220 235 255
220 235 255
221 235 255
221 235 255
219 234 255
218 234 255
218 234 255
218 234 255
218 234 255
218 234 255
218 234 255
218 234 255
218 234 255
218 234 255
218 234 255
218 233 255
215 231 252
150 170 201
60 95 141
60 95 137
62 97 153
60 95 147
60 95 139
61 97 147
61 96 147
61 97 156
61 97 149
60 95 139
60 96 142
61 97 149
61 96 142
60 95 147
61 96 148
61 97 151
61 97 149
62 98 157
61 97 148
60 96 149
61 97 147
60 96 149
61 97 151
60 96 142
60 95 137
59 95 141
59 94 139
61 96 145
61 96 148
61 96 140
60 95 142
60 96 145
62 97 154
60 95 147
60 96 137
60 95 143
60 96 145
60 96 151
59 94 141
61 97 151
61 96 148
60 95 144
60 95 140
61 97 153
61 96 149
60 96 145
61 96 148
62 98 153
61 97 154
61 96 143
63 98 159
62 98 153
61 97 148
61 97 153
62 98 158
61 96 144
62 97 148
61 96 149
61 97 155
61 97 153
61 96 151
61 96 152
61 96 141
61 96 148
60 95 140
60 95 147
61 97 152
62 97 147
61 96 144
62 98 149
60 95 143
60 95 145
61 96 149
61 96 153
61 95 142
61 96 145
62 97 152
62 97 156
61 96 150
60 95 137
61 96 145
60 95 140
60 95 141
60 96 143
61 97 150
61 96 141
61 97 152
62 97 155
61 96 149
61 96 149
62 98 155
60 95 145
61 96 151
62 97 154
60 96 150
61 97 144
61 96 155
61 96 147
61 96 150
61 97 148
61 97 153
61 97 151
62 98 159
61 96 141
60 95 142
61 97 151
61 96 148
61 97 153
61 96 148
62 98 159
61 96 150
61 96 150
61 96 149
61 96 142
60 96 150
61 96 147
62 98 155
62 97 153
60 96 149
61 97 145
61 96 149
61 97 143
61 96 154
61 97 150
61 95 143
60 95 147
61 97 152
62 97 150
61 97 155
61 97 149
62 97 151
62 97 151
61 97 149
61 97 153
62 97 152
62 97 152
60 96 150
61 97 153
62 97 151
62 98 150
61 96 149
60 96 148
62 97 153
62 98 159
61 97 155
61 97 153
62 97 154
60 94 143
61 96 150
61 97 149
62 97 154
61 96 148
61 97 156
63 99 162
62 98 159
61 96 150
61 97 156
63 98 158
62 96 142
62 97 155
61 97 154
62 97 152
62 98 156
62 98 159
62 98 157
61 97 156
62 98 154
62 97 156
61 96 150
63 98 161
61 97 151
61 97 153
61 96 155
60 96 149
61 96 151
61 96 147
62 98 160
61 96 150
61 97 161
62 97 158
61 97 155
61 97 152
62 97 155
61 96 152
61 96 152
61 95 149
61 97 158
62 97 153
62 96 159
60 95 145
62 98 161
62 97 157
61 96 151
60 96 153
61 96 156
61 96 147
61 96 159
61 95 148
61 96 153
61 96 156
61 95 158
60 95 156
61 97 161
60 95 153
60 94 151
61 96 161
60 95 155
60 94 154
59 93 155
60 94 156
60 94 157
138 159 198
212 230 255
212 230 255
212 230 255
212 230 255
212 230 255
212 230 255
212 230 255
212 230 255
212 230 255
212 230 255
212 230 255
212 230 255
212 230 255
212 230 255
212 230 255
212 230 255
212 230 255
212 230 255
203 219 239
115 112 74
126 123 82
133 131 87
142 140 94
141 140 95
139 138 93
136 135 92
138 136 91
142 141 95
144 143 96
137 136 93
145 144 96
149 148 100
150 149 100
148 146 98
146 144 97
157 156 106
146 146 99
154 152 102
157 154 103
159 157 105
162 160 107
166 164 110
158 156 104
157 155 103
153 151 102
155 153 102
153 151 101
157 154 103
155 153 103
158 155 103
158 156 104
160 157 104
158 156 104
161 159 106
157 154 102
156 154 102
149 146 95
157 154 103
155 151 100
148 145 96
148 146 97
149 145 96
154 151 99
147 143 93
149 146 96
141 138 90
152 148 97
126 123 80
142 137 88
128 126 80
194 208 222
212 230 255
212 230 255
212 230 255
212 230 255
212 230 255
212 230 255
212 230 255
212 230 255
212 230 255
212 230 255
212 230 255
212 230 255
212 230 255
212 230 255
212 230 255
212 230 255
212 230 255
212 230 255
212 230 255
212 230 255
212 230 255
212 230 255
212 231 255
212 231 255
212 231 255
212 231 255
212 231 255
212 231 255
212 231 255
212 231 255
213 231 255
213 231 255
213 231 255
213 231 255
213 231 255
213 231 255
213 231 255
213 231 255
213 231 255
213 231 255
213 231 255
213 231 255
213 231 255
213 231 255
213 231 255
213 231 255
213 231 255
213 231 255
213 231 255
213 231 255
213 231 255
213 231 255
213 231 255
213 231 255
213 231 255
213 231 255
214 231 255
214 231 255
214 231 255
214 231 255
214 231 255
214 231 255
214 231 255
214 231 255
214 231 255
214 231 255
214 231 255
214 231 255
214 231 255
214 231 255
214 232 255
214 232 255
214 232 255
214 232 255
214 232 255
214 232 255
214 232 255
214 232 255
214 232 255
214 232 255
214 232 255
214 232 255
214 232 255
214 232 255
215 232 255
215 232 255
215 232 255
215 232 255
215 232 255
215 232 255
215 232 255
215 232 255
215 232 255
215 232 255
217 233 255
218 234 255
218 234 255
218 234 255
219 234 255
219 234 255
219 234 255
220 235 255
220 235 255
221 235 255
221 235 255
219 234 255
218 234 255
218 234 255
218 234 255
218 234 255
218 234 255
218 234 255
218 234 255
218 234 255
218 234 255
218 234 255
218 234 255
156 175 207
60 95 150
60 95 144
59 94 137
60 96 149
61 96 154
61 97 154
61 96 144
60 95 139
60 95 149
61 97 158
61 97 153
61 96 147
61 97 158
61 96 145
61 96 144
60 95 145
61 96 150
60 95 147
61 97 149
61 97 154
62 97 151
61 96 142
61 96 144
61 96 147
62 97 153
60 96 145
61 96 142
61 96 147
61 96 150
61 96 148
60 96 144
61 96 147
61 97 149
61 96 148
61 96 144
61 97 147
62 97 151
61 96 144
62 97 157
60 95 143
59 94 137
61 96 149
60 95 144
61 96 142
59 94 143
61 97 150
61 97 151
61 97 149
61 96 142
61 96 143
61 96 145
62 97 149
60 96 145
61 96 143
61 96 150
61 97 153
61 97 150
62 98 153
61 96 148
62 97 154
60 95 139
60 96 144
60 95 136
60 95 139
61 96 144
61 96 150
60 95 148
61 97 149
61 96 145
61 97 148
59 94 139
63 98 154
61 97 152
61 97 145
61 97 152
61 97 150
61 96 148
61 96 154
61 97 153
60 95 141
61 96 147
62 97 150
62 98 155
61 97 149
61 97 149
60 95 140
61 97 148
62 98 162
61 96 140
60 95 140
61 96 151
61 97 152
61 97 153
61 96 147
60 95 142
62 97 153
61 96 144
61 97 147
62 98 155
61 97 152
61 96 144
61 96 147
61 97 149
62 97 149
61 97 149
61 96 145
61 96 150
61 96 148
61 97 153
61 96 148
62 97 149
62 98 155
60 96 147
61 96 145
61 97 150
61 97 152
61 97 148
61 96 148
61 97 154
60 95 145
61 97 155
62 96 150
60 95 144
62 97 151
60 95 148
62 97 154
61 96 153
62 98 155
61 96 139
61 96 150
61 96 153
60 95 139
61 96 147
61 97 145
60 95 147
60 96 148
61 96 154
61 97 147
61 96 150
61 96 152
61 96 152
62 98 155
61 97 143
62 97 154
61 97 148
60 95 135
62 97 154
62 97 154
61 97 150
61 96 150
62 97 151
61 96 148
62 98 155
61 96 148
61 97 155
62 98 155
61 96 149
61 96 148
62 98 158
61 97 147
61 97 149
61 97 151
61 96 149
61 97 150
62 97 156
61 97 150
61 96 151
61 96 144
62 97 155
60 94 141
62 98 159
62 97 157
61 95 149
62 98 160
62 98 155
61 97 156
60 95 150
61 96 145
61 96 150
61 97 151
60 95 151
62 97 158
61 97 153
62 98 161
62 97 150
61 96 158
60 95 146
61 96 151
62 98 159
61 96 152
61 96 147
62 97 152
61 96 152
60 95 153
62 98 154
61 96 155
62 97 155
61 96 152
61 96 152
60 95 147
60 94 148
61 97 156
60 93 141
60 95 151
61 96 164
60 95 155
59 93 147
60 93 151
59 93 152
58 91 153
62 94 155
177 196 229
212 231 255
212 231 255
212 230 255
212 230 255
212 230 255
212 230 255
212 230 255
212 230 255
212 230 255
212 230 255
212 230 255
212 230 255
212 230 255
212 230 255
212 230 255
212 230 255
212 230 255
165 169 154
138 134 87
129 126 83
127 125 83
133 131 90
138 136 92
145 143 96
137 137 93
141 141 96
147 145 98
144 143 97
142 141 96
146 145 98
150 149 101
147 146 98
144 143 96
154 152 102
147 145 98
147 146 98
152 150 101
158 156 105
158 156 104
159 157 105
157 154 103
150 148 99
156 154 103
151 149 99
161 156 103
161 158 105
156 153 102
158 155 103
150 147 98
160 156 104
164 162 108
153 150 100
153 151 100
156 153 102
152 150 100
155 151 101
148 144 95
159 156 102
155 153 101
151 148 98
153 151 101
151 147 95
152 148 98
143 140 90
144 142 93
143 140 93
139 135 87
144 140 91
140 136 87
148 150 133
212 230 255
212 230 255
212 230 255
212 230 255
212 230 255
212 230 255
212 230 255
212 230 255
212 230 255
212 230 255
212 230 255
212 230 255
212 230 255
212 230 255
212 231 255
212 231 255
212 231 255
212 231 255
212 231 255
212 231 255
212 231 255
212 231 255
212 231 255
212 231 255
213 231 255
213 231 255
213 231 255
213 231 255
213 231 255
213 231 255
213 231 255
213 231 255
213 231 255
213 231 255
213 231 255
213 231 255
213 231 255
213 231 255
213 231 255
213 231 255
213 231 255
213 231 255
213 231 255
213 231 255
213 231 255
213 231 255
213 231 255
213 231 255
213 231 255
213 231 255
213 231 255
214 231 255
214 231 255
214 231 255
214 231 255
214 231 255
214 231 255
214 231 255
214 231 255
214 231 255
214 231 255
214 231 255
214 231 255
214 231 255
214 231 255
214 232 255
214 232 255
214 232 255
214 232 255
214 232 255
214 232 255
214 232 255
214 232 255
214 232 255
214 232 255
214 232 255
214 232 255
214 232 255
214 232 255
215 232 255
215 232 255
215 232 255
215 232 255
215 232 255
215 232 255
215 232 255
215 232 255
215 232 255
215 232 255
215 232 255
215 232 255
215 232 255
215 232 255
215 232 255
217 233 255
217 233 255
218 233 255
218 234 255
218 234 255
218 234 255
219 234 255
219 234 255
219 234 255
220 235 255
220 235 255
221 235 255
221 235 255
219 234 255
218 234 255
218 234 255
218 234 255
218 234 255
218 234 255
218 234 255
218 234 255
218 234 255
218 234 255
218 234 255
156 175 210
68 101 153
61 96 153
61 96 156
60 95 147
61 96 149
61 96 153
61 97 152
61 96 141
61 96 155
61 96 142
60 96 145
61 96 149
61 96 147
60 96 151
62 98 157
61 97 148
61 97 152
61 97 147
62 97 150
60 95 141
61 97 160
61 97 141
61 96 148
61 97 152
61 97 150
60 96 148
62 98 155
61 96 151
61 96 147
61 97 145
61 96 143
61 96 140
62 97 151
60 95 149
61 96 151
62 98 156
61 97 148
62 98 151
61 97 148
60 95 141
60 96 147
61 96 147
61 97 145
61 97 152
61 96 151
60 96 149
61 97 153
61 96 147
62 97 148
61 96 139
60 95 145
61 97 151
61 97 152
61 96 145
61 96 145
61 97 151
61 97 145
61 97 152
61 97 145
61 96 144
61 97 151
61 96 147
61 96 150
61 97 153
61 96 144
62 97 150
61 96 147
62 97 148
60 95 140
60 96 142
62 98 152
61 97 150
59 95 142
61 96 144
62 97 150
61 97 148
62 98 157
61 97 148
61 96 147
62 97 153
62 98 154
61 96 149
61 96 143
61 97 151
61 97 151
61 96 143
61 97 149
60 96 143
61 96 151
61 97 152
62 97 152
61 96 149
62 98 158
62 97 154
61 96 144
61 97 147
60 95 136
61 97 151
60 95 144
62 97 152
61 97 156
61 97 150
60 95 142
61 96 141
62 97 151
60 95 148
61 96 143
63 98 156
60 95 139
61 96 139
62 97 151
62 98 156
62 97 151
61 96 147
61 97 151
62 98 156
60 95 142
61 96 149
61 97 156
61 97 153
60 96 144
62 97 156
61 96 142
62 97 149
61 96 147
62 97 149
61 96 145
61 96 145
62 97 152
60 95 148
62 97 152
60 96 143
62 97 150
60 95 142
61 96 145
61 97 156
61 97 142
61 96 148
61 97 148
61 96 152
60 96 141
61 97 152
62 98 154
61 97 151
63 99 161
62 97 155
60 95 140
62 97 154
62 98 157
62 97 152
62 98 161
62 97 155
60 95 131
61 96 141
60 96 150
61 97 148
61 97 151
61 97 152
62 97 153
61 97 151
61 96 145
62 97 151
62 98 159
62 97 158
61 96 149
60 96 144
61 96 144
62 97 155
62 97 149
62 98 158
62 98 156
61 97 151
60 95 151
61 96 153
61 96 148
61 97 149
62 98 161
62 97 155
62 97 153
61 96 154
61 97 151
60 96 151
62 97 152
61 96 148
62 97 155
62 97 158
61 96 159
61 96 158
60 95 152
60 94 144
60 95 151
61 95 157
59 95 154
60 95 155
60 95 151
61 97 161
60 94 148
60 94 147
61 95 154
60 94 148
60 95 150
60 95 148
61 95 153
61 95 152
60 94 154
59 92 150
58 92 145
58 90 143
58 90 145
60 93 150
88 113 162
205 224 250
212 231 255
212 231 255
212 231 255
212 231 255
212 231 255
212 231 255
212 231 255
212 231 255
212 231 255
212 230 255
212 230 255
212 230 255
212 230 255
212 230 255
212 230 255
193 209 229
131 127 82
130 129 87
137 134 89
130 128 86
129 129 88
133 132 90
137 136 92
130 130 89
142 142 97
139 138 94
142 141 96
141 140 94
141 140 95
145 144 97
153 151 101
150 148 99
150 148 101
149 147 99
157 155 104
159 156 105
154 151 101
160 156 104
163 161 108
154 152 102
156 154 103
164 161 107
160 157 104
160 158 106
162 158 105
160 156 104
164 161 107
158 155 103
163 160 106
162 159 105
155 153 101
156 153 101
159 156 103
155 153 101
165 162 107
156 153 100
155 152 101
155 152 101
153 149 97
159 156 103
155 151 97
150 147 95
152 148 96
149 145 94
146 143 93
142 138 90
132 128 83
142 138 90
124 121 73
190 204 222
212 230 255
212 230 255
212 230 255
212 230 255
212 230 255
212 230 255
212 231 255
212 231 255
212 231 255
212 231 255
212 231 255
212 231 255
212 231 255
212 231 255
212 231 255
212 231 255
213 231 255
213 231 255
213 231 255
213 231 255
213 231 255
213 231 255
213 231 255
213 231 255
213 231 255
213 231 255
213 231 255
213 231 255
213 231 255
213 231 255
213 231 255
213 231 255
213 231 255
213 231 255
213 231 255
213 231 255
213 231 255
213 231 255
213 231 255
213 231 255
213 231 255
213 231 255
213 231 255
213 231 255
214 231 255
214 231 255
214 231 255
214 231 255
214 231 255
214 231 255
214 231 255
214 231 255
214 231 255
214 231 255
214 231 255
214 231 255
214 231 255
214 231 255
214 232 255
214 232 255
214 232 255
214 232 255
214 232 255
214 232 255
214 232 255
214 232 255
214 232 255
214 232 255
214 232 255
214 232 255
214 232 255
214 232 255
215 232 255
215 232 255
215 232 255
215 232 255
215 232 255
215 232 255
215 232 255
215 232 255
215 232 255
215 232 255
215 232 255
215 232 255
215 232 255
215 232 255
215 232 255
215 232 255
215 232 255
215 232 255
215 232 255
215 232 255
215 232 255
217 233 255
217 233 255
217 233 255
217 233 255
218 234 255
218 234 255
218 234 255
218 234 255
219 234 255
219 234 255
219 234 255
220 235 255
220 235 255
221 235 255
221 235 255
219 234 255
218 234 255
218 234 255
218 234 255
218 234 255
218 234 255
218 234 255
218 234 255
218 234 255
218 234 255
179 197 223
67 100 145
60 95 143
59 94 137
61 96 148
60 96 144
60 96 139
61 96 150
62 97 145
61 96 149
61 96 147
61 97 149
61 97 149
61 97 149
60 95 145
60 96 147
61 96 150
61 96 140
62 98 154
60 95 140
62 97 149
62 98 156
61 96 143
61 96 147
61 96 140
61 96 149
60 95 148
61 96 144
61 96 149
60 96 144
61 95 144
60 95 143
59 95 143
61 97 152
61 97 151
61 96 148
61 96 150
60 95 135
60 95 139
61 96 145
61 96 141
62 97 150
61 96 145
61 96 144
61 96 148
61 97 152
60 95 144
61 96 141
61 96 144
61 96 141
61 97 156
61 96 143
61 97 153
61 97 148
60 95 135
61 97 145
61 96 148
61 96 148
61 96 151
62 98 152
60 95 143
61 97 153
61 97 148
61 96 149
61 97 150
61 97 150
61 97 147
62 97 148
61 96 148
62 97 156
62 97 149
60 95 141
62 97 149
61 97 151
62 97 154
61 96 145
61 96 149
62 97 156
61 96 150
61 97 153
61 97 147
61 97 154
62 97 157
61 96 150
61 96 149
61 96 154
61 97 147
62 97 150
62 98 154
61 97 145
62 97 154
62 97 150
61 96 139
60 95 144
61 96 147
61 97 152
60 95 141
60 96 148
61 96 144
62 97 151
60 95 143
61 97 150
61 97 147
62 97 154
61 96 145
61 96 149
61 96 150
61 96 150
60 95 144
62 98 160
61 96 149
62 98 156
60 95 142
61 96 143
61 97 145
61 97 152
61 96 150
60 95 142
61 96 148
61 96 151
62 98 154
60 96 145
61 96 149
62 97 154
62 98 155
61 96 141
62 98 157
62 97 152
62 97 148
61 97 148
61 97 150
62 98 160
61 97 152
61 96 141
60 95 144
61 96 149
60 96 144
62 98 157
61 96 147
61 96 142
61 96 144
62 98 159
62 98 156
62 98 159
62 98 158
60 95 136
60 95 144
61 96 152
61 97 153
61 97 149
62 98 155
62 98 152
61 96 148
61 96 145
61 97 151
61 95 144
61 97 151
62 97 152
59 94 142
62 97 151
61 96 149
62 97 155
61 96 151
61 96 145
61 97 150
62 97 151
62 97 158
62 98 158
61 96 147
61 97 150
60 96 150
62 97 154
61 97 150
61 96 150
60 96 152
62 97 155
62 97 153
62 97 154
62 97 159
60 95 151
62 97 155
61 96 147
60 96 147
61 96 148
61 96 155
60 94 142
62 97 157
61 96 151
61 96 150
62 97 154
61 97 150
61 96 146
61 96 156
61 96 152
62 97 155
59 94 146
61 96 153
61 96 153
61 95 149
60 95 144
59 93 146
60 93 147
60 95 151
62 96 156
60 95 152
60 94 149
61 95 160
60 94 150
58 90 141
59 93 151
58 92 158
145 165 202
213 231 255
213 231 255
213 231 255
213 231 255
213 231 255
213 231 255
213 231 255
212 231 255
212 231 255
212 231 255
212 231 255
212 231 255
212 231 255
212 231 255
212 231 255
163 170 164
126 124 80
126 125 84
130 129 87
126 125 85
134 133 90
123 122 84
127 126 86
141 140 94
138 138 93
136 136 93
141 140 95
153 151 102
147 146 99
148 146 99
148 147 99
151 150 100
151 149 101
151 149 100
154 153 103
158 155 103
159 156 104
162 159 106
163 160 107
161 157 103
162 159 106
160 157 104
165 162 108
164 161 107
161 158 104
168 165 110
163 159 104
162 159 105
158 155 102
165 161 107
163 160 106
165 161 106
165 161 107
157 154 101
158 156 104
152 149 99
154 151 100
155 151 100
164 160 104
159 154 100
160 157 103
149 146 97
140 137 90
153 148 97
147 143 94
143 139 90
138 134 86
147 143 93
149 144 95
151 155 141
212 231 255
212 231 255
212 231 255
212 231 255
212 231 255
212 231 255
212 231 255
212 231 255
212 231 255
213 231 255
213 231 255
213 231 255
213 231 255
213 231 255
213 231 255
213 231 255
213 231 255
213 231 255
213 231 255
213 231 255
213 231 255
213 231 255
213 231 255
213 231 255
213 231 255
213 231 255
213 231 255
213 231 255
213 231 255
213 231 255
213 231 255
213 231 255
213 231 255
213 231 255
213 231 255
213 231 255
213 231 255
213 231 255
214 231 255
214 231 255
214 231 255
214 231 255
214 231 255
214 231 255
214 231 255
214 231 255
214 231 255
214 231 255
214 231 255
214 231 255
214 231 255
214 231 255
214 232 255
214 232 255
214 232 255
214 232 255
214 232 255
214 232 255
214 232 255
214 232 255
214 232 255
214 232 255
214 232 255
214 232 255
214 232 255
214 232 255
214 232 255
215 232 255
215 232 255
215 232 255
215 232 255
215 232 255
215 232 255
215 232 255
215 232 255
215 232 255
215 232 255
215 232 255
215 232 255
215 232 255
215 232 255
215 232 255
215 232 255
215 232 255
215 232 255
215 232 255
215 232 255
215 232 255
215 232 255
215 232 255
215 232 255
215 232 255
215 232 255
217 233 255
217 233 255
217 233 255
217 233 255
217 233 255
217 233 255
218 234 255
218 234 255
218 234 255
218 234 255
219 234 255
219 234 255
219 234 255
220 235 255
220 235 255
221 235 255
221 235 255
219 234 255
218 234 255
218 234 255
218 234 255
218 234 255
218 234 255
218 234 255
218 234 255
218 234 255
188 205 228
92 119 161
61 96 143
61 96 149
61 97 156
61 97 150
61 96 147
61 96 151
61 97 145
60 95 142
61 97 149
60 95 141
60 95 140
60 95 142
60 96 147
61 96 147
61 96 148
60 95 139
61 97 150
61 97 149
60 95 140
60 94 131
62 97 145
61 97 148
60 95 144
60 95 137
61 97 153
61 96 154
61 97 148
61 97 153
61 96 147
59 94 134
62 97 148
61 96 149
60 95 139
61 96 156
61 96 148
60 95 145
61 96 150
61 96 142
61 96 147
60 95 143
61 96 143
61 96 142
59 94 137
61 96 143
60 96 149
61 96 150
61 96 144
61 96 141
60 95 145
60 96 152
61 97 150
61 97 152
61 96 144
60 96 145
61 97 143
60 96 143
62 98 154
60 96 136
60 94 142
62 97 148
61 96 147
62 97 149
61 97 151
62 97 148
62 97 150
60 95 140
62 97 151
61 96 144
62 97 148
61 96 143
61 96 148
61 96 147
61 96 151
61 97 148
61 96 142
61 97 148
61 96 143
61 97 150
61 97 148
61 96 151
60 95 142
60 95 135
61 96 147
62 97 156
62 97 151
61 96 145
62 97 155
60 95 143
60 95 139
63 98 160
60 95 143
61 96 142
61 96 143
61 97 152
62 98 156
61 97 150
60 95 147
61 96 140
61 96 142
62 97 154
60 95 140
61 96 144
61 96 143
61 97 152
62 98 149
62 97 148
61 96 147
61 97 155
61 96 147
61 96 150
62 98 157
60 95 143
61 96 148
60 95 149
62 97 153
60 95 135
62 97 148
61 96 144
61 96 137
61 96 149
61 97 149
61 96 144
62 98 156
61 96 151
62 98 155
61 96 148
62 97 152
61 97 147
61 96 143
62 97 153
61 97 152
61 97 150
62 97 149
62 97 153
61 96 143
62 97 155
60 95 141
62 97 150
60 96 142
62 97 152
60 95 141
61 96 140
62 98 157
61 97 148
61 97 154
61 97 145
61 97 151
62 97 153
62 97 151
61 96 145
61 97 154
62 98 154
61 96 148
61 96 147
62 98 153
62 97 149
61 96 147
62 97 153
62 97 155
62 97 151
61 96 144
61 96 148
62 98 154
61 97 154
62 97 154
62 97 153
62 97 153
61 97 151
61 96 147
62 97 155
61 96 150
61 96 153
61 97 156
61 96 153
62 97 151
62 97 157
61 95 152
61 96 149
61 96 151
61 96 151
60 96 150
59 94 145
61 96 148
61 96 147
61 96 147
61 96 151
60 95 146
61 96 154
61 96 154
61 97 157
59 93 138
60 94 153
60 95 153
61 96 152
62 97 158
62 96 160
59 93 145
61 95 157
60 94 149
58 92 142
59 93 145
60 95 154
60 95 151
60 92 147
60 94 158
60 94 152
60 94 156
59 91 146
58 90 144
187 205 234
213 231 255
213 231 255
213 231 255
213 231 255
213 231 255
213 231 255
213 231 255
213 231 255
213 231 255
213 231 255
213 231 255
213 231 255
213 231 255
205 221 243
131 128 84
130 128 85
125 124 85
134 132 88
139 138 94
140 138 94
138 137 93
133 133 91
145 144 97
138 138 95
133 133 91
145 144 97
148 146 98
144 142 96
147 146 99
146 145 97
149 149 102
157 154 104
155 153 102
149 148 99
159 156 104
157 154 102
162 160 108
162 160 107
160 158 105
162 160 106
165 162 107
164 160 106
166 162 106
161 158 105
163 160 106
164 161 107
166 163 108
169 166 109
163 159 106
162 158 104
155 151 99
167 162 106
164 160 104
153 150 99
157 153 101
159 156 103
152 149 98
163 159 104
161 155 101
151 149 97
150 146 94
149 147 94
141 138 90
142 140 91
152 147 95
151 146 95
145 141 90
139 134 84
126 123 82
202 219 240
213 231 255
213 231 255
213 231 255
213 231 255
213 231 255
213 231 255
213 231 255
213 231 255
213 231 255
213 231 255
213 231 255
213 231 255
213 231 255
213 231 255
213 231 255
213 231 255
213 231 255
213 231 255
213 231 255
213 231 255
213 231 255
213 231 255
213 231 255
213 231 255
213 231 255
213 231 255
213 231 255
213 231 255
213 231 255
213 231 255
213 231 255
214 231 255
214 231 255
214 231 255
214 231 255
214 231 255
214 231 255
214 231 255
214 231 255
214 231 255
214 231 255
214 231 255
214 231 255
214 231 255
214 231 255
214 231 255
214 232 255
214 232 255
214 232 255
214 232 255
214 232 255
214 232 255
214 232 255
214 232 255
214 232 255
214 232 255
214 232 255
214 232 255
214 232 255
214 232 255
215 232 255
215 232 255
215 232 255
215 232 255
215 232 255
215 232 255
215 232 255
215 232 255
215 232 255
215 232 255
215 232 255
215 232 255
215 232 255
215 232 255
215 232 255
215 232 255
215 232 255
215 232 255
215 232 255
215 232 255
215 232 255
215 232 255
215 232 255
215 232 255
215 232 255
215 232 255
215 232 255
215 232 255
215 232 255
215 232 255
215 232 255
216 232 255
216 233 255
217 233 255
217 233 255
217 233 255
217 233 255
217 233 255
217 233 255
218 233 255
218 234 255
218 234 255
218 234 255
218 234 255
219 234 255
219 234 255
219 234 255
220 235 255
220 235 255
221 235 255
221 235 255
219 235 255
218 234 255
218 234 255
218 234 255
218 234 255
218 234 255
218 234 255
218 234 255
202 219 242
95 121 170
61 96 153
59 95 145
61 97 153
61 96 149
61 96 147
59 94 141
63 98 156
59 94 147
62 97 154
60 96 149
59 93 136
60 96 149
62 98 161
60 95 143
60 95 154
61 96 149
61 96 144
61 96 150
61 96 141
61 96 140
61 97 151
60 96 143
61 96 143
61 96 143
61 97 147
59 94 136
60 95 145
61 96 154
61 97 151
62 97 149
61 96 140
61 97 145
61 96 145
61 96 145
62 97 151
61 97 148
59 94 139
61 96 144
61 96 143
61 96 141
61 96 143
61 97 150
61 96 150
61 96 142
61 96 151
60 95 142
62 98 154
60 95 140
61 97 147
60 95 141
61 96 141
59 94 139
61 96 144
60 95 142
61 96 152
62 97 150
61 96 151
61 96 148
60 95 147
61 96 149
60 95 144
61 96 148
61 96 142
61 96 148
61 96 147
61 97 145
60 95 145
61 97 148
61 97 151
61 97 149
62 97 151
60 95 145
61 97 148
61 97 145
60 96 147
60 95 143
62 97 147
61 96 144
62 97 153
61 96 147
61 96 141
62 98 150
61 96 145
61 96 147
60 95 147
62 97 153
61 96 145
62 98 150
61 97 153
60 96 142
61 97 149
61 97 151
62 97 152
62 97 148
62 97 156
60 95 142
60 96 140
62 97 148
61 97 148
61 95 143
60 96 142
61 97 148
60 95 140
61 97 152
61 96 149
62 98 156
61 96 147
61 97 144
60 95 141
61 96 140
61 97 155
60 95 149
62 98 156
61 96 143
62 97 156
61 96 144
60 95 141
62 97 150
61 96 149
61 97 149
61 96 151
61 96 145
61 97 145
60 94 141
61 97 144
62 97 155
62 97 154
60 95 145
62 97 149
61 96 147
61 96 149
61 97 151
60 95 144
61 97 149
62 98 151
60 95 140
61 97 154
62 97 151
62 98 157
61 97 154
61 96 145
62 97 151
61 96 148
61 96 151
60 95 149
61 96 142
61 97 150
62 97 152
61 97 148
62 98 156
61 96 151
60 96 147
61 96 151
63 98 155
62 97 153
61 95 144
60 96 140
61 96 147
60 96 146
62 98 156
62 97 152
61 96 145
63 99 160
60 95 138
60 94 139
62 97 153
62 98 158
61 97 148
61 96 154
61 96 149
62 97 156
62 97 149
61 96 148
62 98 158
60 95 136
61 96 145
60 95 146
60 95 149
61 97 153
62 97 154
61 96 152
61 96 150
61 96 150
60 96 151
61 95 147
61 96 156
61 96 149
60 95 148
63 99 163
61 96 149
61 95 149
60 95 147
61 95 150
60 94 146
61 96 151
60 95 154
60 95 149
62 96 155
61 95 156
59 93 140
60 94 153
60 95 156
59 92 151
60 95 154
60 94 150
60 94 157
59 92 149
57 90 150
99 122 165
210 228 253
213 231 255
213 231 255
213 231 255
213 231 255
213 231 255
213 231 255
213 231 255
213 231 255
213 231 255
213 231 255
213 231 255
213 231 255
165 172 171
134 131 87
130 128 85
134 134 90
120 118 80
131 131 90
142 141 96
131 131 90
135 135 92
135 135 92
136 135 93
142 141 96
136 136 93
154 152 103
149 148 101
147 144 96
144 143 97
151 148 99
153 151 101
155 153 101
157 154 102
160 157 104
162 159 105
154 152 101
153 151 101
165 161 104
158 155 103
159 157 105
162 159 105
160 157 104
158 155 103
160 157 103
157 154 101
165 161 106
159 155 102
164 160 105
163 159 106
167 163 108
165 161 106
160 157 101
161 157 104
161 158 103
161 157 103
153 150 99
161 157 103
152 149 97
156 153 101
155 152 97
151 147 95
153 149 96
141 138 90
148 144 92
150 146 93
145 142 90
142 137 85
142 138 88
170 178 178
213 231 255
213 231 255
213 231 255
213 231 255
213 231 255
213 231 255
213 231 255
213 231 255
213 231 255
213 231 255
213 231 255
213 231 255
213 231 255
213 231 255
213 231 255
213 231 255
213 231 255
213 231 255
213 231 255
213 231 255
213 231 255
213 231 255
213 231 255
213 231 255
214 231 255
214 231 255
214 231 255
214 231 255
214 231 255
214 231 255
214 231 255
214 231 255
214 231 255
214 231 255
214 231 255
214 231 255
214 231 255
214 231 255
214 231 255
214 232 255
214 232 255
214 232 255
214 232 255
214 232 255
214 232 255
214 232 255
214 232 255
214 232 255
214 232 255
214 232 255
214 232 255
214 232 255
214 232 255
215 232 255
215 232 255
215 232 255
215 232 255
215 232 255
215 232 255
215 232 255
215 232 255
215 232 255
215 232 255
215 232 255
215 232 255
215 232 255
215 232 255
215 232 255
215 232 255
215 232 255
215 232 255
215 232 255
215 232 255
215 232 255
215 232 255
215 232 255
215 232 255
215 232 255
215 232 255
215 232 255
215 232 255
215 232 255
215 232 255
215 232 255
215 232 255
216 232 255
216 232 255
216 232 255
216 232 255
216 232 255
216 232 255
216 232 255
216 233 255
216 233 255
217 233 255
217 233 255
217 233 255
217 233 255
217 233 255
217 233 255
217 233 255
218 234 255
218 234 255
218 234 255
218 234 255
219 234 255
219 234 255
219 234 255
219 235 255
220 235 255
220 235 255
221 235 255
221 235 255
220 235 255
218 234 255
218 234 255
218 234 255
218 234 255
218 234 255
218 234 255
205 221 245
110 134 175
60 96 144
61 96 151
60 96 148
61 97 153
60 95 134
61 97 145
60 95 145
61 96 145
60 96 148
60 95 141
60 95 136
61 97 153
61 96 145
60 96 140
60 96 145
61 97 148
60 95 139
60 96 145
61 97 148
61 96 144
61 96 147
61 96 145
61 96 140
61 96 145
61 97 151
61 96 147
60 96 147
60 95 141
62 97 143
61 97 150
62 97 147
60 95 141
61 95 145
62 97 149
61 97 144
60 95 142
61 96 145
60 95 149
60 95 142
61 96 148
61 96 147
60 95 137
61 97 149
61 97 153
62 97 152
61 96 143
62 97 152
61 97 154
60 95 147
60 95 142
60 94 141
61 96 143
60 95 143
60 95 142
61 96 145
61 97 148
60 95 141
61 96 147
60 95 136
61 96 147
61 96 143
61 97 152
61 96 149
62 98 158
62 97 149
62 97 152
61 97 151
61 96 141
60 95 140
60 95 140
61 97 153
62 97 155
61 97 151
61 96 149
60 95 149
60 95 141
60 96 141
61 96 145
61 97 150
59 94 137
61 97 151
60 95 136
62 98 154
62 98 154
60 95 139
61 96 143
62 98 156
61 96 148
60 96 144
61 96 137
61 96 145
61 96 147
61 97 154
61 96 145
62 98 151
60 95 142
61 97 149
62 98 153
61 97 150
61 97 148
61 97 147
61 96 148
59 94 135
61 96 148
61 97 149
61 97 152
60 95 135
61 96 139
60 95 143
63 99 157
61 96 148
61 96 150
61 96 140
60 95 136
59 94 137
61 96 155
62 97 149
62 97 147
61 96 142
61 96 144
61 97 147
61 96 144
61 96 148
62 97 153
62 97 154
61 96 139
61 97 150
61 96 145
62 97 154
61 97 151
61 95 142
60 95 135
62 97 152
60 95 135
61 96 150
61 96 148
60 95 141
60 95 142
61 97 141
61 96 144
61 96 147
61 97 153
61 97 148
61 97 152
62 98 159
62 98 150
61 97 150
62 97 148
60 96 144
61 97 145
61 96 142
61 96 140
62 97 150
60 95 139
62 97 141
61 97 154
61 96 145
62 97 157
62 97 149
61 97 152
62 97 152
60 96 138
61 96 149
60 96 145
60 95 142
61 97 153
60 95 140
61 96 150
62 97 149
60 96 146
61 96 146
62 97 158
62 97 149
61 96 147
61 97 154
60 95 149
61 96 146
61 97 158
61 96 146
61 96 152
61 97 156
61 96 150
61 96 150
61 97 156
61 96 153
62 97 156
60 94 138
61 97 156
61 96 157
61 96 151
60 95 148
60 95 147
60 95 146
61 95 149
60 94 150
60 94 146
61 96 146
60 94 157
59 93 143
60 94 155
59 92 150
60 94 150
59 92 145
60 93 144
59 93 154
57 89 141
57 88 146
58 90 153
155 175 211
213 231 255
213 231 255
213 231 255
213 231 255
213 231 255
213 231 255
213 231 255
213 231 255
213 231 255
213 231 255
213 231 255
213 231 255
145 146 121
132 130 87
128 125 84
132 130 87
117 116 80
134 132 90
137 137 94
138 138 94
133 133 91
138 138 94
136 136 93
135 134 93
150 150 102
143 142 97
150 148 99
145 145 99
146 144 97
151 150 102
153 150 101
150 149 100
160 158 105
160 158 105
157 154 101
161 158 106
162 158 103
159 157 105
159 157 103
157 155 103
163 159 105
163 159 105
161 157 103
166 162 107
165 161 106
167 163 106
163 159 105
165 162 108
160 158 104
159 155 101
166 163 108
161 158 105
163 159 103
162 159 104
163 159 104
163 158 100
156 153 97
162 158 101
158 153 99
162 158 103
154 150 96
154 150 95
154 150 95
158 153 99
158 154 100
142 139 88
143 138 85
146 141 89
153 151 106
213 231 255
213 231 255
213 231 255
213 231 255
213 231 255
213 231 255
213 231 255
213 231 255
213 231 255
213 231 255
213 231 255
213 231 255
213 231 255
213 231 255
213 231 255
213 231 255
213 231 255
214 231 255
214 231 255
214 231 255
214 231 255
214 231 255
214 231 255
214 231 255
214 231 255
214 231 255
214 231 255
214 231 255
214 231 255
214 231 255
214 231 255
214 231 255
214 231 255
214 232 255
214 232 255
214 232 255
214 232 255
214 232 255
214 232 255
214 232 255
214 232 255
214 232 255
214 232 255
214 232 255
214 232 255
214 232 255
214 232 255
215 232 255
215 232 255
215 232 255
215 232 255
215 232 255
215 232 255
215 232 255
215 232 255
215 232 255
215 232 255
215 232 255
215 232 255
215 232 255
215 232 255
215 232 255
215 232 255
215 232 255
215 232 255
215 232 255
215 232 255
215 232 255
215 232 255
215 232 255
215 232 255
215 232 255
215 232 255
215 232 255
215 232 255
215 232 255
215 232 255
215 232 255
215 232 255
216 232 255
216 232 255
216 232 255
216 232 255
216 232 255
216 232 255
216 232 255
216 232 255
216 232 255
216 232 255
216 233 255
216 233 255
216 233 255
216 233 255
216 233 255
216 233 255
217 233 255
217 233 255
217 233 255
217 233 255
217 233 255
217 233 255
217 233 255
218 233 255
218 234 255
218 234 255
218 234 255
218 234 255
219 234 255
219 234 255
219 234 255
219 235 255
220 235 255
220 235 255
221 235 255
221 235 255
219 234 255
218 234 255
218 234 255
218 234 255
218 234 255
218 234 255
215 231 253
136 156 188
60 95 144
59 94 133
60 96 148
61 96 147
61 95 139
60 96 151
60 96 148
60 95 149
61 96 149
60 95 141
60 95 145
60 95 140
62 97 147
61 96 140
60 96 144
60 94 136
61 97 150
61 97 150
60 96 143
61 96 142
61 96 145
61 96 145
61 96 136
60 95 137
61 96 139
61 96 149
61 96 143
61 96 145
60 95 143
61 96 150
62 97 148
61 96 143
60 95 142
61 97 147
59 94 137
61 97 151
60 95 147
60 95 141
62 98 152
59 94 133
61 96 149
61 97 153
61 97 155
61 96 143
62 98 153
61 95 137
61 96 149
61 96 148
61 96 147
60 95 135
62 97 149
61 97 151
61 96 143
61 97 148
61 97 150
61 96 150
60 95 147
61 96 148
61 96 140
61 97 148
62 97 150
60 96 144
62 98 156
60 95 135
60 95 148
60 95 141
60 94 135
61 97 155
62 98 153
61 96 143
61 97 143
62 97 149
61 96 148
61 96 144
62 97 154
62 97 148
60 96 141
61 96 148
61 96 145
61 96 144
60 95 142
60 95 142
60 96 145
62 98 156
61 96 148
61 97 147
61 97 150
61 96 144
62 97 147
61 95 144
62 98 153
60 95 148
62 97 152
60 95 137
61 96 150
61 96 144
62 97 148
61 97 144
61 97 152
61 97 151
61 96 145
61 96 144
61 97 151
62 97 153
61 97 150
60 96 145
61 97 148
62 97 156
61 97 147
61 96 141
61 96 147
61 96 148
62 97 156
61 96 147
61 96 147
61 96 145
60 95 141
61 96 147
61 96 145
61 96 143
60 96 140
62 98 152
61 96 144
61 96 145
60 96 142
61 97 144
62 97 155
62 98 153
61 97 149
62 97 156
60 95 143
61 96 152
62 98 160
61 97 153
61 96 144
61 97 148
60 95 141
62 98 153
61 96 149
62 97 152
61 96 143
61 96 142
63 98 160
61 97 155
61 97 151
62 97 149
61 97 154
63 98 156
61 96 149
61 96 146
61 97 153
61 96 147
60 96 145
62 98 158
62 97 150
62 97 152
61 96 142
61 97 148
61 97 157
61 96 149
62 97 154
61 96 148
61 96 149
61 96 151
60 95 147
61 97 143
61 97 157
61 97 145
61 97 151
60 95 144
62 97 154
62 98 154
61 96 152
61 96 147
61 96 149
62 97 153
61 97 152
61 97 151
60 94 139
62 97 153
61 95 150
61 97 152
61 96 147
61 96 151
61 96 149
60 95 144
60 94 146
62 96 150
60 95 142
60 94 143
61 96 152
61 96 149
60 94 147
60 96 149
60 94 145
60 94 151
59 93 147
62 97 152
62 97 153
59 94 153
60 95 158
61 96 157
60 93 155
59 93 146
59 91 147
56 87 134
59 92 150
67 96 148
203 221 247
214 231 255
214 231 255
214 231 255
213 231 255
213 231 255
213 231 255
213 231 255
213 231 255
213 231 255
213 231 255
195 210 227
130 127 84
117 115 76
129 127 86
123 121 83
136 135 93
118 120 84
127 127 87
138 137 92
134 134 92
141 141 96
136 137 95
136 136 93
138 137 93
144 144 99
151 148 99
153 152 101
145 144 98
141 140 95
151 150 101
150 148 99
158 154 102
161 158 104
159 157 104
161 158 105
161 159 105
161 158 103
159 157 104
161 157 103
164 160 106
165 161 107
163 160 106
169 164 108
166 162 107
168 165 108
169 165 108
168 163 108
166 162 106
166 161 106
161 158 103
162 158 104
168 163 106
164 160 103
159 155 101
163 159 104
165 161 103
160 155 101
151 147 97
156 152 97
161 157 99
161 156 100
157 151 95
154 149 94
146 141 91
150 146 93
140 137 87
141 137 86
133 129 80
188 201 212
213 231 255
213 231 255
213 231 255
213 231 255
213 231 255
213 231 255
213 231 255
214 231 255
214 231 255
214 231 255
214 231 255
214 231 255
214 231 255
214 231 255
214 231 255
214 231 255
214 231 255
214 231 255
214 231 255
214 231 255
214 231 255
214 231 255
214 231 255
214 231 255
214 231 255
214 232 255
214 232 255
214 232 255
214 232 255
214 232 255
214 232 255
214 232 255
214 232 255
214 232 255
214 232 255
214 232 255
214 232 255
214 232 255
214 232 255
215 232 255
215 232 255
215 232 255
215 232 255
215 232 255
215 232 255
215 232 255
215 232 255
215 232 255
215 232 255
215 232 255
215 232 255
215 232 255
215 232 255
215 232 255
215 232 255
215 232 255
215 232 255
215 232 255
215 232 255
215 232 255
215 232 255
215 232 255
215 232 255
215 232 255
215 232 255
215 232 255
215 232 255
215 232 255
215 232 255
215 232 255
215 232 255
216 232 255
216 232 255
216 232 255
216 232 255
216 232 255
216 232 255
216 232 255
216 232 255
216 232 255
216 232 255
216 232 255
216 233 255
216 233 255
216 233 255
216 233 255
216 233 255
216 233 255
216 233 255
216 233 255
216 233 255
216 233 255
216 233 255
216 233 255
216 233 255
217 233 255
217 233 255
217 233 255
217 233 255
217 233 255
217 233 255
217 233 255
218 233 255
218 234 255
218 234 255
218 234 255
218 234 255
218 234 255
219 234 255
219 234 255
219 234 255
219 235 255
220 235 255
220 235 255
221 235 255
221 235 255
219 234 255
218 234 255
218 234 255
218 234 255
218 234 255
217 233 255
147 167 200
61 96 148
61 96 145
59 94 140
60 95 148
60 95 142
61 96 149
61 97 147
61 97 157
60 95 137
61 96 145
61 96 145
61 96 140
61 97 148
60 95 142
60 96 143
60 95 141
61 97 144
61 97 151
60 95 137
62 97 149
62 98 156
61 97 149
61 96 144
61 96 148
61 96 140
60 95 140
61 95 141
60 96 143
60 95 140
61 96 144
62 97 143
59 95 142
61 96 148
59 95 140
60 95 141
60 95 141
61 96 147
61 97 152
59 94 139
62 98 157
59 95 141
60 96 140
61 95 141
61 96 152
60 95 136
61 96 144
61 96 143
60 96 145
61 96 149
60 95 144
60 95 143
60 96 145
61 96 139
61 97 149
59 94 139
61 97 147
60 95 143
60 95 142
62 97 149
60 95 142
61 96 144
60 95 149
61 96 144
60 96 142
62 97 149
60 95 139
60 95 140
61 96 147
61 96 142
61 96 142
60 94 129
61 96 144
61 96 151
60 95 140
62 97 152
61 96 151
62 97 148
61 97 153
60 95 134
60 94 133
60 95 136
60 95 139
60 95 137
61 96 140
61 96 143
62 98 161
61 96 141
61 97 143
63 99 159
62 97 155
61 97 150
61 97 144
62 97 145
61 96 144
60 95 139
61 97 153
61 96 144
60 96 143
61 97 145
59 94 131
60 95 140
61 96 147
62 97 151
60 95 137
61 97 150
62 97 152
62 97 153
61 96 147
59 93 134
61 96 140
61 96 145
61 97 151
62 97 149
60 95 128
61 96 145
62 98 157
62 98 155
62 97 155
61 97 143
60 94 141
61 96 142
62 98 156
62 97 154
62 97 154
62 98 153
60 95 136
62 97 145
62 97 151
61 97 151
60 95 139
61 97 153
61 97 144
60 95 142
62 97 150
62 98 158
61 96 144
62 97 150
62 97 150
61 96 147
61 97 151
62 97 149
62 97 154
60 95 141
60 95 141
60 96 148
62 97 151
61 96 144
61 96 144
62 98 159
61 96 154
60 95 147
60 95 143
62 97 158
62 97 156
58 92 130
61 96 145
62 97 148
62 97 150
62 97 145
61 95 142
61 96 147
61 97 153
61 97 149
61 97 149
62 97 153
62 97 156
62 97 151
61 96 151
61 95 146
61 96 150
61 96 152
63 98 158
60 95 146
60 95 146
60 96 151
60 94 142
62 97 154
61 97 156
62 97 156
61 95 146
60 95 141
61 97 156
61 96 149
61 97 150
61 95 139
61 96 152
60 95 149
61 96 154
59 92 139
61 96 151
60 95 156
60 95 151
61 95 153
60 94 152
60 95 156
61 95 150
60 94 151
59 93 148
59 93 149
60 93 145
58 90 138
56 88 130
58 91 140
60 94 147
58 91 146
58 91 151
56 88 140
122 143 182
214 231 255
214 231 255
214 231 255
214 231 255
214 231 255
214 231 255
214 231 255
214 231 255
214 231 255
214 231 255
177 186 189
126 124 79
115 114 77
123 123 83
126 126 87
115 116 81
138 137 92
131 131 89
130 130 91
132 132 91
141 141 97
133 132 91
147 146 99
145 144 96
140 139 96
150 148 100
147 146 98
151 149 101
153 151 102
161 158 105
154 152 102
157 155 103
152 151 102
157 155 103
166 162 107
162 159 104
160 157 104
159 156 102
162 159 105
159 157 104
168 164 108
162 160 104
166 163 104
165 161 106
169 164 107
164 160 105
158 155 101
169 164 107
162 159 103
158 155 100
168 164 106
163 158 103
156 153 99
167 162 106
159 156 99
162 157 103
159 155 99
158 154 99
165 160 101
151 148 96
146 142 90
153 149 93
156 152 100
143 139 87
133 130 83
144 139 87
138 133 83
134 130 80
174 182 179
214 231 255
214 231 255
214 231 255
214 231 255
214 231 255
214 231 255
214 231 255
214 231 255
214 231 255
214 231 255
214 231 255
214 231 255
214 231 255
214 231 255
214 231 255
214 231 255
214 231 255
214 232 255
214 232 255
214 232 255
214 232 255
214 232 255
214 232 255
214 232 255
214 232 255
214 232 255
214 232 255
214 232 255
214 232 255
214 232 255
214 232 255
214 232 255
214 232 255
215 232 255
215 232 255
215 232 255
215 232 255
215 232 255
215 232 255
215 232 255
215 232 255
215 232 255
215 232 255
215 232 255
215 232 255
215 232 255
215 232 255
215 232 255
215 232 255
215 232 255
215 232 255
215 232 255
215 232 255
215 232 255
215 232 255
215 232 255
215 232 255
215 232 255
215 232 255
215 232 255
215 232 255
215 232 255
215 232 255
215 232 255
216 232 255
216 232 255
216 232 255
216 232 255
216 232 255
216 232 255
216 232 255
216 232 255
216 232 255
216 232 255
216 232 255
216 233 255
216 233 255
216 233 255
216 233 255
216 233 255
216 233 255
216 233 255
216 233 255
216 233 255
216 233 255
216 233 255
216 233 255
216 233 255
216 233 255
216 233 255
216 233 255
216 233 255
216 233 255
216 233 255
216 233 255
216 233 255
217 233 255
217 233 255
217 233 255
217 233 255
217 233 255
217 233 255
217 233 255
217 233 255
218 234 255
218 234 255
218 234 255
218 234 255
218 234 255
219 234 255
219 234 255
219 234 255
219 234 255
220 235 255
220 235 255
220 235 255
221 235 255
221 235 255
219 234 255
218 234 255
218 234 255
218 234 255
218 234 255
175 192 217
74 106 156
60 94 137
61 97 152
60 95 144
60 95 143
61 97 157
62 98 160
60 95 142
60 95 147
60 95 147
61 96 149
60 95 145
60 95 140
60 95 140
61 97 152
60 96 143
59 94 142
61 96 145
61 96 147
61 96 151
61 96 143
59 94 122
61 95 145
61 96 151
60 96 145
59 94 134
60 96 145
61 97 149
62 97 154
60 95 139
61 97 148
60 96 147
61 97 148
60 95 140
61 96 152
61 97 151
61 96 147
60 96 147
60 95 140
60 95 140
61 97 149
61 97 143
61 96 148
61 96 141
60 95 137
62 97 156
61 96 150
60 96 140
60 95 142
61 96 140
60 95 145
61 96 150
61 96 139
60 96 142
60 95 139
60 96 143
61 96 143
61 96 143
60 95 139
61 97 149
61 96 145
61 96 142
61 96 137
62 97 151
62 97 153
60 95 139
61 96 149
62 98 160
60 95 139
60 95 139
61 96 147
60 95 134
61 96 148
61 96 142
60 95 137
63 98 154
61 97 147
60 95 149
61 97 144
61 96 150
61 95 135
61 97 148
62 97 153
61 97 145
61 97 153
62 98 158
60 95 147
61 97 144
62 97 155
59 94 134
61 97 147
62 98 157
59 94 133
62 97 156
60 95 143
61 96 147
61 97 156
62 97 145
61 96 141
61 96 144
60 94 139
61 96 143
62 97 152
61 97 144
61 96 149
60 94 140
60 95 134
62 98 158
62 97 147
59 94 136
62 97 150
61 96 144
60 96 141
61 96 144
60 95 143
61 97 151
60 95 145
61 96 149
60 95 144
62 97 150
61 96 145
62 97 153
61 97 153
61 97 152
61 97 151
62 97 151
61 96 144
61 97 150
61 97 153
60 96 142
61 96 148
61 96 144
61 96 144
60 95 137
61 96 147
60 95 150
60 95 140
61 97 150
60 95 136
61 97 148
60 95 139
62 97 152
61 96 141
62 98 154
62 97 152
61 97 150
61 97 152
61 97 147
60 95 137
61 97 149
61 97 150
60 96 147
61 97 152
62 97 152
61 96 146
59 94 144
62 97 149
61 96 148
61 97 149
61 96 148
61 97 145
61 96 153
61 96 144
60 95 147
61 96 144
59 94 135
60 95 140
61 96 148
61 96 150
61 96 147
60 95 145
61 97 155
61 96 151
60 95 146
61 96 148
61 96 146
61 95 148
62 98 158
62 96 152
61 96 148
60 95 142
60 95 141
61 96 146
61 96 152
59 93 138
61 95 145
61 95 149
60 95 150
62 97 159
60 94 145
62 97 154
60 94 142
61 95 150
59 93 134
60 94 143
60 95 152
60 94 149
60 93 144
59 92 143
60 93 147
60 94 137
58 91 149
60 94 153
58 90 141
59 91 145
57 88 141
57 87 134
182 200 226
214 232 255
214 231 255
214 231 255
214 231 255
214 231 255
214 231 255
214 231 255
214 231 255
214 231 255
140 145 136
135 131 84
114 114 79
125 123 83
112 113 80
129 130 90
128 127 87
137 136 93
133 133 91
130 130 89
136 136 92
133 134 93
147 146 99
133 133 92
139 139 95
143 141 94
156 153 102
152 150 99
140 139 94
157 155 104
157 155 103
153 150 98
158 156 104
161 158 106
157 154 102
163 159 103
165 161 106
162 159 104
165 160 104
164 160 104
169 165 107
169 165 107
163 159 103
167 163 107
171 167 108
168 164 106
171 166 108
166 161 104
166 161 104
165 160 103
168 164 108
160 155 100
167 162 103
159 155 101
160 155 100
161 157 102
159 154 96
163 158 101
159 154 100
162 158 102
161 156 101
159 154 95
153 148 93
151 148 96
149 144 90
154 150 94
153 148 92
135 132 82
137 136 98
214 231 255
214 231 255
214 231 255
214 231 255
214 231 255
214 231 255
214 231 255
214 231 255
214 232 255
214 232 255
214 232 255
214 232 255
214 232 255
214 232 255
214 232 255
214 232 255
214 232 255
214 232 255
214 232 255
214 232 255
214 232 255
214 232 255
214 232 255
214 232 255
214 232 255
215 232 255
215 232 255
215 232 255
215 232 255
215 232 255
215 232 255
215 232 255
215 232 255
215 232 255
215 232 255
215 232 255
215 232 255
215 232 255
215 232 255
215 232 255
215 232 255
215 232 255
215 232 255
215 232 255
215 232 255
215 232 255
215 232 255
215 232 255
215 232 255
215 232 255
215 232 255
215 232 255
215 232 255
215 232 255
215 232 255
215 232 255
215 232 255
216 232 255
216 232 255
216 232 255
216 232 255
216 232 255
216 232 255
216 232 255
216 232 255
216 232 255
216 232 255
216 232 255
216 233 255
216 233 255
216 233 255
216 233 255
216 233 255
216 233 255
216 233 255
216 233 255
216 233 255
216 233 255
216 233 255
216 233 255
216 233 255
216 233 255
216 233 255
216 233 255
216 233 255
216 233 255
216 233 255
216 233 255
216 233 255
216 233 255
216 233 255
216 233 255
216 233 255
216 233 255
216 233 255
216 233 255
216 233 255
217 233 255
217 233 255
217 233 255
217 233 255
217 233 255
217 233 255
217 233 255
217 233 255
218 234 255
218 234 255
218 234 255
218 234 255
218 234 255
218 234 255
219 234 255
219 234 255
219 234 255
219 234 255
220 235 255
220 235 255
220 235 255
221 235 255
221 235 255
219 234 255
219 234 255
219 234 255
219 234 255
202 218 244
82 111 153
61 96 144
60 95 139
61 97 151
61 96 140
60 95 136
59 94 136
60 95 141
61 97 151
60 95 136
60 96 145
61 96 148
61 97 148
60 96 142
60 95 140
59 94 135
62 98 152
61 97 145
61 96 152
60 96 147
60 95 141
59 93 133
60 96 142
62 97 154
61 96 149
62 97 145
61 97 150
60 95 140
61 97 151
61 97 151
60 96 149
60 95 142
60 96 145
62 98 153
61 96 142
60 95 145
61 96 139
61 96 151
59 94 136
61 96 152
60 95 139
61 96 141
60 95 140
60 95 137
60 95 139
61 97 149
61 96 139
60 95 135
61 96 142
61 96 150
61 97 148
61 96 149
60 95 139
61 96 148
59 94 135
61 96 142
61 96 147
62 98 154
61 97 151
60 96 144
61 96 142
60 95 140
62 97 150
61 96 144
60 95 145
61 96 143
61 97 156
61 97 149
61 96 144
60 95 142
62 97 149
61 96 139
60 95 141
60 95 143
61 96 149
62 97 152
62 97 147
61 96 144
62 97 149
60 96 152
60 96 144
61 97 152
62 97 145
61 96 142
60 95 140
61 96 143
61 96 147
61 96 143
62 97 149
61 97 147
61 96 148
60 95 135
61 97 154
61 96 145
62 97 151
61 96 148
61 97 147
60 95 141
61 97 150
60 95 135
62 97 151
60 94 141
61 96 141
62 98 151
60 96 140
61 96 148
60 95 143
60 96 144
61 96 147
61 96 149
60 95 134
61 97 151
62 97 151
61 95 141
61 96 148
60 95 144
60 96 140
61 97 153
60 95 145
61 96 136
62 97 154
61 96 151
62 98 154
61 97 157
61 96 150
61 97 150
60 96 145
63 98 155
61 96 145
60 95 142
60 96 147
61 97 152
60 95 134
61 96 142
60 95 147
61 97 148
60 96 144
61 96 141
60 95 145
62 97 151
61 96 145
62 98 152
61 97 145
61 97 151
62 98 159
61 96 144
60 96 147
61 97 149
62 97 152
61 97 156
62 98 153
61 96 149
61 96 151
62 97 150
60 95 140
62 97 147
61 97 145
61 97 150
61 96 140
61 96 147
61 96 150
62 98 158
62 97 147
61 96 147
61 97 146
60 95 149
60 96 142
62 98 154
61 97 155
62 97 151
62 97 155
61 97 153
61 97 150
60 94 138
61 97 155
62 98 158
60 94 141
60 94 140
60 95 149
59 93 134
60 95 145
61 96 150
61 96 150
62 97 151
60 95 148
61 96 150
61 95 145
61 96 146
61 96 156
60 95 150
60 95 149
60 95 150
60 94 145
60 94 149
60 94 146
59 93 137
60 94 151
62 97 154
60 94 146
60 94 152
61 95 152
59 92 141
60 94 150
57 90 137
59 91 144
56 87 138
96 119 159
212 230 254
214 232 255
214 232 255
214 232 255
214 232 255
214 232 255
214 232 255
214 232 255
208 224 246
120 118 76
110 109 75
117 115 77
124 123 85
117 118 82
118 119 83
119 120 84
123 124 87
126 127 89
134 134 93
133 133 91
125 125 85
143 141 94
139 139 94
148 146 100
147 145 98
146 145 99
143 142 95
156 154 104
152 150 99
160 158 106
155 152 103
160 158 103
160 156 103
164 161 106
156 153 102
161 158 103
163 160 104
169 166 108
167 163 105
168 164 108
162 159 103
162 158 103
171 166 109
170 166 107
168 163 105
168 162 102
169 165 106
165 160 103
165 161 103
171 166 107
166 162 103
162 158 101
170 165 106
166 162 102
163 158 102
161 156 99
158 154 97
163 158 101
158 153 97
162 157 99
155 152 95
152 148 94
143 139 91
158 153 99
146 142 89
153 148 93
135 131 81
142 137 84
206 222 242
214 232 255
214 232 255
214 232 255
214 232 255
214 232 255
214 232 255
214 232 255
214 232 255
214 232 255
214 232 255
214 232 255
214 232 255
214 232 255
214 232 255
214 232 255
214 232 255
215 232 255
215 232 255
215 232 255
215 232 255
215 232 255
215 232 255
215 232 255
215 232 255
215 232 255
215 232 255
215 232 255
215 232 255
215 232 255
215 232 255
215 232 255
215 232 255
215 232 255
215 232 255
215 232 255
215 232 255
215 232 255
215 232 255
215 232 255
215 232 255
215 232 255
215 232 255
215 232 255
215 232 255
215 232 255
215 232 255
215 232 255
215 232 255
216 232 255
216 232 255
216 232 255
216 232 255
216 232 255
216 232 255
216 232 255
216 232 255
216 232 255
216 232 255
216 232 255
216 233 255
216 233 255
216 233 255
216 233 255
216 233 255
216 233 255
216 233 255
216 233 255
216 233 255
216 233 255
216 233 255
216 233 255
216 233 255
216 233 255
216 233 255
216 233 255
216 233 255
216 233 255
216 233 255
216 233 255
216 233 255
216 233 255
216 233 255
216 233 255
216 233 255
216 233 255
217 233 255
217 233 255
217 233 255
217 233 255
217 233 255
216 233 255
216 233 255
216 233 255
216 233 255
216 233 255
216 233 255
217 233 255
217 233 255
217 233 255
217 233 255
217 233 255
217 233 255
217 233 255
217 233 255
217 233 255
218 233 255
218 234 255
218 234 255
218 234 255
218 234 255
218 234 255
219 234 255
219 234 255
219 234 255
219 234 255
219 235 255
220 235 255
220 235 255
220 235 255
221 235 255
220 235 255
219 234 255
219 234 255
219 234 255
209 225 248
106 130 166
61 96 150
61 97 147
61 96 145
60 96 143
61 96 143
61 96 144
60 95 143
62 98 156
60 95 137
61 96 142
60 95 141
62 97 150
60 95 137
61 97 151
61 96 136
60 96 147
61 96 142
62 98 154
60 96 143
61 97 152
60 95 143
60 95 135
61 96 151
61 97 145
61 96 152
61 96 147
60 96 145
60 94 134
60 96 144
60 95 136
61 96 145
59 94 131
62 98 153
61 96 144
61 96 142
61 96 144
61 96 144
61 97 149
61 97 147
61 96 141
61 96 148
61 96 143
61 96 148
60 95 135
61 96 139
61 96 140
62 97 152
60 96 140
61 96 143
60 95 141
61 97 153
61 96 149
60 95 139
60 96 145
60 95 136
62 97 150
61 96 145
61 96 150
60 95 140
62 97 154
60 95 142
61 96 148
61 96 148
62 98 156
61 96 144
61 96 144
61 96 149
61 96 148
62 97 153
60 96 140
60 95 142
61 97 149
62 97 152
62 97 144
62 96 148
61 96 149
61 97 148
60 96 141
61 96 147
61 96 140
60 95 137
61 96 149
61 97 149
61 96 144
60 96 145
61 96 140
61 96 147
61 97 145
61 97 144
60 95 140
61 97 152
62 97 142
60 96 144
61 97 153
61 97 150
61 96 147
61 96 142
61 96 143
59 94 134
60 95 139
61 96 147
60 95 137
60 96 147
61 96 152
61 96 144
61 97 151
61 96 137
62 97 155
60 95 139
60 95 143
61 97 149
61 96 141
62 97 150
61 96 147
61 97 150
60 96 140
62 97 147
62 98 157
61 96 147
60 95 143
60 95 134
61 96 143
61 96 142
60 96 148
60 95 134
62 97 152
60 95 142
62 97 150
61 97 152
62 97 145
60 95 139
61 96 140
62 97 150
61 96 148
60 95 145
61 96 147
61 97 150
62 97 151
60 96 145
62 97 147
61 96 151
62 97 149
62 98 157
61 96 144
61 97 144
61 97 150
60 95 144
61 96 148
61 96 149
61 97 148
61 96 146
61 97 149
61 95 143
61 97 147
61 96 144
61 96 153
61 96 143
61 97 151
61 96 150
60 95 136
61 97 151
60 95 140
62 97 148
61 96 139
61 96 151
58 92 125
62 97 147
60 95 148
60 95 145
61 97 151
61 96 143
61 96 147
62 97 150
60 95 145
61 96 149
61 95 154
61 96 149
61 96 149
61 96 148
60 95 140
61 96 148
60 95 149
61 96 149
61 96 149
61 96 158
60 94 142
62 97 155
60 95 144
61 96 154
60 93 143
60 94 147
61 95 152
59 93 144
60 94 145
58 93 144
61 95 158
58 92 143
59 92 138
60 95 153
60 94 150
59 93 154
58 90 144
59 92 149
58 91 141
56 86 137
175 192 220
215 232 255
215 232 255
214 232 255
214 232 255
214 232 255
214 232 255
214 232 255
194 205 211
119 116 78
124 121 80
113 112 77
106 107 75
122 121 84
119 120 83
125 125 87
121 121 84
129 129 90
123 125 89
124 126 89
137 137 94
139 139 93
142 140 95
140 139 95
152 150 101
140 138 92
151 148 99
156 154 101
150 149 99
156 153 101
157 154 101
157 154 100
162 159 105
159 157 100
157 155 103
164 160 103
165 162 105
167 163 106
170 166 108
163 160 102
171 165 106
166 162 102
171 166 106
164 160 103
171 166 107
169 164 106
172 168 108
165 161 101
169 164 105
171 166 105
165 160 103
165 160 103
160 155 97
162 158 102
158 154 96
162 158 101
158 153 99
152 149 96
159 154 97
160 156 99
156 151 93
158 153 96
152 148 93
151 146 93
137 134 81
152 147 91
136 132 84
128 125 77
185 195 203
214 232 255
214 232 255
214 232 255
214 232 255
214 232 255
215 232 255
215 232 255
215 232 255
215 232 255
215 232 255
215 232 255
215 232 255
215 232 255
215 232 255
215 232 255
215 232 255
215 232 255
215 232 255
215 232 255
215 232 255
215 232 255
215 232 255
215 232 255
215 232 255
215 232 255
215 232 255
215 232 255
215 232 255
215 232 255
215 232 255
215 232 255
215 232 255
215 232 255
215 232 255
215 232 255
215 232 255
215 232 255
215 232 255
215 232 255
215 232 255
215 232 255
216 232 255
216 232 255
216 232 255
216 232 255
216 232 255
216 232 255
216 232 255
216 232 255
216 232 255
216 232 255
216 233 255
216 233 255
216 233 255
216 233 255
216 233 255
216 233 255
216 233 255
216 233 255
216 233 255
216 233 255
216 233 255
216 233 255
216 233 255
216 233 255
216 233 255
216 233 255
216 233 255
216 233 255
216 233 255
216 233 255
216 233 255
216 233 255
216 233 255
216 233 255
216 233 255
216 233 255
217 233 255
217 233 255
217 233 255
217 233 255
217 233 255
217 233 255
217 233 255
217 233 255
217 233 255
217 233 255
217 233 255
217 233 255
217 233 255
216 233 255
216 233 255
216 233 255
216 233 255
216 233 255
216 233 255
217 233 255
217 233 255
217 233 255
217 233 255
217 233 255
217 233 255
217 233 255
217 233 255
217 233 255
217 233 255
218 233 255
218 234 255
218 234 255
218 234 255
218 234 255
218 234 255
218 234 255
219 234 255
219 234 255
219 234 255
219 234 255
220 235 255
220 235 255
220 235 255
220 235 255
221 235 255
220 235 255
219 234 255
219 234 255
214 229 251
128 149 184
61 96 151
60 95 143
60 95 142
61 96 148
61 96 144
60 95 143
60 96 149
61 97 147
61 96 144
59 94 133
61 96 149
60 95 143
59 94 137
60 95 144
61 96 147
62 97 150
61 96 148
60 95 143
60 95 142
62 97 153
61 96 144
59 95 143
60 95 136
61 96 140
60 96 142
61 96 140
61 97 148
62 97 149
60 95 143
60 96 139
61 96 148
60 95 142
61 96 148
60 95 139
61 96 147
61 96 144
60 94 133
61 96 142
59 94 136
60 95 136
61 96 145
61 97 147
61 96 143
61 96 150
60 95 136
61 96 143
61 96 141
59 94 133
61 96 147
60 95 133
61 96 149
61 96 144
61 96 145
60 95 142
61 96 150
60 96 140
60 95 140
61 96 140
61 96 147
61 97 149
61 96 143
61 96 143
61 97 144
61 96 144
61 96 145
60 95 147
60 96 143
60 94 137
62 97 153
61 96 142
60 95 131
61 96 141
61 97 145
61 96 147
60 95 136
60 95 145
60 95 147
62 97 150
61 96 144
60 96 141
61 97 144
60 95 137
62 97 153
61 97 145
61 96 140
61 96 143
61 97 143
60 95 137
62 97 150
60 95 142
60 95 140
61 96 143
61 97 153
60 95 143
61 96 140
62 97 151
60 96 147
61 96 142
61 96 145
61 96 142
61 97 145
61 96 148
60 96 143
61 97 145
61 96 145
60 94 134
61 96 144
62 97 148
60 96 147
60 96 147
61 96 144
62 97 148
61 96 150
61 97 140
61 96 144
60 95 142
62 97 155
62 97 144
61 96 142
62 97 149
61 96 148
60 95 140
61 97 148
61 96 145
62 97 148
62 98 155
60 96 145
61 96 144
62 97 154
62 98 157
61 97 144
62 97 153
61 96 144
61 96 145
61 96 147
62 98 151
60 95 144
61 96 143
61 97 149
60 95 136
61 96 151
61 97 150
61 96 141
61 97 149
60 96 142
61 97 147
60 95 140
62 97 150
61 97 150
61 97 153
61 96 143
61 96 142
61 96 147
61 96 143
61 96 149
61 97 147
59 94 142
60 95 142
61 96 149
60 96 145
60 95 143
61 97 148
60 95 136
62 98 158
61 96 148
62 98 156
60 95 136
60 95 141
63 98 150
61 96 145
61 96 150
60 95 147
60 96 151
59 93 136
61 95 145
60 94 143
60 95 145
60 95 148
60 95 146
61 95 147
61 95 146
60 95 144
60 94 138
61 96 153
61 96 151
58 92 138
61 95 147
60 94 150
60 95 145
60 95 149
60 94 145
59 93 138
61 96 154
61 95 154
59 93 149
61 95 154
58 91 137
60 93 148
59 92 142
58 91 144
58 91 135
59 91 139
59 92 141
57 89 141
76 102 150
214 231 254
215 232 255
215 232 255
215 232 255
215 232 255
215 232 255
215 232 255
166 175 177
132 130 85
124 121 81
121 120 80
111 112 79
119 119 82
109 111 79
121 122 86
121 123 86
132 133 93
133 134 93
128 129 89
136 135 91
147 146 99
143 142 94
146 143 95
142 141 94
146 145 98
153 150 100
153 151 101
159 156 104
155 153 102
153 152 100
156 153 100
163 160 104
163 160 102
162 159 105
167 163 106
165 161 106
175 170 108
165 161 104
171 165 104
165 161 102
171 166 106
170 165 106
171 167 107
166 162 101
169 165 106
171 165 108
165 161 103
169 163 102
169 165 106
165 161 102
163 159 99
165 161 101
162 156 97
159 155 95
162 157 99
156 151 96
161 157 98
154 150 95
156 152 97
162 156 99
158 153 97
155 150 93
143 138 86
154 149 93
146 142 88
137 134 83
134 130 80
159 162 147
215 232 255
215 232 255
215 232 255
215 232 255
215 232 255
215 232 255
215 232 255
215 232 255
215 232 255
215 232 255
215 232 255
215 232 255
215 232 255
215 232 255
215 232 255
215 232 255
215 232 255
215 232 255
215 232 255
215 232 255
215 232 255
215 232 255
215 232 255
215 232 255
215 232 255
215 232 255
215 232 255
215 232 255
215 232 255
215 232 255
215 232 255
215 232 255
216 232 255
216 232 255
216 232 255
216 232 255
216 232 255
216 232 255
216 232 255
216 232 255
216 232 255
216 232 255
216 232 255
216 232 255
216 233 255
216 233 255
216 233 255
216 233 255
216 233 255
216 233 255
216 233 255
216 233 255
216 233 255
216 233 255
216 233 255
216 233 255
216 233 255
216 233 255
216 233 255
216 233 255
216 233 255
216 233 255
216 233 255
216 233 255
216 233 255
216 233 255
216 233 255
216 233 255
216 233 255
217 233 255
217 233 255
217 233 255
217 233 255
217 233 255
217 233 255
217 233 255
217 233 255
217 233 255
217 233 255
217 233 255
217 233 255
217 233 255
217 233 255
217 233 255
217 233 255
217 233 255
217 233 255
217 233 255
217 233 255
217 233 255
216 233 255
216 233 255
216 233 255
216 233 255
216 233 255
217 233 255
217 233 255
217 233 255
217 233 255
217 233 255
217 233 255
217 233 255
217 233 255
217 233 255
217 233 255
217 233 255
218 233 255
218 234 255
218 234 255
218 234 255
218 234 255
218 234 255
218 234 255
218 234 255
219 234 255
219 234 255
219 234 255
219 234 255
219 234 255
220 235 255
220 235 255
220 235 255
221 235 255
221 235 255
220 235 255
219 234 255
218 233 254
166 184 213
60 96 148
61 97 150
61 97 151
60 95 140
60 95 145
60 95 147
60 95 140
60 95 133
61 96 148
61 96 141
61 96 148
61 96 145
59 94 131
61 97 147
60 95 143
60 96 140
60 96 144
60 96 143
60 96 148
61 96 148
62 97 147
61 96 143
61 96 145
61 96 141
61 96 142
60 96 142
60 96 150
62 97 151
60 95 140
61 96 150
61 97 152
61 96 149
61 96 139
60 96 141
61 97 151
60 95 134
62 97 153
61 95 141
60 96 148
61 96 144
60 95 134
61 97 150
61 96 154
60 96 144
61 96 145
60 95 137
61 96 142
60 95 143
60 96 145
59 94 139
61 97 149
60 95 137
61 96 143
61 97 153
61 96 144
60 95 139
59 93 131
60 95 135
60 96 147
61 96 143
60 95 143
62 98 155
62 97 147
61 96 145
61 96 144
61 97 148
61 96 152
61 95 141
62 97 153
60 95 142
61 96 137
61 96 147
61 97 149
60 95 142
61 97 147
60 95 139
61 97 137
61 96 143
60 95 139
62 97 149
62 97 151
60 95 136
61 96 142
60 95 136
61 96 142
61 96 143
62 97 155
60 95 139
60 96 142
61 96 148
61 96 151
62 97 149
60 96 147
60 95 141
60 95 144
60 95 139
61 96 149
61 96 137
61 96 139
60 95 142
61 96 142
61 96 136
62 98 154
61 97 151
61 96 145
62 97 150
60 95 143
60 95 136
62 97 155
61 96 145
62 98 156
61 96 139
60 96 145
61 96 148
60 95 139
62 97 144
60 95 136
62 98 155
60 95 141
60 96 143
61 96 144
62 97 147
62 97 150
61 96 144
61 97 150
61 96 148
61 96 149
61 96 140
60 95 136
60 95 137
62 97 143
62 98 153
60 94 139
60 95 140
62 97 153
60 96 144
61 96 143
61 96 148
60 96 145
61 96 143
60 96 142
60 95 136
60 96 152
60 95 141
61 97 149
60 95 136
61 96 149
60 95 142
60 95 141
62 97 151
60 96 143
60 95 140
61 96 149
60 94 143
61 96 148
60 95 141
60 95 142
61 96 148
60 95 136
61 97 150
62 97 148
61 96 148
60 94 138
62 98 158
62 98 160
61 96 142
62 97 154
62 97 152
60 95 136
61 96 148
61 95 148
60 95 145
61 95 148
61 96 147
61 96 141
60 95 142
60 95 141
61 97 153
60 95 146
61 96 155
60 94 144
60 94 145
60 95 146
60 94 152
61 97 153
61 95 154
61 95 147
61 96 147
60 94 152
60 94 143
58 92 129
58 92 137
60 94 148
59 92 137
60 94 144
60 94 152
59 93 147
59 93 150
58 90 132
59 92 140
58 91 146
58 89 142
58 91 145
54 84 129
167 185 212
215 232 255
215 232 255
215 232 255
215 232 255
215 232 255
215 232 255
149 153 141
113 111 73
105 105 69
113 113 78
115 117 81
112 113 79
119 120 84
118 120 85
115 116 82
119 121 85
109 112 81
122 123 85
131 132 91
127 128 88
137 137 95
137 137 93
140 139 93
145 143 95
141 139 93
147 145 94
148 145 95
161 157 105
159 156 102
154 151 98
154 152 100
161 157 100
165 162 106
162 158 101
168 163 106
166 163 104
159 156 102
168 163 103
167 162 104
168 163 104
169 164 106
166 161 102
166 162 104
166 161 103
172 167 107
167 162 102
165 161 101
166 162 101
169 163 104
162 158 102
169 165 103
166 161 103
162 157 97
166 161 104
162 157 99
158 153 97
162 157 97
153 149 94
156 152 95
155 151 93
158 153 99
151 146 94
150 146 88
143 139 84
136 132 84
135 131 81
147 146 120
215 232 255
215 232 255
215 232 255
215 232 255
215 232 255
215 232 255
215 232 255
215 232 255
215 232 255
215 232 255
215 232 255
215 232 255
215 232 255
215 232 255
215 232 255
215 232 255
215 232 255
215 232 255
215 232 255
215 232 255
215 232 255
215 232 255
215 232 255
215 232 255
216 232 255
216 232 255
216 232 255
216 232 255
216 232 255
216 232 255
216 232 255
216 232 255
216 232 255
216 232 255
216 232 255
216 233 255
216 233 255
216 233 255
216 233 255
216 233 255
216 233 255
216 233 255
216 233 255
216 233 255
216 233 255
216 233 255
216 233 255
216 233 255
216 233 255
216 233 255
216 233 255
216 233 255
216 233 255
216 233 255
216 233 255
216 233 255
216 233 255
216 233 255
216 233 255
216 233 255
216 233 255
217 233 255
217 233 255
217 233 255
217 233 255
217 233 255
217 233 255
217 233 255
217 233 255
217 233 255
217 233 255
217 233 255
217 233 255
217 233 255
217 233 255
217 233 255
217 233 255
217 233 255
217 233 255
217 233 255
217 233 255
217 233 255
217 233 255
217 233 255
217 233 255
217 233 255
217 233 255
217 233 255
217 233 255
217 233 255
216 233 255
216 233 255
216 233 255
216 233 255
217 233 255
217 233 255
217 233 255
217 233 255
217 233 255
217 233 255
217 233 255
217 233 255
217 233 255
217 233 255
217 233 255
217 233 255
217 233 255
218 233 255
218 234 255
218 234 255
218 234 255
218 234 255
218 234 255
218 234 255
218 234 255
219 234 255
219 234 255
219 234 255
219 234 255
219 234 255
219 235 255
220 235 255
220 235 255
220 235 255
221 235 255
221 235 255
220 235 255
219 234 255
190 206 229
87 115 163
61 96 147
59 94 137
62 97 149
61 96 148
60 95 147
60 95 142
59 94 136
60 95 143
61 96 143
61 96 145
61 97 152
61 96 142
60 95 140
62 97 150
60 95 139
60 96 143
60 95 139
61 97 145
60 96 142
60 96 143
60 95 139
60 94 140
61 96 144
60 95 137
60 95 139
60 95 134
61 97 148
61 97 145
61 97 152
62 97 148
60 95 139
60 95 140
60 94 137
61 97 150
60 95 139
61 96 137
61 97 144
62 98 154
60 95 145
60 95 144
60 96 144
61 96 148
60 96 141
61 96 145
60 95 141
60 95 143
61 96 147
61 96 139
62 97 153
60 95 143
61 96 150
60 96 142
59 94 137
61 96 148
60 95 139
61 96 143
62 97 151
62 97 150
61 96 145
61 96 137
60 95 140
60 95 139
61 97 150
60 95 141
60 96 147
60 95 142
61 96 141
60 95 143
60 95 135
60 95 134
60 95 131
61 97 150
61 96 152
60 95 150
60 94 134
61 96 148
61 96 147
61 96 142
61 96 149
60 95 136
61 96 145
61 97 143
61 96 145
62 97 143
61 96 147
62 97 150
61 96 141
60 96 148
62 97 145
60 95 140
60 96 137
60 96 145
61 96 145
60 95 142
61 97 151
60 95 147
62 97 153
60 95 130
61 96 131
60 95 140
60 95 140
61 97 148
61 96 149
61 96 144
60 95 137
60 95 139
60 96 139
61 96 142
61 96 142
60 95 142
60 95 148
60 95 135
61 97 148
60 95 143
60 96 141
60 95 139
61 96 147
60 95 134
62 97 151
62 97 153
62 97 150
60 95 139
60 95 149
61 96 140
61 96 148
61 96 142
61 96 152
61 96 140
60 95 141
61 96 148
61 97 152
60 95 143
62 97 150
61 96 142
61 96 145
60 95 136
60 95 139
62 98 152
61 96 142
61 97 151
60 96 143
60 95 140
61 97 149
60 95 141
61 96 143
60 95 137
61 96 143
61 97 150
61 96 150
61 97 145
61 96 145
62 98 153
60 95 139
61 96 145
61 96 144
61 97 153
62 97 150
60 95 142
60 95 144
62 97 154
61 96 145
59 94 135
61 96 148
61 96 148
61 96 148
60 95 140
59 93 133
60 95 141
61 96 143
61 96 150
62 97 151
60 96 149
61 96 148
61 96 144
61 97 151
62 97 153
61 96 145
61 96 151
60 95 148
61 96 154
59 94 135
61 96 147
60 94 146
61 96 152
60 95 147
61 96 148
61 96 156
61 95 149
61 95 148
60 94 141
60 93 138
60 94 147
59 92 138
60 93 141
59 93 142
58 92 142
60 93 141
58 91 144
56 89 138
58 89 144
56 88 137
55 85 126
90 112 153
207 224 248
215 232 255
215 232 255
215 232 255
215 232 255
214 230 253
136 135 102
121 119 79
113 112 77
107 109 77
110 112 78
112 113 78
110 112 79
114 116 83
123 124 86
126 125 84
123 124 87
135 135 92
136 137 94
128 127 86
140 139 94
143 142 95
143 142 95
140 139 93
140 139 92
140 139 94
152 150 100
164 160 103
155 152 97
152 150 97
160 157 101
164 160 104
170 166 106
163 159 101
169 165 105
166 162 104
164 160 104
172 167 107
170 165 108
164 160 99
171 166 106
168 164 105
169 163 103
170 165 105
170 164 101
166 162 101
164 160 100
167 161 101
168 163 104
161 157 99
166 161 102
165 159 101
166 160 100
165 160 101
160 155 95
158 153 93
163 157 96
160 156 102
157 152 91
161 157 98
150 145 89
154 149 95
141 136 83
138 134 81
138 133 80
144 139 84
124 119 74
213 229 252
215 232 255
215 232 255
215 232 255
215 232 255
215 232 255
215 232 255
215 232 255
215 232 255
215 232 255
215 232 255
215 232 255
215 232 255
216 232 255
216 232 255
216 232 255
216 232 255
216 232 255
216 232 255
216 232 255
216 232 255
216 232 255
216 232 255
216 232 255
216 232 255
216 232 255
216 233 255
216 233 255
216 233 255
216 233 255
216 233 255
216 233 255
216 233 255
216 233 255
216 233 255
216 233 255
216 233 255
216 233 255
216 233 255
216 233 255
216 233 255
216 233 255
216 233 255
216 233 255
216 233 255
216 233 255
216 233 255
216 233 255
216 233 255
216 233 255
216 233 255
216 233 255
217 233 255
217 233 255
217 233 255
217 233 255
217 233 255
217 233 255
217 233 255
217 233 255
217 233 255
217 233 255
217 233 255
217 233 255
217 233 255
217 233 255
217 233 255
217 233 255
217 233 255
217 233 255
217 233 255
217 233 255
217 233 255
217 233 255
217 233 255
217 233 255
217 233 255
217 233 255
217 233 255
217 233 255
217 233 255
217 233 255
217 233 255
217 233 255
217 233 255
217 233 255
217 233 255
217 233 255
217 233 255
217 233 255
216 233 255
216 233 255
217 233 255
217 233 255
217 233 255
217 233 255
217 233 255
217 233 255
217 233 255
217 233 255
217 233 255
217 233 255
217 233 255
217 233 255
217 233 255
217 233 255
217 233 255
218 233 255
218 234 255
218 234 255
218 234 255
218 234 255
218 234 255
218 234 255
218 234 255
218 234 255
219 234 255
219 234 255
219 234 255
219 234 255
219 234 255
219 234 255
220 235 255
220 235 255
220 235 255
220 235 255
221 235 255
221 235 255
220 235 255
198 214 239
117 139 172
61 96 150
60 95 141
61 96 144
60 95 137
62 97 152
60 95 141
59 94 137
60 95 145
61 96 149
61 97 153
60 95 140
62 97 150
60 95 141
61 96 143
61 96 144
61 96 147
60 95 142
60 95 136
60 95 140
62 97 148
60 96 145
61 96 143
60 95 144
59 94 131
61 96 137
61 96 141
60 95 134
61 96 148
60 95 141
61 96 148
60 96 144
60 95 143
60 94 133
61 96 147
60 95 139
61 96 148
61 96 139
60 95 137
60 95 142
59 94 136
60 95 145
61 96 147
59 94 135
60 95 147
59 95 143
61 97 152
61 96 139
60 95 136
60 94 135
61 96 145
60 94 130
61 96 141
61 97 143
62 97 151
60 95 139
60 95 136
61 96 148
61 96 145
60 96 142
61 96 140
60 95 130
62 97 143
62 97 148
61 96 144
59 94 133
59 94 141
61 96 142
60 95 135
61 96 141
60 95 141
61 96 139
60 96 143
62 97 145
62 97 152
60 95 137
59 94 136
61 95 139
61 96 147
60 95 143
61 96 143
60 95 137
61 96 142
61 95 140
61 96 144
61 95 143
59 94 137
61 96 137
62 97 149
60 95 144
61 96 144
60 95 142
61 97 145
60 95 139
61 96 154
61 97 147
60 95 137
59 94 136
61 96 143
60 96 142
61 96 141
60 95 142
59 93 141
61 96 142
61 96 144
61 97 147
62 98 153
61 96 147
60 95 140
61 96 140
60 95 135
61 96 142
60 95 141
61 97 153
60 96 141
61 97 149
61 96 144
61 96 148
61 97 142
61 96 150
60 95 139
61 97 143
62 97 147
60 96 144
61 96 149
60 95 141
61 97 143
62 97 150
60 96 143
61 96 140
61 96 143
60 95 140
61 97 147
61 96 139
62 97 155
60 95 135
61 96 143
61 96 144
60 96 140
62 98 149
62 97 151
61 96 142
61 96 142
61 97 150
61 97 151
60 95 144
61 96 140
59 94 143
60 95 136
61 96 147
60 95 137
61 96 149
61 96 144
61 95 138
61 96 142
60 96 141
61 96 149
62 97 148
61 95 143
61 96 142
61 96 149
62 97 155
61 95 145
59 94 141
61 97 152
59 94 141
60 95 142
61 96 145
60 95 141
62 97 155
61 96 149
61 95 148
60 95 136
61 96 149
59 94 144
60 95 142
60 95 141
60 95 133
61 95 144
60 95 147
61 96 150
60 95 144
61 95 146
60 94 144
60 94 143
61 95 145
59 93 146
61 95 147
60 94 143
59 94 145
61 96 154
60 95 147
60 94 144
59 93 143
60 93 142
59 92 143
60 93 143
59 92 144
59 91 137
59 92 150
58 90 139
57 88 136
55 85 132
159 176 204
216 232 255
216 232 255
216 232 255
216 232 255
206 221 240
121 119 79
120 118 77
104 106 75
110 111 77
105 106 74
106 108 76
118 118 83
108 110 77
123 123 86
125 125 87
133 133 92
122 124 85
126 125 86
138 138 94
129 129 87
144 142 95
146 144 95
142 140 93
155 152 97
152 150 99
155 153 97
154 151 99
155 153 99
161 158 101
155 153 97
164 161 105
156 154 99
172 168 107
166 161 102
168 163 103
170 165 104
172 168 108
169 164 101
172 166 106
175 170 106
169 163 103
167 162 104
166 161 101
165 161 97
174 168 106
167 162 104
171 165 101
166 161 101
168 163 101
160 156 97
167 162 99
165 159 98
167 162 101
163 158 99
162 157 97
155 150 90
163 159 99
156 151 93
158 153 93
153 148 87
155 149 94
158 153 98
148 143 87
145 141 85
143 138 84
122 117 69
200 215 234
215 232 255
216 232 255
216 232 255
216 232 255
216 232 255
216 232 255
216 232 255
216 232 255
216 232 255
216 232 255
216 232 255
216 232 255
216 232 255
216 232 255
216 233 255
216 233 255
216 233 255
216 233 255
216 233 255
216 233 255
216 233 255
216 233 255
216 233 255
216 233 255
216 233 255
216 233 255
216 233 255
216 233 255
216 233 255
216 233 255
216 233 255
216 233 255
216 233 255
216 233 255
216 233 255
216 233 255
216 233 255
216 233 255
216 233 255
216 233 255
216 233 255
216 233 255
217 233 255
217 233 255
217 233 255
217 233 255
217 233 255
217 233 255
217 233 255
217 233 255
217 233 255
217 233 255
217 233 255
217 233 255
217 233 255
217 233 255
217 233 255
217 233 255
217 233 255
217 233 255
217 233 255
217 233 255
217 233 255
217 233 255
217 233 255
217 233 255
217 233 255
217 233 255
217 233 255
217 233 255
217 233 255
217 233 255
217 233 255
217 233 255
217 233 255
217 233 255
217 233 255
217 233 255
217 233 255
217 233 255
217 233 255
217 233 255
217 233 255
217 233 255
217 233 255
218 233 255
218 233 255
218 233 255
218 233 255
217 233 255
217 233 255
217 233 255
217 233 255
217 233 255
217 233 255
217 233 255
217 233 255
217 233 255
217 233 255
217 233 255
217 233 255
217 233 255
217 233 255
217 233 255
217 233 255
217 233 255
218 233 255
218 234 255
218 234 255
218 234 255
218 234 255
218 234 255
218 234 255
218 234 255
218 234 255
218 234 255
219 234 255
219 234 255
219 234 255
219 234 255
219 234 255
219 234 255
219 235 255
220 235 255
220 235 255
220 235 255
220 235 255
221 235 255
221 235 255
216 231 252
140 160 193
61 96 147
60 95 139
59 93 133
61 96 145
60 95 143
61 96 144
61 96 141
60 95 137
60 95 140
60 95 140
61 97 153
59 94 145
60 95 141
60 95 142
60 94 135
59 94 134
61 96 143
60 95 143
61 96 140
60 95 141
60 95 142
60 96 137
61 97 143
61 96 148
60 95 145
61 96 149
60 95 143
61 97 143
60 95 140
60 95 142
59 94 139
60 95 139
61 95 141
60 94 136
60 94 137
60 95 139
61 96 149
61 96 145
61 96 148
60 95 144
62 97 145
59 93 141
60 95 142
61 96 145
61 96 144
61 96 145
60 95 134
61 96 142
61 97 151
60 95 141
60 94 128
60 96 137
61 97 149
61 96 145
61 96 143
59 94 133
60 94 135
61 97 144
60 96 143
59 94 133
60 95 141
61 96 147
62 97 149
61 96 141
60 95 140
60 95 143
62 97 145
60 96 143
61 96 147
62 97 144
60 95 140
60 95 142
61 96 145
61 96 139
60 94 130
61 97 147
61 96 145
60 96 142
61 96 143
61 95 141
60 95 139
60 95 136
62 97 143
60 95 139
60 96 140
60 95 143
61 97 147
61 96 140
60 96 143
60 95 143
60 95 135
62 97 147
61 96 143
60 95 136
60 95 143
60 95 136
61 97 148
61 96 145
61 96 143
61 96 143
61 96 148
61 96 142
61 96 141
62 97 152
61 96 149
61 96 145
60 94 135
60 96 141
60 94 133
62 97 152
59 94 136
60 95 140
60 95 137
61 96 136
62 97 155
60 95 135
62 97 148
60 95 135
61 96 131
60 95 134
60 95 144
61 95 150
61 97 150
61 96 147
61 96 142
60 95 139
60 95 139
61 96 147
61 96 139
60 94 137
61 96 148
60 95 139
62 98 154
60 95 145
61 96 151
61 96 145
62 97 153
61 96 148
62 97 153
62 98 151
61 96 139
61 96 145
59 95 135
62 97 151
61 96 145
61 96 136
60 95 143
60 95 141
60 95 140
60 95 136
61 97 150
61 97 149
61 96 144
61 96 145
61 96 140
62 98 152
59 93 129
61 96 142
62 97 147
60 94 141
62 97 152
61 96 149
59 93 134
60 94 139
60 96 147
61 96 147
62 98 159
62 97 148
61 95 139
60 94 147
61 97 151
60 96 149
62 97 156
59 94 147
61 96 150
61 96 150
61 96 146
61 96 146
60 94 136
62 96 150
62 97 151
61 97 153
61 95 143
60 95 147
59 94 143
61 95 147
61 95 143
61 95 154
59 93 145
60 94 146
62 96 152
60 94 154
61 95 148
58 91 140
58 90 134
59 92 134
59 92 142
59 91 142
56 87 135
57 90 138
54 84 133
76 102 147
210 226 248
216 233 255
216 232 255
216 232 255
200 214 231
123 121 77
114 113 74
104 104 69
110 111 77
105 107 76
104 105 73
107 109 77
111 112 78
103 104 72
112 114 79
115 117 83
119 120 83
121 123 85
139 139 95
149 148 98
141 140 94
140 139 92
149 148 98
141 141 91
149 147 96
150 148 95
154 151 96
157 154 99
161 157 100
158 153 97
159 156 96
165 161 103
165 161 102
164 160 98
169 164 103
165 161 100
165 160 99
171 166 101
170 165 105
171 166 103
165 160 101
174 168 104
171 166 105
169 163 102
168 162 99
165 160 100
170 164 103
171 166 104
170 165 103
169 163 103
163 158 100
166 161 99
163 158 97
166 161 102
167 162 102
165 160 98
159 153 96
161 154 93
153 149 90
152 146 90
154 150 89
159 154 92
149 144 90
152 147 91
141 136 82
139 134 79
193 207 221
216 232 255
216 232 255
216 233 255
216 233 255
216 233 255
216 233 255
216 233 255
216 233 255
216 233 255
216 233 255
216 233 255
216 233 255
216 233 255
216 233 255
216 233 255
216 233 255
216 233 255
216 233 255
216 233 255
216 233 255
216 233 255
216 233 255
216 233 255
216 233 255
216 233 255
216 233 255
216 233 255
216 233 255
216 233 255
216 233 255
216 233 255
216 233 255
217 233 255
217 233 255
217 233 255
217 233 255
217 233 255
217 233 255
217 233 255
217 233 255
217 233 255
217 233 255
217 233 255
217 233 255
217 233 255
217 233 255
217 233 255
217 233 255
217 233 255
217 233 255
217 233 255
217 233 255
217 233 255
217 233 255
217 233 255
217 233 255
217 233 255
217 233 255
217 233 255
217 233 255
217 233 255
217 233 255
217 233 255
217 233 255
217 233 255
217 233 255
217 233 255
217 233 255
217 233 255
217 233 255
217 233 255
217 233 255
217 233 255
217 233 255
217 233 255
218 233 255
218 233 255
218 233 255
218 233 255
218 233 255
218 234 255
218 234 255
218 234 255
218 234 255
218 234 255
218 234 255
218 234 255
218 234 255
218 234 255
217 233 255
217 233 255
217 233 255
217 233 255
217 233 255
217 233 255
217 233 255
217 233 255
217 233 255
217 233 255
217 233 255
217 233 255
217 233 255
217 233 255
217 233 255
217 233 255
218 233 255
218 233 255
218 234 255
218 234 255
218 234 255
218 234 255
218 234 255
218 234 255
218 234 255
218 234 255
218 234 255
218 234 255
219 234 255
219 234 255
219 234 255
219 234 255
219 234 255
219 234 255
219 235 255
220 235 255
220 235 255
220 235 255
220 235 255
220 235 255
221 235 255
221 235 255
186 202 227
80 110 154
60 95 144
60 95 147
61 96 145
60 95 136
60 95 148
61 97 147
59 93 128
61 97 147
60 95 137
61 96 148
61 96 145
60 96 137
59 94 136
60 95 133
61 96 149
59 94 137
61 97 149
61 96 148
60 95 139
60 95 144
60 96 141
60 95 140
59 94 135
59 93 118
60 95 143
62 97 151
62 97 145
61 97 147
61 96 144
60 95 140
60 95 143
60 95 141
61 96 139
60 94 135
61 96 142
61 96 147
61 97 143
60 95 134
61 96 149
61 96 137
61 96 145
62 97 150
60 95 137
61 96 143
61 96 143
61 97 151
61 96 136
60 95 139
60 95 144
61 96 143
61 96 143
61 96 144
61 96 142
61 96 145
61 96 142
61 97 151
62 97 152
61 96 150
59 94 141
60 95 140
61 96 141
60 95 139
61 96 145
61 96 139
63 98 156
59 94 136
60 96 148
61 95 136
60 95 136
60 95 137
61 96 140
60 96 145
61 96 140
60 96 142
60 95 133
61 96 148
61 96 142
60 96 140
61 96 142
60 95 141
61 96 144
61 96 148
60 96 137
62 97 151
61 96 144
60 95 143
61 96 141
61 96 143
61 96 140
61 96 145
62 97 152
61 96 142
60 94 140
61 96 144
61 96 144
61 96 152
60 95 140
60 95 142
60 95 137
60 95 142
62 98 149
60 95 140
61 96 140
62 97 155
61 96 149
61 96 147
62 97 154
61 96 141
61 96 142
61 96 143
62 97 145
61 96 136
60 95 139
61 96 142
59 94 131
62 97 145
61 96 141
61 97 151
61 96 144
61 96 144
60 95 139
60 95 143
61 96 147
62 97 150
60 95 140
62 97 144
61 96 145
61 95 136
61 96 145
60 95 134
61 96 150
61 96 143
60 95 140
60 95 139
61 96 140
61 96 144
61 96 148
60 94 136
61 96 147
60 96 139
60 95 142
60 95 144
60 95 139
61 95 134
59 94 133
61 96 141
61 96 151
61 96 145
61 96 142
61 96 145
61 96 140
60 95 145
61 96 152
62 97 150
61 96 147
61 96 148
60 95 144
61 96 147
60 95 139
62 97 155
60 95 145
60 95 146
61 96 142
60 95 138
60 95 133
61 96 147
60 95 142
60 95 142
61 96 141
61 95 140
62 98 155
61 96 150
61 96 142
59 93 135
59 93 142
60 95 141
61 96 142
60 94 138
61 96 144
59 94 141
60 94 143
59 93 137
59 93 143
62 97 154
61 96 152
60 93 145
60 94 144
60 94 136
59 93 141
60 94 148
60 95 150
58 92 140
58 91 140
59 93 146
59 93 144
59 91 146
58 90 139
55 85 128
58 91 147
53 82 132
154 171 198
216 233 255
216 233 255
216 233 255
177 188 197
116 114 73
114 113 77
92 93 66
118 118 82
109 111 78
115 116 80
113 115 81
107 110 79
121 122 85
121 122 84
120 122 84
126 127 88
121 122 85
139 137 91
139 138 91
138 136 90
140 138 90
141 140 92
149 146 93
146 144 93
152 149 97
153 150 94
158 156 102
162 158 98
166 162 105
165 161 101
169 164 105
164 160 101
162 158 100
169 164 101
167 162 105
167 163 104
169 163 101
171 166 104
174 168 108
171 165 105
167 162 101
169 165 102
169 164 103
172 167 105
168 163 96
167 163 99
166 162 96
168 163 99
171 166 103
165 160 103
172 166 101
162 157 97
167 162 100
164 158 95
163 157 95
160 155 95
154 149 87
162 156 95
152 148 90
154 149 90
146 142 81
151 147 89
142 136 80
147 142 83
152 147 90
184 192 194
216 233 255
216 233 255
216 233 255
216 233 255
216 233 255
216 233 255
216 233 255
216 233 255
216 233 255
216 233 255
216 233 255
216 233 255
216 233 255
216 233 255
216 233 255
216 233 255
216 233 255
216 233 255
216 233 255
216 233 255
216 233 255
217 233 255
217 233 255
217 233 255
217 233 255
217 233 255
217 233 255
217 233 255
217 233 255
217 233 255
217 233 255
217 233 255
217 233 255
217 233 255
217 233 255
217 233 255
217 233 255
217 233 255
217 233 255
217 233 255
217 233 255
217 233 255
217 233 255
217 233 255
217 233 255
217 233 255
217 233 255
217 233 255
217 233 255
217 233 255
217 233 255
217 233 255
217 233 255
217 233 255
217 233 255
217 233 255
217 233 255
217 233 255
217 233 255
217 233 255
217 233 255
217 233 255
217 233 255
217 233 255
218 233 255
218 233 255
218 233 255
218 233 255
218 233 255
218 233 255
218 234 255
218 234 255
218 234 255
218 234 255
218 234 255
218 234 255
218 234 255
218 234 255
218 234 255
218 234 255
218 234 255
218 234 255
218 234 255
218 234 255
218 234 255
218 234 255
218 234 255
218 234 255
218 234 255
217 233 255
217 233 255
217 233 255
217 233 255
217 233 255
217 233 255
217 233 255
217 233 255
217 233 255
217 233 255
217 233 255
217 233 255
217 233 255
217 233 255
217 233 255
218 233 255
218 233 255
218 234 255
218 234 255
218 234 255
218 234 255
218 234 255
218 234 255
218 234 255
218 234 255
218 234 255
218 234 255
218 234 255
219 234 255
219 234 255
219 234 255
219 234 255
219 234 255
219 234 255
219 234 255
219 234 255
220 235 255
220 235 255
220 235 255
220 235 255
220 235 255
221 235 255
221 235 255
193 208 231
90 117 155
59 94 136
59 94 141
60 95 139
60 94 142
61 96 149
60 95 142
61 96 145
60 95 134
61 97 154
59 94 133
61 96 145
61 96 151
61 97 150
60 95 141
60 95 135
60 95 139
60 95 144
61 96 150
61 96 143
61 97 145
61 97 147
61 96 147
60 94 136
61 95 142
60 95 141
61 96 144
62 97 141
59 94 130
62 97 147
60 94 137
60 95 135
59 93 136
60 95 136
61 96 144
60 95 135
60 95 131
61 96 149
61 96 140
61 96 148
61 96 141
61 96 139
60 94 142
61 96 147
59 93 128
61 96 142
61 96 147
60 95 144
60 95 142
61 96 143
60 94 139
61 96 145
60 95 141
60 95 137
61 96 144
61 96 143
61 96 144
59 94 137
61 96 145
60 96 147
60 95 139
61 95 139
61 97 144
61 96 141
59 94 130
61 97 145
59 94 131
60 95 143
60 95 134
61 96 144
60 94 135
61 96 144
59 94 140
61 96 136
59 94 135
60 95 131
61 96 144
61 97 144
61 96 143
60 95 136
60 94 136
61 96 144
61 96 148
61 96 147
60 95 136
61 96 137
60 95 135
60 96 144
59 94 131
61 96 136
60 96 153
60 95 141
61 97 144
61 96 143
61 97 150
60 95 134
59 94 133
60 95 142
60 95 147
60 96 137
61 96 144
61 96 145
60 95 139
61 96 144
61 96 144
61 96 140
60 95 137
61 96 143
61 96 145
61 96 148
60 94 139
61 96 141
60 95 130
60 94 136
61 96 139
60 95 142
61 96 145
60 95 135
60 94 135
59 94 137
60 94 139
61 96 141
61 96 143
61 96 147
60 95 133
61 97 144
60 96 142
59 94 134
62 98 149
59 94 134
61 96 144
62 97 144
61 96 143
60 95 135
60 95 139
61 96 142
60 95 136
61 96 153
60 95 135
59 94 139
61 96 143
61 96 143
61 96 142
61 96 143
61 96 148
62 97 150
61 97 148
61 96 143
60 96 140
60 95 139
61 97 155
61 96 144
61 97 151
61 97 151
62 97 149
61 97 148
61 96 149
60 95 145
61 96 149
60 95 139
62 97 150
60 95 144
59 94 137
60 95 145
61 96 149
61 96 147
61 97 152
61 95 135
60 95 149
60 95 139
61 96 153
61 96 150
61 95 145
61 96 148
60 95 147
61 97 148
60 95 140
60 94 135
60 93 143
61 96 144
61 96 151
59 94 141
60 95 148
61 95 148
59 93 135
59 93 138
60 94 142
59 92 136
59 93 147
61 95 141
59 92 131
59 94 146
60 94 145
58 90 129
58 91 144
57 90 141
58 90 143
58 90 141
57 87 130
55 86 137
83 106 148
215 232 255
216 233 255
216 233 255
184 195 206
98 98 65
104 104 71
88 90 61
96 96 66
106 108 76
105 106 75
90 94 69
111 113 80
104 107 77
107 110 77
109 111 79
121 123 85
138 137 90
130 130 86
138 137 90
135 134 87
145 143 94
149 147 95
154 151 99
145 143 89
151 148 96
148 145 93
165 161 105
157 154 98
158 154 96
166 161 100
164 160 100
160 157 102
165 162 102
168 164 102
169 165 104
166 163 101
173 168 106
167 162 102
169 163 99
171 165 105
168 164 102
174 169 108
171 166 101
167 163 102
174 168 107
166 160 99
169 165 99
170 165 103
169 164 101
165 160 101
168 163 100
161 155 94
168 163 101
152 147 83
152 147 87
161 156 90
160 155 94
160 154 93
157 153 93
146 141 80
147 142 85
151 146 86
142 138 84
140 135 80
146 141 82
177 185 187
216 233 255
216 233 255
216 233 255
216 233 255
216 233 255
216 233 255
216 233 255
216 233 255
217 233 255
217 233 255
217 233 255
217 233 255
217 233 255
217 233 255
217 233 255
217 233 255
217 233 255
217 233 255
217 233 255
217 233 255
217 233 255
217 233 255
217 233 255
217 233 255
217 233 255
217 233 255
217 233 255
217 233 255
217 233 255
217 233 255
217 233 255
217 233 255
217 233 255
217 233 255
217 233 255
217 233 255
217 233 255
217 233 255
217 233 255
217 233 255
217 233 255
217 233 255
217 233 255
217 233 255
217 233 255
217 233 255
217 233 255
217 233 255
217 233 255
217 233 255
217 233 255
217 233 255
217 233 255
217 233 255
218 233 255
218 233 255
218 233 255
218 233 255
218 233 255
218 234 255
218 234 255
218 234 255
218 234 255
218 234 255
218 234 255
218 234 255
218 234 255
218 234 255
218 234 255
218 234 255
218 234 255
218 234 255
218 234 255
218 234 255
218 234 255
218 234 255
218 234 255
218 234 255
218 234 255
218 234 255
218 234 255
218 234 255
218 234 255
218 234 255
218 234 255
218 234 255
218 234 255
218 234 255
218 234 255
211 227 250
217 233 255
217 233 255
217 233 255
217 233 255
217 233 255
217 233 255
217 233 255
217 233 255
217 233 255
217 233 255
217 233 255
218 233 255
218 233 255
218 234 255
218 234 255
218 234 255
218 234 255
218 234 255
218 234 255
218 234 255
218 234 255
218 234 255
218 234 255
218 234 255
218 234 255
218 234 255
218 234 255
219 234 255
219 234 255
219 234 255
219 234 255
219 234 255
219 234 255
219 234 255
219 234 255
219 234 255
219 235 255
220 235 255
220 235 255
220 235 255
220 235 255
220 235 255
221 235 255
215 229 250
141 161 193
61 97 147
60 95 137
60 94 140
61 96 142
60 95 139
60 95 144
61 96 145
61 96 142
61 95 139
59 94 130
61 96 148
60 95 144
61 96 142
61 96 144
59 94 133
61 96 143
59 93 134
61 96 145
59 94 136
60 95 140
61 96 144
60 95 144
59 93 128
61 96 147
60 95 133
60 95 142
60 95 145
60 96 141
59 94 136
60 95 143
61 96 145
61 96 145
62 97 150
61 96 136
60 95 142
60 94 139
61 95 140
60 95 140
60 96 140
60 95 137
61 96 147
61 97 150
61 96 145
61 96 143
61 97 145
60 94 134
61 97 150
61 96 145
61 96 143
61 96 142
59 94 139
60 94 141
59 94 135
61 97 152
61 96 144
61 96 148
59 94 139
59 94 137
60 94 137
60 95 142
60 95 135
60 94 140
60 95 136
61 96 145
60 95 142
61 96 141
59 94 133
61 96 145
60 96 148
60 95 134
61 95 139
60 95 139
61 97 148
59 93 128
60 95 141
61 97 142
61 96 149
61 96 145
60 95 140
61 97 147
61 97 142
60 95 139
60 95 134
61 96 152
60 95 140
59 94 133
61 96 143
61 96 141
60 95 136
61 95 140
61 96 150
61 96 148
62 98 150
61 97 150
61 96 144
61 96 142
62 97 149
59 94 139
60 94 136
61 96 141
60 94 136
60 95 147
58 92 125
60 95 144
61 96 145
61 97 147
61 96 147
60 95 144
60 96 148
61 96 145
61 96 144
61 96 145
61 95 136
60 95 134
60 95 141
60 96 140
61 96 142
61 96 142
59 94 133
62 97 148
62 97 149
61 96 147
61 96 142
61 96 147
61 97 150
60 96 148
61 96 143
61 96 148
61 96 137
61 96 139
61 96 147
61 96 144
60 94 136
61 95 141
60 95 139
61 96 142
60 95 137
61 96 145
60 95 143
61 96 143
59 94 141
62 97 149
61 96 148
60 95 140
60 95 141
62 97 152
60 95 138
59 94 131
60 96 143
61 96 152
60 94 137
61 96 147
60 95 140
60 94 139
61 96 143
61 96 144
60 95 144
62 97 149
62 97 150
60 95 137
60 95 140
60 95 136
60 95 140
60 95 141
60 95 140
60 95 138
59 93 138
59 93 138
60 95 143
59 93 132
60 94 141
60 95 142
61 96 142
62 97 152
60 95 142
58 92 130
61 95 151
60 95 144
59 93 149
61 95 149
60 94 145
59 93 137
59 93 139
60 94 142
59 93 139
60 94 146
61 95 146
59 93 140
59 94 144
60 94 145
59 92 139
57 89 133
58 91 145
59 92 141
58 90 135
59 92 144
58 89 133
56 87 135
53 81 118
177 194 224
217 233 255
217 233 255
177 188 196
108 106 67
99 101 68
95 96 66
85 89 66
115 116 81
99 103 76
94 97 70
96 100 74
118 119 82
114 115 77
115 117 82
124 125 88
115 117 80
133 132 87
134 134 89
136 136 91
143 142 95
139 139 91
138 137 89
157 154 99
156 153 98
156 152 94
159 156 100
161 157 100
157 154 97
169 165 101
169 164 104
162 157 98
167 162 103
169 163 103
166 160 96
171 167 103
173 167 102
172 166 102
172 166 103
169 165 101
171 166 100
174 167 99
169 163 101
175 169 102
172 166 99
167 160 97
171 166 99
171 164 99
169 164 102
165 160 95
170 164 99
162 157 97
158 153 92
165 159 93
163 157 99
164 159 97
158 153 91
152 148 87
149 144 86
162 156 96
154 149 88
148 143 84
156 150 90
138 133 80
138 132 77
163 170 170
217 233 255
217 233 255
217 233 255
217 233 255
217 233 255
217 233 255
217 233 255
217 233 255
217 233 255
217 233 255
217 233 255
217 233 255
217 233 255
217 233 255
217 233 255
217 233 255
217 233 255
217 233 255
217 233 255
217 233 255
217 233 255
217 233 255
217 233 255
217 233 255
217 233 255
217 233 255
217 233 255
217 233 255
217 233 255
217 233 255
217 233 255
217 233 255
217 233 255
217 233 255
217 233 255
217 233 255
217 233 255
217 233 255
217 233 255
217 233 255
217 233 255
217 233 255
218 233 255
218 233 255
218 233 255
218 233 255
218 234 255
218 234 255
218 234 255
218 234 255
218 234 255
218 234 255
218 234 255
218 234 255
218 234 255
218 234 255
218 234 255
218 234 255
218 234 255
218 234 255
218 234 255
218 234 255
218 234 255
218 234 255
218 234 255
218 234 255
218 234 255
218 234 255
218 234 255
218 234 255
218 234 255
218 234 255
218 234 255
218 234 255
218 234 255
218 234 255
218 234 255
218 234 255
218 234 255
218 234 255
218 234 255
218 234 255
218 234 255
218 234 255
218 234 255
218 234 255
218 234 255
218 234 255
218 234 255
67 100 142
141 161 193
185 202 226
217 233 255
217 233 255
217 233 255
217 233 255
217 233 255
218 233 255
218 233 255
218 233 255
218 234 255
218 234 255
218 234 255
218 234 255
218 234 255
218 234 255
218 234 255
218 234 255
218 234 255
218 234 255
218 234 255
218 234 255
218 234 255
218 234 255
218 234 255
218 234 255
218 234 255
219 234 255
219 234 255
219 234 255
219 234 255
219 234 255
219 234 255
219 234 255
219 234 255
219 234 255
219 234 255
219 235 255
220 235 255
220 235 255
220 235 255
220 235 255
220 235 255
221 235 255
220 234 254
163 181 209
67 99 139
58 92 128
59 94 140
60 95 141
60 96 144
60 95 141
61 96 149
61 96 143
61 96 142
59 94 139
60 94 129
61 96 145
60 95 142
61 96 145
61 96 142
60 95 140
60 95 131
59 93 125
60 94 136
60 95 139
60 95 140
61 96 144
62 97 149
60 95 136
61 96 143
60 95 140
62 98 154
61 97 152
61 96 142
61 96 147
61 96 141
60 96 141
61 96 144
62 97 151
60 95 142
61 97 147
61 96 143
60 95 140
61 96 141
59 94 135
60 94 133
59 93 129
60 94 137
60 95 143
61 97 150
61 96 143
60 96 144
60 96 141
60 95 134
60 95 136
61 96 145
61 96 141
59 94 136
60 95 152
61 96 149
60 96 142
61 96 145
61 95 144
60 95 141
60 95 136
58 92 131
61 96 145
60 95 134
60 95 137
61 97 148
61 97 144
60 95 139
60 95 136
61 96 139
60 95 148
60 95 134
60 94 143
60 95 142
60 95 133
61 96 144
62 97 149
61 96 143
61 96 139
61 96 140
60 95 139
60 95 143
60 96 139
59 93 137
60 95 139
61 96 142
61 97 149
61 96 140
62 97 150
61 96 141
61 96 139
60 94 140
61 96 152
62 97 142
60 95 137
60 94 135
60 95 142
61 96 143
61 96 145
60 95 135
61 96 143
61 96 142
60 95 133
61 96 145
62 97 150
61 96 143
60 95 142
61 96 141
61 96 144
62 97 145
59 94 134
60 95 139
60 95 144
61 96 149
62 97 149
61 96 141
60 95 133
60 95 135
60 96 141
61 95 139
61 96 143
60 95 141
60 95 136
61 95 141
61 96 142
60 95 141
60 95 137
61 96 145
61 95 136
60 95 139
60 96 141
60 94 137
60 96 143
62 96 143
61 96 139
61 96 145
60 95 136
61 96 144
61 96 145
61 96 143
61 96 142
60 94 137
61 96 153
62 97 152
60 95 147
61 96 149
61 96 143
61 96 145
61 97 147
61 96 141
60 95 141
60 95 140
60 94 138
59 93 134
58 93 130
61 95 143
61 95 143
61 96 145
61 96 142
61 96 149
61 95 145
59 93 140
61 96 145
61 96 145
60 94 135
59 94 135
59 93 135
60 95 141
60 95 145
59 94 140
60 95 137
60 94 136
61 96 147
60 95 146
61 96 150
60 95 144
59 94 142
60 94 138
60 94 141
60 95 147
59 94 140
59 92 127
61 95 146
60 94 144
60 94 145
59 93 135
60 94 139
58 92 137
60 93 146
59 93 137
60 93 138
58 91 141
57 89 127
57 88 137
58 91 137
58 91 138
58 90 134
55 85 128
55 85 132
106 123 153
217 233 255
217 233 255
160 169 173
100 100 66
103 103 71
88 90 66
88 92 66
90 93 67
90 94 67
101 104 76
91 95 69
115 116 81
111 113 79
119 120 81
109 111 76
126 126 84
127 129 87
134 133 87
139 139 88
133 131 85
139 137 85
152 149 95
147 144 93
149 146 93
155 150 92
161 157 94
162 157 96
159 155 97
159 155 99
161 156 95
161 157 96
167 163 100
170 165 103
163 159 100
169 164 101
172 166 103
168 164 97
171 166 99
170 165 102
172 167 103
173 167 101
171 165 99
173 169 104
169 163 101
168 163 97
173 166 99
171 165 97
170 164 95
166 160 97
163 158 91
168 162 97
163 159 95
163 156 95
156 152 87
163 157 95
156 151 89
157 151 89
156 150 86
145 140 82
151 147 87
151 145 88
144 139 83
146 140 79
142 137 79
159 161 143
217 233 255
217 233 255
217 233 255
217 233 255
217 233 255
217 233 255
217 233 255
217 233 255
217 233 255
217 233 255
217 233 255
217 233 255
217 233 255
217 233 255
217 233 255
217 233 255
217 233 255
217 233 255
217 233 255
217 233 255
217 233 255
217 233 255
217 233 255
217 233 255
217 233 255
217 233 255
217 233 255
217 233 255
217 233 255
217 233 255
218 233 255
218 233 255
218 233 255
218 233 255
218 233 255
218 234 255
218 234 255
218 234 255
218 234 255
218 234 255
218 234 255
218 234 255
218 234 255
218 234 255
218 234 255
218 234 255
218 234 255
218 234 255
218 234 255
218 234 255
218 234 255
218 234 255
218 234 255
218 234 255
218 234 255
218 234 255
218 234 255
218 234 255
218 234 255
218 234 255
218 234 255
218 234 255
218 234 255
218 234 255
218 234 255
218 234 255
218 234 255
218 234 255
218 234 255
218 234 255
218 234 255
218 234 255
218 234 255
218 234 255
218 234 255
218 234 255
218 234 255
218 234 255
218 234 255
218 234 255
218 234 255
218 234 255
218 234 255
218 234 255
218 234 255
219 234 255
219 234 255
219 234 255
219 234 255
60 95 139
61 97 149
60 96 143
101 126 164
169 187 217
212 229 251
218 234 255
218 234 255
218 234 255
218 234 255
218 234 255
218 234 255
218 234 255
218 234 255
218 234 255
218 234 255
218 234 255
218 234 255
218 234 255
218 234 255
218 234 255
218 234 255
218 234 255
218 234 255
218 234 255
218 234 255
218 234 255
219 234 255
219 234 255
219 234 255
219 234 255
219 234 255
219 234 255
219 234 255
219 234 255
219 234 255
219 234 255
219 234 255
219 235 255
220 235 255
220 235 255
220 235 255
220 235 255
220 235 255
220 235 255
220 235 255
221 235 255
199 214 235
99 124 158
60 95 139
60 95 143
60 95 140
61 96 145
61 96 145
61 97 152
60 95 142
59 94 140
59 94 133
61 96 142
61 96 145
61 96 140
60 95 139
61 95 149
60 95 141
60 95 142
60 95 136
61 96 148
60 96 142
61 96 148
62 97 148
60 95 137
62 97 150
60 95 137
61 96 145
61 96 144
60 95 140
60 95 147
59 94 134
61 96 151
62 97 151
60 95 131
60 95 136
61 96 142
59 94 134
61 96 135
59 95 142
61 97 150
61 96 145
60 96 143
60 94 128
59 93 124
61 97 145
62 97 154
60 95 143
60 95 137
62 97 147
60 95 135
60 95 135
58 92 128
60 94 137
59 93 130
61 96 143
61 96 142
60 95 144
59 94 129
60 95 131
61 96 141
59 94 136
60 95 148
60 95 140
60 94 136
60 94 141
60 95 137
59 94 139
59 93 130
59 93 124
60 95 133
60 95 141
61 96 147
59 94 131
60 94 129
61 96 142
61 96 137
60 95 143
61 96 145
61 96 143
60 95 148
61 96 144
62 97 151
60 95 140
61 96 141
60 95 145
60 94 129
60 94 137
61 97 148
61 96 144
61 96 143
61 97 143
61 96 141
60 95 136
60 95 135
60 95 141
62 97 149
60 94 137
61 96 142
60 95 137
61 96 137
61 96 143
60 96 142
61 95 142
60 94 133
60 96 142
62 97 149
60 95 141
62 97 148
60 94 137
58 93 134
60 95 145
61 96 147
62 97 148
60 95 140
61 96 143
61 96 149
60 95 137
59 94 126
61 96 142
60 95 136
60 95 141
60 94 137
62 97 145
61 96 141
60 95 141
59 94 137
61 96 147
60 95 141
60 95 136
60 94 136
62 97 151
60 95 133
61 96 139
60 94 128
61 96 142
60 95 137
62 97 147
61 96 147
61 96 141
60 95 135
59 93 137
60 95 140
61 96 148
59 94 139
61 96 140
60 95 139
62 97 145
60 94 131
59 94 128
61 96 145
60 94 139
58 93 126
61 96 139
60 95 134
60 95 136
62 97 155
61 96 145
61 96 145
60 95 139
61 96 143
61 96 143
61 96 148
60 95 134
59 94 143
60 94 136
59 93 128
61 95 144
61 96 144
60 95 138
60 94 133
60 95 149
61 96 147
60 95 146
61 95 140
59 94 140
60 94 133
60 94 148
59 93 140
60 93 136
59 93 138
59 93 137
60 94 140
60 95 142
61 95 149
59 93 136
59 93 140
59 92 141
60 94 143
59 92 141
59 91 131
59 93 131
58 90 131
59 92 140
57 90 140
59 92 141
56 87 127
56 87 132
53 82 118
51 79 115
190 206 230
217 233 255
158 166 167
97 97 65
82 84 60
74 77 55
85 88 63
82 86 64
91 94 67
99 101 70
92 94 66
114 117 82
107 110 78
112 114 79
108 111 78
130 129 88
117 118 76
136 135 90
142 140 93
139 138 87
137 136 86
147 145 94
150 147 94
158 156 100
144 142 88
152 150 92
158 155 96
162 158 97
158 155 96
168 163 103
162 158 100
165 161 96
161 158 100
170 164 100
162 157 93
171 166 100
171 167 103
170 165 98
171 166 103
169 163 99
172 166 98
170 164 96
171 165 99
169 164 98
169 163 101
171 166 96
172 166 99
173 166 99
173 166 99
169 163 101
164 159 93
157 151 92
170 165 101
163 158 94
161 155 97
156 151 89
160 154 92
153 148 85
149 144 81
152 147 87
145 140 83
155 149 88
145 140 77
141 136 78
171 173 156
217 233 255
217 233 255
217 233 255
217 233 255
217 233 255
217 233 255
217 233 255
217 233 255
217 233 255
217 233 255
217 233 255
217 233 255
217 233 255
217 233 255
217 233 255
218 233 255
218 233 255
218 233 255
218 233 255
218 233 255
218 233 255
218 234 255
218 234 255
218 234 255
218 234 255
218 234 255
218 234 255
218 234 255
218 234 255
218 234 255
218 234 255
218 234 255
218 234 255
218 234 255
218 234 255
218 234 255
218 234 255
218 234 255
218 234 255
218 234 255
218 234 255
218 234 255
218 234 255
218 234 255
218 234 255
218 234 255
218 234 255
218 234 255
218 234 255
218 234 255
218 234 255
218 234 255
218 234 255
218 234 255
218 234 255
218 234 255
218 234 255
218 234 255
218 234 255
218 234 255
218 234 255
218 234 255
218 234 255
218 234 255
218 234 255
218 234 255
218 234 255
218 234 255
218 234 255
218 234 255
218 234 255
219 234 255
219 234 255
219 234 255
219 234 255
219 234 255
219 234 255
219 234 255
219 234 255
219 234 255
219 234 255
219 234 255
219 234 255
219 234 255
219 234 255
219 234 255
219 234 255
219 234 255
219 234 255
60 94 139
59 94 137
59 94 144
59 94 140
59 94 134
73 105 155
155 175 203
205 222 245
218 234 255
218 234 255
218 234 255
218 234 255
218 234 255
218 234 255
218 234 255
218 234 255
218 234 255
218 234 255
218 234 255
218 234 255
218 234 255
218 234 255
218 234 255
218 234 255
218 234 255
219 234 255
219 234 255
219 234 255
219 234 255
219 234 255
219 234 255
219 234 255
219 234 255
219 234 255
219 234 255
219 234 255
219 234 255
219 234 255
219 234 255
219 235 255
220 235 255
220 235 255
220 235 255
220 235 255
220 235 255
220 235 255
220 235 255
220 235 255
214 229 251
143 162 191
59 94 137
60 95 137
60 94 141
60 94 131
61 96 140
59 94 139
60 96 142
60 95 142
60 95 142
59 94 141
60 96 144
60 94 139
60 95 137
60 94 134
61 96 142
59 94 131
61 96 139
59 94 133
60 95 142
59 94 130
60 95 147
59 93 133
60 95 144
60 95 139
60 95 139
60 96 140
61 97 148
60 94 137
61 97 143
61 97 144
60 95 145
59 93 133
61 96 137
61 96 145
61 96 144
60 95 140
61 96 145
60 95 141
60 94 134
60 95 139
60 95 137
59 94 136
61 97 150
61 96 149
60 95 136
61 96 137
59 94 144
60 95 137
61 95 134
62 97 150
61 96 139
61 96 136
60 95 142
61 96 148
61 96 145
61 96 137
59 94 124
61 96 140
59 93 129
60 94 139
61 96 151
60 95 140
60 95 148
61 96 143
60 95 136
60 95 143
60 94 135
59 93 121
60 95 145
60 95 142
61 96 139
61 96 144
61 96 143
61 96 143
62 97 151
60 95 143
60 96 142
62 97 152
60 94 140
60 94 129
61 96 142
62 98 155
62 97 149
61 96 136
60 95 141
60 95 136
61 96 147
61 96 142
61 96 135
60 95 135
62 97 148
60 94 130
61 97 151
61 96 144
60 95 128
61 96 147
60 95 137
59 94 139
60 94 135
60 94 135
60 94 134
60 95 139
61 96 143
62 97 148
60 95 135
60 95 140
60 94 135
60 95 140
61 95 133
61 96 143
59 94 129
60 94 131
62 97 148
61 96 149
60 94 134
60 95 137
60 95 139
60 95 140
61 96 147
60 94 136
58 93 125
60 94 133
61 96 137
61 96 148
60 95 136
60 96 147
60 95 135
60 95 145
60 95 141
61 96 140
61 96 145
61 96 145
60 94 137
59 94 136
60 95 137
60 95 139
59 94 133
61 96 142
59 94 139
61 96 141
61 96 143
60 96 143
60 95 137
61 96 152
61 96 139
60 95 141
59 94 141
60 95 142
61 96 145
60 95 134
61 97 145
61 96 142
60 95 140
61 96 147
59 94 133
60 95 134
61 96 147
60 95 135
60 95 138
61 97 147
61 96 147
61 96 143
61 96 148
59 93 130
60 95 135
61 96 142
60 95 140
61 95 143
60 95 142
61 95 147
60 94 140
60 95 144
60 95 140
59 94 141
60 94 137
61 95 140
60 95 141
60 95 142
60 94 142
60 93 141
59 93 133
60 95 145
60 93 143
59 93 143
59 92 133
61 95 148
59 92 138
58 91 141
57 90 132
57 90 135
58 89 131
60 93 144
56 87 127
56 88 122
52 82 127
55 86 128
144 159 181
218 233 255
160 168 171
98 97 62
80 82 58
87 89 63
87 90 64
86 89 63
84 87 63
104 106 75
95 98 69
95 98 69
97 100 67
97 101 67
112 115 81
126 127 86
123 124 84
129 129 84
130 129 86
145 143 92
140 138 88
148 146 93
151 148 95
151 148 94
151 148 96
148 146 87
155 151 94
163 159 96
161 156 96
162 158 96
163 160 97
170 164 99
167 162 96
170 165 99
170 164 98
167 162 96
170 165 102
171 165 101
171 165 97
174 168 99
174 168 100
172 166 99
172 166 99
168 162 98
165 160 93
168 163 96
171 165 97
169 163 97
167 162 98
170 164 98
166 161 93
167 161 95
168 162 96
165 159 92
166 160 94
164 158 90
156 151 86
150 145 82
159 152 94
154 149 89
151 145 84
148 141 84
147 142 84
137 132 75
159 163 149
218 233 255
218 233 255
218 233 255
218 234 255
218 234 255
218 234 255
218 234 255
218 234 255
218 234 255
218 234 255
218 234 255
218 234 255
218 234 255
218 234 255
218 234 255
218 234 255
218 234 255
218 234 255
218 234 255
218 234 255
218 234 255
218 234 255
218 234 255
218 234 255
218 234 255
218 234 255
218 234 255
218 234 255
218 234 255
218 234 255
218 234 255
218 234 255
218 234 255
218 234 255
218 234 255
218 234 255
218 234 255
218 234 255
218 234 255
218 234 255
218 234 255
218 234 255
218 234 255
218 234 255
218 234 255
218 234 255
218 234 255
218 234 255
218 234 255
218 234 255
218 234 255
218 234 255
218 234 255
218 234 255
218 234 255
218 234 255
218 234 255
219 234 255
219 234 255
219 234 255
219 234 255
219 234 255
219 234 255
219 234 255
219 234 255
219 234 255
219 234 255
219 234 255
219 234 255
219 234 255
219 234 255
219 234 255
219 234 255
219 234 255
219 234 255
219 234 255
219 234 255
219 234 255
219 234 255
219 234 255
219 234 255
219 234 255
219 234 255
219 234 255
219 234 255
219 234 255
219 234 255
219 234 255
219 234 255
60 95 143
60 95 143
60 95 144
60 95 143
60 95 142
61 96 151
59 94 141
61 97 149
129 150 177
183 201 229
218 234 255
218 234 255
218 234 255
218 234 255
218 234 255
218 234 255
218 234 255
218 234 255
218 234 255
218 234 255
218 234 255
219 234 255
219 234 255
219 234 255
219 234 255
219 234 255
219 234 255
219 234 255
219 234 255
219 234 255
219 234 255
219 234 255
219 234 255
219 234 255
219 234 255
219 234 255
219 234 255
219 234 255
219 235 255
219 235 255
220 235 255
220 235 255
220 235 255
220 235 255
220 235 255
220 235 255
220 235 255
220 235 255
220 235 255
221 235 255
183 199 223
82 110 147
60 95 148
60 95 137
59 94 133
60 95 140
59 94 141
60 95 137
60 95 140
61 97 147
60 95 142
60 95 142
59 93 134
60 95 139
61 96 141
60 94 140
59 94 134
59 94 131
60 96 145
61 96 135
61 96 145
60 95 133
59 94 134
60 95 139
61 96 141
60 95 139
61 95 141
60 95 137
60 96 137
60 95 141
60 95 136
60 95 134
60 95 130
60 95 147
60 94 139
60 95 139
60 95 143
61 96 144
59 94 135
61 96 137
60 95 139
62 97 149
60 94 136
60 95 141
60 94 129
60 95 140
61 96 143
60 95 142
61 96 137
61 96 144
60 95 141
61 95 140
61 96 135
61 96 141
61 96 145
60 94 135
60 94 140
59 93 131
61 96 141
60 95 134
61 96 140
61 95 144
60 95 141
61 96 142
60 95 133
60 95 140
60 95 145
60 95 141
61 96 144
61 96 139
60 96 143
60 96 143
60 95 144
62 98 152
60 94 135
62 97 144
60 95 147
60 95 142
62 97 147
61 96 140
62 97 148
61 96 145
61 96 139
61 97 148
59 94 130
60 94 139
62 97 147
61 96 140
61 96 143
61 96 137
61 95 141
60 95 147
60 95 141
60 95 137
60 95 136
59 93 136
60 95 142
60 95 137
59 93 129
61 96 143
60 95 134
61 96 144
62 97 141
60 95 147
60 95 135
60 94 136
61 96 143
61 96 147
60 95 140
60 95 135
61 96 143
61 96 145
60 95 140
59 94 140
62 96 143
61 97 147
60 96 143
61 96 147
62 97 149
59 94 131
62 97 150
61 96 140
61 96 150
61 96 143
61 96 143
60 96 142
61 95 139
60 95 143
61 96 141
60 95 140
61 96 142
60 95 135
60 95 136
61 96 137
61 96 145
61 96 152
59 94 130
61 96 143
61 96 143
61 95 137
61 96 144
61 96 144
60 95 141
60 96 139
60 95 136
61 97 149
60 95 141
61 96 148
61 96 147
60 95 135
61 96 149
60 94 135
61 95 151
61 97 149
60 94 137
61 96 142
62 97 145
60 94 139
60 95 134
61 96 146
61 96 141
60 95 143
58 92 126
59 94 135
61 96 141
61 96 140
61 96 145
61 95 145
59 93 137
61 96 147
61 96 149
61 95 149
58 92 133
59 94 133
60 95 147
59 94 140
61 96 147
60 95 142
60 94 138
61 96 149
59 93 147
58 92 137
60 94 138
57 91 130
59 92 143
59 93 139
57 89 131
59 92 141
58 91 138
59 91 139
57 89 129
56 86 120
56 88 136
58 90 137
54 84 122
54 83 118
57 84 131
213 228 250
158 165 160
94 93 59
80 82 57
79 81 56
68 71 51
87 89 61
92 95 66
75 80 60
91 93 64
104 108 76
99 101 69
110 112 75
114 116 81
121 121 79
122 123 81
132 132 87
141 140 89
147 145 92
146 144 93
141 138 89
150 147 92
147 144 91
157 154 95
155 151 92
152 149 91
156 153 93
159 155 91
161 157 94
164 160 96
169 164 96
165 161 98
167 162 100
171 165 102
170 165 97
168 163 99
167 161 97
173 167 100
172 166 97
166 161 92
174 167 97
174 168 101
172 166 97
170 165 98
170 164 94
173 167 95
166 162 94
169 164 97
168 163 94
167 161 91
167 160 97
162 155 91
162 157 90
158 153 91
164 159 95
155 149 86
150 146 81
159 153 87
154 148 87
148 144 83
146 141 80
131 126 74
136 131 76
158 161 146
218 234 255
218 234 255
218 234 255
218 234 255
218 234 255
218 234 255
218 234 255
218 234 255
218 234 255
218 234 255
218 234 255
218 234 255
218 234 255
218 234 255
218 234 255
218 234 255
218 234 255
218 234 255
218 234 255
218 234 255
218 234 255
218 234 255
218 234 255
218 234 255
218 234 255
218 234 255
218 234 255
218 234 255
218 234 255
218 234 255
218 234 255
218 234 255
218 234 255
218 234 255
218 234 255
218 234 255
218 234 255
218 234 255
218 234 255
218 234 255
218 234 255
219 234 255
219 234 255
219 234 255
219 234 255
219 234 255
219 234 255
219 234 255
219 234 255
219 234 255
219 234 255
219 234 255
219 234 255
219 234 255
219 234 255
219 234 255
219 234 255
219 234 255
219 234 255
219 234 255
219 234 255
219 234 255
219 234 255
219 234 255
219 234 255
219 234 255
219 234 255
219 234 255
219 234 255
219 234 255
219 234 255
219 234 255
219 234 255
219 234 255
219 234 255
219 234 255
219 234 255
219 234 255
219 234 255
219 234 255
219 234 255
219 234 255
219 234 255
219 234 255
219 234 255
219 234 255
219 234 255
219 234 255
219 234 255
61 96 144
60 95 135
59 94 139
60 96 145
60 95 137
58 92 134
60 95 140
61 96 143
58 93 134
60 95 147
110 133 164
182 199 223
218 234 255
219 234 255
219 234 255
219 234 255
219 234 255
219 234 255
219 234 255
219 234 255
219 234 255
219 234 255
219 234 255
219 234 255
219 234 255
219 234 255
219 234 255
219 234 255
219 234 255
219 234 255
219 234 255
219 234 255
219 234 255
219 234 255
219 234 255
219 234 255
219 234 255
219 234 255
219 235 255
220 235 255
220 235 255
220 235 255
220 235 255
220 235 255
220 235 255
220 235 255
220 235 255
220 235 255
220 235 255
220 235 255
221 235 255
199 215 236
132 152 183
58 93 130
59 94 139
60 95 144
61 96 148
61 96 148
59 94 139
61 96 147
61 96 140
60 95 139
60 94 136
60 95 134
59 94 140
61 96 145
59 94 137
60 95 133
60 95 134
59 94 134
60 95 134
59 93 139
61 96 143
60 95 145
60 95 134
60 94 135
60 95 136
59 94 141
60 95 142
60 95 141
60 95 136
61 96 139
60 94 126
61 96 142
59 94 141
61 96 143
60 94 134
61 97 145
60 95 136
60 95 129
61 96 140
60 95 143
60 95 143
59 93 133
61 96 144
61 96 149
61 95 141
61 96 142
59 93 129
61 97 145
60 95 139
61 96 144
60 95 135
60 95 136
61 96 142
60 95 147
62 98 152
60 95 135
59 94 129
59 94 129
60 95 137
61 96 142
60 95 134
59 94 134
60 95 139
59 93 129
59 94 129
60 95 137
60 95 139
60 95 147
61 96 141
61 96 144
60 95 128
59 94 130
60 95 141
61 96 142
61 96 137
58 92 129
59 94 130
60 95 140
61 95 137
60 94 139
61 96 141
61 96 143
61 96 136
62 97 145
60 95 143
61 96 141
59 93 131
60 95 141
61 95 141
60 95 136
60 95 131
62 97 144
59 94 134
59 93 126
61 96 139
59 94 136
59 94 137
61 96 137
61 96 149
59 93 131
62 97 151
61 96 144
61 96 143
60 94 134
61 96 137
60 95 142
60 94 129
60 95 139
61 96 137
60 95 141
61 96 143
61 97 149
61 96 151
61 96 147
62 97 150
62 97 143
61 96 141
61 96 139
61 96 140
60 95 140
59 93 122
60 95 136
61 96 143
60 95 136
60 95 137
61 97 143
60 95 150
60 94 140
59 93 133
60 95 141
59 94 130
60 95 141
60 95 142
60 95 134
61 96 146
60 95 135
61 97 151
60 95 133
61 96 137
60 94 130
59 94 137
61 96 140
61 96 143
59 93 134
59 94 133
62 97 152
59 93 128
61 95 145
61 96 153
60 95 138
60 96 141
61 96 143
59 92 126
61 95 138
59 93 133
59 93 141
60 96 144
62 97 151
60 95 144
60 94 138
60 94 135
59 93 136
59 94 139
61 97 145
61 95 140
61 95 141
60 95 142
60 93 134
61 96 147
60 95 147
60 94 146
60 95 140
60 94 134
61 95 143
60 94 146
60 94 139
61 95 143
60 94 145
58 91 138
59 93 139
59 93 138
58 91 135
59 92 134
58 91 137
59 92 140
58 90 128
58 91 132
59 91 135
59 92 138
58 90 130
57 86 130
56 86 131
52 82 120
51 77 108
51 78 116
178 194 216
156 163 163
97 94 61
78 81 56
75 78 54
70 74 54
83 87 62
76 82 61
91 95 69
88 92 65
99 102 73
104 106 74
94 98 70
116 118 79
119 119 76
120 121 79
134 132 84
137 134 86
141 140 87
131 130 84
141 140 86
148 145 91
155 151 94
149 147 87
150 148 90
159 155 95
155 151 87
158 154 94
160 156 95
160 156 94
159 156 90
169 164 98
169 164 101
172 167 101
171 165 96
174 168 99
170 164 94
171 165 96
173 167 102
172 166 100
173 167 101
172 166 96
174 167 95
171 165 95
170 163 97
165 159 90
166 161 95
164 159 91
172 165 95
164 158 89
160 155 87
172 165 100
156 152 90
164 158 93
155 149 87
158 152 90
161 155 92
153 148 84
145 140 80
138 134 76
142 137 72
146 140 75
142 136 78
156 158 137
218 234 255
218 234 255
218 234 255
218 234 255
218 234 255
218 234 255
218 234 255
218 234 255
218 234 255
218 234 255
218 234 255
218 234 255
218 234 255
218 234 255
218 234 255
218 234 255
218 234 255
218 234 255
218 234 255
218 234 255
218 234 255
218 234 255
218 234 255
219 234 255
219 234 255
219 234 255
219 234 255
219 234 255
219 234 255
219 234 255
219 234 255
219 234 255
219 234 255
219 234 255
219 234 255
219 234 255
219 234 255
219 234 255
219 234 255
219 234 255
219 234 255
219 234 255
219 234 255
219 234 255
219 234 255
219 234 255
219 234 255
219 234 255
219 234 255
219 234 255
219 234 255
219 234 255
219 234 255
219 234 255
219 234 255
219 234 255
219 234 255
219 234 255
219 234 255
219 234 255
219 234 255
219 234 255
219 234 255
219 234 255
219 234 255
219 234 255
219 234 255
219 234 255
219 234 255
219 234 255
219 234 255
219 234 255
219 234 255
219 234 255
219 234 255
219 234 255
219 234 255
219 234 255
219 234 255
219 234 255
219 234 255
219 234 255
219 234 255
219 234 255
219 234 255
219 234 255
219 234 255
219 234 255
219 234 255
60 95 140
59 93 136
59 93 136
60 94 135
61 96 147
60 95 144
59 94 141
61 97 147
59 93 129
60 95 148
60 95 150
59 95 136
97 122 162
169 186 214
210 226 249
219 234 255
219 234 255
219 234 255
219 234 255
219 234 255
219 234 255
219 234 255
219 234 255
219 234 255
219 234 255
219 234 255
219 234 255
219 234 255
219 234 255
219 234 255
219 234 255
219 234 255
219 234 255
219 234 255
219 234 255
219 235 255
219 235 255
219 235 255
220 235 255
220 235 255
220 235 255
220 235 255
220 235 255
220 235 255
220 235 255
220 235 255
220 235 255
220 235 255
220 235 255
220 235 255
220 235 255
221 235 255
219 233 254
153 171 200
64 98 144
59 94 135
59 93 122
59 94 130
59 93 141
60 95 139
61 96 147
61 96 143
60 95 139
60 95 139
62 97 145
61 96 145
61 96 141
60 95 134
60 95 135
62 97 147
59 94 129
60 95 144
60 94 131
61 96 142
61 96 147
60 95 131
60 94 135
60 95 134
59 93 124
60 95 139
60 95 139
60 95 129
61 97 145
59 94 136
59 94 133
60 95 139
61 96 137
60 95 135
60 96 144
60 95 137
60 94 136
61 96 142
59 93 137
59 94 130
59 94 131
59 94 137
61 96 141
60 96 141
60 95 141
61 96 152
61 96 147
61 95 143
61 96 141
59 93 129
60 95 136
60 95 140
61 96 139
60 94 136
60 94 139
60 95 135
61 96 142
60 95 139
60 95 141
60 95 139
61 97 152
60 95 136
61 96 137
61 96 142
60 94 136
61 97 141
61 96 139
61 96 147
60 95 141
61 96 139
62 97 147
60 95 137
61 96 142
61 96 145
61 97 151
60 95 142
61 96 141
61 97 149
60 95 133
62 97 148
60 94 142
60 94 135
61 95 131
59 93 134
60 95 133
60 94 136
59 94 134
61 96 140
59 93 128
59 93 130
62 97 148
60 95 134
62 97 153
61 96 139
61 96 140
61 96 141
59 94 135
61 96 137
61 96 141
60 94 139
60 95 142
59 93 135
61 96 147
60 95 143
59 94 133
61 95 134
61 97 144
61 96 141
61 95 134
60 96 151
60 95 139
61 96 140
60 94 139
59 94 133
62 98 152
61 96 145
60 95 135
60 95 136
61 96 140
61 97 142
61 96 140
59 93 126
61 95 140
61 96 141
61 96 144
60 95 140
60 95 145
61 96 142
59 93 134
60 96 141
59 94 135
59 94 135
60 95 140
60 94 126
61 96 141
61 96 140
61 96 139
61 96 145
60 95 141
60 94 135
61 95 147
59 93 124
61 95 141
60 94 136
60 95 139
61 96 141
61 96 145
59 94 139
60 95 142
61 95 133
61 96 140
60 95 140
62 97 147
61 96 143
60 95 136
60 95 134
61 95 135
60 94 137
60 94 143
60 94 132
61 95 138
60 95 139
60 94 138
59 94 134
61 95 141
60 94 132
60 94 140
61 96 141
59 93 136
60 94 145
60 95 140
60 95 145
59 92 135
59 94 142
59 93 131
60 94 132
59 93 136
59 92 134
59 93 142
58 91 134
61 96 147
58 91 126
60 93 139
59 93 139
57 90 125
59 93 134
56 86 116
58 91 139
55 85 120
57 88 132
55 85 126
55 85 119
54 83 125
121 138 164
148 154 153
88 87 56
77 80 53
78 80 55
71 75 55
70 75 54
69 74 54
81 85 61
82 86 60
84 88 61
104 107 74
109 111 75
107 109 74
109 112 75
139 137 90
138 136 87
119 121 77
140 138 85
141 139 87
134 133 83
134 133 81
149 146 87
151 149 93
159 155 94
157 154 96
161 157 92
158 155 93
161 157 93
163 159 96
164 160 94
168 163 95
173 167 97
171 165 96
170 164 96
174 168 97
175 168 101
174 168 99
175 169 102
172 165 91
172 166 97
170 164 93
170 163 92
170 164 93
172 166 99
170 163 93
163 159 93
169 163 97
170 164 95
172 165 100
166 161 90
170 164 95
162 156 84
164 158 91
160 154 90
150 146 82
162 157 93
154 148 87
155 148 87
145 140 82
148 143 78
141 135 80
131 125 69
164 167 151
219 234 255
219 234 255
219 234 255
219 234 255
219 234 255
219 234 255
219 234 255
219 234 255
219 234 255
219 234 255
219 234 255
219 234 255
219 234 255
219 234 255
219 234 255
219 234 255
219 234 255
219 234 255
219 234 255
219 234 255
219 234 255
219 234 255
219 234 255
219 234 255
219 234 255
219 234 255
219 234 255
219 234 255
219 234 255
219 234 255
219 234 255
219 234 255
219 234 255
219 234 255
219 234 255
219 234 255
219 234 255
219 234 255
219 234 255
219 234 255
219 234 255
219 234 255
219 234 255
219 234 255
219 234 255
219 234 255
219 234 255
219 234 255
219 234 255
219 234 255
219 234 255
219 234 255
219 234 255
219 234 255
219 234 255
219 234 255
219 234 255
219 234 255
219 234 255
219 234 255
219 234 255
219 234 255
219 234 255
219 234 255
219 234 255
219 234 255
219 234 255
219 234 255
219 234 255
219 234 255
219 234 255
219 234 255
219 235 255
219 235 255
219 235 255
219 235 255
219 235 255
219 235 255
219 235 255
219 235 255
219 235 255
219 235 255
219 235 255
220 235 255
220 235 255
220 235 255
220 235 255
220 235 255
220 235 255
60 95 142
60 95 145
60 95 141
58 92 125
60 95 142
59 94 137
59 94 129
59 93 135
59 94 136
61 96 149
60 96 142
60 95 143
60 95 144
60 96 141
79 109 147
160 179 203
209 224 246
219 234 255
219 234 255
219 234 255
219 234 255
219 234 255
219 234 255
219 234 255
219 234 255
219 234 255
219 234 255
219 234 255
219 234 255
219 234 255
219 234 255
219 235 255
219 235 255
219 235 255
219 235 255
220 235 255
220 235 255
220 235 255
220 235 255
220 235 255
220 235 255
220 235 255
220 235 255
220 235 255
220 235 255
220 235 255
220 235 255
220 235 255
220 235 255
220 235 255
220 235 255
220 235 255
221 235 255
221 235 255
201 217 239
97 122 161
60 94 131
60 95 135
59 94 136
60 95 144
61 96 145
60 95 139
60 95 142
59 93 134
60 94 143
60 95 137
60 94 140
58 93 137
62 97 147
59 94 139
61 96 145
60 95 139
59 93 136
58 92 124
60 94 136
60 96 139
60 95 137
60 95 136
60 95 134
60 95 136
60 95 139
61 96 143
60 94 134
59 94 133
59 94 139
60 94 135
61 96 144
61 96 148
58 93 133
60 95 139
59 93 130
62 96 137
59 94 130
59 93 130
59 93 128
60 95 139
61 96 136
61 96 141
60 96 140
59 94 130
61 96 148
60 95 143
60 95 133
61 97 143
60 96 139
61 96 131
61 97 147
60 95 137
61 96 140
60 95 137
61 97 143
60 95 137
61 96 144
60 95 145
60 95 134
60 94 135
60 95 131
59 93 130
59 94 133
60 95 134
62 97 145
60 95 140
60 95 133
59 94 128
60 94 134
61 96 139
60 95 145
59 94 136
60 95 133
61 96 133
60 94 134
60 95 140
61 96 139
60 95 139
60 95 140
61 96 141
60 95 136
59 93 133
61 96 143
60 95 137
60 94 140
60 95 133
60 95 145
61 96 144
60 95 140
60 95 137
60 95 136
60 95 141
61 96 141
60 95 136
59 93 128
62 97 145
60 96 142
60 95 130
61 96 143
60 94 133
60 95 131
60 95 141
60 94 128
60 95 141
60 95 144
61 96 145
61 96 144
60 95 140
60 96 137
59 94 128
59 94 133
59 93 131
60 95 136
62 96 141
61 96 137
60 95 133
60 94 134
60 95 141
60 95 148
60 95 143
60 95 137
60 95 141
61 96 142
59 93 128
60 95 140
60 94 134
60 95 144
61 96 143
61 96 142
61 97 145
61 96 139
61 95 141
59 94 131
60 96 141
61 96 142
60 95 135
61 96 144
62 98 152
61 96 142
61 96 145
59 94 144
61 96 142
61 96 147
60 95 142
59 93 125
60 95 134
61 95 138
61 95 136
60 95 139
60 95 146
61 96 149
59 94 140
60 95 144
60 94 134
60 95 135
61 96 146
60 95 145
61 96 143
60 94 140
61 96 144
60 95 136
61 95 142
61 96 149
59 93 131
60 95 139
60 94 139
61 94 136
59 93 133
59 93 142
60 94 147
60 93 135
59 93 135
60 94 140
59 93 126
60 94 138
60 94 141
59 93 138
58 92 130
59 92 140
60 94 142
59 92 132
57 90 134
57 91 136
57 89 133
57 89 117
59 91 139
55 84 117
57 88 125
56 87 128
55 85 129
50 78 116
55 81 116
141 149 147
82 82 51
87 87 57
65 68 48
72 75 53
59 63 44
74 77 55
67 72 50
85 88 61
82 86 63
91 95 67
103 105 73
100 102 70
113 115 75
124 124 79
129 127 82
126 125 74
135 135 85
131 129 84
141 139 82
139 136 86
146 143 88
149 146 87
155 151 91
159 155 93
153 150 93
166 161 97
151 147 86
163 159 93
160 156 93
168 163 95
173 167 98
167 162 93
171 165 96
175 168 98
174 166 95
171 165 94
170 165 94
173 167 97
173 166 96
174 167 97
175 168 93
173 167 99
171 165 94
164 158 90
167 161 89
167 160 87
169 162 95
163 157 93
166 160 90
161 156 90
165 158 88
162 155 88
158 152 90
165 158 91
153 148 82
162 155 88
157 151 84
144 139 80
144 139 71
141 136 76
133 129 73
165 169 159
219 234 255
219 234 255
219 234 255
219 234 255
219 234 255
219 234 255
219 234 255
219 234 255
219 234 255
219 234 255
219 234 255
219 234 255
219 234 255
219 234 255
219 234 255
219 234 255
219 234 255
219 234 255
219 234 255
219 234 255
219 234 255
219 234 255
219 234 255
219 234 255
219 234 255
219 234 255
219 234 255
219 234 255
219 234 255
219 234 255
219 234 255
219 234 255
219 234 255
219 234 255
219 234 255
219 234 255
219 234 255
219 234 255
219 234 255
219 234 255
219 234 255
219 234 255
219 234 255
219 234 255
219 234 255
219 234 255
219 234 255
219 234 255
219 234 255
219 234 255
219 235 255
219 235 255
219 235 255
219 235 255
219 235 255
219 235 255
219 235 255
219 235 255
219 235 255
219 235 255
220 235 255
220 235 255
220 235 255
220 235 255
220 235 255
220 235 255
220 235 255
220 235 255
220 235 255
220 235 255
220 235 255
220 235 255
220 235 255
220 235 255
220 235 255
220 235 255
220 235 255
220 235 255
220 235 255
220 235 255
220 235 255
220 235 255
220 235 255
220 235 255
220 235 255
220 235 255
220 235 255
220 235 255
220 235 255
59 93 135
60 95 136
59 94 133
59 93 131
58 92 121
60 95 142
60 96 144
60 95 135
59 94 136
58 92 129
60 95 142
59 94 135
59 94 142
61 96 141
60 94 135
59 94 136
70 102 144
149 168 195
203 218 243
219 234 255
219 234 255
219 235 255
219 235 255
219 235 255
219 235 255
219 235 255
219 235 255
220 235 255
220 235 255
220 235 255
220 235 255
220 235 255
220 235 255
220 235 255
220 235 255
220 235 255
220 235 255
220 235 255
220 235 255
220 235 255
220 235 255
220 235 255
220 235 255
220 235 255
220 235 255
220 235 255
220 235 255
220 235 255
220 235 255
220 235 255
220 235 255
220 235 255
220 235 255
221 235 255
221 235 255
219 233 254
151 170 199
65 99 149
60 96 137
59 94 131
60 94 134
61 96 144
61 96 136
59 94 136
60 95 140
60 95 136
59 94 134
62 97 149
60 95 140
60 95 137
59 94 134
61 96 143
59 93 137
60 95 136
60 95 136
58 93 129
59 93 133
61 96 143
59 93 129
59 94 131
61 96 135
61 96 140
60 95 137
61 96 143
60 95 140
60 94 130
60 94 135
61 96 137
60 95 137
60 95 135
60 95 140
59 94 134
59 94 136
61 96 145
60 95 143
60 95 135
61 96 148
59 94 135
60 95 143
59 94 130
61 96 136
62 97 150
61 96 142
59 94 136
59 93 124
60 95 136
59 94 129
59 94 141
61 97 145
59 94 131
60 95 139
61 96 140
60 95 142
60 95 136
61 96 149
60 94 133
60 95 134
60 95 130
61 96 142
62 97 142
61 96 135
59 94 133
61 96 135
60 95 140
59 94 133
60 95 134
60 94 135
61 96 140
60 95 136
60 95 140
61 96 143
59 94 142
61 96 151
60 95 136
60 95 129
61 96 140
61 96 137
61 96 144
61 97 142
60 95 139
60 96 143
60 96 142
60 95 136
60 95 139
60 95 135
60 95 129
61 96 139
60 95 133
60 95 137
59 94 124
61 96 144
61 95 140
60 95 131
60 96 144
60 95 134
61 96 143
61 95 140
61 96 143
62 97 149
61 96 135
61 96 137
60 94 144
60 94 134
61 96 141
60 95 134
61 96 145
61 96 147
61 96 147
61 96 142
60 95 140
59 94 128
59 94 137
61 96 145
61 96 141
60 94 130
60 95 142
58 92 133
61 95 139
60 95 142
61 96 147
60 95 137
61 96 141
58 93 135
60 95 142
60 95 137
59 94 135
61 95 137
61 96 144
60 95 136
58 93 125
61 96 143
60 95 136
59 94 134
58 93 125
61 96 148
59 94 131
60 94 135
61 95 141
61 96 143
61 96 142
60 95 134
60 95 139
59 94 131
60 96 145
61 96 143
60 95 134
60 95 142
60 95 140
60 95 139
59 94 135
61 96 145
60 94 132
61 95 133
60 94 135
60 95 134
60 95 130
60 95 149
61 95 151
58 92 131
60 94 135
60 95 139
61 96 142
60 95 145
61 96 150
61 96 149
59 93 138
60 94 142
60 95 144
60 94 135
59 92 134
59 93 141
59 93 130
59 92 133
59 92 123
59 92 134
57 90 128
58 91 126
58 91 133
55 87 122
58 92 134
59 91 135
55 86 117
58 91 128
58 89 122
57 88 130
55 85 125
52 80 117
50 77 105
124 133 138
79 80 47
85 86 54
54 58 43
63 67 48
68 72 52
70 77 57
68 75 54
80 86 63
83 88 60
95 98 68
88 92 64
102 104 69
110 112 72
123 123 81
117 119 74
122 122 73
133 131 84
137 135 78
132 130 83
139 138 84
142 140 87
151 148 87
155 151 91
155 151 94
161 156 93
156 152 92
161 157 94
165 160 87
164 159 95
168 162 93
167 162 93
166 162 92
172 166 98
171 165 91
170 164 89
174 168 91
172 166 95
171 166 95
170 164 89
170 164 88
167 162 87
168 163 93
171 164 95
169 164 90
171 166 90
171 165 93
173 166 99
167 161 90
165 158 87
163 158 87
161 156 87
154 149 83
157 152 85
163 157 89
160 154 85
152 147 80
152 147 84
147 141 75
153 147 84
135 130 68
138 133 75
183 191 189
219 234 255
219 234 255
219 234 255
219 234 255
219 234 255
219 234 255
219 234 255
219 234 255
219 234 255
219 234 255
219 234 255
219 234 255
219 234 255
219 234 255
219 234 255
219 234 255
219 234 255
219 234 255
219 234 255
219 234 255
219 234 255
219 234 255
219 234 255
219 234 255
219 234 255
219 235 255
219 235 255
219 235 255
219 235 255
219 235 255
219 235 255
219 235 255
219 235 255
219 235 255
219 235 255
220 235 255
220 235 255
220 235 255
220 235 255
220 235 255
220 235 255
220 235 255
220 235 255
220 235 255
220 235 255
220 235 255
220 235 255
220 235 255
220 235 255
220 235 255
220 235 255
220 235 255
220 235 255
220 235 255
220 235 255
220 235 255
220 235 255
220 235 255
220 235 255
220 235 255
220 235 255
220 235 255
220 235 255
220 235 255
220 235 255
220 235 255
220 235 255
220 235 255
220 235 255
220 235 255
220 235 255
220 235 255
220 235 255
220 235 255
220 235 255
220 235 255
220 235 255
220 235 255
220 235 255
220 235 255
220 235 255
220 235 255
220 235 255
220 235 255
220 235 255
220 235 255
220 235 255
220 235 255
220 235 255
61 96 143
59 94 131
60 95 141
60 94 139
60 95 147
60 95 143
58 93 135
60 95 143
60 96 147
60 95 142
60 96 143
60 94 141
59 93 125
60 96 140
59 93 134
59 94 142
60 95 139
61 96 139
63 96 136
137 157 188
196 212 238
220 235 255
220 235 255
220 235 255
220 235 255
220 235 255
220 235 255
220 235 255
220 235 255
220 235 255
220 235 255
220 235 255
220 235 255
220 235 255
220 235 255
220 235 255
220 235 255
220 235 255
220 235 255
220 235 255
220 235 255
220 235 255
220 235 255
220 235 255
220 235 255
220 235 255
220 235 255
220 235 255
220 235 255
220 235 255
220 235 255
220 235 255
220 235 255
221 235 255
221 235 255
221 235 255
221 235 255
175 192 214
85 112 156
59 93 129
59 93 133
59 95 137
59 94 131
61 96 148
61 96 141
60 94 134
60 95 139
60 94 134
61 95 136
60 95 143
60 95 139
59 93 134
60 95 140
60 95 142
60 95 136
60 95 136
60 95 134
60 95 151
60 94 136
60 95 142
60 95 137
60 95 135
60 95 139
60 95 135
59 94 126
60 95 140
61 96 147
60 95 135
60 95 137
59 94 133
61 95 137
60 95 136
59 93 128
60 95 135
61 96 144
59 93 128
60 94 141
61 96 141
60 95 134
59 94 139
60 95 134
61 95 137
61 96 142
61 96 143
60 95 133
59 94 141
60 95 140
61 97 142
60 95 135
61 96 139
60 96 140
62 97 148
59 94 141
61 96 145
60 95 135
60 95 139
60 95 137
60 95 137
61 96 144
60 96 137
61 96 140
60 95 134
60 94 130
60 95 139
60 95 135
61 96 135
62 97 149
61 96 144
61 96 131
62 97 147
62 97 148
59 93 126
60 95 134
60 94 130
62 97 150
61 96 139
61 96 133
59 93 131
61 96 143
59 94 131
60 95 140
60 95 136
60 95 143
59 94 126
61 96 141
59 94 134
61 96 141
60 95 143
60 95 134
60 96 143
60 95 141
60 95 137
59 94 136
59 94 124
60 95 135
60 95 139
62 97 147
59 94 133
61 96 141
60 94 129
60 95 134
61 97 152
60 95 139
61 96 140
61 96 141
62 97 148
60 94 135
59 94 125
60 94 133
60 95 137
61 96 141
61 96 144
62 96 147
61 96 141
60 95 140
60 94 142
60 94 135
59 94 134
59 94 131
60 94 142
61 96 143
59 93 134
60 94 131
61 96 140
58 92 122
59 93 133
59 93 128
60 95 140
61 95 139
59 94 131
61 95 137
61 95 136
61 96 141
60 94 134
60 95 135
61 96 145
61 96 148
60 94 134
61 95 141
58 92 121
61 96 143
61 96 144
61 96 142
60 95 141
60 95 134
61 95 133
61 95 137
61 95 137
61 95 139
60 95 135
60 94 143
61 96 145
59 93 127
61 96 145
60 95 145
60 95 140
60 95 138
60 95 139
59 93 133
58 92 120
60 94 141
60 94 136
60 94 136
59 93 132
61 95 140
60 94 139
59 92 131
58 92 129
59 93 139
58 91 130
61 95 142
59 93 133
60 93 128
58 92 130
57 91 125
59 91 129
59 93 125
58 90 123
59 93 128
56 88 131
57 90 131
58 90 141
58 91 134
55 85 115
55 85 113
57 89 133
54 84 126
55 84 115
78 90 98
86 85 54
66 67 41
69 72 51
46 52 39
58 64 48
72 77 53
63 69 52
79 84 60
81 86 59
96 98 62
94 96 59
92 95 63
110 111 74
125 125 77
115 116 71
118 119 76
129 129 84
132 131 78
139 138 82
141 140 88
146 143 88
153 150 89
153 150 90
155 151 88
155 151 87
162 157 91
162 157 93
163 159 90
163 158 89
168 163 95
166 161 94
169 163 97
176 169 97
167 162 89
169 164 93
171 165 96
171 166 94
173 166 95
171 165 91
174 167 93
173 167 93
173 167 99
170 164 92
171 165 92
165 159 87
166 159 87
174 167 98
166 159 89
169 162 93
158 153 86
161 155 84
162 156 87
163 157 90
162 156 82
147 141 76
153 147 81
156 150 85
142 137 72
148 141 77
141 136 72
140 135 74
185 194 200
219 235 255
220 235 255
220 235 255
220 235 255
220 235 255
220 235 255
220 235 255
220 235 255
220 235 255
220 235 255
220 235 255
220 235 255
220 235 255
220 235 255
220 235 255
220 235 255
220 235 255
220 235 255
220 235 255
220 235 255
220 235 255
220 235 255
220 235 255
220 235 255
220 235 255
220 235 255
220 235 255
220 235 255
220 235 255
220 235 255
220 235 255
220 235 255
220 235 255
220 235 255
220 235 255
220 235 255
220 235 255
220 235 255
220 235 255
220 235 255
220 235 255
220 235 255
220 235 255
220 235 255
220 235 255
220 235 255
220 235 255
220 235 255
220 235 255
220 235 255
220 235 255
220 235 255
220 235 255
220 235 255
220 235 255
220 235 255
220 235 255
220 235 255
220 235 255
220 235 255
220 235 255
220 235 255
220 235 255
220 235 255
220 235 255
220 235 255
220 235 255
220 235 255
220 235 255
220 235 255
220 235 255
220 235 255
220 235 255
220 235 255
220 235 255
220 235 255
220 235 255
220 235 255
220 235 255
220 235 255
220 235 255
220 235 255
220 235 255
220 235 255
220 235 255
220 235 255
220 235 255
220 235 255
220 235 255
173 190 215
94 119 155
60 95 148
60 95 142
60 94 139
61 96 144
59 94 137
59 94 135
60 95 143
59 94 130
61 96 142
59 94 136
60 95 142
60 95 142
59 94 140
57 92 125
60 95 137
59 93 136
60 95 140
61 95 131
60 94 130
135 155 182
206 221 242
220 235 255
220 235 255
220 235 255
220 235 255
220 235 255
220 235 255
220 235 255
220 235 255
220 235 255
220 235 255
220 235 255
220 235 255
220 235 255
220 235 255
220 235 255
220 235 255
220 235 255
220 235 255
220 235 255
220 235 255
220 235 255
220 235 255
220 235 255
220 235 255
220 235 255
220 235 255
220 235 255
220 235 255
221 235 255
221 235 255
221 235 255
221 235 255
221 235 255
221 235 255
221 235 255
211 226 246
152 171 203
59 94 128
59 93 137
59 94 136
59 94 131
59 94 131
60 94 143
61 96 139
59 94 136
60 95 135
59 93 137
59 94 130
60 95 140
59 94 134
61 96 141
60 95 139
61 96 147
59 94 131
60 95 141
60 95 126
60 94 131
60 94 131
60 95 140
61 97 150
60 95 136
59 94 131
60 95 147
60 95 139
61 96 142
59 93 133
59 94 129
59 94 129
62 98 149
60 95 134
61 96 141
60 95 135
60 95 134
61 95 140
61 96 140
59 94 131
59 94 135
60 95 133
61 96 142
61 96 139
61 96 140
59 94 131
60 95 139
61 96 145
60 95 141
61 96 144
60 95 139
58 93 126
60 95 131
60 94 143
60 95 136
60 95 131
58 92 125
59 94 143
59 94 133
60 95 134
61 96 140
60 95 131
60 95 136
58 92 129
61 97 145
61 96 145
61 96 141
61 96 139
60 94 133
60 95 140
60 95 137
60 95 130
59 94 130
59 94 131
59 93 134
60 94 136
61 96 141
61 95 135
60 96 139
60 95 144
61 95 134
61 96 143
61 96 139
60 96 147
61 96 136
60 94 135
60 94 136
59 93 130
60 95 139
61 96 140
59 94 137
61 96 148
59 94 128
61 96 137
61 95 136
62 97 149
59 94 133
61 96 145
60 95 137
60 96 135
61 96 141
59 93 124
61 96 144
61 96 147
61 95 148
60 95 139
58 93 126
59 94 133
60 95 131
60 95 136
60 95 140
60 95 145
60 94 136
60 95 139
60 95 135
60 95 133
61 97 145
60 95 135
60 95 137
62 97 145
60 95 130
59 93 133
61 96 150
60 94 128
60 95 134
60 95 143
61 95 137
60 94 129
61 96 144
60 95 140
61 96 142
59 94 135
59 93 131
60 95 139
59 93 139
62 97 147
60 95 130
61 95 130
61 96 140
61 96 141
59 93 129
60 95 139
60 94 136
59 93 131
59 94 134
62 97 147
62 97 148
59 92 125
61 96 143
60 95 139
61 96 144
62 97 148
60 95 142
60 94 139
60 94 141
58 93 129
60 95 141
59 93 125
60 94 129
60 95 134
60 94 131
60 94 135
59 93 131
60 94 131
61 96 148
60 94 135
61 95 141
60 94 142
59 93 134
61 96 145
58 92 130
59 92 136
60 94 143
59 93 138
60 94 140
59 93 133
59 93 134
59 92 132
58 90 118
59 93 134
59 92 133
58 90 134
56 87 113
58 90 130
58 90 128
56 86 128
56 87 123
53 81 117
51 80 109
53 75 104
85 85 57
62 63 39
57 60 43
54 58 40
40 47 39
57 64 44
65 70 49
64 71 51
70 76 51
93 96 60
100 101 64
101 104 64
97 100 64
122 121 72
122 123 75
125 124 71
124 124 75
140 138 84
133 131 78
146 143 86
142 139 77
142 139 79
151 147 89
153 149 86
153 150 87
165 160 95
163 158 90
156 152 88
163 158 87
165 160 87
167 162 93
170 164 99
167 163 90
169 164 91
167 162 89
172 166 94
171 165 93
173 166 93
168 162 88
168 162 91
169 164 90
170 163 90
170 164 89
170 163 91
169 162 88
167 160 86
166 160 90
168 162 93
167 160 85
165 158 84
157 150 81
156 152 80
152 147 81
155 149 80
151 145 76
158 152 80
149 144 80
155 149 84
151 145 82
139 133 78
127 123 63
199 210 220
220 235 255
220 235 255
220 235 255
220 235 255
220 235 255
220 235 255
220 235 255
220 235 255
220 235 255
220 235 255
220 235 255
220 235 255
220 235 255
220 235 255
220 235 255
220 235 255
220 235 255
220 235 255
220 235 255
220 235 255
220 235 255
220 235 255
220 235 255
220 235 255
220 235 255
220 235 255
220 235 255
220 235 255
220 235 255
220 235 255
220 235 255
220 235 255
220 235 255
220 235 255
220 235 255
220 235 255
220 235 255
220 235 255
220 235 255
220 235 255
220 235 255
220 235 255
220 235 255
220 235 255
220 235 255
220 235 255
220 235 255
220 235 255
220 235 255
220 235 255
220 235 255
220 235 255
220 235 255
220 235 255
220 235 255
220 235 255
220 235 255
220 235 255
220 235 255
220 235 255
220 235 255
220 235 255
220 235 255
220 235 255
220 235 255
220 235 255
220 235 255
220 235 255
220 235 255
220 235 255
220 235 255
220 235 255
220 235 255
220 235 255
220 235 255
220 235 255
220 235 255
220 235 255
220 235 255
220 235 255
220 235 255
220 235 255
220 235 255
220 235 255
220 235 255
220 235 255
220 235 255
220 235 255
220 235 255
220 235 255
217 232 254
169 186 208
112 135 164
59 94 134
59 94 141
60 95 142
61 97 150
59 93 140
60 95 143
60 95 142
60 94 135
59 93 139
60 96 143
60 95 144
59 94 136
60 95 143
59 94 141
59 94 139
59 94 142
60 95 140
60 95 141
60 95 140
130 151 183
204 219 240
220 235 255
220 235 255
220 235 255
220 235 255
220 235 255
220 235 255
220 235 255
220 235 255
220 235 255
220 235 255
220 235 255
220 235 255
220 235 255
220 235 255
220 235 255
220 235 255
220 235 255
220 235 255
220 235 255
221 235 255
221 235 255
221 235 255
221 235 255
221 235 255
221 235 255
221 235 255
221 235 255
221 235 255
221 235 255
221 235 255
221 235 255
221 235 255
221 235 255
221 235 255
221 235 255
189 204 226
97 123 162
59 93 136
61 97 153
61 96 144
60 95 143
59 93 129
61 96 144
59 93 129
60 95 131
60 95 139
59 93 122
58 92 125
60 95 144
61 96 144
59 94 135
60 94 125
60 95 135
59 94 135
59 94 134
59 94 131
60 94 131
60 95 139
61 96 144
58 93 134
60 95 139
60 95 142
61 96 142
59 94 129
60 95 134
59 94 131
60 94 135
60 95 140
60 94 137
61 96 141
60 95 144
59 94 130
59 93 120
59 93 125
59 93 134
61 96 141
60 95 140
61 96 139
61 96 144
60 95 135
60 95 135
60 95 135
60 94 136
59 93 133
60 95 139
58 93 121
59 93 124
59 94 128
60 95 134
59 93 124
61 96 145
60 95 139
61 95 136
59 94 134
61 97 147
60 94 137
60 95 134
60 95 135
58 93 131
59 94 128
60 95 130
61 96 144
61 96 149
60 95 135
60 94 134
62 97 151
60 95 135
60 95 140
58 92 131
61 95 137
60 95 142
60 95 135
59 94 137
60 95 130
60 94 140
61 96 140
60 95 137
61 96 148
59 93 130
59 94 129
61 96 141
61 96 143
61 96 144
60 95 137
62 97 148
61 96 142
59 93 134
60 94 135
59 94 135
60 94 137
59 93 137
58 92 130
60 95 137
61 96 142
60 94 135
59 94 137
58 92 115
61 96 142
61 96 140
60 94 130
62 97 149
62 97 142
60 94 141
62 97 145
62 97 145
59 93 133
60 95 136
60 95 134
60 94 125
61 96 141
61 96 144
59 93 129
60 95 151
61 95 137
58 92 124
60 95 135
60 95 142
61 95 134
61 95 134
59 94 139
60 95 137
61 96 140
61 96 149
58 91 126
61 97 145
59 93 126
61 96 150
60 94 141
60 95 136
61 96 142
61 95 137
61 96 139
60 95 145
60 95 140
60 95 133
61 96 145
59 94 139
61 95 141
60 95 130
60 94 137
60 95 136
58 92 128
60 95 137
61 96 140
60 94 140
59 94 133
60 95 139
59 94 131
60 94 140
59 93 129
60 95 139
61 95 136
59 94 135
59 94 134
59 94 134
61 96 143
60 94 134
61 95 140
59 93 131
60 94 131
60 94 136
58 92 133
59 93 136
59 93 130
60 94 136
58 91 139
60 94 141
59 92 136
57 90 119
56 90 129
56 89 124
59 93 130
57 90 130
57 88 128
58 91 128
57 88 129
56 87 122
57 89 127
57 88 125
58 89 135
56 87 127
54 84 122
52 79 108
53 80 111
82 85 67
68 70 44
52 55 40
58 61 43
53 58 44
57 62 44
66 70 50
72 76 50
78 83 56
88 91 60
106 106 64
97 100 65
106 106 68
101 103 63
119 118 67
123 122 74
120 120 75
125 125 70
135 134 82
145 141 80
138 136 80
145 142 81
146 143 72
154 149 79
162 157 90
158 154 87
167 161 95
158 155 90
167 161 89
164 160 88
167 161 90
159 155 84
166 160 84
170 164 88
170 164 92
165 159 83
167 161 84
172 166 93
173 166 91
169 163 84
171 164 90
170 164 90
169 163 87
169 163 84
162 157 87
164 158 91
172 165 90
165 159 86
162 156 84
161 155 85
160 154 83
158 152 82
162 155 84
159 153 82
159 153 84
156 150 81
152 146 75
146 140 74
142 136 71
145 139 67
142 137 75
211 225 240
220 235 255
220 235 255
220 235 255
220 235 255
220 235 255
220 235 255
220 235 255
220 235 255
220 235 255
220 235 255
220 235 255
220 235 255
220 235 255
220 235 255
220 235 255
220 235 255
220 235 255
220 235 255
220 235 255
220 235 255
220 235 255
220 235 255
220 235 255
220 235 255
220 235 255
220 235 255
220 235 255
220 235 255
220 235 255
220 235 255
220 235 255
220 235 255
220 235 255
220 235 255
220 235 255
220 235 255
220 235 255
220 235 255
220 235 255
220 235 255
220 235 255
220 235 255
220 235 255
220 235 255
220 235 255
220 235 255
220 235 255
220 235 255
220 235 255
220 235 255
220 235 255
220 235 255
220 235 255
220 235 255
220 235 255
220 235 255
220 235 255
220 235 255
220 235 255
220 235 255
220 235 255
220 235 255
220 235 255
220 235 255
220 235 255
220 235 255
220 235 255
221 235 255
221 235 255
221 235 255
221 235 255
221 235 255
221 235 255
221 235 255
221 235 255
221 235 255
221 235 255
221 235 255
221 235 255
221 235 255
221 235 255
221 235 255
221 235 255
221 235 255
221 235 255
221 235 255
221 235 255
221 235 255
221 235 255
221 235 255
221 235 255
221 235 255
221 235 255
176 192 214
93 120 158
60 96 143
59 94 124
59 93 135
60 94 131
61 95 140
60 95 143
59 94 139
60 94 139
60 95 139
59 93 137
60 95 141
60 95 134
59 93 141
60 95 131
61 95 136
59 94 141
61 96 139
60 95 135
68 101 144
147 166 199
206 221 244
221 235 255
221 235 255
221 235 255
221 235 255
221 235 255
221 235 255
221 235 255
221 235 255
221 235 255
221 235 255
221 235 255
221 235 255
221 235 255
221 235 255
221 235 255
221 235 255
221 235 255
221 235 255
221 235 255
221 235 255
221 235 255
221 235 255
221 235 255
221 235 255
221 235 255
221 235 255
221 235 255
221 235 255
221 235 255
221 235 255
221 235 255
221 235 255
221 235 255
221 235 255
213 227 248
156 174 202
61 96 137
60 95 136
59 94 134
60 95 139
60 95 135
59 94 137
61 96 141
59 94 137
59 93 135
60 95 134
61 96 140
60 95 136
60 95 135
60 95 139
59 94 134
60 95 137
59 94 135
59 94 131
59 94 133
60 94 136
59 94 131
60 95 139
59 94 130
61 97 147
59 94 131
59 94 135
60 95 136
60 94 125
60 94 136
60 95 133
60 95 137
59 93 128
61 96 143
59 94 130
59 94 129
60 94 134
60 95 139
58 93 130
59 94 129
61 96 141
60 95 135
59 93 131
60 95 135
61 96 143
60 96 140
59 94 131
60 95 137
60 95 136
61 96 142
59 94 126
60 95 137
60 95 137
61 95 137
59 94 130
61 96 142
60 95 136
61 96 136
60 95 137
60 95 133
59 94 139
61 96 144
59 94 134
61 96 148
59 93 131
61 95 139
61 97 149
61 97 143
60 95 140
59 93 133
59 94 134
59 93 130
59 93 121
61 96 141
61 95 139
60 96 142
60 95 136
60 94 131
61 95 140
61 96 141
59 94 133
59 93 126
61 96 144
61 96 147
60 95 141
61 95 135
61 96 141
60 94 129
59 93 124
59 93 133
61 96 135
60 95 135
59 93 125
60 95 140
61 96 141
59 94 133
59 94 134
61 96 147
59 93 128
60 95 136
59 93 131
60 95 143
60 94 131
61 96 133
60 95 135
60 95 137
58 92 121
60 95 139
60 95 131
60 95 131
60 95 135
62 96 140
59 93 131
61 96 136
61 96 139
60 94 128
60 95 134
59 93 121
60 95 143
60 95 131
60 94 129
61 95 136
60 95 142
60 95 134
61 96 142
60 94 134
60 94 135
61 96 143
60 95 144
59 93 131
59 94 137
60 95 137
61 96 137
61 96 139
60 95 137
61 96 147
61 96 138
61 96 140
59 93 128
59 92 129
60 94 138
59 94 133
60 95 139
60 95 137
61 96 148
60 94 134
59 93 126
60 94 136
60 95 139
62 97 152
59 93 130
59 93 134
59 93 129
59 93 130
59 93 136
61 95 144
60 95 143
61 96 143
59 93 130
60 94 141
60 94 135
59 93 130
59 94 131
59 93 135
60 94 134
61 96 148
60 94 135
59 92 126
58 91 130
59 93 141
59 92 128
59 93 133
59 93 135
60 94 142
59 92 130
60 93 133
59 92 131
60 94 149
58 90 131
56 87 132
57 89 129
57 90 135
56 87 119
54 84 125
54 83 115
52 80 107
49 77 110
77 82 79
61 61 30
48 50 31
50 55 36
53 57 37
42 49 37
57 61 42
58 64 44
75 82 53
80 85 53
90 93 55
85 89 50
101 103 62
101 104 64
115 116 65
111 113 73
119 118 73
127 126 72
138 136 82
134 133 78
142 139 76
150 146 81
153 148 81
149 145 77
146 144 80
159 155 87
163 157 87
164 159 88
156 152 80
163 156 85
163 159 83
164 159 81
170 163 94
172 166 94
168 162 86
172 166 97
166 161 83
169 162 87
169 163 84
170 163 90
169 164 87
167 161 90
167 161 89
169 162 87
173 166 90
162 157 79
161 154 82
162 156 87
167 161 87
162 156 75
163 158 86
165 158 86
156 150 77
153 146 77
157 151 79
152 146 75
150 143 82
148 143 77
146 141 76
130 124 66
140 136 86
216 230 250
220 235 255
221 235 255
221 235 255
221 235 255
221 235 255
221 235 255
221 235 255
221 235 255
221 235 255
221 235 255
221 235 255
221 235 255
221 235 255
221 235 255
221 235 255
221 235 255
221 235 255
221 235 255
221 235 255
221 235 255
221 235 255
221 235 255
221 235 255
221 235 255
221 235 255
221 235 255
221 235 255
221 235 255
221 235 255
221 235 255
221 235 255
221 235 255
221 235 255
221 235 255
221 235 255
221 235 255
221 235 255
221 235 255
221 235 255
221 235 255
221 235 255
221 235 255
221 235 255
221 235 255
221 235 255
221 235 255
221 235 255
221 235 255
221 235 255
221 235 255
221 235 255
221 235 255
221 235 255
221 235 255
221 235 255
221 235 255
221 235 255
221 235 255
221 235 255
221 235 255
221 235 255
221 235 255
221 235 255
221 235 255
221 235 255
221 235 255
221 235 255
221 235 255
221 235 255
221 235 255
221 235 255
221 235 255
221 235 255
221 235 255
221 235 255
221 235 255
221 235 255
221 235 255
221 235 255
221 235 255
221 235 255
221 235 255
221 235 255
221 235 255
221 235 255
221 235 255
221 235 255
221 235 255
221 235 255
221 235 255
221 235 255
221 235 255
221 235 255
221 235 255
220 234 255
172 189 212
108 132 167
59 94 133
59 94 136
57 91 128
58 93 131
60 95 150
59 94 130
58 92 125
59 94 136
59 94 133
59 94 141
60 95 137
57 92 133
60 95 139
57 90 120
59 93 129
59 93 134
59 94 128
59 93 133
62 95 133
148 167 194
211 226 247
221 235 255
221 235 255
221 235 255
221 235 255
221 235 255
221 235 255
221 235 255
221 235 255
221 235 255
221 235 255
221 235 255
221 235 255
221 235 255
221 235 255
221 235 255
221 235 255
221 235 255
221 235 255
221 235 255
221 235 255
221 235 255
221 235 255
221 235 255
221 235 255
221 235 255
221 235 255
221 235 255
221 235 255
221 235 255
221 235 255
221 235 255
221 235 255
221 235 255
221 235 255
189 205 231
97 123 159
59 94 141
59 95 141
60 94 140
60 95 143
60 95 141
59 94 142
60 95 133
59 93 125
60 95 135
59 93 131
59 93 131
60 94 130
60 95 137
60 95 135
59 94 131
60 95 142
60 94 133
60 94 131
59 94 137
60 95 137
61 95 140
59 94 135
60 94 139
61 96 147
61 96 145
60 95 130
60 94 135
60 96 145
59 94 126
60 94 136
59 94 134
58 92 136
60 95 141
59 93 130
60 95 142
61 96 142
60 95 139
60 95 135
61 96 137
58 93 134
60 94 134
61 95 137
60 95 133
61 96 145
59 94 135
60 94 128
60 95 137
61 95 137
59 94 131
60 94 134
60 94 135
60 95 133
60 95 137
59 94 122
59 93 124
61 95 139
61 97 142
60 94 131
59 93 130
60 94 134
60 95 143
59 93 126
59 94 131
60 95 136
62 97 144
60 95 137
60 94 133
60 94 139
61 96 144
60 95 137
60 95 135
61 96 135
62 96 143
60 95 135
59 93 122
60 95 136
61 96 139
61 97 141
62 97 148
61 95 137
60 96 135
60 95 136
60 94 134
60 94 133
60 95 137
60 95 136
59 94 133
60 94 133
61 96 134
60 94 135
61 96 141
60 95 144
61 96 139
60 95 139
60 95 133
62 97 150
60 95 143
60 95 135
59 93 131
59 94 130
61 96 135
61 96 135
60 94 133
61 95 143
60 95 140
60 96 137
60 95 140
60 95 136
61 96 137
59 94 129
59 94 129
60 95 134
60 94 135
60 95 133
61 96 141
60 95 140
59 94 133
60 95 141
60 95 135
60 95 138
60 95 134
60 95 134
60 94 136
61 96 141
59 94 131
60 95 130
61 96 140
60 95 134
61 95 147
59 94 136
60 95 141
60 95 139
60 94 128
61 97 148
60 95 139
59 93 133
59 94 137
59 93 131
60 95 140
60 94 139
60 95 134
59 93 135
59 93 125
60 94 139
60 94 129
59 94 142
62 97 149
60 94 134
61 95 140
60 95 139
59 93 123
60 95 134
60 95 139
59 93 133
61 95 141
60 94 139
56 88 117
60 94 139
60 95 135
61 95 142
60 94 136
60 94 142
61 95 143
59 92 123
60 94 139
60 93 142
59 92 128
58 91 128
58 91 128
59 92 128
58 91 131
59 93 128
58 91 127
58 91 130
58 91 124
57 89 135
56 88 119
57 89 117
56 88 120
56 87 124
56 85 123
54 83 116
51 79 106
52 80 105
52 73 92
72 72 37
52 54 32
40 44 27
44 50 36
46 52 38
50 57 43
60 68 49
58 64 40
69 75 49
84 87 54
87 91 53
95 97 54
106 107 59
116 117 74
115 115 61
132 130 70
120 120 66
135 134 80
139 137 73
137 135 74
140 137 77
144 141 81
150 146 81
148 145 81
151 147 78
157 153 88
163 158 87
163 158 87
161 156 86
166 160 94
170 163 85
173 166 90
171 164 90
167 161 83
170 163 88
168 162 87
170 164 89
172 164 85
170 163 86
170 164 84
166 160 79
166 160 79
165 158 82
170 164 90
166 160 84
167 159 89
164 158 84
167 160 82
161 155 80
162 156 82
156 150 76
154 149 79
154 149 80
153 146 75
151 145 80
144 139 67
141 136 60
142 137 71
129 125 66
151 151 121
221 235 255
221 235 255
221 235 255
221 235 255
221 235 255
221 235 255
221 235 255
221 235 255
221 235 255
221 235 255
221 235 255
221 235 255
221 235 255
221 235 255
221 235 255
221 235 255
221 235 255
221 235 255
221 235 255
221 235 255
221 235 255
221 235 255
221 235 255
221 235 255
221 235 255
221 235 255
221 235 255
221 235 255
221 235 255
221 235 255
221 235 255
221 235 255
221 235 255
221 235 255
221 235 255
221 235 255
221 235 255
221 235 255
221 235 255
221 235 255
221 235 255
221 235 255
221 235 255
221 235 255
221 235 255
221 235 255
221 235 255
221 235 255
221 235 255
221 235 255
221 235 255
221 235 255
221 235 255
221 235 255
221 235 255
221 235 255
221 235 255
221 235 255
221 235 255
221 235 255
221 235 255
221 235 255
221 235 255
221 235 255
221 235 255
221 235 255
221 235 255
221 235 255
221 235 255
221 235 255
221 235 255
221 235 255
221 235 255
221 235 255
221 235 255
221 235 255
221 235 255
221 235 255
221 235 255
221 235 255
221 235 255
221 235 255
221 235 255
221 235 255
221 235 255
221 235 255
221 235 255
221 235 255
221 235 255
221 235 255
221 236 255
221 236 255
221 236 255
221 236 255
221 236 255
221 236 255
221 236 255
218 233 253
165 182 211
95 120 151
59 94 142
59 94 134
59 93 129
59 93 133
59 93 129
58 92 130
59 94 133
59 94 131
59 93 130
60 94 136
60 94 140
59 93 140
59 93 129
58 92 130
59 93 135
60 95 143
59 94 128
59 93 124
66 98 134
170 187 213
213 227 248
221 236 255
221 236 255
221 236 255
221 236 255
221 236 255
221 236 255
221 236 255
221 236 255
221 236 255
221 236 255
221 236 255
221 236 255
221 236 255
221 236 255
221 236 255
221 236 255
221 236 255
221 236 255
221 236 255
221 236 255
221 236 255
221 236 255
221 236 255
221 236 255
221 236 255
221 236 255
221 236 255
221 236 255
221 236 255
221 236 255
221 236 255
221 236 255
221 236 255
220 235 254
153 172 200
59 93 130
60 95 137
60 95 137
60 95 136
60 94 140
59 94 126
61 96 143
61 96 150
60 95 134
60 94 139
60 94 139
58 93 129
60 95 136
60 95 136
60 95 134
60 95 134
59 93 129
59 93 126
61 96 137
61 95 141
60 94 130
58 92 124
61 96 147
60 95 141
60 95 135
60 94 134
59 94 136
61 96 137
60 94 134
61 96 149
58 93 128
60 95 142
60 95 140
60 94 131
60 95 137
61 96 142
59 94 126
60 94 136
61 96 139
61 96 145
60 94 133
59 93 133
60 94 125
60 94 137
60 95 139
59 94 134
61 95 133
59 93 129
60 94 131
60 95 143
59 93 122
60 94 126
59 94 131
60 95 140
59 94 122
61 97 150
61 96 135
59 93 125
59 93 129
60 95 136
61 95 139
60 94 134
60 95 135
61 96 145
60 95 131
60 95 126
60 95 136
60 95 134
60 95 135
60 95 137
60 95 141
60 95 141
60 95 139
60 94 137
60 95 135
61 96 147
59 94 137
58 92 122
60 95 136
60 94 140
59 94 134
60 96 139
61 96 141
61 96 131
61 96 136
61 95 131
60 95 143
59 94 128
61 96 151
60 95 135
59 94 131
60 94 129
60 95 137
59 93 122
61 96 140
60 95 128
60 95 135
59 93 125
59 93 135
60 95 139
59 92 134
61 96 144
60 95 134
60 95 139
59 94 129
60 94 137
60 95 145
59 93 139
60 95 126
59 94 134
60 95 140
59 93 128
59 94 139
60 94 131
60 95 139
59 94 141
60 95 139
59 93 122
59 94 133
59 94 130
59 94 135
60 95 141
60 95 134
60 94 130
61 95 139
59 94 133
60 94 131
60 95 135
59 93 124
59 93 128
61 95 134
60 95 139
60 95 141
59 93 131
60 95 145
60 94 133
60 95 136
60 94 130
60 94 134
58 92 122
60 95 133
60 94 138
60 94 138
59 92 128
59 93 130
60 95 135
60 94 139
59 94 132
61 95 140
59 92 132
58 92 130
62 96 142
59 93 124
60 94 137
58 92 130
61 95 145
58 92 125
61 96 143
60 95 136
61 95 135
59 94 137
59 92 134
57 90 132
60 94 140
59 92 131
60 94 138
58 91 126
57 90 118
58 91 124
59 93 142
58 91 124
58 92 132
59 92 130
58 91 129
59 92 129
58 90 135
55 86 116
56 87 121
56 86 122
56 87 122
55 85 113
52 79 101
51 78 101
46 70 82
67 67 38
65 65 31
48 52 35
53 57 34
39 47 27
56 61 41
64 69 46
72 76 48
74 80 56
71 75 44
99 100 60
98 100 63
112 112 61
103 106 66
119 119 74
128 127 71
127 124 72
134 133 75
138 136 76
142 140 78
147 142 80
143 141 77
152 148 78
152 148 82
152 149 76
156 152 77
167 160 82
159 155 84
157 153 80
167 161 85
158 153 77
164 158 82
165 158 84
172 165 86
168 162 82
169 162 86
170 164 88
172 164 87
166 160 83
167 160 81
170 164 88
166 159 82
167 161 80
166 160 82
169 163 81
161 155 74
153 147 72
157 151 78
166 159 93
152 146 73
157 151 77
157 151 80
158 151 74
153 147 73
159 152 78
152 146 75
139 134 67
142 136 77
139 134 65
161 165 155
221 236 255
221 236 255
221 236 255
221 236 255
221 236 255
221 236 255
221 236 255
221 236 255
221 236 255
221 236 255
221 236 255
221 236 255
221 236 255
221 236 255
221 236 255
221 236 255
221 236 255
221 236 255
221 236 255
221 236 255
221 236 255
221 236 255
221 236 255
221 236 255
221 236 255
221 236 255
221 236 255
221 236 255
221 236 255
221 236 255
221 236 255
221 236 255
221 236 255
221 236 255
221 236 255
221 236 255
221 236 255
221 236 255
221 236 255
221 236 255
221 236 255
221 236 255
221 236 255
221 236 255
221 236 255
221 236 255
221 236 255
221 236 255
221 236 255
221 236 255
221 236 255
221 236 255
221 236 255
221 236 255
221 236 255
221 236 255
221 236 255
221 236 255
221 236 255
221 236 255
221 236 255
221 236 255
221 236 255
221 236 255
221 236 255
221 236 255
221 236 255
221 236 255
221 236 255
221 236 255
221 236 255
221 236 255
221 236 255
221 236 255
221 236 255
221 236 255
221 236 255
221 236 255
221 236 255
221 236 255
221 236 255
221 236 255
221 236 255
221 236 255
221 236 255
221 236 255
221 236 255
221 236 255
221 236 255
221 236 255
221 236 255
221 236 255
221 236 255
221 236 255
221 236 255
221 236 255
222 236 255
222 236 255
222 236 255
220 235 254
176 192 215
85 113 149
59 93 133
58 93 129
58 93 130
59 94 145
58 92 124
59 94 137
60 95 133
59 94 142
60 95 144
59 94 129
59 94 135
60 94 133
59 93 131
60 95 142
59 94 130
59 93 135
58 93 133
58 93 128
82 111 149
170 187 208
220 235 254
222 236 255
222 236 255
222 236 255
222 236 255
221 236 255
222 236 255
221 236 255
222 236 255
221 236 255
222 236 255
221 236 255
222 236 255
221 236 255
221 236 255
221 236 255
221 236 255
221 236 255
221 236 255
221 236 255
221 236 255
221 236 255
221 236 255
221 236 255
221 236 255
221 236 255
221 236 255
221 236 255
221 236 255
221 236 255
221 236 255
221 236 255
221 236 255
221 236 255
195 211 234
95 120 158
60 94 134
58 92 122
59 94 140
59 93 133
59 93 131
58 93 122
59 94 122
59 93 125
59 93 135
61 96 142
59 94 142
59 94 124
58 92 117
61 96 142
59 94 126
60 95 131
60 94 134
59 94 130
60 95 130
60 94 130
59 94 125
61 96 140
60 95 139
59 94 135
60 95 137
59 93 129
61 97 141
60 95 142
59 93 133
61 96 140
60 95 139
60 95 140
60 95 139
60 94 137
59 94 135
61 95 145
60 95 136
60 95 134
60 94 141
60 95 133
60 95 131
61 95 139
60 95 139
61 96 141
59 94 135
61 96 139
60 96 144
58 93 134
60 95 141
59 93 133
60 95 129
59 94 131
60 95 133
60 94 131
59 94 135
60 95 139
61 97 148
61 96 145
61 96 135
60 95 142
59 94 126
60 94 137
60 94 142
59 94 135
60 94 131
59 93 130
60 95 134
60 95 135
59 94 131
60 95 134
60 95 130
61 95 135
61 96 144
60 95 135
61 95 135
61 96 141
61 96 139
59 93 130
59 94 128
60 95 137
60 95 141
60 95 133
61 96 143
59 94 131
59 93 133
59 93 124
59 94 129
59 93 128
60 94 125
60 95 137
60 94 136
60 95 139
59 94 128
61 96 140
60 95 140
59 94 131
59 93 133
60 95 135
59 93 122
62 97 147
60 95 135
59 94 118
59 94 126
61 96 144
58 92 128
61 96 139
61 96 136
59 94 134
60 94 134
61 95 136
60 94 141
59 94 134
61 96 141
60 94 134
59 93 134
60 94 136
59 93 130
60 95 136
58 93 125
61 96 144
62 97 145
60 94 129
60 94 137
59 94 129
60 95 133
59 94 133
60 95 140
60 95 136
61 97 148
60 95 136
60 95 131
60 95 135
59 93 126
61 95 139
59 93 128
61 95 137
60 95 139
59 93 122
59 93 128
60 95 129
59 93 126
59 94 129
61 96 142
60 95 142
59 93 130
60 94 130
59 93 128
59 93 139
60 94 135
60 95 139
59 94 132
60 95 139
58 92 120
59 93 132
59 93 129
59 93 131
60 94 139
59 93 134
59 93 134
59 92 127
59 93 130
60 94 136
58 91 126
58 91 131
58 91 129
59 92 126
58 92 125
60 94 130
57 89 127
59 92 132
58 92 132
57 90 119
57 89 126
55 86 114
56 87 117
54 84 115
56 87 119
57 90 129
56 87 124
52 80 99
55 84 117
48 73 99
59 63 48
61 63 38
53 54 32
42 47 25
43 50 33
41 48 30
52 59 43
72 78 51
70 73 47
79 83 51
83 86 51
95 96 55
101 103 59
112 112 63
121 119 62
123 122 63
132 130 70
121 120 55
140 138 75
137 134 74
143 138 72
151 147 83
152 147 81
148 144 78
159 155 83
154 149 81
157 152 77
163 157 84
164 158 85
158 153 84
162 157 78
166 160 78
167 160 84
172 165 88
167 161 79
169 163 84
167 161 82
170 163 84
170 164 87
168 161 84
165 160 84
165 159 78
167 160 84
162 156 74
164 157 79
158 151 72
158 152 78
159 152 73
159 152 78
160 153 81
162 155 85
153 147 75
150 144 72
152 145 74
145 140 67
140 134 66
136 131 64
144 139 67
131 125 69
190 199 204
222 236 255
222 236 255
222 236 255
222 236 255
222 236 255
222 236 255
222 236 255
222 236 255
222 236 255
222 236 255
222 236 255
222 236 255
222 236 255
222 236 255
222 236 255
222 236 255
222 236 255
222 236 255
222 236 255
222 236 255
222 236 255
222 236 255
222 236 255
222 236 255
222 236 255
222 236 255
221 236 255
222 236 255
222 236 255
222 236 255
222 236 255
222 236 255
222 236 255
221 236 255
221 236 255
221 236 255
221 236 255
221 236 255
221 236 255
221 236 255
221 236 255
221 236 255
221 236 255
221 236 255
221 236 255
221 236 255
221 236 255
221 236 255
221 236 255
221 236 255
221 236 255
221 236 255
221 236 255
221 236 255
221 236 255
221 236 255
221 236 255
221 236 255
221 236 255
221 236 255
221 236 255
221 236 255
221 236 255
221 236 255
221 236 255
221 236 255
221 236 255
221 236 255
221 236 255
221 236 255
221 236 255
221 236 255
221 236 255
221 236 255
221 236 255
221 236 255
221 236 255
221 236 255
221 236 255
221 236 255
221 236 255
221 236 255
221 236 255
221 236 255
221 236 255
221 236 255
221 236 255
221 236 255
221 236 255
221 236 255
222 236 255
222 236 255
222 236 255
222 236 255
222 236 255
222 236 255
222 236 255
222 236 255
222 236 255
222 236 255
222 236 255
221 235 254
167 184 209
94 120 151
60 95 137
60 95 135
59 94 133
60 95 135
61 96 144
60 94 139
59 93 128
58 92 125
60 95 137
60 95 144
59 94 134
60 95 139
60 95 141
58 92 126
60 96 147
59 93 120
59 92 117
60 95 137
116 138 165
194 209 231
222 236 255
222 236 255
222 236 255
222 236 255
222 236 255
222 236 255
222 236 255
222 236 255
222 236 255
222 236 255
222 236 255
222 236 255
222 236 255
222 236 255
222 236 255
222 236 255
222 236 255
222 236 255
222 236 255
222 236 255
222 236 255
222 236 255
222 236 255
222 236 255
222 236 255
222 236 255
222 236 255
222 236 255
222 236 255
222 236 255
221 236 255
221 236 255
221 236 255
221 236 255
170 187 209
66 98 133
58 92 118
59 93 126
60 95 128
59 93 122
58 92 125
60 95 136
59 94 139
58 93 125
60 95 140
59 94 128
60 95 137
59 94 130
59 94 131
61 96 140
60 96 142
60 95 135
60 95 135
59 93 129
59 93 134
58 93 130
59 94 124
59 94 133
60 94 135
59 94 134
59 94 133
59 94 121
60 95 130
60 95 139
60 95 133
60 95 137
60 94 134
58 92 126
61 96 135
60 94 134
59 93 125
59 94 125
61 96 145
59 94 135
60 95 140
60 95 133
61 95 137
59 94 131
60 95 139
59 94 126
59 94 135
59 93 128
60 95 136
61 95 130
61 95 139
60 95 140
60 94 139
59 93 129
60 95 134
61 96 135
59 93 133
60 95 141
61 95 143
61 96 140
59 94 131
60 95 131
61 95 134
61 96 144
60 95 130
61 95 141
61 96 143
59 93 121
59 94 128
60 94 131
59 94 130
60 95 137
60 94 133
61 96 142
60 94 144
59 94 130
60 95 139
61 96 143
60 95 141
60 95 139
60 95 133
60 95 137
60 95 131
61 96 139
60 95 140
61 96 141
61 95 140
61 96 147
59 93 131
60 95 141
61 96 135
61 96 143
58 93 124
60 95 134
59 94 129
61 95 133
61 96 136
60 94 136
59 94 126
59 94 129
59 94 133
59 93 126
60 94 135
59 93 125
60 94 134
61 96 142
60 94 137
59 94 133
60 95 134
59 93 122
59 94 133
59 93 131
61 95 141
60 94 134
61 96 140
59 93 128
58 91 131
60 95 141
59 94 131
60 95 137
60 95 140
59 93 135
60 95 142
59 94 131
61 96 140
60 94 139
59 93 121
61 95 134
59 94 126
61 96 143
59 93 131
60 95 136
60 95 136
60 94 132
60 94 130
59 94 129
60 95 140
61 95 146
60 95 133
60 95 139
60 94 145
60 95 139
60 95 136
61 96 140
59 93 125
59 93 135
61 95 130
61 95 136
58 91 121
59 94 136
59 93 139
59 94 139
60 94 130
58 92 129
59 93 130
59 92 125
59 93 128
59 94 128
59 93 125
59 93 136
61 95 144
59 92 130
59 93 133
58 91 121
58 91 133
57 89 134
58 91 122
58 91 117
59 92 128
58 91 125
59 91 127
58 91 131
58 90 123
57 89 127
56 87 112
56 87 121
55 86 117
54 84 120
53 83 118
53 83 115
53 81 109
51 79 104
70 73 54
59 59 29
41 44 22
40 45 24
38 45 28
42 50 28
59 64 38
58 64 41
59 65 44
70 74 41
77 83 52
99 100 52
107 108 65
104 104 59
118 117 68
120 119 71
111 111 61
132 129 68
131 128 67
148 144 75
140 137 75
148 144 71
147 143 70
155 150 80
155 150 72
153 148 77
160 156 78
167 160 84
159 154 76
159 154 72
164 158 81
169 162 86
167 160 83
167 161 81
167 161 75
167 161 79
163 157 73
169 162 80
163 157 78
170 163 85
167 161 80
162 157 76
161 154 76
166 160 81
165 159 80
159 153 75
158 153 81
158 152 78
159 153 79
158 150 77
155 149 79
156 151 75
151 146 71
155 149 73
151 144 71
152 146 72
142 136 71
132 127 68
121 116 61
212 225 242
222 236 255
222 236 255
222 236 255
222 236 255
222 236 255
222 236 255
222 236 255
222 236 255
222 236 255
222 236 255
222 236 255
222 236 255
222 236 255
222 236 255
222 236 255
222 236 255
222 236 255
222 236 255
222 236 255
222 236 255
222 236 255
222 236 255
222 236 255
222 236 255
222 236 255
222 236 255
222 236 255
222 236 255
222 236 255
222 236 255
222 236 255
222 236 255
222 236 255
222 236 255
222 236 255
222 236 255
222 236 255
222 236 255
222 236 255
222 236 255
222 236 255
222 236 255
222 236 255
222 236 255
222 236 255
222 236 255
222 236 255
222 236 255
222 236 255
222 236 255
222 236 255
222 236 255
222 236 255
222 236 255
222 236 255
222 236 255
222 236 255
222 236 255
222 236 255
222 236 255
222 236 255
222 236 255
222 236 255
222 236 255
222 236 255
222 236 255
222 236 255
222 236 255
222 236 255
222 236 255
222 236 255
222 236 255
222 236 255
222 236 255
222 236 255
222 236 255
222 236 255
222 236 255
222 236 255
222 236 255
222 236 255
222 236 255
222 236 255
222 236 255
222 236 255
222 236 255
222 236 255
222 236 255
222 236 255
222 236 255
222 236 255
222 236 255
222 236 255
222 236 255
222 236 255
222 236 255
222 236 255
222 236 255
222 236 255
222 236 255
222 236 255
222 236 255
222 236 255
217 231 251
163 180 203
78 107 135
58 92 130
60 94 139
59 93 126
59 93 136
60 95 135
58 93 122
60 95 136
60 95 141
60 94 131
62 96 141
59 93 130
60 94 144
59 95 140
60 94 134
58 91 124
60 94 133
59 94 135
60 95 130
138 158 188
213 227 244
222 236 255
222 236 255
222 236 255
222 236 255
222 236 255
222 236 255
222 236 255
222 236 255
222 236 255
222 236 255
222 236 255
222 236 255
222 236 255
222 236 255
222 236 255
222 236 255
222 236 255
222 236 255
222 236 255
222 236 255
222 236 255
222 236 255
222 236 255
222 236 255
222 236 255
222 236 255
222 236 255
222 236 255
222 236 255
222 236 255
222 236 255
222 236 255
222 236 255
203 218 238
126 147 177
58 92 124
58 92 126
61 96 139
60 95 139
59 94 131
60 94 128
59 94 143
61 95 141
59 94 133
60 95 134
60 94 134
59 93 133
59 93 121
59 93 131
59 94 131
59 93 124
61 96 143
59 93 129
60 94 139
60 95 137
60 95 136
59 94 134
61 95 139
60 94 139
61 96 143
61 96 140
60 95 130
60 95 145
60 94 130
60 94 142
60 95 137
59 94 131
60 95 137
61 96 135
59 93 128
59 94 129
60 94 125
60 95 131
60 95 135
61 95 141
59 93 129
59 94 129
60 95 135
59 93 125
58 92 121
61 96 136
59 93 129
59 93 126
59 94 131
60 95 136
59 94 135
61 96 141
61 96 139
61 95 140
60 95 135
59 93 124
60 95 133
60 94 134
60 95 137
60 95 141
61 96 148
61 96 141
58 92 126
59 94 130
59 93 129
60 94 133
58 92 126
60 94 131
60 95 133
60 95 136
60 94 125
60 95 139
62 97 147
59 94 126
59 93 136
59 94 129
60 94 141
60 95 141
60 95 144
60 95 136
61 96 139
60 95 136
59 93 125
59 93 129
61 95 142
61 96 140
60 94 130
60 95 137
61 96 142
60 95 134
59 93 136
59 94 129
62 97 147
60 94 135
60 94 133
61 96 144
61 96 135
59 94 139
60 94 134
60 95 139
61 96 140
60 95 133
60 95 141
61 96 137
60 95 133
61 95 135
59 93 129
60 94 129
60 95 136
61 96 141
59 92 129
60 94 130
59 93 125
60 94 125
58 92 118
59 94 133
61 97 143
60 95 136
60 94 130
60 94 134
59 93 122
60 94 134
60 95 136
60 94 140
61 96 143
59 93 129
60 95 136
59 94 125
59 94 136
61 96 143
61 95 144
57 91 115
58 92 129
58 92 126
59 93 125
59 94 135
58 92 126
60 94 133
60 94 135
60 95 140
59 93 131
61 96 140
60 94 138
60 94 135
59 93 129
61 95 135
59 93 134
58 92 125
58 92 128
59 94 128
60 95 135
60 94 130
59 93 123
59 92 132
59 94 140
58 91 121
59 94 132
59 93 134
59 93 128
58 91 123
57 89 126
58 91 123
59 93 125
58 91 126
60 94 142
58 91 130
56 88 114
58 91 123
58 91 129
59 93 127
56 87 114
56 87 114
56 88 117
58 91 131
55 86 116
53 83 120
52 82 102
50 76 101
49 76 100
61 71 64
64 63 31
47 49 23
44 48 22
45 50 24
55 59 32
59 64 34
59 64 34
64 70 41
82 84 50
77 81 52
97 98 52
94 96 50
101 102 57
113 113 62
120 119 66
118 118 60
135 132 62
127 126 62
133 131 69
140 137 68
142 140 70
146 142 70
149 144 75
150 146 73
160 155 82
158 152 79
159 153 81
157 152 74
161 156 84
161 156 79
169 160 85
165 159 77
166 160 76
164 158 77
166 159 81
165 160 76
168 162 86
159 153 74
167 162 82
167 160 80
165 159 79
162 155 74
163 156 78
163 156 76
165 158 79
161 154 75
161 155 79
158 153 75
157 150 73
150 145 70
157 150 81
160 153 79
151 145 75
145 139 67
150 143 75
149 142 74
132 127 61
144 142 106
222 236 255
222 236 255
222 236 255
222 236 255
222 236 255
222 236 255
222 236 255
222 236 255
222 236 255
222 236 255
222 236 255
222 236 255
222 236 255
222 236 255
222 236 255
222 236 255
222 236 255
222 236 255
222 236 255
222 236 255
222 236 255
222 236 255
222 236 255
222 236 255
222 236 255
222 236 255
222 236 255
222 236 255
222 236 255
222 236 255
222 236 255
222 236 255
222 236 255
222 236 255
222 236 255
222 236 255
222 236 255
222 236 255
222 236 255
222 236 255
222 236 255
222 236 255
222 236 255
222 236 255
222 236 255
222 236 255
222 236 255
222 236 255
222 236 255
222 236 255
222 236 255
222 236 255
222 236 255
222 236 255
222 236 255
222 236 255
222 236 255
222 236 255
222 236 255
222 236 255
222 236 255
222 236 255
222 236 255
222 236 255
222 236 255
222 236 255
222 236 255
222 236 255
222 236 255
222 236 255
222 236 255
222 236 255
222 236 255
222 236 255
222 236 255
222 236 255
222 236 255
222 236 255
222 236 255
222 236 255
222 236 255
222 236 255
222 236 255
222 236 255
222 236 255
222 236 255
222 236 255
222 236 255
222 236 255
222 236 255
222 236 255
222 236 255
222 236 255
222 236 255
222 236 255
222 236 255
222 236 255
222 236 255
222 236 255
222 236 255
222 236 255
222 236 255
222 236 255
222 236 255
222 236 255
222 236 255
213 227 247
151 169 194
62 94 129
61 96 139
58 93 134
59 93 130
58 92 121
59 93 130
60 94 134
58 92 122
59 94 128
59 94 129
60 95 131
59 93 129
59 93 131
59 93 129
61 96 134
59 93 128
59 93 133
59 94 129
90 116 152
169 186 208
221 235 254
222 236 255
222 236 255
222 236 255
222 236 255
222 236 255
222 236 255
222 236 255
222 236 255
222 236 255
222 236 255
222 236 255
222 236 255
222 236 255
222 236 255
222 236 255
222 236 255
222 236 255
222 236 255
222 236 255
222 236 255
222 236 255
222 236 255
222 236 255
222 236 255
222 236 255
222 236 255
222 236 255
222 236 255
222 236 255
222 236 255
222 236 255
222 236 255
221 235 254
176 192 213
87 114 150
61 96 140
59 93 126
61 96 143
59 93 125
59 93 125
59 94 130
61 96 135
59 94 133
59 93 133
57 91 130
60 94 136
59 93 122
60 94 133
59 94 131
61 96 143
58 92 125
60 95 136
60 95 134
59 94 137
60 95 130
59 93 128
59 93 131
60 94 136
59 93 124
60 94 131
60 95 130
60 94 130
60 95 140
60 95 135
60 95 130
59 93 128
60 94 134
59 93 136
60 95 133
59 94 131
61 96 143
60 95 131
61 96 140
60 94 133
59 93 124
59 94 130
59 93 130
60 95 137
61 96 148
60 95 137
59 93 120
60 94 130
60 95 130
60 95 140
59 93 134
61 95 141
60 95 135
59 94 129
60 95 135
60 94 133
58 92 133
61 96 144
60 94 135
60 95 131
58 93 115
60 95 135
60 95 139
61 95 136
61 95 130
60 95 143
60 96 141
59 94 137
61 95 141
59 94 131
60 94 130
59 94 133
58 93 124
60 95 124
59 94 136
59 93 136
61 96 134
58 92 126
60 94 130
60 95 130
59 93 126
59 92 124
62 96 144
60 95 143
60 95 134
60 95 134
59 93 129
61 95 137
59 93 126
61 96 142
59 93 128
60 95 133
60 95 135
60 95 134
61 96 143
60 95 139
61 95 134
58 92 121
60 94 140
62 96 143
60 95 136
61 96 142
60 94 137
61 97 145
60 94 137
60 94 129
59 94 133
59 93 128
60 94 133
60 95 134
60 95 135
60 94 139
60 94 130
60 94 139
60 95 139
58 93 118
59 93 122
58 93 133
59 93 128
61 96 141
59 94 128
60 95 131
60 94 135
61 96 133
58 93 131
59 94 129
59 94 129
59 94 142
59 93 126
60 95 130
61 95 137
60 95 130
61 95 142
60 93 126
60 95 137
59 93 129
60 94 137
60 95 136
58 93 130
59 94 130
60 94 136
59 93 126
60 94 143
58 92 124
58 92 131
60 95 139
61 96 142
59 93 128
60 93 132
59 93 133
60 94 134
60 94 132
58 91 118
61 95 137
60 93 137
59 92 133
59 91 121
59 93 130
59 93 132
58 91 127
59 92 137
59 92 130
59 92 128
56 88 118
58 91 128
58 91 132
56 88 113
56 89 119
57 88 124
58 89 124
56 88 120
55 86 112
56 88 124
55 84 108
53 81 111
52 81 102
53 81 103
51 79 96
52 67 62
69 69 33
67 66 30
43 46 14
32 38 17
48 54 25
57 62 34
51 56 34
74 76 45
73 76 32
94 95 56
84 86 51
89 92 55
103 104 56
122 121 68
116 116 61
120 119 60
119 118 62
133 130 67
129 127 65
138 136 69
137 134 63
144 139 67
144 140 67
144 140 65
150 145 67
152 148 70
157 151 75
163 157 73
162 157 72
161 155 72
166 159 79
160 155 71
163 157 76
168 161 81
172 164 86
164 158 77
166 159 75
161 154 69
167 162 77
162 157 69
166 160 78
161 155 72
167 159 80
161 155 75
165 158 80
162 155 83
149 144 69
158 152 75
157 150 73
156 149 71
159 153 73
142 138 64
153 147 72
140 135 63
148 141 74
141 135 64
132 127 64
175 181 174
223 236 255
223 236 255
223 236 255
223 236 255
223 236 255
223 236 255
223 236 255
223 236 255
223 236 255
223 236 255
223 236 255
223 236 255
223 236 255
223 236 255
223 236 255
223 236 255
223 236 255
223 236 255
223 236 255
223 236 255
223 236 255
223 236 255
222 236 255
222 236 255
222 236 255
222 236 255
222 236 255
222 236 255
222 236 255
222 236 255
222 236 255
222 236 255
222 236 255
222 236 255
222 236 255
222 236 255
222 236 255
222 236 255
222 236 255
222 236 255
222 236 255
222 236 255
222 236 255
222 236 255
222 236 255
222 236 255
222 236 255
222 236 255
222 236 255
222 236 255
222 236 255
222 236 255
222 236 255
222 236 255
222 236 255
222 236 255
222 236 255
222 236 255
222 236 255
222 236 255
222 236 255
222 236 255
222 236 255
222 236 255
222 236 255
222 236 255
222 236 255
222 236 255
222 236 255
222 236 255
222 236 255
222 236 255
222 236 255
222 236 255
222 236 255
222 236 255
222 236 255
222 236 255
222 236 255
222 236 255
222 236 255
222 236 255
222 236 255
222 236 255
222 236 255
222 236 255
222 236 255
222 236 255
222 236 255
222 236 255
222 236 255
222 236 255
222 236 255
222 236 255
223 236 255
223 236 255
223 236 255
223 236 255
223 236 255
223 236 255
223 236 255
223 236 255
223 236 255
223 236 255
223 236 255
223 236 255
223 236 255
223 236 255
214 228 248
140 158 181
59 94 130
60 95 135
59 94 134
57 90 125
57 90 120
60 94 130
58 93 135
60 95 134
59 94 130
58 92 130
60 94 130
58 93 122
58 93 130
57 91 126
59 93 128
59 94 126
60 95 143
59 94 128
117 139 171
210 224 244
223 236 255
223 236 255
223 236 255
223 236 255
223 236 255
223 236 255
223 236 255
223 236 255
223 236 255
223 236 255
223 236 255
223 236 255
223 236 255
223 236 255
223 236 255
223 236 255
223 236 255
222 236 255
222 236 255
222 236 255
222 236 255
222 236 255
222 236 255
222 236 255
222 236 255
222 236 255
222 236 255
222 236 255
222 236 255
222 236 255
222 236 255
222 236 255
222 236 255
213 228 248
141 160 189
61 95 137
59 93 133
59 94 139
57 91 120
60 95 139
61 95 140
59 93 133
59 94 128
59 93 129
59 93 134
60 95 134
59 94 125
60 95 133
59 94 121
60 94 130
58 93 130
57 92 118
59 94 134
61 96 142
59 93 135
58 93 120
59 94 129
59 93 129
59 93 131
59 92 121
61 96 140
59 94 129
59 93 136
60 95 136
60 94 131
60 94 135
60 94 134
61 95 140
60 94 134
59 94 129
59 94 131
60 95 134
61 95 142
58 93 125
60 95 133
59 93 130
60 95 141
59 93 133
58 92 129
60 94 133
60 94 136
60 95 139
60 95 134
59 94 130
58 92 130
59 93 129
58 92 115
58 93 124
60 94 133
59 94 130
61 96 145
61 96 137
59 93 129
59 94 128
60 94 133
60 95 134
60 95 128
60 95 133
60 95 136
59 93 129
60 95 142
59 93 125
58 93 122
60 94 133
60 95 130
60 95 129
60 95 134
59 93 124
60 94 134
60 94 129
60 95 139
59 93 124
58 93 126
60 95 130
60 94 129
60 95 130
60 95 136
59 94 125
58 92 124
59 94 121
60 95 135
59 94 130
61 95 139
59 94 122
59 93 128
58 92 122
59 94 130
60 95 143
61 96 140
59 94 130
59 93 128
61 96 139
58 92 120
60 94 130
60 94 129
62 97 148
59 93 122
60 95 133
60 95 128
59 94 137
60 93 129
60 95 142
59 93 125
59 94 137
59 94 130
60 95 134
61 96 135
60 95 130
58 91 121
59 94 131
60 95 135
59 93 128
59 94 135
60 95 131
60 95 135
61 95 129
60 94 134
60 94 134
61 96 136
61 95 137
59 93 135
60 94 130
60 94 136
61 96 140
58 91 122
59 93 126
59 93 131
59 94 128
58 92 129
60 94 128
60 94 130
58 92 123
60 95 139
60 94 134
58 92 129
60 95 142
61 95 135
59 93 124
60 94 134
59 93 124
58 92 124
59 93 134
59 94 133
61 96 135
58 91 119
59 93 123
58 91 121
59 92 122
57 91 126
59 93 141
58 91 121
57 89 118
59 92 125
58 91 122
57 90 121
57 90 124
58 91 132
57 89 115
59 92 129
56 88 125
56 87 117
57 89 120
55 87 104
56 87 119
53 84 111
55 86 112
56 88 120
55 85 115
54 83 107
54 82 109
51 78 104
71 86 83
74 73 34
35 38 9
41 44 21
51 54 19
51 55 24
49 54 29
48 54 33
82 83 33
77 81 38
75 78 43
87 90 44
94 96 47
105 106 56
108 108 55
124 122 66
113 113 56
133 130 66
138 135 67
130 128 64
136 134 68
141 137 77
138 135 64
137 134 63
153 148 76
148 143 67
158 153 73
150 146 71
156 151 76
160 154 69
160 154 77
163 157 72
171 164 87
162 156 77
163 156 75
161 155 70
156 151 67
165 158 77
170 162 82
157 152 62
157 151 64
163 157 75
164 157 72
162 155 79
165 158 80
164 156 71
158 151 75
160 154 71
157 151 73
159 153 76
160 153 78
152 145 71
146 141 63
144 138 69
141 135 65
145 140 70
137 131 64
129 124 58
207 217 228
223 237 255
223 237 255
223 237 255
223 237 255
223 237 255
223 237 255
223 237 255
223 237 255
223 237 255
223 237 255
223 237 255
223 236 255
223 236 255
223 236 255
223 236 255
223 236 255
223 236 255
223 236 255
223 236 255
223 236 255
223 236 255
223 236 255
223 236 255
223 236 255
223 236 255
223 236 255
223 236 255
223 236 255
223 236 255
223 236 255
223 236 255
223 236 255
223 236 255
223 236 255
223 236 255
223 236 255
223 236 255
223 236 255
223 236 255
223 236 255
223 236 255
223 236 255
223 236 255
223 236 255
223 236 255
223 236 255
223 236 255
223 236 255
223 236 255
223 236 255
223 236 255
223 236 255
223 236 255
223 236 255
223 236 255
223 236 255
223 236 255
223 236 255
222 236 255
222 236 255
222 236 255
222 236 255
222 236 255
222 236 255
222 236 255
222 236 255
222 236 255
222 236 255
222 236 255
222 236 255
222 236 255
222 236 255
222 236 255
222 236 255
222 236 255
222 236 255
222 236 255
222 236 255
222 236 255
222 236 255
222 236 255
222 236 255
222 236 255
222 236 255
222 236 255
222 236 255
222 236 255
222 236 255
222 236 255
222 236 255
222 236 255
223 236 255
223 236 255
223 236 255
223 236 255
223 236 255
223 236 255
223 236 255
223 236 255
223 236 255
223 236 255
223 236 255
223 236 255
223 237 255
223 237 255
223 237 255
223 237 255
223 237 255
223 237 255
223 237 255
205 219 239
119 139 164
59 93 122
57 91 121
59 93 128
58 93 121
59 94 124
58 92 121
60 94 126
60 95 139
60 95 141
57 90 115
59 94 133
59 93 133
60 95 139
59 94 128
59 94 126
60 94 136
59 93 121
66 97 131
170 186 208
220 234 253
223 237 255
223 237 255
223 237 255
223 237 255
223 237 255
223 237 255
223 237 255
223 237 255
223 237 255
223 237 255
223 237 255
223 236 255
223 236 255
223 236 255
223 236 255
223 236 255
223 236 255
223 236 255
223 236 255
223 236 255
223 236 255
223 236 255
222 236 255
222 236 255
222 236 255
222 236 255
222 236 255
222 236 255
222 236 255
222 236 255
222 236 255
222 236 255
222 236 255
197 212 229
116 138 161
58 92 129
59 93 131
60 94 135
59 93 131
58 93 129
58 93 120
59 93 122
60 94 129
60 95 134
58 92 125
58 93 125
59 93 130
59 94 137
59 94 134
58 92 125
59 93 129
60 95 131
58 93 131
59 93 130
61 96 135
59 94 130
59 93 125
60 94 137
59 93 135
61 95 142
59 94 131
60 94 136
60 94 137
61 96 143
60 94 134
59 94 129
59 93 126
58 92 124
60 95 139
59 93 124
60 94 134
60 94 131
60 94 134
58 92 133
59 93 126
61 96 140
59 94 129
61 96 140
59 94 122
57 91 122
60 95 137
60 94 126
59 93 126
59 94 134
60 94 136
59 93 125
60 94 128
59 93 122
61 96 135
60 94 129
60 95 133
60 95 134
61 95 136
58 93 124
60 94 129
59 94 129
60 95 134
60 95 143
59 92 124
60 94 133
61 96 145
60 95 131
60 95 135
59 93 125
59 94 131
60 95 141
59 94 133
61 96 136
61 95 137
59 93 118
60 95 133
60 95 131
61 96 141
59 94 128
61 96 142
59 94 128
58 92 124
61 95 140
60 95 137
60 94 134
59 93 124
59 94 128
59 94 125
60 95 131
60 95 129
59 93 120
61 95 141
59 94 133
59 94 129
59 93 125
59 94 133
61 95 134
60 94 134
58 92 126
59 93 136
60 94 134
59 93 125
60 94 136
59 93 128
61 95 140
59 93 130
58 92 129
60 94 135
61 96 139
60 94 134
58 92 125
59 94 129
59 93 125
59 93 134
59 93 130
59 93 135
60 94 129
59 94 131
58 92 121
59 93 134
59 93 131
60 95 130
60 94 131
59 93 128
59 93 122
58 92 121
61 95 131
59 93 122
60 95 139
58 92 120
61 96 136
59 94 137
60 94 136
60 94 137
60 95 137
58 92 128
58 92 126
60 95 140
60 94 134
60 95 137
60 95 134
60 95 128
59 94 131
60 95 133
59 93 130
59 93 117
60 95 131
60 94 129
57 91 110
57 91 130
59 92 126
58 92 129
58 92 124
58 91 126
60 94 136
59 93 137
58 91 115
58 91 124
59 93 131
56 88 121
58 90 129
56 88 108
59 92 130
58 91 134
56 88 120
58 90 129
55 86 110
55 85 108
56 88 119
53 84 113
55 86 118
55 85 119
52 81 109
54 83 108
62 81 90
125 127 115
65 64 24
47 49 13
46 49 18
39 44 21
50 55 25
70 73 31
63 66 27
69 71 27
80 82 47
90 92 45
93 94 49
100 101 51
109 109 52
105 105 56
115 115 61
118 118 52
126 124 62
132 128 59
133 131 61
139 135 66
137 134 62
144 141 64
147 142 70
147 144 68
146 142 61
150 145 62
161 155 69
160 153 71
162 156 75
158 153 74
156 151 65
159 154 68
167 160 73
164 157 77
158 152 66
167 160 78
167 160 70
163 156 75
160 154 72
164 158 73
161 154 67
158 153 62
157 151 69
164 157 75
156 149 71
165 158 71
158 150 75
151 145 68
154 146 71
153 146 69
145 138 64
140 134 64
152 146 75
142 136 70
142 136 64
123 122 87
223 237 255
223 237 255
223 237 255
223 237 255
223 237 255
223 237 255
223 237 255
223 237 255
223 237 255
223 237 255
223 237 255
223 237 255
223 237 255
223 237 255
223 237 255
223 237 255
223 237 255
223 237 255
223 237 255
223 237 255
223 237 255
223 237 255
223 237 255
223 237 255
223 237 255
223 237 255
223 237 255
223 237 255
223 237 255
223 237 255
223 237 255
223 237 255
223 237 255
223 237 255
223 237 255
223 237 255
223 237 255
223 237 255
223 237 255
223 237 255
223 237 255
223 237 255
223 236 255
223 236 255
223 236 255
223 236 255
223 236 255
223 236 255
223 236 255
223 236 255
223 236 255
223 236 255
223 236 255
223 236 255
223 236 255
223 236 255
223 236 255
223 236 255
223 236 255
223 236 255
223 236 255
223 236 255
223 236 255
223 236 255
223 236 255
223 236 255
223 236 255
223 236 255
223 236 255
223 236 255
223 236 255
223 236 255
223 236 255
223 236 255
223 236 255
223 236 255
223 236 255
223 236 255
223 236 255
223 236 255
223 236 255
223 236 255
223 236 255
223 236 255
223 236 255
223 236 255
223 236 255
223 236 255
223 236 255
222 236 255
222 236 255
222 236 255
223 236 255
223 236 255
223 237 255
223 237 255
223 237 255
223 237 255
223 237 255
223 237 255
223 237 255
223 237 255
223 237 255
223 237 255
223 237 255
223 237 255
223 237 255
223 237 255
223 237 255
223 237 255
223 237 255
223 237 255
224 237 255
192 207 228
102 125 151
59 94 131
60 94 131
59 94 131
59 93 128
59 93 131
58 93 130
59 93 129
59 93 133
59 93 131
60 95 130
59 93 128
59 93 129
60 94 135
59 93 133
59 94 130
58 92 134
59 94 129
124 145 176
214 228 246
224 237 255
224 237 255
223 237 255
223 237 255
223 237 255
223 237 255
223 237 255
223 237 255
223 237 255
223 237 255
223 237 255
223 237 255
223 237 255
223 237 255
223 237 255
223 237 255
223 237 255
223 237 255
223 237 255
223 236 255
223 236 255
223 236 255
223 236 255
223 236 255
223 236 255
223 236 255
222 236 255
222 236 255
222 236 255
222 236 255
222 236 255
222 236 255
222 236 255
220 234 254
177 193 214
99 124 155
58 93 131
59 94 125
60 95 140
57 91 118
59 93 133
58 91 117
60 94 124
58 93 130
60 95 139
60 95 140
60 94 130
61 95 137
58 93 139
59 94 135
60 94 131
60 94 126
57 91 124
60 94 136
60 95 135
60 95 134
59 94 139
60 95 134
59 93 129
59 93 136
60 94 136
58 91 128
59 94 124
60 95 143
61 96 140
59 93 128
59 93 133
60 95 136
60 95 134
59 93 126
60 95 131
58 93 129
58 92 126
61 96 142
60 94 139
60 95 129
59 94 131
60 95 129
59 93 125
62 97 150
59 93 125
58 92 120
61 96 142
60 94 134
61 96 140
59 93 115
60 94 136
59 94 136
59 93 125
60 94 131
59 94 131
60 95 128
60 95 136
58 92 124
60 95 140
60 95 131
59 94 124
59 94 135
59 93 125
60 94 128
59 94 126
59 93 118
59 93 124
59 93 130
59 94 129
61 95 134
59 94 128
59 93 125
60 95 136
60 95 140
58 92 125
61 96 142
60 94 128
58 92 128
59 94 129
60 94 131
59 93 126
60 95 140
59 93 134
59 93 125
59 94 122
59 93 126
61 95 134
60 94 134
59 93 130
58 92 118
60 94 126
59 93 130
59 93 128
60 95 136
59 93 126
60 95 135
58 92 113
60 94 130
59 93 128
58 92 124
58 92 122
59 93 122
60 95 136
59 94 130
60 94 136
60 94 131
59 94 125
60 95 134
61 95 136
60 95 131
59 94 131
61 96 142
60 94 134
60 95 135
58 91 129
60 94 126
59 93 124
59 94 134
58 93 124
60 94 130
58 92 130
59 94 129
61 96 148
60 95 134
60 94 134
60 95 135
60 94 136
60 94 137
60 94 133
58 92 130
59 93 128
60 94 130
59 93 134
59 93 129
58 92 124
60 94 135
60 94 129
59 93 129
59 93 125
59 93 125
59 93 133
58 92 125
59 93 132
58 91 124
58 92 112
57 90 115
56 89 110
60 95 136
59 93 128
59 92 124
57 90 124
59 91 124
59 92 133
59 92 133
60 94 145
59 92 132
58 91 131
58 90 120
57 90 127
59 92 126
56 88 121
59 91 127
58 91 130
57 88 113
55 86 109
55 86 110
55 86 119
56 87 117
53 82 98
53 82 108
53 81 108
54 82 111
44 66 80
177 186 191
61 60 22
69 69 27
53 56 22
55 59 23
52 56 15
57 61 22
62 64 25
78 81 42
73 75 35
96 97 46
88 90 45
87 89 38
106 106 46
109 109 56
112 111 56
119 118 50
128 126 63
123 121 47
130 127 58
139 135 60
138 135 61
147 143 63
144 139 65
146 142 65
156 150 69
157 151 70
153 148 65
147 143 57
150 145 62
159 154 68
163 156 77
167 159 78
164 157 75
160 154 65
157 152 64
158 152 67
158 152 64
163 157 72
157 151 68
162 155 77
160 154 71
154 148 63
149 144 60
158 152 69
157 150 75
155 149 65
153 147 65
152 145 63
153 146 64
151 146 70
146 140 62
141 136 63
142 136 61
135 129 64
137 130 64
186 192 191
224 237 255
224 237 255
224 237 255
224 237 255
224 237 255
224 237 255
224 237 255
224 237 255
224 237 255
224 237 255
224 237 255
224 237 255
224 237 255
224 237 255
224 237 255
224 237 255
224 237 255
224 237 255
224 237 255
224 237 255
224 237 255
224 237 255
224 237 255
223 237 255
223 237 255
223 237 255
223 237 255
223 237 255
223 237 255
223 237 255
223 237 255
223 237 255
223 237 255
223 237 255
223 237 255
223 237 255
223 237 255
223 237 255
223 237 255
223 237 255
223 237 255
223 237 255
223 237 255
223 237 255
223 237 255
223 237 255
223 237 255
223 237 255
223 237 255
223 237 255
223 237 255
223 237 255
223 237 255
223 237 255
223 237 255
223 237 255
223 237 255
223 237 255
223 237 255
223 237 255
223 237 255
223 237 255
223 237 255
223 237 255
223 237 255
223 237 255
223 236 255
223 236 255
223 236 255
223 236 255
223 236 255
223 236 255
223 236 255
223 236 255
223 236 255
223 236 255
223 236 255
223 236 255
223 236 255
223 236 255
223 236 255
223 236 255
223 236 255
223 236 255
223 236 255
223 236 255
223 236 255
223 236 255
223 236 255
223 236 255
223 236 255
223 236 255
223 237 255
223 237 255
223 237 255
223 237 255
223 237 255
223 237 255
223 237 255
223 237 255
223 237 255
223 237 255
223 237 255
223 237 255
223 237 255
223 237 255
224 237 255
224 237 255
224 237 255
224 237 255
224 237 255
224 237 255
224 237 255
224 237 255
222 235 254
169 185 203
74 104 145
60 94 125
59 94 124
58 92 121
57 90 124
57 91 122
58 92 117
58 92 122
58 92 126
60 95 142
59 93 120
59 93 125
58 92 122
58 92 124
58 92 126
58 92 114
60 95 140
82 109 142
192 207 226
224 237 255
224 237 255
224 237 255
224 237 255
224 237 255
224 237 255
224 237 255
224 237 255
224 237 255
224 237 255
224 237 255
224 237 255
224 237 255
223 237 255
223 237 255
223 237 255
223 237 255
223 237 255
223 237 255
223 237 255
223 237 255
223 237 255
223 237 255
223 237 255
223 236 255
223 236 255
223 236 255
223 236 255
223 236 255
222 236 255
222 236 255
222 236 255
222 236 255
222 236 255
215 230 248
168 184 208
63 97 128
59 93 129
59 94 133
60 94 131
61 96 147
59 93 128
59 94 130
59 94 135
58 92 124
58 93 121
56 90 113
60 94 133
58 93 130
60 95 130
60 95 137
61 95 140
59 93 130
61 95 135
58 93 115
60 95 139
60 94 129
61 95 136
60 94 134
58 93 120
59 93 130
60 94 136
58 92 121
59 94 135
58 91 117
60 94 134
59 93 133
59 94 126
60 94 133
61 95 136
60 95 134
59 93 122
58 93 121
61 97 149
60 95 136
61 96 141
60 95 133
60 95 137
61 96 143
60 95 133
58 92 126
59 94 129
59 93 124
61 96 137
60 95 134
60 94 133
59 94 133
59 93 129
60 95 134
59 93 128
61 96 145
59 94 135
62 97 152
58 92 117
60 94 128
59 93 125
59 94 128
60 95 134
59 93 130
59 94 130
60 94 141
61 96 135
59 93 126
59 93 134
58 92 130
58 92 125
60 95 135
60 95 130
61 95 141
59 92 129
58 93 128
60 94 130
58 92 125
59 93 129
60 94 126
58 92 121
59 93 130
60 94 129
59 93 121
60 94 130
59 94 131
60 95 131
61 95 133
60 95 130
60 95 136
60 94 121
59 93 130
59 94 126
60 95 129
61 95 135
59 94 126
58 92 126
59 94 136
61 95 140
60 95 131
59 94 128
60 94 125
59 93 129
59 93 130
60 94 131
60 95 136
58 92 115
58 91 117
61 95 135
60 94 126
59 93 130
59 93 129
61 96 135
59 93 124
60 94 133
60 95 133
59 93 133
59 93 125
60 95 134
60 95 135
59 94 125
59 94 129
59 93 133
59 94 128
58 92 122
59 93 128
60 95 139
60 94 135
58 92 130
60 94 125
61 96 139
59 92 122
58 92 122
60 93 136
60 94 130
61 95 133
60 94 142
58 92 121
61 95 141
59 93 131
59 93 117
57 90 118
59 92 132
60 94 135
60 93 138
59 93 133
59 92 125
58 92 129
58 91 119
58 92 128
60 94 133
58 91 124
59 93 137
59 91 129
57 90 123
58 92 126
56 88 110
56 87 112
57 90 120
55 87 110
58 91 124
57 89 125
58 90 123
57 90 119
56 88 115
56 88 117
49 77 100
56 86 115
55 86 113
54 84 107
52 80 103
50 77 104
49 75 100
207 219 234
92 94 73
69 68 27
56 57 15
47 50 10
67 70 20
60 63 25
51 55 20
67 70 28
75 78 32
83 84 35
87 88 39
86 89 44
107 107 48
116 115 53
114 114 54
120 119 48
120 119 54
124 121 51
142 139 68
135 132 58
137 134 59
144 140 63
141 138 62
145 140 63
149 145 67
156 149 69
158 152 71
153 148 66
156 151 62
155 149 70
157 151 64
155 149 64
160 154 75
163 157 73
157 151 67
153 147 59
162 155 72
163 157 75
161 155 67
159 152 71
157 151 66
159 152 68
157 151 69
161 154 64
155 149 63
153 147 69
152 145 66
151 146 67
147 142 66
150 143 65
141 134 65
151 145 71
138 133 56
139 133 57
134 129 65
213 225 240
224 237 255
224 237 255
224 237 255
224 237 255
224 237 255
224 237 255
224 237 255
224 237 255
224 237 255
224 237 255
224 237 255
224 237 255
224 237 255
224 237 255
224 237 255
224 237 255
224 237 255
224 237 255
224 237 255
224 237 255
224 237 255
224 237 255
224 237 255
224 237 255
224 237 255
224 237 255
224 237 255
224 237 255
224 237 255
224 237 255
224 237 255
224 237 255
224 237 255
224 237 255
224 237 255
224 237 255
224 237 255
224 237 255
224 237 255
224 237 255
224 237 255
224 237 255
224 237 255
224 237 255
224 237 255
223 237 255
223 237 255
223 237 255
223 237 255
223 237 255
223 237 255
223 237 255
223 237 255
223 237 255
223 237 255
223 237 255
223 237 255
223 237 255
223 237 255
223 237 255
223 237 255
223 237 255
223 237 255
223 237 255
223 237 255
223 237 255
223 237 255
223 237 255
223 237 255
223 237 255
223 237 255
223 237 255
223 237 255
223 237 255
223 237 255
223 237 255
223 237 255
223 237 255
223 237 255
223 237 255
223 237 255
223 237 255
223 237 255
223 237 255
223 237 255
223 237 255
223 237 255
223 237 255
223 236 255
223 236 255
223 236 255
223 236 255
223 237 255
223 237 255
223 237 255
223 237 255
223 237 255
223 237 255
224 237 255
224 237 255
224 237 255
224 237 255
224 237 255
224 237 255
224 237 255
224 237 255
224 237 255
224 237 255
224 237 255
224 237 255
224 237 255
224 237 255
224 237 255
224 237 255
224 237 255
224 237 255
218 231 248
148 166 194
59 93 126
58 92 120
59 93 125
59 94 128
59 93 130
57 91 124
59 93 128
60 94 125
60 94 135
58 93 125
58 92 128
59 93 121
58 92 114
59 93 122
57 91 114
58 91 128
60 94 129
149 166 187
220 233 252
224 237 255
224 237 255
224 237 255
224 237 255
224 237 255
224 237 255
224 237 255
224 237 255
224 237 255
224 237 255
224 237 255
224 237 255
224 237 255
224 237 255
224 237 255
224 237 255
224 237 255
224 237 255
223 237 255
223 237 255
223 237 255
223 237 255
223 237 255
223 237 255
223 237 255
223 237 255
223 236 255
223 236 255
223 236 255
223 236 255
222 236 255
222 236 255
222 236 255
222 236 255
206 221 242
128 148 175
58 93 126
60 95 139
60 95 130
60 95 134
58 92 121
59 93 121
57 91 120
58 92 130
59 94 128
58 92 121
59 94 135
59 94 128
59 93 129
61 95 142
60 95 137
59 93 129
58 92 122
60 94 129
58 92 124
59 93 130
58 92 124
59 93 128
60 95 136
60 94 129
59 93 130
60 94 129
58 93 121
60 94 136
59 94 126
59 93 125
60 95 134
60 95 133
59 93 129
62 97 142
59 93 134
59 93 128
60 95 131
60 94 125
59 94 130
59 93 125
60 95 133
58 91 128
60 94 133
59 94 133
60 94 130
59 93 124
58 92 121
59 94 125
59 93 115
60 94 131
60 95 137
60 94 135
59 94 129
59 94 128
60 94 131
59 93 117
60 95 130
60 94 135
60 94 129
59 94 121
59 93 125
59 93 117
60 95 137
58 93 122
58 92 126
59 93 129
61 96 140
59 93 130
59 94 126
59 93 122
60 94 125
60 95 128
57 91 121
59 94 135
60 94 137
59 93 128
60 94 134
59 94 133
61 96 135
59 94 129
58 92 117
58 92 114
60 95 135
60 95 128
60 94 133
59 92 136
60 94 126
58 93 126
59 93 134
60 95 131
59 94 125
59 93 122
60 94 131
59 93 122
59 94 130
58 92 128
60 95 142
60 94 134
58 92 124
59 93 131
61 96 140
59 94 126
59 93 124
60 94 131
60 94 129
59 93 131
59 92 129
59 93 124
59 93 125
61 96 137
60 94 126
60 94 135
60 94 132
61 96 141
59 93 128
59 93 122
59 94 133
58 92 120
60 94 131
61 95 131
58 93 125
59 93 131
61 95 137
59 94 124
59 94 131
59 93 122
59 92 125
60 94 129
59 92 121
59 93 134
59 93 124
59 94 128
59 93 130
59 93 133
61 95 133
58 91 120
59 94 130
59 93 125
57 90 117
59 94 126
59 93 128
60 95 135
59 92 124
60 94 133
59 92 125
60 93 137
58 91 124
58 90 121
58 92 126
59 93 123
58 92 129
56 89 124
58 90 120
58 91 121
55 87 113
59 91 127
58 91 117
57 89 120
57 89 123
57 89 121
57 90 118
56 87 107
54 85 107
55 86 107
56 86 120
53 83 102
51 80 101
51 79 103
50 77 91
46 69 93
181 200 147
139 149 93
85 82 31
68 68 23
50 53 18
55 57 21
60 63 23
63 69 26
64 67 20
75 78 30
74 77 29
85 86 35
99 100 47
92 94 40
112 111 44
111 111 49
111 110 53
111 109 49
135 131 53
126 123 50
131 129 54
137 132 60
140 136 58
138 134 55
149 143 58
144 140 55
149 144 68
156 150 66
151 146 60
150 144 61
156 149 64
155 150 65
155 149 69
159 153 63
157 151 66
164 157 74
161 156 60
159 153 68
160 153 71
156 151 64
158 151 71
147 141 59
159 152 63
152 146 61
156 149 65
153 146 68
153 145 62
147 143 67
152 145 63
144 138 62
155 148 66
141 135 58
145 137 65
131 125 48
136 131 58
158 163 123
216 231 230
222 235 246
223 236 250
225 237 255
225 237 255
224 237 255
224 237 255
224 237 255
224 237 255
224 237 255
224 237 255
224 237 255
224 237 255
224 237 255
224 237 255
224 237 255
224 237 255
224 237 255
224 237 255
224 237 255
224 237 255
224 237 255
224 237 255
224 237 255
224 237 255
224 237 255
224 237 255
224 237 255
224 237 255
224 237 255
224 237 255
224 237 255
224 237 255
224 237 255
224 237 255
224 237 255
224 237 255
224 237 255
224 237 255
224 237 255
224 237 255
224 237 255
224 237 255
224 237 255
224 237 255
224 237 255
224 237 255
224 237 255
224 237 255
224 237 255
224 237 255
224 237 255
224 237 255
224 237 255
224 237 255
224 237 255
224 237 255
224 237 255
224 237 255
224 237 255
224 237 255
224 237 255
224 237 255
224 237 255
223 237 255
223 237 255
223 237 255
223 237 255
223 237 255
223 237 255
223 237 255
223 237 255
223 237 255
223 237 255
223 237 255
223 237 255
223 237 255
223 237 255
223 237 255
223 237 255
223 237 255
223 237 255
223 237 255
223 237 255
223 237 255
223 237 255
223 237 255
223 237 255
223 237 255
223 237 255
223 237 255
223 237 255
223 237 255
224 237 255
224 237 255
224 237 255
224 237 255
224 237 255
224 237 255
224 237 255
224 237 255
224 237 255
224 237 255
224 237 255
224 237 255
224 237 255
224 237 255
224 237 255
224 237 255
224 237 255
224 237 255
224 237 255
224 237 255
224 237 255
224 237 255
224 237 255
224 237 255
225 237 255
220 233 241
168 189 125
94 121 107
58 91 120
56 90 117
58 93 129
58 92 122
60 95 130
59 94 129
58 92 129
57 91 121
59 94 126
57 90 114
58 92 126
59 93 133
60 95 139
59 93 122
59 93 125
57 91 111
117 138 163
202 218 195
208 224 206
213 228 223
216 230 230
223 236 250
224 237 254
224 237 255
224 237 255
224 237 255
224 237 255
224 237 255
224 237 255
224 237 255
224 237 255
224 237 255
224 237 255
224 237 255
224 237 255
224 237 255
224 237 255
224 237 255
224 237 255
224 237 255
223 237 255
223 237 255
223 237 255
223 237 255
223 237 255
223 237 255
223 236 255
223 236 255
223 236 255
222 236 255
222 236 255
222 236 255
222 236 255
192 207 226
102 126 155
58 92 121
60 94 128
60 94 135
59 94 128
61 95 136
59 93 126
58 91 113
59 94 128
59 93 126
61 96 135
58 91 128
59 94 130
60 94 137
60 94 137
61 95 136
61 95 139
61 96 134
59 93 129
59 93 120
60 95 130
58 92 120
59 94 130
60 94 131
58 92 124
60 95 130
61 96 133
60 94 131
59 94 133
60 94 131
60 94 139
59 94 134
58 92 118
60 95 133
61 95 142
58 92 133
60 94 136
57 91 113
57 91 111
59 93 126
60 94 126
59 94 125
60 95 134
58 92 121
58 93 131
60 94 136
61 96 135
58 93 125
59 93 125
59 93 131
59 94 128
60 95 131
59 94 134
59 93 133
58 92 126
58 92 121
60 95 139
60 94 128
60 94 130
59 93 128
60 94 124
61 96 139
60 94 130
60 95 140
60 95 140
57 91 115
59 93 131
59 94 125
58 92 122
58 92 124
61 95 140
60 94 131
59 94 130
60 95 133
60 94 133
59 93 139
60 94 120
60 94 129
59 94 131
59 94 129
60 94 136
59 94 131
60 95 134
60 95 125
59 94 122
59 94 133
60 94 135
60 94 130
60 94 134
61 96 135
60 95 130
59 93 126
59 93 130
60 95 128
59 94 128
60 95 134
60 95 135
60 95 134
59 94 131
59 93 120
60 94 130
59 93 130
58 92 121
58 91 117
60 94 136
58 92 118
58 92 122
61 95 134
58 92 121
60 94 140
60 95 129
58 92 114
58 92 136
59 93 124
60 94 135
59 93 125
61 96 137
59 93 131
60 94 133
59 93 128
58 92 120
58 91 124
58 92 122
58 92 121
59 93 126
59 93 133
59 93 128
59 93 129
58 92 126
60 94 136
59 93 136
59 94 129
59 93 123
59 93 131
59 92 130
58 91 121
58 92 122
58 92 125
58 92 134
59 93 132
57 90 129
59 92 132
58 91 125
59 93 125
59 93 125
59 92 131
57 90 111
59 92 126
57 90 128
59 93 128
56 89 122
59 92 126
57 90 121
59 92 131
59 93 130
58 92 126
57 89 122
57 88 122
59 91 132
59 92 126
55 85 110
56 87 113
56 87 113
53 82 114
54 85 114
53 83 105
52 81 104
50 77 89
50 76 90
156 179 26
171 192 11
87 85 26
66 66 25
58 60 14
56 59 15
59 61 16
57 63 29
72 75 28
76 77 14
84 84 21
86 87 35
90 90 34
100 100 34
103 103 38
105 105 47
118 117 44
124 121 46
117 116 52
129 126 55
124 121 51
135 132 56
135 133 55
145 140 58
148 143 62
150 144 63
149 145 62
152 146 57
144 140 53
150 144 64
147 143 51
156 149 58
153 148 57
151 147 61
160 154 65
152 147 52
158 152 65
149 143 54
165 156 74
156 150 65
150 146 57
147 140 57
149 143 59
159 153 67
155 150 60
149 144 53
152 146 69
138 133 53
147 141 57
147 141 57
137 132 61
148 142 67
139 134 53
136 132 54
124 118 49
167 188 25
175 198 0
174 198 0
174 198 0
175 198 25
178 201 67
183 204 92
182 204 95
187 207 122
191 211 142
194 213 151
199 217 173
198 216 167
203 220 188
208 224 207
210 225 209
216 230 230
214 229 223
219 233 237
223 236 252
225 237 255
225 237 255
225 237 255
225 237 255
225 237 255
225 237 255
224 237 255
224 237 255
224 237 255
224 237 255
224 237 255
224 237 255
224 237 255
224 237 255
224 237 255
224 237 255
224 237 255
224 237 255
224 237 255
224 237 255
224 237 255
224 237 255
224 237 255
224 237 255
224 237 255
224 237 255
224 237 255
224 237 255
224 237 255
224 237 255
224 237 255
224 237 255
224 237 255
224 237 255
224 237 255
224 237 255
224 237 255
224 237 255
224 237 255
224 237 255
224 237 255
224 237 255
224 237 255
224 237 255
224 237 255
224 237 255
224 237 255
224 237 255
224 237 255
224 237 255
224 237 255
224 237 255
224 237 255
224 237 255
224 237 255
224 237 255
224 237 255
224 237 255
224 237 255
224 237 255
223 237 255
224 237 255
223 237 255
223 237 255
223 237 255
223 237 255
223 237 255
223 237 255
223 237 255
223 237 255
223 237 255
223 237 255
223 237 255
223 237 255
224 237 255
224 237 255
224 237 255
224 237 255
224 237 255
224 237 255
224 237 255
224 237 255
224 237 255
224 237 255
224 237 255
224 237 255
224 237 255
224 237 255
224 237 255
224 237 255
224 237 255
224 237 255
224 237 255
224 237 255
224 237 255
225 237 255
224 237 253
212 227 217
191 210 137
176 199 44
174 198 0
175 198 0
136 160 86
73 104 133
58 92 128
57 91 110
59 94 128
58 92 117
58 92 125
59 94 135
60 94 134
58 93 131
57 90 110
59 94 130
58 92 121
58 92 126
59 93 120
59 93 128
58 91 122
93 121 120
162 185 51
175 198 0
175 198 0
174 198 0
173 197 0
179 202 76
190 210 135
192 212 147
195 214 159
201 219 184
208 224 201
215 230 226
222 236 249
224 237 255
224 237 255
224 237 255
224 237 255
224 237 255
224 237 255
224 237 255
224 237 255
224 237 255
224 237 255
224 237 255
224 237 255
224 237 255
223 237 255
223 237 255
223 237 255
223 237 255
223 237 255
223 236 255
223 236 255
222 236 255
222 236 255
222 236 255
222 236 255
169 186 207
92 118 148
59 94 129
58 92 129
61 96 142
60 95 141
60 95 135
58 92 122
60 95 136
59 92 120
59 94 126
59 93 137
59 94 120
60 95 137
60 95 142
60 95 139
60 95 134
59 94 120
59 94 134
58 92 120
59 93 130
60 95 135
58 92 129
59 93 125
59 93 129
59 94 122
58 92 122
58 92 122
60 95 128
59 94 130
58 92 111
60 96 136
59 93 124
61 96 140
60 96 140
60 95 130
57 90 114
60 95 133
59 93 125
60 95 139
59 92 125
59 93 126
58 92 131
58 92 126
58 92 124
59 93 129
60 95 137
58 93 124
57 91 120
58 92 131
58 92 117
59 93 128
58 92 121
59 93 120
60 95 139
59 93 125
59 93 128
60 94 131
60 95 130
58 91 110
60 95 133
61 95 133
61 95 135
60 94 136
58 93 128
60 95 134
58 93 125
59 93 120
59 93 124
61 95 137
60 95 133
59 93 121
60 95 134
58 93 122
59 93 125
59 94 129
59 93 120
59 94 126
59 93 126
60 94 125
60 95 134
58 92 124
60 95 131
60 95 137
60 94 133
58 92 121
60 94 126
58 92 122
59 93 128
59 93 128
60 94 133
57 91 117
58 92 129
59 93 130
59 93 122
57 91 122
59 93 133
60 95 134
59 94 135
58 92 125
59 93 122
58 92 126
59 93 121
59 93 122
58 92 125
61 96 135
59 94 128
59 94 130
59 93 125
60 95 125
60 94 125
60 94 122
60 95 131
58 92 121
61 96 134
61 95 131
59 93 121
58 92 124
58 91 118
59 94 135
60 94 130
61 95 142
59 93 129
59 92 124
60 94 130
60 95 129
58 92 126
61 96 145
60 94 139
58 91 115
59 93 121
60 94 128
59 93 125
59 93 129
59 92 126
60 94 132
59 93 132
58 92 121
57 91 120
58 92 121
59 92 123
59 93 123
58 91 124
58 91 125
59 92 133
57 90 121
59 93 115
59 94 134
57 91 114
60 93 123
57 90 127
59 93 124
60 93 130
56 88 121
57 90 118
58 91 118
54 86 115
56 88 117
57 89 118
56 88 109
56 88 113
55 87 113
56 86 115
56 86 105
54 84 108
52 80 99
52 80 96
47 73 81
165 187 20
174 197 0
131 141 37
82 82 25
59 59 26
68 68 17
58 60 15
64 66 12
72 74 18
78 79 32
77 78 28
87 88 28
90 89 31
106 105 33
98 99 36
101 100 39
129 125 54
118 116 47
115 114 44
125 123 44
131 127 54
135 130 55
144 139 56
134 130 50
147 142 63
142 137 54
141 137 50
149 143 60
154 149 58
150 144 62
148 144 49
154 148 57
155 149 56
153 147 58
156 150 61
152 146 60
156 150 62
163 156 70
155 149 58
152 145 57
153 147 58
152 146 62
147 142 49
151 143 59
152 145 68
152 146 60
153 147 63
153 146 61
148 142 61
134 129 47
137 132 49
137 132 54
136 129 53
135 129 59
145 153 42
175 198 0
174 198 0
173 196 0
173 197 0
173 197 0
173 197 0
173 197 0
174 198 0
174 197 0
176 198 0
176 198 0
174 198 0
175 198 0
175 198 0
173 197 0
174 198 0
174 198 0
173 197 0
177 199 0
175 198 0
177 200 51
179 201 72
187 207 108
189 208 122
191 211 142
193 212 149
197 215 161
202 220 188
205 222 194
210 225 209
216 230 227
219 233 240
222 235 248
225 237 255
225 237 255
225 237 255
225 237 255
225 237 255
225 237 255
225 237 255
225 237 255
224 237 255
224 237 255
224 237 255
224 237 255
224 237 255
224 237 255
224 237 255
224 237 255
224 237 255
224 237 255
224 237 255
224 237 255
224 237 255
224 237 255
224 237 255
224 237 255
224 237 255
224 237 255
224 237 255
224 237 255
224 237 255
224 237 255
224 237 255
224 237 255
224 237 255
224 237 255
224 237 255
224 237 255
224 237 255
224 237 255
224 237 255
224 237 255
224 237 255
224 237 255
224 237 255
224 237 255
224 237 255
224 237 255
224 237 255
224 237 255
224 237 255
224 237 255
224 237 255
224 237 255
224 237 255
224 237 255
224 237 255
224 237 255
224 237 255
224 237 255
224 237 255
224 237 255
224 237 255
224 237 255
224 237 255
224 237 255
224 237 255
224 237 255
224 237 255
224 237 255
224 237 255
224 237 255
224 237 255
224 237 255
224 237 255
224 237 255
224 237 255
224 237 255
224 237 255
224 237 255
225 237 255
225 237 255
216 231 233
205 222 199
191 211 144
180 202 76
174 198 0
175 198 0
174 197 0
175 198 0
173 197 0
174 197 0
168 191 31
126 151 95
60 94 131
59 93 124
60 94 136
59 94 130
59 93 122
58 92 114
58 93 124
59 93 120
59 93 128
57 91 111
58 92 113
58 92 124
57 91 117
58 92 122
58 93 121
73 104 130
154 177 67
175 198 0
174 198 0
176 199 0
173 197 0
174 198 0
176 199 0
173 197 0
175 198 0
175 198 0
175 198 0
174 198 0
177 200 62
191 210 140
196 214 157
201 219 184
211 227 214
221 234 244
223 236 252
224 237 255
224 237 255
224 237 255
224 237 255
224 237 255
224 237 255
224 237 255
224 237 255
224 237 255
223 237 255
223 237 255
223 237 255
223 237 255
223 236 255
223 236 255
222 236 255
222 236 255
222 236 255
218 233 253
162 180 207
68 98 134
57 91 129
59 93 128
59 94 131
59 93 122
58 93 120
58 92 118
59 93 129
58 93 124
59 93 130
59 94 125
58 91 121
60 95 129
58 93 125
59 93 128
58 92 120
60 94 125
59 93 126
57 90 115
59 93 125
60 95 139
60 94 130
58 93 130
59 93 126
60 95 133
60 94 141
60 94 130
59 94 126
61 96 140
60 95 137
58 93 121
60 94 131
58 92 121
57 91 126
59 93 131
59 93 113
59 94 129
61 96 142
58 92 128
60 94 129
60 94 133
57 91 124
60 94 135
60 94 130
59 93 136
60 94 134
58 92 124
58 92 124
60 94 139
61 95 126
59 94 124
60 94 128
59 94 131
59 94 129
60 94 125
58 92 122
59 93 124
59 93 117
59 92 125
59 94 125
59 93 125
58 92 121
58 92 125
58 91 121
60 94 136
59 93 118
60 95 135
57 91 124
59 94 125
60 94 126
59 94 137
60 95 129
61 95 140
59 94 131
58 91 121
58 91 118
60 94 131
59 93 125
60 95 130
60 94 133
61 96 137
58 92 113
60 94 131
58 92 117
59 94 122
59 93 124
60 94 135
58 92 117
59 94 133
58 92 125
59 93 129
60 94 131
60 94 129
59 93 128
59 94 130
60 94 129
60 94 128
58 91 114
59 93 128
60 95 131
60 94 129
59 93 122
59 93 129
58 92 121
59 94 129
61 95 135
60 95 137
59 93 126
59 93 129
60 94 130
58 92 129
57 91 125
59 93 126
59 93 129
60 94 131
58 91 124
58 92 126
59 92 113
59 93 125
59 93 125
59 93 129
59 93 126
60 94 131
59 93 125
58 91 115
60 93 129
56 89 125
60 94 132
58 91 128
58 92 128
58 92 130
59 93 129
58 91 120
58 91 123
57 90 117
59 93 120
57 90 110
59 93 126
59 93 133
56 89 117
59 93 125
59 93 121
57 89 124
58 91 117
59 92 123
58 91 113
57 90 118
56 88 107
59 93 134
58 91 127
55 86 103
56 88 108
57 89 110
57 90 125
56 87 118
56 88 114
56 88 111
55 85 107
55 86 100
55 87 113
55 86 117
55 85 108
50 77 101
51 77 84
48 72 69
164 186 28
175 197 0
165 187 0
99 98 38
71 71 16
66 66 20
51 55 12
64 66 18
61 64 18
69 69 23
65 70 23
82 83 20
92 94 41
88 89 33
97 97 32
104 103 33
103 104 36
112 111 37
123 121 45
129 126 50
108 107 33
140 135 53
135 131 48
132 128 53
133 129 51
141 136 57
153 147 58
151 145 55
146 142 54
152 147 54
150 145 62
152 145 58
156 149 62
149 143 56
146 141 49
149 144 49
155 149 59
157 150 59
159 152 60
154 149 51
154 147 66
154 146 64
156 149 60
156 150 64
151 145 54
153 147 54
144 139 56
141 135 56
149 142 60
140 134 52
143 137 56
135 129 61
127 122 47
133 129 63
166 185 25
175 198 0
175 198 0
175 198 0
174 197 0
175 198 0
174 197 0
176 198 0
175 198 0
173 197 0
174 197 0
175 198 0
175 198 0
174 197 0
174 197 0
175 198 0
174 198 0
174 197 0
174 198 0
175 198 0
173 197 0
175 198 0
175 198 0
172 197 0
173 197 0
174 197 0
173 197 0
175 198 0
175 198 0
175 198 0
174 198 0
173 197 0
174 198 0
175 198 0
177 199 36
180 202 72
181 204 102
191 211 142
191 211 144
198 216 173
204 221 189
204 221 191
212 228 220
216 230 228
218 232 237
223 236 252
225 238 255
225 237 255
225 237 255
225 237 255
225 237 255
225 237 255
225 237 255
225 237 255
225 237 255
224 237 255
224 237 255
224 237 255
224 237 255
224 237 255
224 237 255
224 237 255
224 237 255
224 237 255
224 237 255
224 237 255
224 237 255
224 237 255
224 237 255
224 237 255
224 237 255
224 237 255
224 237 255
224 237 255
224 237 255
224 237 255
224 237 255
224 237 255
224 237 255
224 237 255
224 237 255
224 237 255
224 237 255
224 237 255
224 237 255
224 237 255
224 237 255
224 237 255
224 237 255
224 237 255
224 237 255
224 237 255
224 237 255
224 237 255
224 237 255
224 237 255
224 237 255
224 237 255
224 237 255
224 237 255
224 237 255
224 237 255
224 237 255
224 237 255
224 237 255
224 237 255
225 237 255
225 237 255
225 237 255
223 236 252
217 231 233
204 221 191
194 213 149
183 204 95
175 198 0
172 197 0
174 198 0
175 198 0
175 198 0
174 198 0
175 198 0
174 197 0
174 197 0
172 196 0
176 198 0
176 198 0
156 179 51
85 113 100
59 93 126
59 93 134
59 92 125
57 90 122
59 93 122
57 91 118
58 92 121
58 92 115
58 92 118
59 93 128
59 94 135
58 93 126
58 92 114
59 93 122
73 104 113
156 179 47
174 197 0
172 196 0
174 198 0
174 198 0
175 198 0
174 198 0
174 198 0
173 197 0
174 198 0
175 198 0
173 197 0
175 198 0
173 197 0
173 196 0
175 198 0
174 197 0
178 200 62
191 210 140
197 215 163
212 227 217
221 234 244
224 237 255
224 237 255
224 237 255
224 237 255
224 237 255
224 237 255
224 237 255
224 237 255
223 237 255
223 237 255
223 237 255
223 236 255
223 236 255
222 236 255
222 236 255
222 236 255
210 225 246
158 176 197
62 95 124
59 93 135
59 93 129
58 92 121
60 95 134
58 92 115
59 93 128
60 95 144
59 93 131
60 94 128
58 92 125
58 92 120
59 94 139
61 96 139
59 94 130
60 94 129
60 95 141
58 91 115
59 94 131
60 94 130
58 92 129
59 93 124
60 94 133
59 94 131
59 93 128
59 93 118
59 93 128
59 93 120
59 93 131
59 93 135
58 92 128
60 95 131
59 94 128
58 92 129
61 95 136
59 93 129
59 93 118
59 93 130
60 95 130
57 91 124
60 95 133
59 93 128
60 95 131
59 94 129
59 93 122
60 94 131
60 95 135
59 94 130
60 95 141
60 95 126
58 92 117
59 94 130
60 94 128
60 94 135
59 94 134
59 93 130
59 94 121
58 92 128
58 92 124
59 93 126
59 93 124
58 92 115
59 93 128
58 92 120
60 95 140
60 95 131
60 94 130
59 94 128
58 92 125
59 93 128
58 91 118
59 93 129
59 94 126
60 94 122
59 94 130
59 93 124
60 95 135
58 92 126
59 93 131
60 95 128
59 93 126
60 94 139
59 93 121
60 95 133
59 93 130
58 92 113
59 94 128
59 93 117
60 95 135
58 91 121
59 93 131
59 93 121
61 95 134
59 93 130
60 95 133
61 96 135
59 94 125
58 93 129
59 94 122
59 93 120
60 95 134
59 93 122
60 94 129
59 92 126
58 92 125
58 92 128
58 91 118
60 95 130
59 93 129
60 94 137
59 93 118
58 92 123
60 94 135
58 92 124
56 89 111
58 92 117
60 93 129
58 92 130
56 89 107
58 92 122
59 93 117
58 91 113
60 94 135
58 92 116
59 93 113
59 92 129
59 93 129
61 96 137
60 95 129
58 91 129
59 93 131
58 92 118
58 91 124
60 94 131
59 92 128
59 92 122
58 92 124
58 91 119
58 91 131
59 92 121
58 92 117
58 91 123
57 89 115
57 89 114
58 90 118
57 90 118
58 91 124
57 90 118
58 91 118
57 89 114
56 89 123
57 89 115
55 87 118
53 83 97
53 84 93
56 87 121
53 82 101
53 82 103
54 83 101
53 83 102
52 79 96
50 76 89
47 72 75
161 185 27
173 197 0
172 195 0
134 146 31
79 78 30
63 63 20
74 74 17
72 73 12
64 67 18
77 78 21
78 78 15
69 71 27
89 89 35
85 86 23
107 104 41
109 108 34
101 99 43
119 115 33
120 118 36
125 123 55
126 122 51
114 112 38
124 121 39
133 129 45
142 138 46
136 132 51
144 140 48
145 139 49
142 138 45
149 144 53
145 140 49
155 150 51
157 150 56
149 143 57
153 147 56
154 148 61
153 148 54
147 141 56
152 146 58
158 150 66
148 142 54
150 144 54
149 143 51
150 143 54
151 144 59
146 141 56
138 132 48
147 142 48
139 132 53
138 133 52
134 127 52
132 124 52
119 116 39
140 148 41
176 199 0
175 198 0
174 198 0
173 196 0
175 198 0
175 198 0
175 198 0
172 196 0
175 198 0
175 198 0
175 198 0
174 198 0
174 198 0
175 198 0
174 197 0
175 198 0
175 198 0
175 198 0
174 198 0
174 198 0
176 198 0
175 198 0
173 197 0
175 198 0
174 198 0
175 198 0
174 197 0
176 198 0
174 198 0
174 198 0
175 198 0
173 197 0
177 199 0
175 198 0
174 197 0
175 198 0
173 197 0
175 198 0
175 198 0
174 198 0
175 198 0
175 198 0
174 198 0
175 198 0
175 198 0
175 198 0
176 199 36
182 204 88
189 209 133
194 213 151
199 217 171
196 215 161
206 222 196
210 226 212
217 231 233
223 236 249
224 237 254
225 238 255
225 238 255
225 237 255
225 237 255
225 237 255
225 237 255
225 237 255
225 237 255
225 237 255
225 237 255
225 237 255
224 237 255
224 237 255
224 237 255
224 237 255
224 237 255
224 237 255
224 237 255
224 237 255
224 237 255
224 237 255
224 237 255
224 237 255
224 237 255
224 237 255
224 237 255
224 237 255
224 237 255
224 237 255
224 237 255
224 237 255
224 237 255
224 237 255
224 237 255
224 237 255
224 237 255
224 237 255
224 237 255
224 237 255
224 237 255
224 237 255
224 237 255
224 237 255
225 237 255
225 237 255
225 237 255
225 237 255
219 233 240
209 225 207
200 218 177
193 213 153
183 204 99
175 198 25
175 198 0
173 197 0
174 198 0
173 197 0
174 198 0
176 198 0
173 197 0
175 198 0
174 198 0
174 197 0
173 197 0
174 198 0
176 199 0
175 198 0
174 197 0
173 197 0
173 197 0
172 195 25
134 158 90
63 96 126
59 93 125
58 92 121
59 93 126
57 90 124
58 91 110
57 91 126
58 92 114
58 92 121
58 92 124
58 91 126
58 92 117
58 92 121
59 93 124
63 95 105
148 172 62
174 197 0
175 198 0
174 198 0
174 198 0
173 197 0
175 198 0
175 198 0
175 198 0
175 198 0
175 198 0
172 196 0
177 199 0
174 197 0
175 198 0
175 198 0
174 198 0
174 198 0
174 198 0
174 197 0
175 198 0
183 204 99
196 215 163
214 229 224
220 234 244
224 237 255
224 237 255
224 237 255
224 237 255
224 237 255
224 237 255
223 237 255
223 237 255
223 237 255
223 236 255
222 236 255
222 236 255
222 236 255
221 236 255
207 221 239
136 155 178
59 94 125
59 93 129
56 90 108
59 94 129
58 92 130
59 94 134
58 92 122
59 92 118
57 91 120
59 94 129
59 94 133
60 95 134
59 93 126
59 93 129
59 94 133
59 94 137
58 92 118
59 93 128
58 92 124
60 94 129
58 92 125
59 94 128
59 93 124
58 92 122
60 95 135
60 94 137
59 93 126
60 94 131
61 95 137
61 95 133
58 92 124
59 94 122
59 94 128
59 93 126
60 94 124
60 95 129
59 94 135
60 94 133
60 94 137
59 93 125
59 93 124
59 94 125
60 94 130
61 95 135
58 91 124
60 94 128
58 92 121
59 94 131
59 93 129
59 94 131
59 94 121
59 93 122
59 94 128
61 95 136
60 95 131
59 93 125
60 94 136
57 91 111
58 92 126
58 92 125
59 94 126
59 93 124
60 95 143
60 95 134
59 92 124
60 94 126
59 93 126
59 93 129
60 95 129
59 93 130
60 94 130
59 93 133
60 94 124
60 94 124
59 93 124
59 94 128
58 92 122
60 95 129
58 92 121
57 90 117
59 93 130
59 93 126
59 94 122
60 95 140
59 94 131
58 91 125
59 94 125
60 95 133
60 94 133
61 96 137
59 93 126
59 93 124
58 92 115
59 94 128
58 92 115
58 91 111
60 95 139
59 94 126
58 91 120
60 94 134
60 95 130
60 95 134
60 94 129
59 93 128
57 90 124
58 92 122
59 93 135
60 94 130
60 94 134
58 92 123
57 90 124
59 93 118
58 92 124
60 94 130
58 93 126
59 93 134
58 92 122
59 93 128
59 93 128
59 93 128
59 93 126
58 92 121
58 91 113
58 92 115
58 92 131
58 91 118
58 91 129
58 92 120
60 94 136
59 94 131
58 92 120
57 90 108
57 90 112
59 92 121
59 93 128
58 91 124
55 88 113
58 91 120
59 92 121
58 91 116
56 88 112
56 88 120
57 89 115
56 88 118
59 92 131
57 90 117
57 90 125
57 90 115
57 90 113
57 89 107
58 90 124
56 88 113
53 84 101
54 84 101
53 83 105
55 86 109
52 81 98
54 83 109
51 78 90
49 76 81
45 70 74
173 196 0
174 198 0
173 197 0
169 191 0
103 103 35
90 89 30
74 72 23
61 62 21
78 78 14
68 69 13
74 76 22
81 81 18
88 88 24
92 91 22
91 91 26
99 97 29
110 108 35
120 116 39
114 112 37
126 121 54
117 113 35
119 116 25
134 130 38
130 126 39
135 131 51
137 133 45
146 140 53
143 139 45
137 132 49
143 138 43
144 138 53
146 140 42
153 147 58
155 148 61
150 144 52
146 140 48
144 140 44
152 145 54
147 141 51
149 142 44
151 145 58
145 140 42
148 142 49
149 140 60
139 133 45
145 140 52
139 134 52
136 130 52
149 143 57
131 126 47
129 123 48
132 127 54
132 128 54
172 193 11
174 198 0
175 198 0
175 198 0
175 198 0
172 197 0
175 198 0
173 197 0
176 199 0
175 198 0
174 197 0
173 197 0
173 197 0
174 197 0
175 198 0
174 198 0
175 198 0
174 197 0
175 198 0
175 198 0
174 197 0
175 198 0
174 197 0
175 198 0
173 197 0
174 198 0
175 198 0
175 198 0
173 197 0
174 198 0
173 197 0
173 197 0
176 199 0
173 197 0
174 198 0
175 198 0
175 198 0
174 198 0
174 197 0
175 198 0
176 198 0
175 198 0
174 198 0
176 198 0
176 199 0
175 198 0
174 197 0
173 197 0
175 198 0
173 197 0
174 198 0
175 198 0
174 198 0
175 198 0
173 197 0
173 197 0
174 198 0
173 197 0
179 202 80
184 205 108
191 211 144
196 215 163
199 217 173
207 223 199
216 230 228
214 229 223
223 236 252
224 237 253
225 238 255
225 238 255
225 238 255
225 237 255
225 237 255
225 237 255
225 237 255
225 237 255
225 237 255
225 237 255
225 237 255
225 237 255
224 237 255
224 237 255
224 237 255
224 237 255
224 237 255
224 237 255
224 237 255
224 237 255
224 237 255
224 237 255
224 237 255
224 237 255
224 237 255
224 237 255
224 237 255
224 237 255
225 237 255
225 237 255
225 237 255
222 235 248
216 230 230
209 225 209
201 218 181
189 209 122
179 201 72
175 198 0
175 198 0
175 198 0
176 198 0
174 198 0
174 198 0
175 198 0
176 199 0
174 198 0
173 197 0
175 198 0
174 198 0
174 197 0
175 198 0
173 197 0
175 198 0
173 196 0
174 198 0
176 199 0
175 198 0
173 196 0
174 197 0
175 198 0
174 197 0
175 198 0
158 182 60
97 123 100
59 93 130
58 91 111
58 92 110
59 93 134
57 91 115
59 92 121
59 94 129
59 93 125
57 91 122
59 94 124
57 91 111
56 90 115
57 91 115
73 103 105
157 181 54
174 197 0
175 198 0
173 197 0
175 198 0
174 198 0
174 198 0
175 198 0
175 198 0
174 198 0
175 198 0
174 198 0
175 198 0
173 197 0
175 198 0
175 198 0
175 198 0
175 198 0
172 197 0
175 198 0
174 198 0
175 198 0
174 198 0
176 199 44
189 210 137
207 223 201
218 232 237
224 237 255
224 237 255
224 237 255
224 237 255
224 237 255
223 237 255
223 237 255
223 236 255
223 236 255
222 236 255
222 236 255
221 236 255
223 236 255
202 216 237
102 126 154
57 90 115
58 92 121
59 93 121
57 91 117
59 93 129
59 93 117
58 91 120
59 94 129
59 94 121
60 95 139
59 93 129
59 93 121
57 91 115
59 94 133
59 94 128
59 93 125
59 93 124
59 93 125
59 94 121
59 93 129
60 94 122
59 93 118
59 94 118
59 93 128
60 94 120
59 93 124
60 95 134
60 94 130
58 92 126
60 95 133
59 93 131
59 93 125
58 92 118
59 94 122
59 94 128
60 95 135
59 93 137
60 94 133
61 95 137
59 94 131
58 92 122
60 95 126
59 93 125
59 93 124
59 94 128
60 95 142
61 95 133
59 94 128
60 94 131
58 93 131
59 92 121
57 90 105
60 95 137
60 95 136
57 91 118
59 93 126
60 94 131
60 94 134
59 93 125
58 91 122
60 94 136
59 93 134
59 93 129
60 94 131
60 94 130
59 93 122
59 93 120
58 92 110
57 90 111
60 94 133
59 93 126
58 92 124
59 93 129
59 93 126
59 93 130
59 93 122
59 94 135
57 91 114
59 93 122
60 95 131
58 92 120
58 92 118
60 95 136
59 93 126
57 91 121
59 93 126
59 93 120
58 92 121
60 94 133
57 91 114
57 90 117
61 95 137
59 94 125
59 93 139
58 92 120
58 91 122
59 93 118
58 92 124
59 93 122
59 94 130
60 94 124
59 93 122
60 95 131
58 91 124
58 93 117
59 93 124
59 94 124
59 93 125
58 91 114
58 92 122
60 94 131
59 93 136
60 95 133
59 93 130
58 91 124
59 93 117
56 88 110
58 92 125
60 94 130
59 93 116
59 93 121
58 92 113
58 92 121
58 91 124
57 90 118
58 92 122
60 94 125
58 91 122
58 92 117
58 92 122
59 93 126
56 88 111
58 92 116
59 92 117
58 91 124
57 90 108
59 92 128
58 92 126
58 91 121
56 88 113
57 90 112
56 89 110
57 89 117
57 88 118
58 90 121
56 88 109
54 85 114
57 90 120
57 89 125
57 89 120
54 84 99
54 84 104
55 86 110
55 85 114
53 82 100
55 85 109
51 78 92
48 75 68
66 87 66
174 197 0
173 196 0
172 195 0
172 195 0
151 167 22
81 78 21
86 86 26
70 70 16
60 63 17
77 77 18
63 67 16
82 82 14
72 73 21
87 88 25
90 90 14
111 108 24
107 106 32
105 106 23
106 105 41
108 105 25
122 119 37
121 118 37
125 121 39
130 126 42
140 134 49
133 129 43
138 131 46
143 139 32
144 139 44
145 139 47
145 140 48
148 141 45
147 141 42
144 139 49
152 144 56
146 140 42
145 139 49
147 140 48
150 144 51
148 143 47
140 134 45
144 138 45
138 132 52
142 136 47
139 134 37
146 139 57
142 137 51
133 129 42
133 126 52
132 126 53
136 130 52
126 120 45
157 173 28
174 198 0
173 196 0
174 197 0
175 198 0
173 197 0
175 198 0
174 198 0
175 198 0
176 198 0
175 198 0
173 197 0
172 197 0
175 198 0
173 197 0
173 196 0
175 198 0
174 198 0
175 198 0
175 198 0
173 197 0
173 197 0
172 196 0
174 198 0
175 198 0
173 197 0
176 199 0
175 198 0
175 198 0
174 198 0
174 198 0
174 198 0
175 198 0
173 197 0
173 197 0
175 198 0
173 197 0
174 197 0
174 198 0
174 198 0
174 197 0
174 198 0
174 198 0
176 199 0
175 198 0
175 198 0
174 197 0
174 197 0
174 198 0
174 197 0
174 197 0
173 197 0
176 199 0
175 198 0
174 198 0
175 198 0
176 199 0
176 198 0
175 198 0
173 197 0
174 198 0
174 198 0
174 198 0
176 198 0
174 198 0
175 198 0
174 198 0
176 198 0
175 198 25
181 203 84
187 207 120
188 208 128
197 215 163
200 218 177
209 225 207
215 229 224
218 232 234
223 236 252
225 238 255
225 238 255
225 238 255
225 238 255
225 238 255
225 237 255
225 237 255
225 237 255
225 237 255
225 237 255
225 237 255
225 237 255
225 237 255
225 237 255
224 237 255
224 237 255
224 237 255
224 237 255
224 237 255
195 214 159
189 209 133
179 201 67
174 198 0
174 198 0
174 198 0
175 198 0
174 197 0
175 198 0
176 199 0
176 198 0
174 198 0
175 198 0
173 197 0
175 198 0
174 198 0
173 197 0
175 198 0
174 198 0
173 197 0
175 198 0
174 197 0
174 198 0
174 198 0
174 198 0
176 199 0
174 198 0
174 198 0
174 198 0
174 197 0
173 196 0
174 197 0
174 197 0
176 199 0
174 197 0
174 197 0
134 158 74
59 91 120
59 92 121
56 90 108
58 92 124
57 91 121
57 90 114
57 90 117
58 92 114
58 92 124
59 93 115
58 92 117
56 90 114
59 93 122
76 106 117
164 187 47
175 198 0
173 197 0
171 195 0
173 197 0
174 197 0
175 198 0
173 197 0
174 198 0
174 197 0
176 199 0
176 199 0
174 198 0
174 198 0
174 197 0
175 198 0
174 198 0
175 198 0
173 197 0
175 197 0
174 198 0
174 198 0
175 198 0
175 198 0
174 198 0
175 198 36
186 207 120
205 222 193
220 234 245
224 237 255
224 237 255
224 237 255
224 237 255
223 237 255
223 237 255
223 236 255
222 236 255
222 236 255
221 236 255
223 236 255
224 237 255
191 205 223
114 136 164
58 92 128
59 94 129
57 91 129
58 92 117
56 89 118
59 93 134
58 91 111
59 94 125
57 90 111
59 93 121
58 92 113
60 95 131
60 95 133
59 93 131
59 94 131
59 93 120
58 92 118
58 92 133
60 94 135
57 90 115
60 95 126
60 94 133
59 93 125
60 94 131
57 91 118
60 94 131
60 94 129
59 93 126
60 94 125
59 93 128
59 92 129
59 94 129
59 93 121
59 93 124
62 97 147
60 95 137
59 93 117
59 93 135
60 94 128
59 93 125
59 93 124
59 93 129
59 94 133
58 93 118
60 95 128
57 90 115
61 95 139
57 91 111
60 95 133
58 91 121
61 95 140
59 93 128
58 91 125
59 93 121
60 94 128
60 95 130
60 95 128
60 95 125
58 92 122
60 94 136
59 93 126
60 94 129
58 92 131
58 91 114
60 95 130
59 94 126
59 93 125
58 92 120
60 95 135
61 96 137
59 93 128
60 94 134
59 92 120
60 94 131
59 93 130
58 92 110
59 93 126
58 92 126
59 93 124
60 95 134
59 94 124
59 94 128
58 92 124
59 94 131
59 93 122
58 92 121
59 94 134
60 95 136
60 93 126
59 93 118
59 93 129
58 92 110
58 92 110
60 94 133
59 93 124
59 93 133
59 93 125
59 93 130
58 91 122
59 93 131
60 94 126
59 93 115
58 92 120
58 93 130
60 94 130
59 93 117
60 94 128
59 94 129
59 93 134
58 92 122
58 92 124
60 94 128
57 91 114
58 91 114
57 90 110
58 92 125
57 90 110
61 95 139
58 92 129
59 94 135
58 92 115
58 92 124
58 92 126
59 92 117
59 93 129
59 93 129
57 90 114
58 91 115
57 90 113
58 92 123
59 93 134
57 90 115
56 88 117
57 90 117
58 91 124
59 92 128
60 94 136
55 87 112
56 88 106
58 91 124
57 89 104
54 86 114
56 88 112
57 89 115
58 91 118
54 86 97
57 89 116
55 85 112
57 90 120
55 85 100
56 87 115
53 83 91
53 82 88
52 81 100
48 75 98
50 78 98
90 110 60
169 193 0
169 194 0
171 194 0
172 195 0
172 195 0
125 135 25
61 60 14
74 74 24
77 74 19
83 81 26
88 87 12
87 86 9
77 77 18
85 85 20
87 86 29
104 103 29
113 109 29
101 100 25
115 113 28
107 107 28
122 117 39
119 117 29
130 126 36
117 115 30
128 125 40
128 125 23
138 133 40
136 132 42
139 134 35
138 132 40
139 133 37
141 137 37
145 140 47
151 145 47
150 145 45
139 134 39
145 139 45
141 136 34
145 138 56
145 139 51
144 138 52
140 135 36
147 139 45
143 136 45
139 134 37
143 137 48
135 130 51
133 128 45
131 123 45
129 123 52
117 112 42
143 153 32
173 196 0
173 197 0
174 197 0
173 196 0
175 198 0
174 197 0
173 197 0
174 197 0
172 196 0
175 198 0
174 198 0
175 198 0
176 198 0
176 198 0
173 197 0
171 196 0
174 198 0
174 197 0
175 198 0
174 198 0
174 197 0
174 197 0
173 197 0
174 197 0
174 198 0
174 197 0
174 198 0
176 198 0
175 198 0
176 199 0
173 197 0
174 198 0
175 198 0
174 197 0
174 197 0
175 198 0
174 198 0
174 197 0
174 198 0
174 197 0
174 197 0
174 198 0
174 197 0
175 198 0
175 198 0
174 198 0
175 198 0
173 197 0
175 198 0
174 198 0
175 198 0
175 198 0
175 198 0
175 198 0
173 197 0
175 198 0
175 198 0
174 198 0
174 198 0
173 197 0
175 198 0
174 198 0
176 198 0
175 198 0
173 197 0
175 198 0
174 198 0
175 198 0
174 198 0
175 198 0
174 198 0
174 198 0
174 197 0
175 198 0
175 198 0
174 198 0
175 198 0
174 197 0
179 201 72
184 205 108
189 209 135
196 215 157
197 215 163
204 221 191
212 227 217
217 232 234
221 235 245
225 238 255
225 238 255
225 238 255
225 238 255
225 238 255
225 238 255
225 237 255
225 237 255
225 237 255
225 237 255
175 198 0
173 197 0
174 198 0
174 197 0
173 196 0
174 197 0
175 198 0
176 199 0
174 198 0
175 198 0
175 198 0
174 198 0
174 197 0
175 198 0
174 198 0
173 197 0
176 198 0
174 198 0
174 198 0
175 198 0
175 198 0
176 199 0
171 196 0
174 197 0
174 197 0
175 198 0
174 198 0
175 198 0
174 197 0
175 198 0
174 197 0
173 197 0
173 197 0
174 197 0
174 197 0
173 197 0
175 198 0
162 185 47
83 112 115
57 90 111
58 92 125
58 93 117
58 93 124
58 92 129
58 92 122
58 92 121
59 94 131
59 93 125
58 92 117
58 92 117
59 93 120
101 126 107
175 198 0
174 197 0
174 197 0
173 196 0
175 198 0
174 197 0
173 197 0
173 197 0
174 198 0
173 197 0
172 196 0
174 197 0
174 198 0
175 198 0
175 198 0
174 198 0
173 197 0
172 196 0
174 198 0
174 198 0
176 199 0
174 198 0
175 198 0
175 198 0
175 198 0
175 198 0
175 198 0
175 198 25
195 214 157
219 233 240
224 237 255
224 237 255
224 237 255
224 237 255
223 237 255
223 237 255
223 236 255
222 236 255
222 236 255
222 236 255
224 237 255
224 237 255
180 196 217
98 123 154
59 93 121
58 92 122
59 93 121
60 94 121
60 94 128
58 92 126
58 92 113
59 93 130
59 94 122
60 94 120
58 92 113
59 93 126
59 94 122
60 94 130
59 93 125
58 92 110
58 92 121
59 93 126
57 90 117
59 93 130
59 93 122
60 95 133
59 93 129
59 93 124
58 92 125
58 92 121
59 94 124
58 92 121
57 91 111
57 91 110
57 91 126
59 93 122
59 93 125
58 93 120
58 91 121
58 91 121
59 93 124
58 92 121
59 93 125
59 93 120
59 94 126
59 93 121
60 94 128
58 92 117
59 93 122
61 96 135
59 93 126
59 93 129
60 94 129
60 94 128
58 92 108
58 92 122
59 94 120
59 94 125
59 93 124
59 93 126
57 91 118
59 93 125
58 92 122
58 92 110
61 95 130
59 93 117
58 91 114
60 95 135
59 92 122
60 95 136
59 94 130
60 96 134
58 92 110
59 94 121
58 92 121
59 93 121
60 94 135
62 96 137
58 92 122
59 93 124
59 93 128
58 92 120
59 94 133
60 94 124
58 92 124
59 93 129
60 94 125
59 93 125
59 93 128
59 92 124
58 92 115
57 91 120
58 92 121
58 92 124
60 94 125
57 90 114
60 94 134
59 93 128
58 91 118
57 91 108
59 94 131
59 92 129
59 93 131
60 94 131
58 93 131
59 93 122
59 94 136
60 94 129
61 95 133
58 92 110
59 94 120
58 92 128
57 91 125
60 94 125
59 93 114
57 90 115
60 94 134
58 92 114
58 91 123
58 92 121
58 92 121
58 91 126
58 92 124
58 92 121
59 92 131
57 89 120
57 90 113
57 90 114
57 90 118
59 93 124
59 93 128
58 92 122
59 93 124
59 92 118
59 92 125
59 92 124
59 93 121
58 92 124
57 90 110
58 92 130
56 88 113
57 90 124
57 89 108
56 88 110
58 91 122
56 88 117
55 86 105
55 86 115
54 85 107
54 85 100
52 82 102
56 86 107
53 82 89
52 81 94
52 81 95
54 83 99
51 79 92
48 74 80
121 143 61
170 192 0
173 197 0
170 193 0
172 195 0
172 195 0
170 193 11
102 105 30
91 89 25
80 80 12
70 71 18
81 80 19
78 79 14
79 78 16
91 89 16
85 84 19
102 99 16
97 96 16
109 107 19
118 115 26
110 106 28
106 103 31
120 116 24
129 124 29
125 123 35
119 115 32
130 126 32
131 126 42
137 133 32
138 132 42
137 132 38
138 133 32
139 134 32
139 134 32
137 131 41
141 135 42
144 139 45
138 132 28
145 139 41
136 131 37
153 148 44
140 135 44
139 133 34
137 132 45
141 136 47
136 130 30
130 126 39
130 125 42
137 131 44
131 124 48
120 116 37
125 125 42
170 191 22
173 195 0
172 195 0
173 195 0
173 196 0
173 197 0
172 195 0
173 197 0
173 195 0
173 197 0
173 197 0
173 197 0
174 197 0
173 196 0
175 198 0
173 196 0
174 198 0
175 198 0
174 197 0
173 197 0
175 198 0
175 198 0
175 198 0
174 198 0
175 198 0
174 198 0
173 197 0
175 198 0
174 197 0
175 198 0
175 198 0
174 198 0
174 197 0
174 198 0
173 197 0
175 198 0
173 197 0
174 197 0
175 198 0
173 197 0
176 198 0
175 198 0
174 197 0
177 199 0
175 198 0
175 198 0
175 198 0
174 197 0
174 197 0
173 197 0
175 198 0
174 198 0
175 198 0
174 198 0
175 198 0
175 198 0
174 198 0
175 198 0
174 197 0
173 197 0
176 198 0
176 199 0
176 198 0
174 198 0
174 198 0
175 198 0
174 198 0
173 197 0
174 198 0
174 198 0
173 197 0
173 197 0
173 197 0
173 196 0
175 198 0
174 197 0
174 198 0
173 197 0
175 198 0
174 197 0
174 198 0
174 198 0
174 197 0
174 198 0
174 198 0
174 198 0
174 197 0
174 197 0
176 199 57
181 203 99
188 209 130
197 215 165
199 217 171
211 226 214
210 226 209
215 229 226
221 235 245
225 238 255
173 197 0
175 198 0
175 198 0
174 198 0
176 198 0
174 198 0
176 198 0
174 197 0
174 198 0
174 198 0
175 198 0
174 198 0
174 198 0
175 198 0
174 198 0
174 198 0
174 198 0
176 198 0
175 198 0
173 197 0
176 198 0
174 198 0
174 198 0
173 197 0
174 197 0
174 197 0
173 197 0
172 196 0
174 197 0
175 198 0
173 197 0
173 197 0
176 199 0
174 197 0
173 196 0
175 198 0
172 196 0
173 197 0
171 195 25
122 147 90
58 93 126
56 89 113
56 90 103
57 91 103
58 91 125
60 94 115
58 92 124
57 91 108
57 91 114
59 94 117
58 92 129
58 92 118
144 168 65
173 197 0
172 196 0
175 198 0
174 197 0
173 196 0
172 196 0
174 197 0
175 198 0
174 198 0
174 197 0
175 198 0
176 198 0
174 198 0
175 198 0
173 197 0
175 198 0
174 197 0
175 198 0
173 196 0
175 198 0
173 196 0
173 197 0
175 198 0
175 198 0
173 197 0
174 198 0
174 198 0
175 198 0
175 198 25
193 212 147
210 226 212
224 237 255
224 237 255
224 237 255
223 237 255
223 237 255
223 236 255
222 236 255
222 236 255
222 236 255
224 237 255
224 237 255
224 237 255
181 196 217
97 120 139
59 94 130
59 93 130
60 94 130
57 91 105
59 93 118
58 92 115
58 92 122
60 94 126
58 92 118
59 93 129
59 93 125
59 94 134
60 94 126
60 95 135
59 94 129
59 93 124
58 91 122
60 95 133
61 95 137
60 94 134
60 94 135
61 96 142
60 95 128
58 92 120
58 92 126
59 93 122
57 91 120
59 93 115
59 93 111
59 93 118
60 95 128
58 92 120
59 94 125
59 93 120
59 94 126
59 93 125
60 95 125
58 92 122
58 92 122
60 94 129
60 95 134
60 94 125
59 93 122
59 93 129
60 94 131
58 93 120
59 94 129
59 93 114
58 92 117
60 94 134
59 93 128
59 92 122
59 93 125
59 93 130
58 92 114
59 93 122
59 93 122
61 95 135
57 90 105
58 91 122
58 91 114
59 92 130
58 91 121
58 92 115
58 92 118
59 93 124
61 96 134
58 91 117
59 93 120
57 91 108
59 93 125
59 93 124
58 92 115
58 92 126
57 91 120
59 93 118
59 93 121
60 94 129
59 93 124
60 94 124
58 92 125
58 92 115
58 92 122
57 91 117
58 92 120
59 93 120
57 91 115
57 90 114
58 91 121
57 91 120
59 93 129
59 93 131
58 92 118
59 94 130
59 93 122
58 92 126
59 94 130
58 92 125
59 93 124
59 93 126
60 94 128
60 94 125
60 94 126
58 91 122
60 94 124
58 92 118
58 92 118
58 93 114
58 92 125
59 93 125
59 92 118
58 92 115
59 93 125
57 91 121
58 92 126
58 92 120
58 90 121
59 93 115
60 94 133
58 92 115
59 93 130
58 92 118
57 89 111
59 92 126
58 91 125
58 91 120
55 88 105
58 92 117
57 90 115
59 93 126
56 88 113
60 95 136
56 88 106
58 90 117
58 91 114
57 90 117
55 87 109
56 88 105
57 90 116
58 91 116
55 87 111
57 90 115
56 87 108
55 85 99
57 89 114
54 85 107
53 82 99
53 84 94
53 82 106
52 81 99
48 74 82
48 75 87
134 155 33
170 194 0
168 190 0
169 192 0
169 193 0
169 192 0
170 192 0
162 183 14
98 97 39
83 81 20
79 77 16
90 88 18
68 67 8
90 86 11
82 83 14
79 78 12
95 92 16
108 104 23
100 96 5
107 105 24
111 109 17
111 107 28
118 114 24
122 119 35
127 122 35
121 118 32
127 123 34
122 119 22
123 120 22
129 124 29
130 124 32
127 124 16
138 134 36
138 132 36
139 133 37
135 130 28
143 138 39
134 127 41
142 137 42
141 134 47
137 132 22
136 130 36
147 140 51
146 140 48
126 121 32
141 135 34
128 123 30
132 127 44
135 129 42
134 126 49
118 113 39
163 181 16
172 194 0
170 194 0
171 194 0
172 195 0
172 195 0
174 197 0
174 197 0
174 197 0
172 194 0
173 195 0
173 197 0
172 196 0
173 196 0
173 196 0
173 196 0
173 197 0
175 198 0
174 197 0
174 197 0
173 196 0
173 197 0
173 197 0
174 198 0
173 197 0
171 195 0
173 197 0
174 198 0
174 197 0
175 198 0
173 196 0
175 197 0
175 198 0
175 198 0
175 198 0
172 196 0
174 198 0
174 197 0
175 198 0
175 198 0
174 198 0
174 198 0
175 198 0
175 198 0
175 198 0
175 197 0
174 197 0
174 197 0
174 197 0
174 198 0
175 198 0
174 198 0
173 197 0
172 197 0
174 197 0
172 197 0
172 196 0
174 198 0
172 197 0
175 198 0
174 197 0
173 197 0
174 198 0
176 199 0
174 197 0
173 197 0
176 199 0
175 198 0
173 197 0
174 198 0
174 197 0
174 198 0
174 197 0
176 198 0
174 197 0
173 197 0
175 198 0
175 198 0
174 198 0
175 198 0
175 198 0
174 198 0
174 197 0
172 197 0
174 198 0
172 196 0
175 198 0
174 198 0
174 198 0
175 198 0
173 197 0
174 197 0
174 198 0
177 199 0
176 199 0
175 198 0
175 198 0
175 198 0
176 199 44
173 196 0
175 198 0
174 198 0
175 198 0
175 198 0
174 198 0
175 198 0
174 197 0
174 197 0
174 198 0
174 198 0
173 196 0
174 198 0
174 197 0
175 198 0
174 197 0
175 198 0
174 198 0
173 197 0
175 198 0
175 198 0
173 197 0
174 197 0
175 198 0
174 197 0
173 196 0
174 198 0
173 197 0
173 197 0
174 197 0
173 196 0
173 196 0
175 198 0
175 198 0
174 198 0
169 193 0
173 197 0
172 196 0
174 197 0
172 196 0
135 160 70
72 102 113
58 92 121
59 93 128
58 92 117
58 92 111
57 90 111
58 91 114
58 91 114
56 89 108
57 91 102
55 88 113
72 101 114
163 187 36
170 193 0
172 196 0
174 197 0
172 196 0
173 196 0
172 196 0
174 196 0
173 196 0
172 195 0
172 196 0
171 196 0
174 198 0
172 196 0
171 195 0
173 197 0
175 198 0
173 197 0
175 198 0
175 198 0
174 197 0
174 198 0
175 198 0
176 198 0
174 198 0
176 199 0
174 198 0
175 198 0
173 197 0
176 199 0
175 198 0
188 208 125
211 226 214
224 237 255
224 237 255
224 237 255
223 237 255
223 236 255
222 236 255
222 236 255
223 236 255
224 237 255
224 237 255
224 237 255
224 237 255
197 211 236
104 127 153
56 90 113
60 95 129
59 93 128
59 94 126
59 93 128
59 93 118
57 91 107
58 92 115
60 95 134
58 92 115
59 93 126
60 94 128
57 91 114
59 93 125
59 94 120
60 94 133
58 91 117
59 93 125
57 91 111
58 92 122
57 91 118
59 93 128
60 94 125
59 94 124
59 94 125
59 93 115
58 92 131
59 93 117
59 94 131
58 91 121
58 92 117
59 93 125
59 93 118
59 93 125
59 93 133
58 92 122
59 93 122
60 94 133
60 95 121
61 96 144
59 93 128
57 91 111
58 92 122
60 94 125
59 93 120
57 91 114
57 91 115
61 95 128
58 92 117
58 92 118
59 93 124
58 91 114
59 94 131
59 93 124
60 94 130
60 94 129
58 92 118
60 95 135
59 94 129
60 94 131
56 89 111
59 94 124
58 92 125
59 94 128
59 93 124
60 94 128
59 94 131
56 90 110
59 94 124
59 93 121
61 95 130
57 90 114
58 92 120
59 92 125
58 92 124
58 91 121
59 93 124
58 92 131
57 91 115
59 92 128
61 96 136
59 93 121
58 93 120
59 93 126
61 96 141
60 94 125
59 93 117
57 90 117
60 94 131
59 92 118
61 95 143
59 93 121
56 89 108
57 91 117
59 93 125
59 93 118
60 94 121
56 89 102
59 93 125
59 93 126
56 89 118
59 92 125
57 91 121
58 92 128
56 89 107
60 94 124
57 91 115
58 92 110
58 92 115
58 91 117
57 90 111
60 94 130
56 88 107
57 90 115
58 91 114
58 92 117
57 90 117
58 91 115
58 91 121
59 93 120
57 90 113
56 88 113
56 89 111
57 90 120
59 92 120
56 88 117
56 89 110
59 91 121
60 94 122
60 94 127
56 89 105
57 90 123
55 87 101
56 88 122
55 87 108
55 87 110
56 89 116
56 89 115
56 88 113
55 87 105
53 83 104
54 84 100
55 87 104
54 84 98
55 86 110
52 81 92
52 80 94
50 77 71
49 75 80
47 72 76
158 180 18
166 189 0
170 192 0
165 186 0
166 188 0
166 189 0
167 190 0
169 190 0
159 178 22
98 96 33
80 78 21
82 80 14
84 80 19
77 75 18
85 85 12
95 92 14
91 89 8
92 91 14
96 95 23
115 112 14
98 96 24
103 100 23
119 115 25
116 114 26
125 121 31
122 118 24
116 112 25
124 120 22
123 119 16
126 122 22
130 126 25
134 130 25
131 125 30
136 130 39
137 130 30
138 132 34
132 128 16
142 136 32
135 130 36
134 129 39
146 139 42
135 130 25
136 130 37
134 127 41
134 127 41
127 122 32
128 121 42
133 127 44
113 107 36
115 110 44
153 168 25
171 194 0
173 195 0
174 197 0
171 192 0
174 197 0
172 195 0
173 195 0
173 195 0
174 197 0
175 197 0
172 195 0
173 196 0
176 198 0
171 194 0
176 198 0
175 197 0
174 197 0
174 196 0
173 196 0
175 197 0
174 197 0
174 197 0
173 196 0
174 198 0
175 198 0
174 197 0
174 197 0
173 196 0
174 197 0
174 196 0
175 198 0
174 198 0
173 197 0
174 198 0
174 198 0
174 198 0
172 196 0
173 197 0
174 198 0
174 197 0
174 197 0
174 197 0
175 198 0
174 198 0
173 196 0
174 198 0
174 198 0
174 197 0
173 196 0
174 197 0
175 198 0
174 197 0
175 198 0
176 198 0
174 198 0
175 198 0
174 197 0
174 198 0
174 198 0
175 198 0
174 198 0
177 199 0
174 197 0
175 198 0
175 198 0
174 197 0
175 198 0
176 198 0
174 197 0
174 198 0
174 197 0
174 198 0
173 197 0
173 197 0
175 198 0
174 197 0
174 197 0
175 198 0
174 197 0
174 198 0
175 198 0
175 198 0
175 198 0
174 198 0
174 197 0
175 198 0
176 199 0
174 197 0
173 197 0
175 198 0
172 197 0
176 198 0
174 197 0
175 198 0
175 198 0
173 197 0
174 197 0
174 198 0
174 198 0
173 197 0
174 198 0
173 197 0
174 198 0
174 198 0
174 198 0
174 197 0
175 198 0
172 196 0
173 196 0
173 197 0
175 198 0
174 198 0
175 198 0
173 197 0
174 198 0
175 198 0
173 197 0
174 197 0
172 196 0
174 198 0
172 196 0
175 198 0
173 197 0
172 196 0
174 197 0
172 196 0
173 197 0
174 197 0
173 196 0
174 197 0
173 197 0
173 197 0
174 197 0
175 198 0
174 197 0
174 197 0
175 198 0
171 196 0
173 197 0
171 195 0
165 188 47
93 120 94
57 91 122
56 89 103
58 92 126
58 91 121
57 91 114
58 92 121
58 92 118
56 88 97
56 89 99
58 92 118
126 150 76
174 198 0
171 194 0
172 196 0
175 198 0
174 197 0
173 196 0
173 196 0
174 197 0
171 195 0
172 195 0
173 196 0
174 197 0
172 196 0
175 198 0
174 197 0
175 198 0
173 197 0
173 197 0
173 197 0
173 197 0
174 197 0
173 197 0
175 198 0
174 198 0
173 197 0
175 198 0
174 198 0
174 197 0
174 198 0
175 198 0
176 198 0
175 198 0
194 213 151
218 232 236
224 237 255
224 237 255
223 237 255
223 236 255
222 236 255
222 236 255
222 236 255
224 237 255
224 237 255
224 237 255
224 237 255
224 237 255
181 196 213
104 126 145
60 94 126
59 93 120
57 91 115
58 91 118
60 94 125
60 94 126
57 91 117
59 92 125
57 91 111
58 91 115
57 91 118
57 90 118
57 91 121
59 93 125
58 92 126
58 92 124
57 91 105
58 92 118
59 93 125
59 93 126
58 92 125
59 93 124
59 94 122
59 93 117
60 95 135
58 92 111
59 93 118
59 93 120
58 92 114
58 92 105
57 91 120
60 94 129
57 91 105
58 91 110
59 93 130
60 95 134
59 93 126
58 91 118
58 92 129
57 90 114
59 93 115
60 94 129
57 91 124
60 94 135
58 92 120
59 94 134
56 89 114
59 93 128
59 92 122
58 92 108
58 91 120
58 92 110
60 94 129
59 93 126
59 93 124
58 92 131
59 93 129
58 91 120
60 94 130
57 90 114
58 91 121
58 92 120
58 92 121
59 93 129
59 94 122
58 92 121
59 93 122
60 94 125
59 93 117
60 94 126
60 95 133
59 93 126
59 92 125
57 91 114
60 94 130
58 92 120
60 94 120
60 95 134
57 90 115
59 94 125
60 95 130
59 93 126
59 93 125
59 93 133
59 93 118
58 91 130
58 92 126
59 93 120
57 91 114
60 94 130
58 93 110
57 90 107
60 94 133
59 93 121
59 93 124
57 90 115
58 91 126
58 92 118
59 92 121
58 92 121
59 93 126
57 90 115
57 90 108
58 92 110
59 93 126
56 88 118
57 90 110
59 93 122
59 92 126
59 93 123
57 90 121
59 93 118
58 91 126
59 93 121
58 91 121
58 92 118
57 90 113
57 90 111
58 91 116
57 90 113
54 86 110
57 91 118
59 92 125
59 92 131
56 89 105
59 92 118
58 91 120
58 92 115
57 90 110
58 90 121
56 87 116
56 88 108
58 91 108
57 89 104
55 86 110
55 87 107
55 87 106
57 89 111
54 84 103
55 86 102
52 82 96
52 82 88
54 83 102
52 82 103
51 79 83
52 81 86
49 76 78
69 90 67
168 190 0
169 192 0
167 188 0
171 194 0
169 192 0
171 192 0
164 186 0
166 186 0
168 191 0
138 152 19
96 94 35
92 87 16
80 76 14
90 85 16
92 90 11
95 92 14
93 90 8
98 96 14
108 105 16
102 100 18
104 100 11
111 107 18
112 107 25
112 109 11
115 111 12
124 120 22
121 117 28
119 114 30
122 118 31
132 126 19
133 129 25
131 126 25
131 124 28
130 123 28
139 135 30
140 133 42
132 126 30
138 133 19
146 141 37
128 122 32
142 136 36
131 125 37
131 124 28
130 123 41
134 126 36
128 122 39
126 120 39
129 121 42
124 117 42
155 169 28
171 193 0
171 193 0
171 193 0
172 194 0
172 194 0
171 193 0
171 192 0
172 195 0
171 193 0
173 195 0
172 195 0
171 195 0
174 196 0
174 196 0
173 195 0
173 194 0
174 196 0
173 196 0
171 194 0
173 196 0
174 197 0
173 196 0
173 197 0
174 197 0
173 197 0
173 197 0
172 195 0
174 197 0
175 198 0
173 197 0
175 198 0
172 196 0
175 198 0
170 194 0
175 198 0
173 197 0
174 196 0
174 197 0
174 197 0
174 197 0
175 198 0
173 197 0
173 196 0
174 197 0
174 197 0
173 195 0
174 197 0
174 197 0
174 197 0
174 197 0
174 197 0
173 197 0
175 198 0
173 197 0
176 198 0
174 197 0
174 197 0
175 198 0
174 198 0
175 198 0
175 198 0
173 197 0
176 198 0
175 198 0
175 198 0
174 198 0
174 197 0
175 198 0
175 198 0
174 198 0
173 197 0
173 197 0
173 197 0
174 198 0
174 197 0
175 198 0
175 198 0
174 197 0
174 198 0
174 198 0
174 198 0
176 198 0
174 198 0
175 198 0
176 199 0
175 198 0
174 197 0
174 198 0
174 198 0
173 197 0
176 199 0
173 197 0
175 198 0
173 197 0
175 198 0
175 198 0
173 197 0
174 198 0
175 198 0
174 198 0
174 198 0
173 196 0
173 197 0
174 197 0
175 198 0
173 197 0
175 198 0
173 197 0
173 197 0
176 199 0
175 198 0
174 197 0
174 198 0
173 197 0
174 197 0
174 198 0
174 197 0
172 196 0
173 197 0
172 196 0
173 197 0
172 196 0
174 197 0
175 198 0
172 195 0
174 197 0
176 199 0
174 197 0
173 197 0
174 198 0
173 196 0
172 196 0
173 197 0
174 198 0
174 197 0
173 196 0
173 197 0
174 198 0
174 196 0
175 198 0
170 195 0
170 193 0
166 189 31
108 132 88
59 92 124
57 90 107
57 91 114
58 92 108
55 89 108
58 92 115
56 89 110
58 92 115
57 91 105
74 103 107
165 188 31
171 195 0
172 196 0
172 195 0
172 195 0
172 195 0
174 197 0
170 194 0
174 197 0
174 197 0
173 197 0
174 198 0
173 196 0
175 198 0
174 197 0
172 195 0
174 198 0
174 197 0
173 197 0
173 197 0
171 195 0
173 196 0
176 199 0
171 195 0
174 198 0
173 197 0
174 197 0
173 197 0
174 198 0
174 197 0
175 198 0
175 198 0
175 198 0
175 198 25
198 216 167
223 236 252
224 237 255
223 237 255
223 237 255
222 236 255
222 236 255
223 236 255
224 237 255
224 237 255
224 237 255
224 237 255
221 234 245
216 230 233
176 193 178
98 124 118
59 92 126
59 92 118
57 91 122
57 91 114
58 92 121
60 94 120
59 93 121
60 94 136
58 93 126
56 90 114
59 93 118
58 92 122
58 92 118
58 92 125
60 94 125
59 93 131
58 91 114
59 93 126
59 93 114
59 94 125
58 92 121
60 93 126
58 92 114
59 93 121
59 93 131
59 93 121
60 95 131
59 93 135
57 91 103
58 92 113
58 92 115
56 89 117
59 93 122
58 91 125
59 93 117
59 94 133
58 92 120
58 92 113
60 94 130
59 93 121
57 90 111
59 93 120
61 95 130
58 92 125
60 94 129
59 94 125
58 91 113
59 93 124
58 91 117
59 93 128
58 91 115
58 92 121
58 92 120
58 92 103
59 93 125
61 95 130
58 91 121
58 91 120
59 93 126
57 91 120
58 92 114
59 94 125
57 91 111
58 92 117
58 92 124
58 92 125
57 90 108
60 94 130
58 91 120
57 91 118
57 90 107
57 90 110
56 90 110
58 91 126
57 90 115
58 91 115
56 89 113
57 91 110
57 91 115
60 94 126
57 91 105
58 92 114
57 90 118
59 92 125
59 94 133
59 92 128
58 92 108
58 92 118
58 92 122
59 94 128
58 91 118
57 90 111
57 91 111
59 92 120
59 92 125
57 91 117
56 89 113
57 90 114
59 93 122
57 90 113
58 91 115
59 93 120
58 92 122
58 92 129
58 92 122
57 90 121
59 92 128
58 91 129
57 89 115
58 91 121
57 91 117
58 91 130
58 90 115
56 90 103
58 92 117
59 92 125
58 92 124
56 89 108
57 91 107
55 88 102
58 92 118
57 90 114
58 91 126
56 89 110
57 90 108
57 89 123
57 91 117
55 86 107
56 88 108
58 91 118
55 86 104
55 86 111
54 85 98
54 86 106
54 85 107
55 86 109
54 85 99
53 83 83
55 84 101
52 81 91
55 86 102
49 76 88
52 81 103
52 80 97
49 76 82
114 136 52
165 188 0
166 188 0
166 186 0
161 182 0
163 185 0
163 185 0
162 184 0
163 184 0
165 187 0
167 187 0
140 156 16
96 94 28
88 85 16
92 89 18
87 83 16
78 77 3
82 79 3
97 94 14
90 87 8
95 92 18
113 108 16
113 108 18
108 105 0
116 110 14
119 116 32
113 110 14
118 111 12
120 114 16
121 117 3
136 129 19
125 119 22
122 116 16
130 125 22
119 113 19
136 129 19
137 130 36
133 128 25
129 123 25
127 121 25
132 126 22
129 123 28
134 128 32
129 122 34
123 117 19
113 106 19
122 117 32
116 110 30
128 122 37
151 163 22
169 189 0
168 190 0
172 192 0
172 194 0
169 189 0
172 194 0
169 190 0
173 195 0
169 191 0
171 193 0
174 196 0
171 193 0
172 194 0
171 193 0
171 194 0
172 195 0
172 195 0
172 195 0
172 195 0
173 196 0
173 195 0
173 196 0
174 197 0
175 198 0
172 195 0
173 194 0
173 196 0
176 197 0
172 195 0
172 195 0
173 196 0
174 196 0
175 197 0
174 197 0
174 197 0
175 197 0
175 198 0
172 196 0
175 198 0
175 198 0
171 195 0
174 198 0
173 196 0
172 196 0
174 197 0
173 197 0
174 197 0
174 197 0
174 197 0
172 197 0
174 198 0
174 198 0
174 197 0
172 197 0
174 197 0
174 198 0
175 198 0
173 196 0
173 197 0
173 197 0
175 198 0
176 199 0
176 199 0
175 198 0
175 198 0
175 198 0
175 198 0
175 198 0
175 198 0
175 198 0
174 197 0
174 198 0
173 196 0
175 198 0
175 198 0
175 198 0
172 197 0
175 198 0
174 197 0
175 198 0
173 197 0
174 197 0
175 198 0
174 198 0
175 198 0
174 197 0
175 198 0
175 198 0
175 198 0
176 199 0
176 198 0
174 197 0
175 198 0
175 198 0
174 198 0
175 198 0
175 198 0
173 197 0
174 198 0
174 198 0
175 198 0
175 198 0
175 198 0
175 198 0
174 198 0
172 196 0
174 197 0
175 198 0
176 198 0
174 198 0
176 199 0
175 198 0
173 197 0
175 197 0
176 198 0
176 199 0
175 198 0
173 197 0
174 197 0
173 197 0
176 199 0
172 196 0
175 198 0
172 196 0
173 197 0
175 198 0
174 198 0
175 198 0
174 198 0
175 198 0
175 198 0
171 195 0
173 196 0
170 194 0
175 198 0
172 197 0
173 196 0
172 196 0
174 197 0
174 197 0
171 195 0
170 194 0
176 198 0
171 195 0
171 194 0
136 159 74
59 92 111
56 90 113
56 88 111
56 89 110
57 90 103
57 90 108
58 91 113
58 91 120
57 91 102
152 175 40
173 197 0
169 193 0
174 197 0
171 195 0
173 195 0
172 196 0
172 196 0
173 196 0
172 196 0
173 196 0
172 197 0
172 195 0
170 194 0
173 196 0
173 196 0
172 196 0
172 196 0
173 196 0
176 199 0
171 196 0
172 196 0
174 198 0
173 197 0
172 196 0
173 197 0
173 197 0
174 197 0
175 198 0
174 197 0
173 197 0
174 198 0
173 197 0
175 198 0
173 197 0
180 202 76
215 230 228
224 237 255
224 237 255
223 237 255
222 236 255
222 236 255
215 230 230
194 213 153
182 203 92
176 199 36
176 198 0
174 198 0
175 198 0
173 197 0
150 174 74
98 125 100
60 95 126
58 92 125
59 93 120
58 92 124
58 92 117
58 92 122
58 91 120
58 92 121
60 95 126
58 92 120
58 92 115
57 90 103
59 94 122
57 91 113
58 92 120
57 91 111
59 92 125
57 90 121
58 93 128
56 90 108
58 92 111
58 91 115
58 92 124
58 92 113
58 92 117
60 94 129
60 95 129
58 93 122
59 92 124
58 91 121
58 92 122
59 93 117
59 93 130
58 92 120
60 94 131
58 92 121
59 93 125
58 91 122
58 91 125
58 91 117
58 92 114
59 92 120
59 94 135
59 93 117
59 93 124
58 92 118
57 90 118
59 94 133
59 93 125
57 90 111
59 93 126
59 94 125
56 89 114
60 94 128
57 91 114
56 89 111
59 93 122
59 92 120
60 94 124
59 93 124
58 92 125
58 91 105
57 91 114
60 95 134
59 94 121
59 92 110
58 91 114
56 90 118
58 92 122
60 94 124
58 91 110
59 93 126
57 91 115
58 92 124
58 92 118
57 90 113
58 92 117
58 91 120
59 93 124
59 93 126
58 92 115
57 91 111
57 91 114
58 92 122
57 91 113
57 91 108
59 93 124
57 90 110
59 93 121
57 90 113
57 90 122
58 91 124
58 92 107
57 90 115
58 92 117
56 89 108
59 93 128
58 93 120
57 91 113
58 91 115
57 90 111
58 91 125
58 92 117
57 90 111
58 91 122
58 90 114
58 92 124
59 93 122
58 91 108
58 92 120
59 92 124
56 88 115
56 89 113
58 92 116
57 90 107
59 93 124
55 87 110
56 88 105
57 90 114
57 90 121
58 91 118
59 91 121
57 90 114
55 87 100
59 92 124
54 85 100
55 87 101
54 86 99
54 85 109
58 90 115
56 89 108
55 87 110
56 88 120
55 86 99
54 84 103
52 82 92
54 84 96
53 82 101
52 81 90
53 81 95
49 76 92
50 77 75
47 73 79
143 162 36
159 180 0
164 185 0
161 182 0
165 185 0
156 177 0
161 182 0
158 179 0
166 185 0
162 182 0
154 174 0
160 179 0
149 163 11
95 91 11
82 79 18
85 81 14
88 84 0
80 76 8
82 81 8
97 92 11
95 91 0
112 107 0
96 94 8
106 104 16
103 98 16
116 111 11
117 114 8
111 108 0
110 107 14
115 108 19
114 110 11
123 116 19
131 124 19
127 122 11
128 123 22
131 125 19
122 115 22
127 121 16
120 114 11
126 120 16
130 124 25
125 120 22
127 122 25
121 115 25
133 127 42
122 117 32
117 109 32
117 112 22
148 160 22
171 192 0
162 182 0
169 191 0
170 191 0
170 191 0
168 189 0
169 191 0
171 193 0
171 192 0
170 191 0
168 188 0
170 190 0
172 194 0
169 190 0
170 192 0
171 194 0
174 197 0
170 193 0
173 195 0
173 194 0
172 195 0
174 197 0
174 196 0
175 197 0
171 194 0
174 196 0
172 195 0
172 195 0
172 196 0
174 197 0
174 197 0
172 196 0
173 196 0
175 197 0
173 196 0
174 198 0
175 198 0
175 198 0
172 196 0
173 196 0
174 197 0
173 196 0
174 197 0
173 196 0
175 198 0
171 194 0
174 197 0
174 198 0
173 197 0
174 197 0
174 197 0
174 197 0
174 198 0
174 197 0
173 196 0
175 198 0
174 197 0
175 197 0
174 198 0
172 197 0
171 195 0
171 196 0
173 196 0
173 197 0
176 199 0
174 197 0
173 197 0
175 198 0
174 197 0
174 197 0
174 197 0
175 198 0
174 197 0
173 197 0
175 198 0
173 197 0
174 198 0
173 197 0
175 198 0
173 197 0
175 198 0
175 198 0
175 198 0
173 197 0
175 198 0
173 197 0
174 198 0
175 198 0
174 198 0
174 198 0
175 198 0
175 198 0
174 197 0
176 199 0
175 198 0
173 197 0
174 198 0
175 198 0
174 198 0
175 198 0
174 198 0
175 198 0
175 198 0
173 197 0
175 198 0
176 199 0
175 198 0
174 198 0
177 199 0
174 197 0
175 198 0
176 199 0
175 198 0
175 198 0
174 198 0
175 198 0
172 195 0
174 198 0
174 198 0
174 197 0
174 197 0
176 199 0
174 197 0
173 197 0
174 197 0
173 197 0
171 195 0
173 197 0
176 198 0
173 197 0
173 197 0
173 197 0
172 197 0
173 197 0
173 197 0
173 196 0
174 198 0
174 197 0
170 194 0
173 196 0
173 196 0
172 195 0
173 197 0
172 196 0
175 198 0
171 195 0
171 194 0
147 171 62
66 97 100
56 89 103
57 90 110
56 89 107
57 91 107
56 89 111
56 89 107
57 91 118
133 157 86
173 195 0
169 193 0
166 189 0
170 194 0
171 195 0
172 196 0
171 194 0
172 195 0
172 195 0
173 197 0
174 197 0
169 193 0
170 193 0
171 195 0
175 198 0
171 194 0
171 194 0
174 197 0
173 196 0
174 197 0
172 196 0
172 196 0
172 196 0
172 195 0
175 198 0
175 197 0
173 196 0
174 197 0
175 198 0
175 198 0
173 197 0
173 197 0
173 197 0
176 198 0
174 197 0
174 198 25
203 219 181
224 237 255
224 237 255
223 237 255
222 236 255
221 236 255
192 212 153
175 198 0
174 198 0
173 197 0
174 198 0
174 197 0
175 198 0
174 198 0
174 198 0
154 177 57
111 136 94
57 90 114
59 93 111
59 94 126
59 94 117
57 91 103
57 91 113
60 94 129
58 92 115
59 94 125
58 93 117
60 95 124
58 92 105
57 91 111
58 92 133
59 92 120
58 93 117
58 92 114
56 89 113
59 92 108
57 91 114
58 92 120
58 92 118
59 93 118
60 94 133
58 92 121
58 92 122
57 91 111
60 95 131
58 91 120
59 94 133
59 93 117
58 91 108
59 92 125
58 92 114
59 93 130
57 90 121
58 91 114
59 93 115
58 92 121
58 92 117
59 93 130
59 93 111
59 93 118
60 94 126
60 94 128
58 91 124
59 93 120
57 90 110
59 93 131
58 92 121
59 93 129
58 92 118
57 91 99
57 91 102
59 94 130
56 88 113
58 91 117
60 95 133
59 92 125
57 91 111
57 90 121
57 91 115
57 91 111
57 90 120
57 91 105
58 92 124
58 91 122
57 90 121
57 90 108
57 91 124
58 92 115
58 92 117
59 93 124
56 89 110
57 91 105
59 93 128
58 92 113
57 90 113
58 91 117
57 90 113
58 92 120
60 94 130
59 93 118
57 91 114
60 94 129
58 91 117
56 89 115
58 92 121
57 90 122
57 90 124
59 93 122
58 91 120
58 91 113
58 92 122
57 91 118
59 92 122
58 92 118
57 90 110
59 92 126
58 92 120
58 92 122
58 92 114
59 92 131
58 91 122
59 93 120
58 91 118
59 92 125
57 91 113
58 91 113
55 88 97
56 89 108
56 88 114
58 91 125
58 91 118
56 89 115
57 90 110
57 89 108
57 89 102
59 92 114
56 89 103
57 90 115
54 85 110
55 87 110
57 89 121
55 87 108
54 85 94
57 89 116
57 89 103
55 87 97
56 88 110
58 90 120
54 84 99
53 83 94
53 83 106
55 85 103
51 80 86
53 83 92
53 82 100
50 78 87
49 76 82
72 95 75
155 176 0
158 178 0
158 179 0
158 178 0
158 178 0
160 181 0
155 175 0
157 177 0
156 175 0
160 178 0
158 176 0
161 178 0
159 176 0
141 155 11
102 106 22
94 90 24
93 86 21
85 80 18
92 87 16
83 80 8
100 94 0
103 98 8
95 90 11
93 90 0
97 91 0
99 92 0
108 102 0
111 106 2
110 103 14
120 115 0
116 110 11
111 106 0
110 105 11
119 112 0
126 120 0
121 113 19
121 114 0
118 111 11
128 120 22
129 121 16
122 115 22
124 119 25
118 112 30
123 116 28
118 111 28
115 109 28
114 110 32
153 165 0
165 182 0
164 182 0
167 185 0
166 185 0
166 182 0
172 191 0
170 190 0
165 187 0
167 187 0
169 190 0
168 188 0
171 191 0
173 195 0
169 190 0
172 193 0
169 191 0
170 191 0
173 196 0
170 191 0
172 193 0
170 192 0
172 194 0
171 195 0
171 194 0
172 195 0
174 196 0
173 195 0
172 196 0
172 195 0
173 196 0
174 196 0
172 195 0
171 194 0
172 195 0
174 196 0
174 196 0
173 196 0
173 196 0
175 198 0
174 196 0
174 197 0
174 197 0
176 198 0
173 197 0
174 196 0
174 198 0
173 196 0
173 197 0
175 198 0
171 195 0
172 195 0
174 197 0
174 198 0
174 198 0
175 198 0
176 198 0
175 197 0
173 197 0
174 197 0
175 198 0
174 197 0
173 197 0
175 197 0
175 198 0
174 198 0
174 198 0
175 198 0
172 196 0
175 198 0
174 198 0
175 198 0
174 198 0
174 197 0
173 197 0
173 197 0
175 198 0
172 196 0
174 197 0
175 198 0
176 199 0
173 197 0
175 198 0
175 198 0
174 198 0
175 198 0
171 195 0
176 198 0
175 198 0
174 198 0
175 198 0
176 198 0
174 197 0
175 198 0
174 198 0
174 198 0
175 198 0
175 198 0
173 196 0
175 198 0
173 197 0
176 199 0
173 197 0
174 198 0
175 198 0
174 198 0
172 197 0
173 197 0
175 198 0
174 197 0
173 197 0
172 196 0
173 197 0
175 198 0
174 198 0
174 197 0
173 197 0
174 197 0
175 198 0
174 197 0
173 197 0
174 198 0
173 197 0
172 196 0
176 198 0
175 197 0
172 197 0
173 197 0
172 196 0
172 196 0
172 196 0
172 196 0
175 198 0
174 198 0
173 196 0
174 198 0
172 196 0
174 198 0
171 195 0
172 196 0
172 196 0
173 196 0
174 197 0
172 196 0
172 196 0
172 195 0
171 194 0
169 193 0
172 195 0
172 196 0
158 182 44
76 106 117
56 89 110
58 91 108
57 90 111
56 89 107
55 88 97
57 90 110
129 153 65
169 193 0
170 192 0
165 188 0
169 193 0
167 191 0
168 191 0
167 191 0
169 193 0
170 194 0
172 196 0
170 193 0
171 194 0
173 196 0
170 194 0
174 197 0
172 196 0
173 197 0
170 194 0
175 197 0
170 194 0
172 195 0
174 198 0
170 194 0
173 197 0
175 198 0
175 198 0
174 197 0
173 197 0
173 197 0
174 198 0
175 198 0
174 197 0
174 197 0
175 198 0
172 197 0
176 199 0
174 198 0
185 206 120
221 235 246
224 237 255
223 237 255
222 236 255
220 235 252
184 205 108
173 197 0
175 198 0
174 197 0
175 198 0
176 198 0
174 198 0
173 197 0
174 198 0
174 197 0
165 188 31
123 148 86
61 93 114
57 91 107
58 92 114
58 92 122
57 91 114
58 92 126
60 94 129
58 93 124
58 92 118
57 90 113
58 91 114
57 90 103
58 92 128
57 91 110
59 94 121
57 91 108
58 92 129
58 92 120
58 92 121
59 93 125
58 92 121
59 93 118
59 93 120
60 94 128
59 92 124
57 90 120
57 91 105
58 92 128
58 92 125
58 91 113
58 92 113
57 90 114
58 92 114
56 90 113
56 89 100
57 90 126
57 90 111
58 92 117
56 89 100
58 92 121
59 93 117
56 89 105
59 93 122
59 93 129
59 93 117
59 93 125
57 91 111
58 92 118
56 89 117
59 93 129
59 93 122
58 91 108
57 90 118
59 93 120
56 88 111
57 90 117
58 92 118
57 90 107
58 92 117
59 94 121
59 92 118
57 90 107
57 90 117
57 91 105
60 95 124
60 94 128
57 91 118
57 91 120
56 89 103
58 91 110
59 93 128
58 92 117
58 91 125
58 92 114
57 90 99
59 93 122
58 92 122
57 90 111
59 93 118
58 91 121
58 91 121
58 92 118
59 93 129
57 90 117
58 92 125
58 91 111
58 91 118
58 92 118
57 90 111
57 89 111
57 90 105
56 89 114
57 89 108
59 93 121
57 89 111
59 92 117
56 89 108
57 90 111
58 91 113
57 90 114
58 91 113
57 90 110
58 91 128
57 90 102
57 90 103
59 93 131
56 89 105
57 90 105
57 90 117
58 92 118
58 91 108
55 87 107
56 87 107
54 86 103
55 88 107
56 88 110
56 88 103
57 90 113
56 88 103
54 86 100
56 88 101
57 89 117
53 85 105
55 86 99
53 84 92
55 87 105
54 85 97
55 86 104
55 86 101
53 84 101
56 88 95
55 85 96
54 85 95
51 79 83
54 85 98
50 78 82
48 76 79
45 71 58
112 132 40
156 177 0
155 175 0
155 176 0
153 172 0
158 178 0
153 172 0
150 168 0
154 173 0
156 172 0
145 163 0
154 172 0
158 174 0
148 164 0
149 164 0
145 160 0
111 117 24
94 89 29
88 82 12
87 83 11
96 89 16
96 91 0
86 83 0
96 91 0
107 103 12
90 86 0
95 91 0
117 109 11
108 101 0
112 105 8
103 98 0
114 108 0
105 99 0
119 112 0
118 111 11
114 109 0
115 111 0
118 111 11
122 114 16
124 118 22
111 103 0
123 117 19
109 102 22
117 109 22
116 109 25
111 105 34
134 137 28
155 165 0
163 181 0
164 180 0
162 179 0
162 179 0
168 186 0
165 185 0
166 184 0
168 187 0
165 184 0
167 187 0
169 189 0
170 191 0
172 192 0
167 188 0
169 189 0
168 191 0
169 189 0
170 190 0
171 192 0
169 191 0
171 193 0
172 193 0
171 194 0
173 196 0
175 197 0
170 193 0
171 191 0
170 193 0
173 197 0
172 195 0
173 195 0
174 197 0
173 196 0
172 195 0
173 196 0
173 196 0
173 195 0
173 197 0
172 195 0
173 197 0
174 197 0
175 198 0
172 195 0
172 194 0
174 197 0
174 196 0
172 194 0
174 197 0
177 198 0
175 197 0
175 198 0
175 197 0
173 196 0
174 197 0
175 198 0
173 197 0
173 196 0
175 197 0
172 195 0
172 196 0
174 197 0
174 198 0
174 196 0
174 197 0
176 198 0
174 197 0
173 196 0
175 197 0
175 198 0
174 197 0
175 197 0
173 196 0
174 197 0
172 195 0
174 197 0
173 197 0
175 198 0
174 198 0
173 197 0
175 198 0
174 198 0
175 198 0
176 198 0
174 198 0
173 196 0
174 197 0
175 198 0
174 198 0
172 197 0
172 196 0
172 196 0
173 196 0
174 198 0
176 199 0
175 198 0
174 197 0
175 198 0
174 197 0
175 198 0
174 197 0
176 199 0
173 197 0
175 198 0
175 198 0
175 198 0
173 197 0
174 198 0
176 198 0
174 198 0
175 198 0
172 196 0
175 197 0
176 198 0
176 199 0
174 198 0
173 196 0
174 198 0
175 198 0
174 197 0
173 197 0
172 196 0
173 197 0
176 198 0
174 198 0
175 198 0
173 196 0
174 197 0
173 197 0
172 196 0
174 196 0
173 196 0
174 197 0
174 198 0
173 195 0
173 196 0
175 198 0
173 197 0
175 198 0
173 196 0
173 196 0
169 192 0
169 193 0
172 196 0
172 195 0
172 195 0
174 197 0
173 197 0
172 196 0
174 197 0
174 198 0
172 195 0
152 174 18
78 106 94
57 90 99
57 90 110
56 89 95
55 88 88
57 91 114
116 140 72
166 189 0
166 189 0
166 190 0
168 192 0
162 186 0
168 192 0
170 193 0
170 193 0
169 192 0
171 195 0
173 196 0
169 192 0
171 195 0
170 193 0
172 195 0
171 194 0
172 196 0
172 196 0
171 194 0
172 196 0
172 196 0
174 197 0
172 196 0
172 195 0
171 195 0
172 196 0
172 195 0
173 197 0
171 195 0
171 195 0
174 197 0
173 196 0
176 198 0
176 199 0
174 198 0
174 197 0
174 197 0
174 198 0
181 203 92
215 229 224
224 237 255
223 237 255
222 236 255
217 232 244
182 204 95
173 197 0
176 198 0
176 199 0
174 197 0
174 198 0
175 198 0
174 197 0
173 197 0
175 198 0
174 197 0
168 192 36
136 159 70
72 103 110
58 91 121
58 91 114
58 92 118
58 92 117
57 91 111
58 92 113
57 91 111
58 92 114
57 91 114
57 90 107
58 92 113
57 90 113
58 92 122
59 93 125
57 91 113
56 89 114
57 91 124
59 94 128
57 91 122
59 93 111
58 92 121
59 93 130
57 90 115
59 93 118
58 91 118
57 90 121
58 92 118
60 94 124
58 93 118
58 92 121
60 94 136
59 93 126
57 90 115
59 94 124
58 92 115
58 92 117
56 89 110
57 91 118
58 92 121
55 88 115
58 92 117
57 90 115
58 92 103
60 94 120
57 91 113
59 93 120
58 92 118
59 93 115
57 91 113
58 92 117
59 92 122
59 92 122
58 91 113
57 90 117
59 93 118
59 93 122
58 91 108
58 91 115
58 92 121
58 91 117
58 92 122
57 90 115
56 89 102
58 92 114
58 92 111
58 92 125
57 90 121
56 89 108
57 90 108
55 87 88
58 92 115
58 92 120
56 89 105
58 91 121
59 93 118
58 92 111
57 90 115
58 91 114
56 89 110
58 92 115
59 93 124
57 90 118
59 93 126
57 90 120
57 90 107
57 90 118
57 90 110
58 92 117
58 91 124
57 90 107
59 93 120
58 91 118
56 88 103
56 89 108
59 93 124
56 88 102
56 88 103
58 91 118
56 89 108
59 92 126
58 91 113
56 89 110
56 89 108
55 88 113
56 89 110
56 88 108
57 90 117
57 90 113
59 93 128
55 88 102
56 88 108
57 89 117
56 88 103
56 88 114
56 88 105
55 87 105
56 89 110
56 88 113
55 86 101
57 90 120
57 90 113
53 83 90
55 87 95
54 85 105
55 85 100
52 83 73
54 85 103
56 88 109
52 82 89
51 79 81
50 78 86
50 79 89
52 81 94
49 76 73
61 85 75
141 161 25
154 173 0
157 178 0
147 165 0
153 169 0
146 164 0
144 161 0
155 172 0
149 165 0
147 164 0
146 162 0
149 164 0
146 159 0
147 161 0
137 150 0
148 160 0
144 156 0
121 129 8
106 106 0
90 82 22
96 88 0
90 85 11
98 93 8
93 89 11
98 93 0
109 103 0
103 94 0
96 91 0
111 105 0
106 99 0
116 110 0
109 101 0
109 102 0
110 104 0
109 103 0
116 111 0
119 112 16
103 96 0
115 108 11
112 105 0
106 99 0
112 103 16
113 103 22
110 102 16
115 110 16
138 146 11
160 172 0
157 169 0
161 174 0
164 179 0
160 175 0
163 180 0
170 189 0
166 182 0
164 182 0
164 182 0
165 183 0
171 191 0
166 184 0
166 187 0
167 186 0
168 189 0
170 190 0
167 186 0
167 188 0
169 190 0
171 193 0
173 195 0
171 193 0
171 194 0
170 192 0
172 194 0
172 193 0
170 192 0
171 194 0
171 194 0
174 196 0
173 196 0
174 197 0
174 196 0
174 196 0
173 196 0
172 194 0
174 197 0
174 196 0
172 195 0
172 196 0
173 197 0
173 196 0
175 198 0
173 197 0
173 196 0
172 195 0
175 198 0
173 196 0
172 195 0
173 196 0
173 196 0
172 195 0
173 197 0
173 196 0
173 196 0
174 197 0
174 197 0
176 198 0
175 197 0
173 196 0
172 196 0
173 197 0
175 197 0
173 196 0
175 197 0
173 197 0
174 197 0
174 196 0
174 197 0
174 197 0
175 198 0
173 197 0
174 197 0
175 197 0
174 197 0
173 197 0
175 198 0
175 198 0
173 197 0
174 197 0
176 199 0
175 198 0
174 197 0
175 198 0
174 197 0
174 197 0
174 198 0
175 198 0
175 198 0
176 199 0
174 198 0
174 198 0
174 198 0
174 197 0
174 198 0
174 198 0
175 198 0
174 197 0
174 197 0
174 198 0
175 198 0
174 197 0
173 197 0
174 197 0
175 198 0
175 198 0
174 197 0
177 199 0
173 196 0
174 197 0
173 197 0
172 195 0
174 198 0
175 198 0
175 198 0
174 197 0
174 198 0
174 197 0
173 197 0
175 198 0
173 197 0
174 197 0
174 197 0
173 197 0
173 197 0
174 198 0
174 197 0
174 198 0
175 198 0
175 198 0
172 195 0
173 196 0
174 198 0
174 197 0
174 198 0
174 197 0
173 197 0
174 197 0
173 196 0
170 193 0
174 197 0
171 195 0
173 197 0
172 196 0
170 194 0
170 193 0
172 195 0
171 194 0
172 195 0
168 192 0
172 196 0
168 191 0
169 192 0
165 189 40
85 112 95
57 90 110
59 93 115
58 92 114
55 87 97
122 146 76
164 187 0
166 189 0
169 193 0
164 187 0
164 188 0
169 192 0
169 192 0
169 193 0
169 192 0
166 188 0
169 193 0
170 194 0
170 194 0
172 196 0
172 196 0
170 193 0
173 197 0
173 197 0
171 195 0
170 194 0
173 196 0
171 195 0
171 195 0
173 197 0
173 196 0
173 197 0
174 197 0
174 197 0
173 197 0
174 197 0
173 196 0
175 198 0
173 196 0
173 197 0
173 197 0
173 196 0
174 197 0
172 196 0
174 197 0
176 199 57
212 227 220
224 237 255
223 237 255
222 236 255
215 230 233
174 198 0
174 198 0
174 198 0
174 198 0
173 197 0
174 198 0
174 198 0
174 197 0
173 197 0
176 198 0
175 198 0
174 198 0
174 197 18
156 179 54
93 120 90
58 92 121
59 93 131
57 91 108
58 92 118
58 91 120
58 91 117
58 91 122
57 90 117
58 92 120
57 91 107
58 91 118
57 91 120
59 92 118
59 93 107
55 87 102
57 91 124
58 92 120
58 92 126
57 91 114
58 91 115
59 93 121
58 92 117
57 90 117
58 92 124
57 90 115
58 92 118
58 91 117
58 91 115
58 91 117
58 92 120
58 92 124
57 90 110
58 93 122
56 89 107
59 93 120
60 94 124
59 93 120
57 90 113
56 89 113
60 94 128
58 92 118
56 89 111
58 91 110
58 91 115
56 89 108
58 92 120
57 91 111
58 92 122
59 93 125
57 91 111
57 91 107
56 90 103
57 91 110
59 93 120
58 91 118
57 91 118
57 90 113
58 92 120
57 90 108
55 89 103
59 93 125
57 91 113
57 90 114
57 91 120
60 94 126
58 91 103
58 92 114
56 90 103
56 90 107
57 90 105
58 92 121
58 91 114
58 91 117
57 91 115
58 92 115
57 89 105
55 87 103
57 91 121
58 92 121
57 90 118
57 91 113
58 91 118
55 88 107
57 90 115
57 91 103
57 90 107
58 91 120
59 93 118
57 91 115
58 91 108
57 91 110
57 90 120
56 89 108
58 91 114
57 89 108
58 92 115
57 90 110
57 91 110
57 91 115
56 89 110
58 91 118
56 88 105
57 90 111
57 90 110
56 88 111
55 87 103
56 88 113
57 90 100
59 92 117
54 85 107
57 90 113
55 87 102
55 88 100
56 88 105
57 90 115
54 85 95
54 85 105
54 85 98
56 88 106
53 84 84
55 87 105
54 84 102
56 87 108
52 81 90
56 88 113
51 78 78
54 84 95
52 83 76
51 81 90
52 81 91
48 75 70
48 75 73
118 138 48
146 164 0
152 172 0
145 164 0
147 163 0
143 160 0
145 162 0
148 164 0
140 155 0
147 162 0
138 154 0
136 150 0
140 156 0
139 151 0
148 161 0
135 145 0
138 149 0
140 152 0
135 143 0
128 133 0
109 111 0
79 75 11
80 74 11
81 74 0
96 90 0
96 91 0
92 84 0
92 83 0
92 84 0
106 98 0
102 95 0
95 89 0
113 106 0
114 106 0
96 88 0
118 110 0
111 103 0
115 107 0
105 98 0
108 100 16
103 94 0
104 96 19
107 98 11
101 93 19
122 121 16
145 154 11
157 169 0
164 176 0
153 164 0
156 168 0
165 179 0
159 174 0
161 173 0
160 175 0
165 182 0
168 187 0
167 185 0
163 180 0
165 184 0
169 187 0
167 186 0
165 183 0
167 185 0
171 191 0
167 187 0
170 191 0
172 192 0
170 191 0
169 191 0
171 193 0
169 191 0
167 188 0
172 194 0
173 196 0
173 194 0
171 192 0
174 195 0
173 194 0
174 197 0
174 196 0
174 196 0
172 195 0
172 195 0
173 195 0
172 195 0
173 196 0
173 197 0
175 197 0
172 195 0
173 196 0
171 193 0
173 196 0
171 194 0
173 195 0
174 197 0
171 193 0
173 196 0
175 197 0
173 197 0
174 196 0
172 196 0
174 197 0
174 197 0
173 197 0
172 196 0
172 197 0
174 197 0
174 198 0
174 197 0
175 197 0
174 198 0
173 197 0
175 198 0
176 198 0
174 197 0
177 199 0
172 196 0
172 196 0
175 198 0
175 198 0
171 195 0
174 197 0
175 198 0
174 197 0
173 197 0
172 196 0
173 196 0
173 196 0
174 198 0
174 197 0
175 197 0
175 198 0
173 197 0
174 197 0
174 197 0
173 197 0
175 198 0
173 197 0
174 197 0
174 197 0
174 197 0
174 198 0
174 198 0
176 198 0
174 198 0
174 197 0
174 198 0
174 197 0
177 199 0
174 198 0
173 197 0
176 198 0
174 197 0
173 197 0
172 196 0
174 198 0
174 197 0
173 197 0
175 198 0
175 198 0
172 197 0
174 198 0
173 196 0
173 197 0
174 197 0
176 198 0
175 198 0
175 198 0
173 197 0
173 197 0
177 199 0
173 197 0
173 197 0
173 197 0
175 198 0
173 196 0
173 196 0
172 196 0
174 198 0
173 197 0
173 197 0
171 195 0
172 196 0
175 198 0
173 197 0
174 198 0
171 195 0
175 198 0
173 196 0
173 197 0
174 197 0
175 198 0
172 196 0
173 196 0
168 191 0
172 196 0
168 192 0
170 194 0
170 194 0
167 191 0
170 194 0
171 194 0
158 182 31
80 109 94
54 86 94
54 86 92
56 88 105
147 168 47
167 191 0
163 187 0
162 184 0
163 186 0
165 188 0
169 191 0
165 189 0
170 194 0
166 189 0
172 196 0
167 190 0
171 194 0
172 195 0
172 196 0
169 193 0
169 193 0
170 194 0
173 197 0
174 197 0
172 196 0
168 192 0
168 193 0
171 194 0
172 196 0
169 192 0
170 193 0
172 195 0
172 196 0
171 195 0
173 196 0
172 196 0
172 196 0
172 196 0
172 195 0
171 195 0
173 197 0
173 197 0
173 197 0
173 196 0
174 197 0
177 200 62
209 225 211
224 237 255
223 236 255
222 236 255
199 218 182
174 198 0
173 197 0
175 198 0
175 198 0
174 197 0
175 198 0
175 198 0
174 198 0
174 198 0
174 197 0
175 198 0
174 197 0
175 198 0
172 196 0
158 182 47
104 131 102
66 97 118
57 90 113
57 91 115
57 91 113
58 92 115
59 92 113
57 91 114
57 91 113
58 92 124
58 92 118
58 91 122
57 90 110
57 90 114
58 92 117
60 94 129
59 92 117
59 93 128
58 92 117
58 91 126
58 92 113
59 94 126
59 93 121
58 92 120
57 90 100
59 92 117
58 92 120
58 93 129
58 91 118
57 90 118
58 92 118
57 91 121
58 91 113
57 90 114
57 90 114
58 92 128
58 92 103
57 91 115
57 90 118
58 92 122
59 92 117
59 93 118
57 90 118
58 91 121
60 94 121
56 90 102
59 93 120
57 91 111
59 92 120
58 91 105
58 92 121
56 89 99
57 91 122
58 92 133
58 92 124
59 93 121
56 89 105
57 90 110
58 92 120
56 89 111
59 93 126
58 92 117
55 87 99
59 93 121
56 89 94
57 90 108
56 90 114
56 89 107
57 89 117
55 87 102
57 90 107
58 92 121
57 90 111
58 91 115
56 89 108
58 91 121
58 92 114
59 93 128
57 90 124
58 92 120
55 86 102
57 90 115
57 90 114
57 90 114
58 91 115
56 89 113
56 89 105
58 92 117
57 90 115
57 89 121
58 92 120
58 91 111
57 91 115
57 91 111
58 91 120
58 91 115
56 88 99
57 90 102
57 91 120
58 91 113
56 89 103
55 87 103
57 91 108
56 89 102
54 86 81
55 87 104
57 89 111
57 89 108
56 89 99
58 90 118
56 87 107
57 89 114
56 87 102
56 89 108
55 88 103
53 84 88
52 83 94
54 85 94
53 83 98
56 89 101
55 86 96
55 86 100
53 84 84
50 79 84
52 81 83
51 81 92
52 82 94
45 71 70
48 75 75
47 73 75
60 85 72
136 155 0
137 156 0
139 157 0
134 152 0
138 156 0
135 150 0
142 159 0
141 155 0
127 142 0
138 151 0
139 155 0
133 146 0
139 151 0
141 152 0
134 144 0
137 149 0
127 140 0
127 136 0
131 137 0
128 135 0
124 129 0
120 123 11
104 102 0
96 90 16
79 72 0
94 88 0
90 81 0
83 78 0
87 81 0
90 84 0
82 74 3
88 83 0
101 94 0
100 91 0
108 98 0
103 96 0
102 93 0
98 88 11
108 100 0
101 91 0
115 104 11
109 102 11
116 112 22
139 142 0
149 153 0
142 147 0
143 148 0
153 162 0
155 163 0
156 167 0
158 170 0
161 174 0
158 171 0
162 177 0
160 175 0
165 182 0
166 183 0
168 185 0
166 184 0
167 184 0
170 189 0
167 185 0
166 185 0
164 182 0
166 187 0
169 189 0
171 193 0
169 190 0
168 188 0
168 191 0
170 190 0
172 193 0
167 187 0
167 188 0
168 190 0
170 192 0
174 195 0
169 191 0
170 193 0
172 193 0
173 194 0
171 192 0
171 194 0
170 192 0
169 192 0
173 197 0
175 197 0
173 196 0
173 195 0
172 195 0
171 194 0
174 197 0
174 197 0
173 196 0
170 194 0
175 197 0
172 195 0
171 195 0
174 197 0
172 196 0
174 197 0
173 196 0
172 195 0
173 195 0
174 197 0
175 198 0
173 196 0
175 197 0
172 196 0
173 196 0
174 196 0
175 198 0
173 196 0
173 197 0
175 197 0
171 195 0
175 198 0
174 197 0
173 197 0
173 196 0
173 197 0
175 198 0
174 197 0
173 196 0
173 197 0
173 196 0
173 196 0
170 194 0
175 198 0
173 197 0
173 197 0
173 196 0
175 198 0
174 197 0
172 196 0
171 196 0
175 198 0
175 198 0
174 198 0
175 198 0
173 197 0
174 198 0
174 197 0
173 197 0
173 197 0
175 198 0
175 198 0
175 198 0
174 197 0
174 198 0
174 198 0
173 197 0
174 198 0
174 198 0
172 196 0
173 196 0
173 196 0
174 197 0
174 198 0
174 197 0
173 197 0
173 196 0
174 197 0
174 197 0
174 198 0
175 198 0
173 197 0
173 197 0
174 197 0
174 197 0
174 197 0
174 197 0
173 196 0
174 197 0
171 195 0
172 196 0
174 198 0
172 196 0
173 196 0
174 197 0
172 195 0
174 197 0
171 195 0
174 197 0
173 197 0
174 198 0
172 195 0
174 197 0
172 195 0
174 198 0
175 197 0
174 197 0
172 196 0
172 195 0
171 195 0
171 195 0
174 197 0
170 193 0
174 197 0
172 196 0
172 195 0
164 187 0
167 190 0
159 182 0
77 105 94
57 90 100
80 107 88
163 187 0
165 188 0
161 184 0
162 185 0
163 186 0
168 190 0
168 191 0
161 185 0
162 185 0
168 192 0
170 193 0
168 191 0
168 192 0
166 190 0
167 190 0
167 190 0
166 189 0
168 191 0
170 192 0
170 193 0
172 195 0
169 192 0
175 197 0
169 193 0
171 195 0
174 197 0
172 196 0
174 197 0
174 197 0
173 197 0
171 195 0
175 198 0
173 196 0
174 197 0
173 197 0
173 196 0
173 196 0
173 196 0
174 197 0
175 198 0
173 197 0
175 198 0
174 198 36
212 228 221
224 237 255
223 236 255
221 235 254
185 205 125
173 197 0
173 197 0
175 198 0
175 198 0
174 197 0
172 197 0
175 198 0
174 198 0
175 198 0
175 198 0
174 197 0
174 197 0
174 197 0
172 197 0
172 196 0
167 190 25
122 146 84
76 105 86
58 92 114
57 90 100
58 91 103
58 91 113
57 91 113
57 90 105
58 92 114
56 90 105
58 91 115
57 91 111
58 92 122
59 93 111
59 93 126
58 92 122
58 92 117
57 91 110
58 91 121
58 92 117
57 90 115
58 92 120
57 90 107
58 92 103
57 91 108
56 89 100
58 91 113
57 90 114
58 92 121
57 90 111
57 90 120
56 89 108
56 89 95
56 89 114
56 90 99
57 91 111
58 91 113
58 92 120
57 90 102
59 93 124
60 94 131
57 90 114
59 94 125
58 91 126
58 91 111
59 93 121
58 92 117
57 90 110
56 90 108
59 93 125
59 93 121
57 90 111
56 89 105
57 90 105
58 92 115
57 91 114
58 92 120
57 91 111
56 89 107
59 93 122
56 89 110
58 91 114
58 91 108
56 90 105
57 90 113
57 90 105
57 90 110
59 93 117
58 92 108
57 90 111
58 91 117
56 88 108
56 90 107
59 93 121
56 89 107
56 89 103
59 92 121
56 89 103
58 92 121
56 88 103
58 91 113
56 88 108
57 89 110
57 90 120
58 91 114
57 90 110
57 90 113
57 91 115
57 90 99
56 89 113
57 90 122
56 89 111
59 92 120
57 90 102
58 91 113
56 89 107
57 90 115
56 89 111
57 90 118
58 91 108
57 89 110
56 87 102
55 87 97
54 85 110
55 87 95
56 88 107
55 87 92
56 88 117
54 86 100
54 85 97
53 84 104
55 87 105
55 86 108
55 87 92
54 86 94
54 86 100
55 86 110
50 80 77
51 80 76
52 81 94
54 84 100
49 77 69
51 81 86
51 80 89
53 82 95
49 78 74
47 74 75
48 75 61
105 123 44
128 145 0
130 146 0
137 153 0
137 152 0
136 152 0
143 158 0
132 149 0
136 151 0
125 139 0
122 138 0
117 128 0
132 145 0
132 144 0
119 129 0
127 137 0
132 141 0
112 119 0
126 132 0
112 118 0
111 116 0
117 121 0
118 121 0
118 119 0
105 104 0
93 91 0
81 75 0
88 81 11
78 68 0
64 58 0
79 71 0
86 77 0
93 81 0
91 83 0
97 88 0
98 89 0
89 80 11
92 80 0
96 85 11
98 90 0
122 115 11
114 111 0
127 125 0
136 137 0
131 132 0
142 144 0
142 148 0
147 154 0
143 150 0
155 163 0
157 168 0
148 158 0
154 166 0
163 178 0
161 175 0
163 178 0
162 178 0
160 177 0
163 178 0
163 181 0
166 184 0
167 185 0
167 186 0
171 190 0
168 189 0
163 180 0
165 186 0
168 188 0
168 188 0
169 189 0
168 188 0
170 191 0
169 189 0
168 189 0
173 194 0
169 191 0
172 195 0
172 193 0
171 192 0
172 194 0
171 194 0
171 194 0
171 195 0
172 195 0
173 195 0
172 194 0
172 194 0
174 195 0
170 193 0
170 193 0
171 194 0
171 193 0
173 196 0
171 193 0
175 198 0
171 194 0
173 196 0
174 197 0
173 196 0
171 194 0
172 195 0
172 196 0
174 197 0
174 197 0
173 195 0
173 196 0
172 195 0
172 195 0
172 196 0
173 196 0
174 197 0
175 198 0
174 198 0
175 198 0
175 196 0
174 197 0
175 197 0
176 197 0
174 198 0
174 198 0
173 196 0
174 197 0
172 196 0
173 197 0
173 195 0
175 198 0
172 196 0
173 196 0
172 195 0
174 196 0
175 198 0
174 198 0
173 197 0
175 198 0
174 198 0
174 197 0
176 199 0
175 198 0
173 197 0
175 197 0
175 198 0
174 198 0
174 198 0
175 198 0
176 198 0
174 198 0
174 198 0
174 197 0
175 198 0
174 197 0
174 198 0
175 198 0
173 197 0
175 198 0
175 198 0
172 196 0
174 197 0
174 197 0
176 198 0
173 197 0
176 198 0
172 196 0
173 196 0
175 198 0
176 199 0
174 198 0
173 196 0
173 197 0
174 197 0
173 197 0
171 195 0
173 197 0
173 197 0
173 197 0
173 196 0
174 197 0
174 197 0
173 197 0
174 197 0
173 196 0
174 197 0
174 198 0
174 198 0
172 196 0
174 197 0
172 196 0
174 197 0
174 198 0
172 196 0
171 194 0
172 196 0
173 197 0
174 198 0
170 194 0
171 195 0
170 195 0
170 193 0
172 195 0
170 193 0
172 195 0
171 195 0
169 194 0
170 193 0
171 193 0
168 192 0
152 176 36
72 101 90
128 150 60
158 181 0
157 181 0
160 184 0
163 186 0
164 186 0
162 186 0
160 184 0
161 184 0
161 184 0
164 187 0
165 188 0
165 189 0
166 190 0
170 194 0
168 191 0
165 189 0
168 190 0
165 189 0
169 193 0
170 193 0
172 195 0
171 195 0
172 196 0
169 193 0
170 194 0
172 196 0
174 197 0
171 194 0
168 191 0
169 192 0
174 197 0
174 198 0
175 198 0
174 197 0
175 198 0
174 197 0
171 195 0
174 198 0
175 198 0
173 197 0
174 197 0
174 198 0
173 197 0
177 200 57
212 227 218
223 237 255
222 236 255
218 233 246
179 202 84
173 197 0
175 198 0
172 196 0
175 198 0
173 197 0
174 197 0
174 197 0
174 197 0
175 198 0
172 196 0
173 197 0
174 197 0
174 198 0
172 196 0
173 196 0
173 197 0
174 196 0
151 174 62
95 121 88
57 90 114
58 91 113
57 91 115
58 91 110
57 90 114
57 91 102
58 92 122
56 90 111
59 92 124
58 91 118
57 90 114
57 90 121
58 92 114
56 89 111
56 89 111
57 91 114
57 91 111
57 90 111
59 93 117
56 89 105
59 92 117
57 91 111
58 92 113
57 89 111
56 89 113
59 93 122
59 94 121
57 90 110
56 89 111
58 91 121
58 92 121
58 91 115
57 91 108
58 91 120
58 91 110
55 88 105
57 91 124
56 89 95
57 89 117
57 91 111
58 92 120
59 93 121
58 91 113
56 89 103
57 89 115
56 89 110
57 90 118
57 90 105
57 90 111
57 90 114
58 91 110
59 93 120
59 93 118
58 92 118
55 87 102
57 91 117
58 92 114
56 90 111
56 90 110
58 91 118
57 90 115
58 92 115
57 91 108
56 89 103
59 93 126
59 93 111
55 87 95
57 90 120
57 91 110
55 88 95
59 93 122
58 91 111
57 90 103
57 91 114
58 91 115
56 89 100
56 89 94
57 90 97
58 91 107
55 88 105
55 87 107
57 90 114
57 90 105
58 91 117
58 91 124
56 88 105
56 89 111
56 88 111
56 88 108
54 85 110
56 89 111
56 88 100
55 87 100
58 90 113
56 89 103
58 91 108
57 89 110
55 86 100
57 89 117
54 86 100
54 86 88
55 86 107
54 85 99
53 84 92
54 85 92
56 88 108
55 88 107
56 89 115
55 88 92
55 87 98
55 86 105
54 85 102
54 86 92
54 85 99
51 81 83
50 79 81
51 80 77
53 83 101
50 79 86
49 77 81
50 78 80
48 75 82
49 76 81
68 86 44
121 137 0
132 149 0
130 146 0
135 149 0
125 140 0
126 141 0
126 143 0
130 144 0
135 149 0
117 131 0
131 144 0
126 138 0
116 127 0
126 138 0
127 138 0
116 125 0
116 123 0
115 122 0
119 128 0
110 115 0
116 120 0
116 119 0
110 114 0
86 83 0
90 89 0
97 96 0
91 90 0
92 88 0
84 80 0
86 78 0
78 70 0
87 79 0
77 68 0
72 63 0
87 81 0
82 75 0
92 88 0
96 87 0
110 102 0
112 108 0
128 127 0
122 115 0
127 130 0
133 131 0
140 139 0
135 138 0
141 144 0
147 155 0
145 151 0
148 159 0
161 175 0
159 172 0
161 173 0
160 173 0
165 180 0
162 174 0
166 183 0
166 182 0
166 183 0
162 177 0
165 183 0
164 183 0
165 184 0
167 187 0
169 187 0
168 186 0
168 189 0
172 191 0
164 184 0
165 184 0
169 189 0
171 192 0
170 190 0
167 187 0
170 193 0
171 193 0
170 190 0
167 188 0
170 190 0
171 193 0
172 193 0
171 191 0
172 196 0
171 193 0
170 192 0
172 194 0
170 193 0
173 196 0
170 191 0
172 194 0
173 196 0
172 194 0
172 195 0
175 197 0
172 194 0
173 196 0
174 195 0
174 196 0
172 194 0
174 196 0
173 196 0
172 195 0
170 194 0
173 197 0
172 195 0
174 197 0
173 196 0
173 196 0
173 197 0
173 196 0
172 196 0
174 197 0
173 197 0
173 196 0
174 197 0
172 196 0
174 196 0
173 197 0
174 198 0
174 197 0
173 196 0
175 198 0
175 198 0
174 198 0
175 198 0
171 195 0
172 196 0
173 197 0
174 198 0
174 197 0
172 196 0
174 197 0
174 197 0
174 197 0
174 197 0
175 197 0
175 198 0
175 198 0
174 198 0
171 195 0
176 199 0
174 197 0
172 196 0
173 196 0
173 197 0
174 198 0
173 197 0
174 197 0
175 197 0
173 197 0
173 197 0
173 197 0
175 198 0
174 198 0
172 196 0
175 198 0
174 198 0
173 197 0
173 197 0
175 198 0
172 196 0
174 198 0
176 199 0
173 197 0
173 197 0
173 196 0
174 197 0
173 197 0
173 197 0
175 198 0
174 198 0
173 197 0
174 197 0
175 198 0
169 193 0
174 197 0
174 198 0
173 196 0
174 197 0
173 197 0
174 198 0
172 195 0
172 196 0
173 196 0
172 196 0
172 196 0
172 196 0
172 196 0
169 192 0
171 195 0
174 197 0
172 195 0
170 193 0
171 194 0
169 193 0
170 193 0
173 196 0
172 195 0
166 190 0
171 194 0
171 194 0
168 190 0
167 190 0
171 194 0
167 192 0
166 189 0
146 169 25
163 185 0
163 185 0
158 181 0
156 179 0
163 187 0
155 178 0
163 186 0
162 186 0
163 186 0
158 182 0
163 187 0
165 188 0
166 189 0
164 187 0
166 189 0
168 191 0
162 185 0
164 187 0
168 190 0
165 188 0
166 189 0
168 191 0
168 193 0
168 192 0
172 196 0
170 193 0
169 193 0
169 192 0
172 194 0
170 194 0
171 193 0
170 193 0
173 196 0
171 195 0
170 194 0
174 197 0
173 196 0
173 197 0
173 196 0
174 197 0
173 196 0
173 197 0
174 197 0
172 197 0
175 198 0
179 201 67
219 233 241
223 237 255
222 236 255
203 220 194
175 198 0
173 196 0
173 197 0
174 198 0
174 197 0
172 196 0
173 196 0
175 198 0
174 197 0
173 197 0
176 198 0
175 198 0
175 198 0
173 197 0
173 196 0
174 197 0
174 197 0
175 198 0
174 198 0
161 184 36
123 148 74
81 108 105
57 90 99
58 92 114
56 89 110
57 91 108
58 91 115
56 89 110
58 92 117
57 90 102
58 91 115
58 92 122
56 89 111
56 89 103
55 88 107
56 89 100
58 92 113
57 91 121
58 92 118
56 89 107
57 89 117
57 90 107
57 91 113
58 91 121
56 89 110
55 88 105
59 93 107
57 91 108
56 89 115
56 89 108
56 88 113
56 89 102
58 91 105
57 91 111
58 92 122
57 90 113
57 90 108
56 89 103
58 91 113
57 90 111
58 92 114
58 92 117
58 92 113
58 92 118
57 91 118
56 89 110
59 93 121
57 90 115
57 91 111
56 88 121
58 91 117
58 91 120
57 89 120
56 88 108
58 92 113
57 91 121
57 91 113
58 91 115
57 90 114
58 91 117
59 93 115
55 88 92
57 91 110
59 94 125
57 90 105
56 88 110
58 91 113
55 88 97
57 89 114
57 91 108
56 88 99
56 89 105
55 87 102
57 91 111
56 89 107
56 90 103
58 91 108
55 87 99
57 90 107
54 86 102
56 88 111
55 88 102
56 89 94
55 88 90
57 90 97
57 90 100
56 88 100
57 89 117
57 90 111
57 90 108
57 90 105
54 86 99
57 91 111
57 89 99
55 88 103
56 89 114
54 86 84
55 87 102
57 90 107
55 87 99
56 87 97
55 87 102
52 83 92
55 88 103
54 86 95
54 85 97
54 85 105
52 83 76
56 89 114
53 85 94
51 81 82
51 81 85
54 85 97
52 82 87
51 80 80
51 79 88
52 81 90
53 83 81
51 81 91
47 74 70
47 74 77
49 71 66
113 130 18
131 149 0
126 142 0
125 140 0
128 145 0
115 131 0
130 145 0
123 140 0
133 148 0
125 139 0
120 133 0
129 142 0
127 140 0
123 132 0
114 122 0
114 123 0
112 121 0
117 127 0
106 114 0
107 113 0
113 118 0
113 117 0
109 112 0
103 109 0
107 108 0
103 104 0
91 92 0
102 101 0
100 101 0
91 86 0
86 82 0
90 86 0
96 94 0
88 88 0
104 102 0
100 95 0
95 92 0
113 107 0
105 102 0
122 119 0
111 107 0
127 130 0
124 120 0
136 135 0
145 149 0
134 137 0
146 151 0
141 149 0
148 154 0
155 163 0
159 172 0
156 164 0
156 167 0
154 165 0
158 170 0
155 168 0
158 171 0
153 165 0
163 176 0
161 176 0
164 181 0
167 182 0
165 183 0
168 186 0
166 184 0
165 183 0
163 183 0
168 188 0
169 190 0
166 184 0
166 187 0
169 190 0
168 189 0
170 193 0
167 188 0
170 191 0
168 190 0
170 192 0
169 190 0
172 193 0
171 192 0
170 191 0
172 194 0
171 193 0
170 191 0
169 191 0
173 196 0
171 194 0
172 193 0
170 193 0
170 193 0
172 194 0
170 191 0
171 194 0
173 196 0
172 195 0
174 196 0
173 196 0
173 196 0
173 195 0
172 193 0
174 196 0
174 197 0
171 194 0
175 198 0
173 196 0
173 197 0
174 196 0
174 196 0
174 197 0
174 197 0
173 196 0
173 196 0
174 197 0
174 196 0
174 197 0
175 198 0
174 197 0
174 197 0
172 196 0
174 197 0
173 196 0
173 197 0
173 196 0
173 197 0
174 197 0
174 198 0
174 197 0
174 198 0
172 196 0
175 198 0
174 198 0
174 197 0
175 197 0
174 198 0
176 198 0
174 196 0
174 197 0
174 198 0
173 197 0
175 198 0
173 196 0
173 197 0
172 196 0
174 197 0
175 198 0
173 196 0
172 196 0
173 197 0
175 198 0
175 198 0
175 198 0
174 198 0
175 198 0
172 197 0
174 197 0
174 198 0
172 196 0
174 198 0
173 196 0
175 198 0
174 197 0
172 195 0
174 198 0
173 197 0
173 197 0
171 196 0
174 197 0
173 197 0
174 197 0
175 198 0
174 197 0
172 196 0
174 197 0
174 197 0
172 195 0
173 197 0
175 198 0
174 197 0
171 195 0
171 195 0
171 194 0
170 194 0
172 195 0
172 196 0
174 197 0
172 195 0
172 196 0
169 193 0
169 193 0
171 195 0
171 195 0
172 195 0
170 195 0
172 196 0
174 197 0
170 194 0
171 194 0
170 194 0
172 196 0
170 194 0
166 190 0
169 192 0
168 191 0
172 195 0
167 190 0
167 191 0
166 189 0
165 187 0
161 185 0
154 177 0
162 186 0
166 188 0
162 185 0
161 183 0
160 184 0
160 184 0
160 183 0
162 185 0
165 188 0
164 187 0
164 188 0
163 186 0
167 190 0
156 180 0
167 191 0
162 185 0
165 188 0
168 192 0
162 186 0
171 194 0
166 190 0
167 190 0
167 191 0
167 191 0
171 194 0
169 193 0
172 195 0
171 194 0
172 195 0
170 193 0
172 195 0
174 198 0
170 193 0
171 195 0
174 197 0
170 194 0
174 198 0
171 195 0
172 196 0
174 197 0
173 197 0
174 198 0
173 197 0
182 204 99
221 235 248
223 236 255
221 235 254
185 206 120
174 198 0
174 197 0
174 197 0
174 197 0
176 199 0
172 196 0
175 198 0
173 197 0
173 197 0
174 197 0
173 196 0
172 196 0
171 195 0
173 197 0
173 196 0
175 198 0
174 198 0
174 198 0
174 197 0
174 197 0
173 197 18
148 171 51
95 122 105
66 96 115
58 92 120
57 90 107
58 92 114
57 90 115
56 89 107
58 92 115
56 89 108
58 91 107
57 91 110
57 91 113
56 89 107
57 90 115
57 90 103
57 90 103
57 90 105
58 92 111
57 90 114
57 90 110
56 89 103
57 91 103
57 90 114
58 92 117
57 91 114
57 91 113
58 91 111
57 90 110
58 91 117
56 89 103
56 88 95
57 90 110
57 90 120
57 90 120
58 92 111
56 89 107
56 89 107
59 93 118
57 90 103
54 87 102
58 92 122
55 88 100
59 93 122
58 91 124
57 91 111
57 90 108
56 89 111
57 91 115
58 92 100
58 91 118
57 91 122
58 91 114
58 92 113
56 89 105
58 92 117
57 90 118
56 88 100
57 90 103
58 92 120
58 91 108
56 88 103
58 91 108
57 90 105
56 89 105
56 88 102
56 89 100
57 90 102
57 89 110
58 92 113
60 94 126
56 89 113
56 88 105
56 90 105
58 92 115
57 90 115
57 90 107
56 88 111
56 90 99
55 87 103
55 88 99
55 87 97
55 88 105
57 90 103
56 89 100
55 86 99
58 91 115
56 88 108
56 89 103
55 87 102
54 86 92
55 86 104
56 88 108
57 90 111
56 88 105
54 86 88
54 86 99
55 87 105
54 85 103
54 86 92
55 87 94
53 83 90
54 85 99
53 83 83
53 84 94
53 83 99
55 87 97
53 84 89
51 81 90
53 84 103
51 81 76
50 80 82
50 79 94
48 76 73
52 81 85
50 78 78
46 72 72
48 75 77
46 72 61
109 124 19
124 139 0
119 135 0
125 142 0
123 139 0
118 133 0
115 128 0
114 125 0
117 130 0
124 137 0
127 140 0
117 128 0
119 132 0
125 136 0
124 132 0
118 130 0
125 134 0
106 116 0
121 129 0
110 114 0
114 123 0
110 117 0
111 116 0
111 118 0
118 120 0
115 118 0
102 104 0
101 99 0
102 102 0
112 112 0
111 111 0
106 105 0
109 107 0
107 106 0
105 103 0
112 110 0
119 119 0
112 108 0
113 115 0
127 130 0
120 118 0
124 123 0
137 142 0
132 134 0
135 132 0
142 144 0
142 147 0
154 162 0
151 156 0
150 158 0
148 155 0
152 162 0
152 161 0
157 168 0
157 167 0
161 174 0
151 166 0
157 167 0
165 179 0
161 178 0
164 180 0
158 174 0
161 180 0
167 184 0
167 187 0
162 179 0
168 188 0
165 183 0
169 188 0
166 186 0
168 188 0
167 187 0
168 189 0
167 189 0
171 191 0
169 189 0
167 187 0
169 189 0
169 188 0
171 190 0
170 191 0
172 194 0
169 189 0
170 192 0
170 192 0
171 192 0
171 193 0
171 191 0
172 195 0
169 192 0
170 193 0
172 194 0
173 195 0
173 194 0
173 196 0
174 196 0
169 192 0
173 196 0
173 195 0
170 192 0
172 196 0
171 195 0
171 193 0
171 193 0
173 197 0
173 195 0
172 195 0
170 194 0
172 196 0
173 196 0
174 197 0
174 197 0
173 196 0
174 197 0
173 196 0
174 197 0
173 197 0
175 197 0
174 197 0
175 197 0
172 197 0
175 197 0
174 197 0
175 198 0
173 197 0
174 197 0
173 195 0
173 196 0
175 198 0
174 197 0
172 196 0
174 197 0
173 197 0
173 196 0
174 198 0
171 195 0
170 194 0
173 196 0
172 196 0
174 197 0
173 197 0
174 198 0
174 198 0
175 198 0
176 199 0
174 197 0
174 198 0
174 198 0
174 197 0
173 196 0
173 196 0
175 198 0
173 197 0
173 197 0
175 198 0
173 196 0
175 198 0
172 195 0
172 196 0
174 198 0
175 198 0
176 199 0
174 198 0
175 198 0
171 195 0
174 197 0
174 198 0
174 197 0
174 198 0
173 197 0
172 196 0
172 196 0
172 196 0
175 198 0
175 198 0
172 196 0
171 195 0
173 196 0
173 197 0
172 196 0
172 195 0
174 198 0
174 197 0
171 195 0
173 196 0
173 196 0
171 195 0
172 196 0
174 197 0
172 196 0
171 195 0
172 196 0
168 192 0
171 194 0
171 194 0
166 190 0
167 191 0
170 195 0
168 191 0
172 195 0
171 193 0
174 197 0
172 195 0
168 192 0
168 191 0
165 188 0
170 194 0
170 194 0
165 188 0
161 185 0
161 184 0
151 173 0
157 180 0
160 184 0
160 183 0
153 177 0
155 177 0
166 189 0
160 184 0
161 184 0
159 182 0
162 185 0
160 182 0
165 188 0
164 187 0
161 184 0
165 188 0
166 189 0
163 186 0
167 189 0
167 190 0
164 187 0
166 189 0
167 190 0
169 192 0
167 191 0
171 194 0
171 195 0
169 193 0
174 198 0
169 193 0
169 193 0
170 192 0
171 195 0
171 195 0
173 196 0
173 197 0
170 194 0
172 195 0
173 196 0
172 195 0
174 197 0
174 197 0
173 197 0
175 198 0
173 197 0
192 211 142
224 237 255
222 236 255
210 227 226
171 196 0
174 198 0
174 198 0
174 197 0
174 198 0
172 196 0
175 198 0
174 197 0
175 198 0
171 195 0
172 196 0
174 198 0
174 197 0
173 196 0
175 198 0
174 198 0
173 196 0
174 197 0
174 197 0
172 197 0
175 197 0
175 198 0
172 196 0
166 189 40
134 159 76
95 122 88
55 88 95
58 92 113
57 91 115
58 92 120
57 90 95
57 90 100
55 88 114
56 89 107
56 89 100
56 88 107
56 89 113
59 92 129
57 91 115
57 91 107
56 89 110
57 91 113
57 90 114
54 87 108
57 90 94
58 92 110
58 91 117
59 92 118
60 94 118
56 89 105
57 91 108
57 89 114
57 90 110
59 93 121
58 92 122
55 88 102
55 88 110
57 90 105
56 90 103
56 89 118
57 90 113
56 89 105
57 89 105
56 90 111
58 91 115
56 89 111
57 90 108
57 90 111
56 88 110
56 90 102
56 89 111
57 91 115
57 90 110
56 89 111
58 91 113
57 90 121
57 90 114
57 90 103
57 90 108
58 91 120
56 89 102
57 89 114
58 91 114
56 89 103
54 86 97
57 91 107
57 90 113
59 93 121
57 90 114
56 89 107
56 88 105
57 91 103
57 90 115
58 92 118
58 92 117
55 88 94
54 86 105
56 89 113
55 87 95
53 85 88
55 88 95
56 89 97
54 86 97
58 91 114
56 89 110
54 86 92
55 88 100
56 89 110
57 90 114
56 88 105
54 86 99
55 87 105
56 88 100
55 87 99
55 87 94
54 85 94
54 86 103
53 83 97
55 88 102
55 87 100
54 85 100
54 85 103
53 84 78
53 84 80
54 85 102
54 85 95
53 84 95
53 83 92
52 82 84
52 82 85
52 82 88
54 85 92
52 82 82
51 80 82
52 82 82
48 76 78
47 74 72
48 76 75
46 72 70
89 104 25
106 120 0
116 130 0
104 115 0
109 123 0
108 124 0
116 130 0
111 123 0
108 122 0
114 127 0
117 133 0
121 134 0
119 129 0
122 135 0
127 138 0
122 134 0
112 122 0
123 135 0
103 113 0
119 127 0
107 115 0
127 137 0
110 117 0
110 117 0
116 121 0
114 120 0
113 119 0
114 117 0
108 112 0
113 118 0
112 117 0
113 110 0
122 124 0
117 122 0
121 123 0
119 121 0
122 124 0
125 127 0
121 122 0
128 132 0
131 133 0
119 115 0
137 141 0
128 130 0
133 139 0
144 153 0
144 151 0
147 156 0
146 152 0
154 161 0
147 156 0
152 160 0
155 164 0
158 170 0
159 170 0
160 172 0
159 172 0
158 174 0
160 176 0
162 177 0
166 182 0
163 180 0
162 180 0
166 183 0
160 177 0
161 179 0
166 183 0
165 183 0
162 181 0
169 189 0
168 188 0
163 182 0
167 186 0
168 188 0
171 193 0
169 189 0
169 190 0
167 188 0
169 189 0
169 190 0
168 189 0
169 187 0
167 187 0
171 191 0
172 193 0
170 193 0
173 196 0
171 192 0
170 192 0
169 192 0
170 192 0
169 193 0
169 191 0
169 192 0
174 195 0
172 193 0
172 195 0
171 194 0
174 196 0
172 196 0
170 193 0
172 194 0
174 197 0
173 195 0
172 195 0
172 194 0
170 194 0
174 197 0
172 194 0
173 195 0
173 196 0
173 195 0
174 197 0
173 196 0
175 198 0
172 195 0
172 196 0
172 196 0
173 197 0
172 196 0
175 198 0
174 197 0
174 198 0
173 196 0
173 195 0
175 198 0
175 197 0
174 197 0
173 196 0
173 197 0
172 195 0
172 197 0
173 196 0
173 197 0
175 198 0
173 197 0
174 197 0
174 197 0
174 198 0
174 197 0
172 195 0
175 198 0
173 197 0
174 197 0
174 197 0
174 197 0
174 198 0
175 198 0
174 197 0
177 199 0
174 197 0
173 197 0
173 197 0
175 198 0
173 197 0
174 197 0
174 197 0
172 196 0
174 197 0
174 197 0
172 197 0
174 198 0
171 195 0
172 196 0
172 196 0
174 197 0
172 196 0
173 196 0
173 197 0
173 196 0
173 196 0
172 196 0
171 195 0
174 197 0
175 198 0
171 195 0
174 197 0
172 196 0
171 195 0
172 196 0
174 197 0
174 197 0
174 197 0
172 196 0
172 196 0
173 196 0
170 194 0
169 192 0
173 196 0
175 198 0
170 193 0
173 197 0
172 196 0
172 195 0
174 197 0
167 190 0
174 197 0
171 194 0
170 194 0
168 192 0
172 195 0
169 192 0
169 193 0
170 194 0
171 194 0
169 192 0
167 189 0
168 191 0
165 188 0
168 191 0
167 191 0
155 179 0
154 176 0
153 176 0
150 173 0
155 178 0
153 176 0
146 169 0
155 179 0
162 185 0
160 183 0
159 182 0
161 185 0
166 189 0
157 180 0
158 180 0
166 190 0
163 187 0
163 186 0
162 185 0
163 187 0
167 191 0
166 189 0
170 194 0
170 193 0
165 188 0
165 188 0
170 194 0
165 189 0
168 191 0
169 193 0
170 194 0
169 192 0
166 190 0
171 194 0
171 195 0
173 196 0
172 196 0
172 196 0
175 198 0
173 196 0
170 194 0
173 197 0
173 197 0
176 198 0
174 198 0
176 199 0
172 197 0
207 223 201
223 237 255
222 236 255
191 210 142
175 198 0
175 198 0
174 198 0
173 197 0
173 197 0
171 195 0
174 198 0
172 196 0
172 195 0
172 196 0
175 198 0
174 197 0
173 196 0
172 196 0
173 197 0
172 196 0
174 197 0
174 197 0
171 195 0
172 195 0
175 197 0
174 197 0
174 197 0
174 197 0
173 197 0
156 181 36
126 151 76
74 103 108
58 92 107
56 89 103
56 88 102
56 89 97
57 90 107
57 90 118
57 90 105
57 91 107
58 92 115
57 91 99
56 88 102
56 89 110
56 89 105
57 90 113
56 89 113
57 90 105
56 89 107
59 92 125
56 89 100
56 89 107
57 90 110
57 91 111
57 90 113
59 93 115
58 91 118
58 92 115
57 91 111
56 90 107
58 92 107
56 89 115
55 88 95
56 89 99
56 89 102
55 88 100
58 91 114
59 93 118
59 92 125
58 91 102
56 89 107
57 90 107
55 88 92
57 90 108
57 90 111
55 87 100
57 90 111
56 88 107
56 88 100
58 91 115
57 90 103
58 92 115
56 88 103
55 88 100
57 90 99
57 91 114
57 89 111
58 91 121
57 89 103
58 92 103
57 90 117
57 90 108
56 88 103
56 88 103
57 89 113
56 89 99
55 87 102
57 90 108
55 88 100
57 91 108
55 87 107
55 87 97
57 90 107
54 86 94
55 87 103
57 90 110
54 86 97
54 86 100
54 86 94
56 89 103
57 90 110
57 89 110
58 91 113
54 86 95
55 88 97
57 90 107
57 90 115
53 84 84
56 88 99
56 89 105
53 85 102
54 85 94
54 85 105
53 83 88
55 87 100
53 85 88
54 85 89
53 85 84
53 84 88
50 79 82
52 82 86
54 85 90
53 84 82
54 85 100
47 75 57
46 74 68
52 83 83
48 75 86
47 75 76
47 75 78
46 72 58
76 92 41
100 113 0
98 110 0
102 117 0
111 123 0
100 113 0
118 130 0
113 125 0
107 119 0
105 118 0
110 124 0
112 124 0
114 128 0
124 136 0
114 125 0
123 136 0
113 124 0
126 136 0
112 126 0
124 135 0
118 126 0
120 130 0
110 116 0
132 141 0
125 136 0
117 124 0
132 138 0
116 122 0
113 120 0
121 126 0
111 120 0
120 123 0
121 125 0
120 125 0
112 116 0
122 122 0
124 130 0
134 137 0
139 145 0
131 136 0
134 140 0
132 138 0
139 146 0
136 142 0
134 139 0
140 146 0
143 152 0
151 162 0
143 150 0
154 160 0
145 154 0
153 165 0
153 164 0
158 169 0
149 161 0
157 170 0
153 164 0
159 174 0
159 172 0
160 173 0
159 176 0
164 178 0
164 183 0
161 174 0
163 181 0
168 184 0
166 186 0
164 182 0
164 184 0
164 182 0
167 187 0
166 184 0
168 188 0
168 186 0
168 189 0
163 182 0
165 185 0
171 191 0
167 186 0
166 186 0
172 193 0
169 189 0
170 192 0
170 192 0
171 193 0
168 189 0
173 195 0
167 189 0
169 192 0
172 194 0
166 188 0
172 193 0
172 193 0
169 190 0
172 194 0
173 195 0
172 193 0
170 192 0
169 190 0
174 196 0
173 194 0
172 195 0
173 196 0
171 193 0
172 196 0
171 195 0
174 197 0
171 194 0
173 196 0
173 195 0
171 194 0
172 194 0
176 198 0
172 195 0
171 193 0
173 196 0
175 197 0
170 194 0
174 197 0
173 196 0
171 194 0
174 197 0
173 196 0
174 196 0
171 195 0
173 195 0
172 195 0
172 195 0
173 196 0
174 197 0
175 198 0
174 197 0
175 198 0
174 198 0
173 197 0
174 197 0
174 197 0
173 197 0
172 195 0
174 197 0
172 196 0
172 196 0
173 197 0
173 196 0
173 196 0
175 197 0
173 196 0
175 198 0
173 197 0
174 197 0
176 199 0
173 197 0
176 198 0
175 198 0
172 196 0
173 197 0
173 196 0
173 197 0
173 196 0
172 196 0
174 197 0
173 196 0
173 196 0
173 196 0
172 196 0
174 198 0
174 198 0
170 194 0
172 195 0
174 196 0
173 197 0
172 195 0
174 198 0
174 197 0
175 198 0
173 197 0
172 195 0
174 198 0
172 196 0
174 197 0
172 195 0
173 196 0
171 195 0
172 195 0
171 194 0
174 198 0
174 197 0
170 194 0
170 193 0
172 195 0
173 196 0
174 197 0
169 193 0
175 198 0
174 197 0
169 193 0
171 194 0
170 194 0
170 194 0
169 193 0
167 191 0
171 195 0
171 195 0
169 192 0
170 194 0
172 194 0
170 194 0
168 192 0
169 193 0
168 191 0
163 187 0
166 189 0
161 184 0
147 170 0
151 174 0
157 180 0
152 173 0
155 176 0
156 178 0
155 178 0
153 176 0
153 175 0
160 184 0
159 181 0
159 180 0
162 186 0
155 179 0
159 182 0
161 184 0
150 173 0
160 183 0
165 189 0
161 183 0
166 189 0
163 187 0
162 185 0
161 184 0
163 186 0
168 192 0
169 191 0
173 196 0
171 193 0
168 192 0
173 196 0
166 190 0
171 194 0
171 194 0
173 196 0
171 194 0
170 194 0
173 197 0
172 195 0
174 197 0
173 197 0
173 196 0
174 198 0
172 196 0
173 197 0
172 196 0
178 200 51
221 235 248
223 236 255
211 227 230
173 197 0
174 197 0
174 198 0
173 197 0
173 196 0
173 196 0
170 194 0
174 197 0
172 196 0
171 195 0
175 198 0
174 197 0
171 194 0
173 197 0
173 197 0
172 196 0
170 194 0
174 197 0
171 195 0
174 198 0
174 198 0
175 198 0
171 195 0
172 196 0
173 196 0
169 193 0
173 196 0
172 196 18
153 176 54
97 123 92
59 91 108
56 89 102
59 93 117
57 90 115
57 91 108
56 88 102
58 91 110
56 90 94
57 89 107
56 88 107
56 89 99
58 92 114
56 90 108
58 92 122
55 88 107
57 91 102
57 90 113
56 88 99
55 88 100
54 86 94
57 90 102
59 93 115
58 91 114
57 90 110
56 89 110
58 91 115
56 88 108
57 91 113
57 90 110
58 92 111
56 90 100
57 91 102
56 89 99
56 89 108
57 91 115
56 89 107
57 90 105
57 90 113
56 89 103
56 89 110
56 89 100
56 89 103
58 92 121
57 90 113
55 87 99
55 87 90
56 89 107
59 92 115
57 90 102
55 87 100
58 91 108
56 89 115
57 90 113
56 89 110
57 90 103
57 90 110
56 89 107
58 92 113
55 87 102
56 88 103
57 90 99
56 90 102
57 90 95
56 89 110
55 87 105
56 88 105
54 86 108
56 88 110
54 86 94
56 89 103
56 89 99
56 88 105
54 86 97
55 88 105
55 88 114
55 87 97
56 89 118
54 85 94
55 87 97
54 86 95
55 86 102
55 88 94
56 89 107
53 85 86
55 87 94
55 87 96
55 87 99
54 86 94
53 85 92
54 85 97
53 84 90
53 84 97
54 85 99
53 83 102
53 84 95
51 81 89
50 79 80
50 79 84
50 79 79
53 83 84
49 78 75
49 77 76
49 77 81
48 76 78
48 75 78
45 71 54
83 99 37
100 112 0
106 119 0
98 110 0
98 111 0
99 111 0
98 110 0
110 123 0
111 122 0
105 117 0
106 119 0
121 135 0
109 120 0
117 131 0
109 122 0
118 131 0
122 136 0
114 125 0
119 129 0
124 136 0
122 134 0
121 135 0
125 136 0
117 128 0
113 125 0
123 130 0
119 128 0
120 127 0
125 136 0
123 130 0
113 121 0
124 133 0
121 125 0
128 133 0
128 134 0
128 136 0
124 132 0
135 145 0
135 142 0
132 141 0
131 140 0
140 145 0
145 153 0
136 143 0
139 146 0
151 161 0
146 155 0
142 151 0
149 161 0
149 160 0
151 163 0
154 166 0
155 167 0
155 168 0
153 166 0
156 169 0
160 174 0
156 166 0
161 176 0
160 175 0
156 169 0
162 176 0
162 178 0
163 176 0
166 184 0
163 181 0
160 177 0
166 185 0
162 181 0
169 188 0
166 185 0
162 181 0
166 184 0
164 184 0
169 188 0
165 183 0
167 188 0
169 189 0
166 184 0
171 192 0
168 187 0
169 190 0
166 187 0
167 189 0
171 193 0
171 191 0
168 190 0
173 193 0
170 192 0
173 196 0
167 189 0
168 190 0
168 188 0
172 194 0
172 194 0
171 195 0
171 193 0
168 190 0
166 188 0
172 194 0
172 192 0
169 192 0
172 195 0
171 194 0
172 195 0
173 196 0
171 194 0
173 195 0
173 197 0
172 195 0
173 196 0
173 195 0
174 197 0
169 193 0
173 195 0
173 196 0
171 193 0
172 196 0
171 194 0
173 194 0
174 197 0
172 195 0
174 197 0
172 195 0
175 197 0
175 198 0
172 195 0
174 196 0
173 196 0
173 196 0
172 195 0
173 196 0
175 197 0
172 196 0
174 197 0
171 195 0
174 197 0
173 197 0
174 197 0
173 196 0
176 198 0
174 197 0
175 198 0
175 198 0
172 196 0
172 196 0
174 197 0
174 197 0
174 197 0
174 196 0
174 198 0
174 197 0
173 197 0
174 198 0
175 198 0
174 197 0
174 197 0
175 198 0
174 198 0
174 197 0
172 196 0
171 195 0
172 196 0
175 198 0
174 197 0
173 197 0
175 198 0
173 196 0
172 196 0
174 197 0
173 197 0
174 198 0
174 197 0
174 197 0
174 197 0
172 195 0
171 195 0
169 194 0
172 195 0
173 197 0
172 196 0
172 195 0
172 196 0
172 196 0
172 196 0
172 196 0
174 198 0
171 195 0
170 194 0
174 198 0
172 196 0
171 195 0
170 193 0
170 194 0
173 197 0
171 195 0
168 191 0
168 192 0
168 192 0
169 193 0
170 193 0
171 195 0
172 195 0
168 191 0
169 193 0
171 194 0
169 193 0
169 192 0
170 194 0
166 190 0
172 196 0
167 190 0
168 192 0
157 180 0
161 184 0
150 173 0
160 182 0
146 168 0
160 182 0
155 178 0
152 173 0
159 182 0
151 174 0
156 180 0
156 179 0
154 178 0
161 183 0
160 183 0
164 187 0
164 187 0
164 188 0
159 183 0
157 181 0
164 188 0
161 183 0
164 187 0
162 185 0
166 189 0
167 189 0
164 188 0
168 191 0
168 192 0
167 190 0
166 190 0
168 191 0
168 191 0
168 192 0
170 193 0
172 195 0
170 194 0
172 196 0
173 197 0
171 195 0
172 195 0
173 196 0
172 196 0
174 197 0
170 194 0
173 196 0
172 197 0
172 197 0
199 217 177
223 237 255
222 236 255
185 206 125
174 197 0
173 197 0
173 197 0
174 198 0
172 196 0
173 197 0
173 196 0
172 196 0
173 197 0
174 197 0
173 196 0
170 194 0
174 198 0
173 196 0
174 197 0
170 194 0
172 196 0
172 196 0
172 196 0
173 196 0
172 195 0
171 195 0
175 197 0
173 196 0
174 197 0
172 195 0
170 194 0
173 196 0
168 192 0
167 192 0
147 171 62
103 128 86
66 96 107
57 90 102
56 89 99
56 89 108
57 90 111
56 88 111
57 90 108
58 92 115
56 89 107
58 91 108
54 86 100
56 89 100
56 89 102
56 89 107
56 89 114
56 89 92
55 88 97
57 90 108
55 88 90
58 91 111
56 89 97
56 89 100
58 92 111
57 91 111
57 90 110
56 89 110
58 91 121
57 90 97
57 90 103
57 91 118
54 85 95
58 92 115
56 90 107
55 87 100
60 94 121
56 89 110
57 90 110
56 89 95
57 90 108
55 88 94
57 90 102
57 90 114
57 89 108
57 89 117
55 87 99
55 88 99
54 85 90
54 86 90
54 85 105
57 90 103
56 89 107
55 87 102
56 88 108
53 85 92
55 88 105
54 86 90
57 90 121
56 89 111
57 90 99
57 90 113
58 91 115
56 88 111
56 88 102
56 89 97
56 89 97
55 87 99
55 87 97
55 86 100
55 87 99
55 87 99
54 85 86
55 87 105
55 87 90
52 83 92
55 87 97
55 87 107
55 87 103
55 87 100
55 86 100
52 83 86
53 84 88
53 84 86
53 84 99
52 82 82
52 82 86
54 86 99
53 85 86
52 83 95
54 86 94
50 81 74
53 85 90
53 84 99
52 83 97
50 80 82
50 78 84
51 81 74
50 79 82
48 77 82
47 74 60
49 78 70
43 67 54
43 68 54
69 82 44
98 109 0
82 94 0
97 110 0
106 116 0
99 111 0
93 106 0
102 114 0
97 109 0
123 137 0
112 125 0
118 131 0
110 123 0
117 130 0
119 133 0
111 123 0
113 126 0
114 124 0
118 131 0
110 121 0
122 132 0
117 130 0
125 139 0
128 139 0
124 135 0
120 132 0
128 142 0
126 141 0
133 143 0
131 141 0
129 140 0
123 135 0
141 153 0
130 140 0
132 141 0
130 136 0
129 139 0
138 150 0
136 146 0
140 149 0
143 153 0
138 147 0
145 159 0
145 153 0
132 144 0
140 150 0
147 159 0
151 163 0
141 152 0
146 157 0
149 161 0
146 156 0
150 163 0
150 162 0
154 169 0
158 171 0
159 172 0
156 170 0
158 174 0
154 168 0
162 178 0
161 176 0
160 176 0
160 176 0
162 177 0
164 181 0
165 182 0
163 179 0
161 178 0
162 178 0
164 183 0
166 185 0
165 183 0
165 185 0
166 186 0
164 185 0
163 183 0
163 182 0
168 188 0
166 188 0
168 189 0
170 191 0
172 193 0
170 192 0
166 186 0
166 185 0
168 188 0
169 192 0
168 190 0
170 192 0
169 191 0
170 192 0
173 195 0
168 190 0
173 196 0
170 191 0
172 193 0
170 193 0
169 192 0
169 192 0
172 194 0
170 192 0
171 192 0
170 194 0
172 196 0
172 196 0
174 196 0
172 195 0
172 195 0
173 195 0
172 195 0
171 194 0
171 194 0
173 195 0
173 195 0
174 197 0
173 196 0
175 197 0
173 195 0
174 196 0
173 196 0
173 195 0
172 195 0
173 196 0
174 197 0
172 195 0
173 196 0
174 197 0
173 196 0
173 196 0
173 197 0
173 196 0
175 197 0
173 196 0
175 198 0
172 196 0
174 197 0
173 197 0
173 196 0
173 196 0
174 197 0
172 196 0
173 197 0
173 197 0
173 197 0
174 197 0
175 198 0
174 198 0
174 195 0
173 197 0
175 198 0
173 197 0
172 196 0
174 197 0
173 197 0
175 198 0
174 197 0
174 198 0
174 197 0
172 196 0
174 198 0
172 196 0
173 196 0
175 198 0
175 198 0
172 196 0
172 196 0
175 198 0
172 196 0
173 196 0
172 195 0
173 197 0
174 198 0
173 197 0
173 196 0
173 196 0
175 198 0
171 194 0
173 196 0
173 197 0
172 195 0
171 195 0
174 198 0
172 196 0
173 197 0
168 192 0
170 194 0
172 196 0
170 194 0
171 195 0
172 196 0
170 194 0
172 195 0
171 194 0
174 197 0
170 193 0
173 196 0
170 193 0
168 191 0
173 196 0
168 191 0
171 195 0
170 193 0
171 194 0
167 191 0
168 192 0
169 192 0
166 190 0
163 187 0
167 191 0
165 188 0
166 190 0
168 191 0
167 191 0
169 192 0
160 183 0
156 179 0
142 165 0
152 173 0
156 179 0
153 175 0
151 173 0
150 173 0
153 176 0
146 168 0
153 176 0
152 175 0
162 185 0
155 178 0
160 183 0
158 180 0
160 184 0
160 183 0
161 184 0
164 187 0
164 186 0
162 185 0
165 187 0
163 186 0
165 188 0
165 189 0
165 188 0
165 189 0
164 187 0
165 188 0
168 192 0
171 194 0
171 194 0
169 192 0
170 194 0
171 194 0
170 194 0
172 195 0
173 197 0
170 193 0
171 194 0
174 197 0
172 196 0
171 195 0
173 197 0
172 196 0
174 198 0
176 199 44
218 232 238
222 236 255
206 223 207
175 198 0
172 196 0
174 196 0
174 197 0
174 197 0
174 197 0
173 196 0
173 196 0
172 196 0
173 195 0
175 198 0
173 197 0
172 196 0
171 195 0
174 198 0
171 195 0
173 196 0
175 198 0
173 196 0
170 194 0
172 196 0
170 193 0
173 196 0
174 197 0
171 195 0
169 193 0
174 197 0
172 195 0
171 195 0
175 198 0
174 197 0
172 196 0
168 192 0
144 168 44
108 133 80
63 94 107
56 89 102
57 89 110
55 87 97
54 86 103
56 89 90
57 90 111
57 90 108
57 90 107
55 88 103
57 90 105
56 90 108
56 88 100
55 87 95
56 88 105
56 89 99
56 89 100
56 89 100
55 88 102
56 89 100
56 89 107
56 88 105
54 86 97
56 88 108
57 90 107
58 91 115
56 88 100
57 90 108
53 85 95
54 86 99
54 86 88
57 89 103
56 89 100
56 89 110
56 90 100
56 89 99
58 92 111
56 88 108
58 92 118
56 88 103
56 89 97
53 84 99
56 88 107
56 90 99
57 90 114
56 88 108
53 85 94
56 89 105
54 87 94
54 86 88
55 87 105
56 89 110
55 88 97
54 87 99
54 86 107
54 86 97
54 86 78
56 89 118
53 85 97
57 90 105
57 90 111
52 82 86
55 87 97
55 86 108
57 89 114
52 84 92
53 84 103
56 88 105
55 87 102
56 89 108
55 88 108
55 86 102
55 87 95
55 88 99
53 84 88
53 84 92
55 87 97
54 85 97
55 86 107
54 86 97
54 85 95
53 84 86
52 83 86
50 79 86
51 81 78
51 81 84
52 82 80
51 82 75
51 80 82
54 86 102
49 78 74
47 74 82
52 82 86
46 74 76
48 75 76
47 74 72
45 72 60
43 68 72
65 78 31
78 88 0
83 95 0
75 84 0
88 98 0
97 107 0
101 113 0
86 99 0
109 120 0
112 124 0
103 114 0
120 132 0
111 124 0
109 123 0
114 127 0
116 129 0
109 120 0
108 121 0
127 141 0
118 131 0
122 136 0
123 136 0
123 136 0
129 141 0
127 142 0
122 135 0
130 142 0
130 142 0
124 135 0
124 138 0
130 142 0
127 139 0
134 146 0
134 146 0
137 146 0
132 141 0
132 143 0
134 144 0
145 158 0
139 152 0
142 153 0
127 138 0
145 157 0
150 161 0
146 157 0
148 161 0
149 159 0
153 165 0
153 165 0
148 160 0
156 170 0
157 172 0
149 163 0
151 163 0
147 159 0
160 175 0
156 170 0
161 177 0
154 170 0
154 166 0
161 175 0
160 173 0
165 182 0
159 176 0
163 181 0
160 177 0
157 174 0
165 184 0
162 180 0
165 182 0
163 180 0
163 181 0
164 181 0
167 186 0
162 178 0
167 187 0
162 179 0
166 186 0
161 181 0
168 189 0
171 192 0
164 185 0
168 190 0
168 191 0
167 188 0
166 187 0
167 187 0
168 188 0
170 192 0
169 189 0
171 192 0
170 193 0
169 191 0
165 187 0
167 189 0
170 192 0
170 192 0
171 192 0
172 194 0
172 195 0
171 192 0
170 193 0
171 193 0
170 192 0
170 191 0
172 195 0
174 195 0
171 193 0
170 194 0
171 194 0
173 195 0
172 195 0
169 192 0
171 193 0
172 195 0
172 195 0
174 197 0
172 196 0
173 196 0
173 196 0
174 197 0
172 195 0
173 197 0
172 195 0
172 195 0
171 193 0
174 197 0
174 196 0
174 197 0
174 197 0
174 196 0
172 194 0
172 195 0
171 195 0
173 196 0
174 197 0
174 197 0
172 196 0
173 195 0
175 197 0
173 196 0
174 197 0
174 197 0
173 197 0
175 198 0
174 197 0
173 197 0
176 199 0
174 196 0
174 198 0
174 197 0
173 195 0
174 198 0
174 197 0
175 198 0
173 196 0
175 198 0
175 197 0
173 197 0
175 198 0
174 197 0
174 198 0
172 196 0
175 198 0
172 196 0
173 196 0
171 195 0
175 198 0
172 196 0
172 196 0
174 197 0
175 198 0
173 197 0
173 196 0
171 195 0
173 197 0
173 197 0
171 194 0
172 195 0
171 195 0
173 197 0
172 196 0
174 197 0
169 193 0
174 197 0
169 193 0
171 194 0
170 193 0
171 194 0
173 197 0
172 196 0
172 196 0
172 195 0
172 195 0
170 194 0
170 194 0
171 195 0
172 196 0
172 196 0
172 194 0
171 195 0
171 195 0
168 192 0
171 195 0
164 188 0
170 194 0
171 194 0
166 189 0
166 189 0
169 192 0
167 190 0
169 192 0
170 195 0
167 190 0
169 193 0
167 190 0
155 177 0
154 177 0
149 171 0
150 172 0
145 168 0
158 180 0
152 173 0
158 181 0
148 169 0
156 179 0
151 174 0
158 181 0
150 172 0
160 182 0
162 186 0
155 179 0
158 181 0
154 177 0
158 182 0
157 181 0
166 190 0
159 182 0
161 184 0
163 187 0
166 189 0
167 190 0
163 187 0
163 186 0
170 193 0
166 191 0
172 195 0
171 193 0
165 188 0
167 191 0
166 189 0
168 191 0
170 193 0
170 194 0
171 195 0
173 196 0
170 193 0
173 195 0
170 194 0
172 196 0
173 197 0
175 198 0
173 197 0
175 198 0
194 213 155
223 237 255
220 235 253
178 201 76
175 198 0
174 198 0
173 196 0
173 197 0
175 198 0
170 194 0
175 198 0
173 196 0
174 197 0
174 197 0
175 198 0
173 196 0
174 197 0
171 194 0
173 197 0
173 196 0
173 196 0
173 196 0
174 197 0
172 195 0
173 197 0
171 195 0
171 195 0
171 195 0
177 199 0
171 195 0
176 198 0
170 195 0
169 192 0
172 195 0
169 192 0
172 196 0
174 197 0
171 194 0
166 189 36
150 173 60
102 128 84
68 98 94
56 88 111
56 89 102
56 88 111
56 89 103
56 89 105
58 92 115
57 91 107
55 87 107
56 89 107
55 87 99
57 90 117
56 88 108
55 88 102
56 89 102
57 91 108
55 88 107
55 88 97
57 90 114
56 89 99
55 88 95
56 89 110
56 89 95
58 91 105
56 89 102
56 89 100
56 89 99
56 88 100
57 90 97
57 90 111
55 88 114
57 90 111
55 88 97
57 90 105
55 87 102
56 89 102
55 88 100
55 87 100
54 86 103
52 84 99
56 89 102
54 86 95
56 88 114
55 87 94
56 89 102
54 86 100
56 89 111
54 87 99
56 88 92
54 86 86
57 90 103
53 85 76
55 87 97
54 86 90
55 87 99
55 87 105
53 84 78
54 86 102
55 88 95
55 87 88
54 86 99
54 85 88
54 86 94
55 87 100
54 85 92
56 88 94
55 87 103
54 87 82
56 88 97
53 85 86
54 85 95
51 82 88
54 85 100
51 80 86
54 85 107
51 82 84
53 83 99
53 83 90
55 86 108
55 87 97
50 79 84
50 80 84
50 80 86
49 78 70
48 77 72
50 80 76
50 79 90
50 79 94
51 80 78
51 80 65
45 73 57
45 72 62
45 71 67
53 71 58
69 79 18
71 81 0
82 89 0
82 91 0
70 81 0
97 110 0
91 101 0
90 101 0
101 114 0
108 120 0
114 130 0
110 123 0
111 124 0
105 117 0
117 131 0
110 125 0
114 126 0
121 135 0
114 128 0
122 137 0
114 129 0
122 133 0
126 140 0
127 141 0
129 142 0
128 142 0
128 142 0
125 138 0
139 153 0
130 145 0
136 150 0
122 135 0
132 146 0
137 152 0
130 139 0
135 146 0
142 156 0
137 147 0
130 142 0
141 154 0
136 148 0
139 150 0
149 161 0
146 159 0
147 157 0
154 165 0
154 167 0
147 159 0
143 155 0
147 160 0
151 165 0
150 163 0
152 166 0
151 168 0
148 162 0
156 173 0
155 170 0
159 175 0
154 169 0
151 166 0
161 177 0
160 176 0
160 174 0
158 173 0
160 177 0
160 175 0
160 178 0
160 179 0
161 179 0
167 186 0
162 179 0
166 186 0
164 183 0
164 180 0
164 182 0
161 182 0
167 186 0
166 186 0
161 178 0
166 185 0
169 188 0
169 188 0
168 189 0
168 189 0
169 190 0
169 190 0
167 189 0
165 186 0
169 189 0
171 194 0
170 190 0
168 190 0
170 193 0
170 193 0
169 191 0
170 193 0
171 192 0
170 192 0
171 193 0
171 193 0
170 192 0
172 195 0
170 192 0
173 195 0
172 194 0
171 195 0
173 196 0
171 195 0
170 193 0
170 193 0
172 194 0
172 194 0
171 192 0
170 193 0
171 193 0
173 196 0
173 195 0
169 192 0
172 195 0
172 195 0
174 196 0
171 194 0
172 194 0
169 193 0
171 195 0
172 195 0
174 197 0
173 196 0
173 196 0
173 195 0
173 195 0
172 196 0
173 196 0
174 198 0
173 197 0
170 193 0
173 196 0
173 197 0
172 196 0
173 196 0
172 194 0
173 195 0
174 197 0
174 197 0
174 197 0
172 195 0
174 197 0
172 196 0
173 196 0
172 196 0
175 198 0
174 197 0
174 197 0
174 197 0
174 197 0
174 198 0
175 198 0
173 196 0
172 195 0
173 197 0
174 198 0
173 197 0
172 195 0
171 194 0
173 197 0
173 196 0
173 196 0
174 198 0
172 196 0
173 197 0
171 195 0
176 198 0
174 197 0
171 195 0
172 196 0
171 195 0
172 195 0
171 194 0
174 197 0
174 197 0
173 197 0
172 196 0
173 197 0
172 196 0
169 193 0
174 198 0
173 197 0
173 197 0
171 195 0
174 197 0
175 198 0
171 194 0
172 196 0
169 193 0
171 194 0
170 193 0
168 192 0
172 195 0
170 194 0
168 191 0
169 193 0
172 195 0
172 196 0
168 192 0
165 189 0
168 192 0
165 189 0
165 189 0
165 188 0
170 194 0
167 190 0
171 193 0
164 188 0
163 187 0
167 191 0
158 181 0
164 186 0
161 183 0
158 181 0
152 174 0
141 164 0
147 169 0
155 177 0
145 167 0
157 178 0
148 170 0
159 181 0
158 180 0
154 176 0
154 177 0
158 180 0
162 185 0
156 180 0
158 181 0
151 174 0
161 184 0
167 190 0
159 182 0
156 179 0
156 180 0
161 184 0
157 179 0
160 184 0
165 188 0
159 182 0
165 188 0
170 193 0
167 191 0
161 185 0
165 188 0
170 193 0
166 189 0
167 190 0
168 191 0
167 191 0
169 193 0
170 193 0
171 195 0
174 197 0
172 196 0
173 197 0
174 197 0
174 197 0
175 198 0
175 198 0
175 199 36
220 234 244
222 236 255
193 213 161
175 198 0
173 196 0
172 196 0
172 196 0
174 198 0
173 196 0
174 197 0
175 198 0
174 197 0
172 196 0
170 194 0
173 196 0
173 197 0
171 194 0
173 197 0
169 193 0
172 195 0
172 196 0
173 197 0
174 197 0
173 196 0
172 196 0
172 196 0
171 194 0
175 198 0
172 195 0
172 196 0
174 197 0
172 195 0
170 193 0
170 194 0
171 195 0
170 194 0
171 195 0
172 196 0
170 194 0
170 194 0
170 193 18
152 175 51
113 138 76
84 110 88
55 88 95
55 88 95
55 87 94
56 89 108
56 89 102
55 87 94
54 86 94
56 89 99
55 87 95
54 86 99
58 91 120
53 84 95
55 88 95
56 89 102
56 88 100
54 86 88
53 85 94
57 90 107
56 89 92
57 89 97
55 88 94
57 89 105
55 88 99
55 87 88
55 87 97
57 89 111
55 88 88
54 86 94
55 88 99
54 85 80
55 88 103
56 88 99
55 88 97
54 86 102
53 85 86
54 86 86
55 87 100
53 85 82
55 88 107
56 89 103
54 86 88
56 89 102
54 86 84
57 89 107
54 86 88
54 85 100
56 89 99
53 85 97
56 89 97
53 85 100
55 87 95
54 85 97
56 89 103
57 90 102
55 87 100
55 88 94
54 85 84
53 85 84
55 87 100
54 85 95
53 84 90
53 85 88
55 87 102
53 83 86
53 85 90
52 83 78
54 86 97
50 80 84
52 83 94
52 83 78
52 83 88
53 84 95
52 82 88
51 82 86
49 79 70
53 83 102
53 83 90
47 76 67
49 78 74
53 83 95
51 81 84
49 78 82
50 80 75
50 80 65
47 75 70
45 72 72
47 75 65
48 70 62
54 68 18
81 91 0
81 91 0
76 85 0
77 85 0
80 92 0
106 119 0
91 103 0
97 110 0
79 91 0
100 113 0
103 118 0
108 119 0
112 123 0
120 134 0
117 132 0
113 128 0
122 133 0
129 146 0
120 135 0
127 142 0
122 136 0
126 137 0
126 139 0
128 142 0
124 136 0
125 140 0
138 151 0
142 159 0
128 142 0
125 138 0
133 146 0
143 156 0
123 136 0
128 140 0
134 147 0
135 151 0
145 159 0
148 163 0
144 161 0
152 167 0
149 164 0
147 161 0
137 149 0
145 159 0
137 148 0
146 160 0
144 158 0
150 164 0
146 159 0
147 162 0
150 163 0
147 162 0
154 171 0
152 168 0
153 167 0
158 173 0
158 176 0
159 176 0
160 176 0
157 170 0
157 172 0
154 170 0
162 177 0
156 172 0
155 173 0
159 176 0
162 181 0
162 180 0
160 177 0
165 182 0
164 182 0
168 187 0
166 187 0
168 187 0
168 187 0
167 186 0
162 181 0
166 187 0
165 184 0
163 183 0
166 187 0
163 182 0
169 189 0
167 187 0
167 187 0
168 188 0
165 187 0
170 191 0
170 191 0
171 192 0
166 187 0
170 192 0
167 188 0
169 190 0
172 194 0
169 192 0
170 192 0
170 192 0
168 189 0
169 189 0
169 191 0
170 192 0
171 194 0
167 189 0
172 195 0
170 191 0
171 194 0
169 191 0
173 195 0
174 196 0
172 195 0
168 190 0
171 194 0
173 196 0
170 192 0
171 194 0
169 193 0
172 194 0
173 196 0
171 194 0
171 194 0
172 195 0
174 197 0
171 194 0
172 196 0
172 195 0
174 196 0
173 196 0
173 196 0
171 194 0
172 195 0
175 198 0
172 195 0
172 195 0
174 197 0
174 197 0
173 197 0
172 196 0
174 197 0
172 195 0
172 196 0
173 196 0
173 196 0
175 197 0
174 197 0
172 195 0
175 197 0
173 196 0
174 197 0
173 196 0
175 198 0
172 195 0
174 198 0
174 197 0
173 197 0
174 197 0
175 198 0
173 196 0
174 197 0
174 196 0
173 197 0
172 195 0
173 196 0
173 197 0
175 198 0
172 196 0
172 195 0
173 197 0
172 196 0
170 194 0
173 197 0
173 196 0
173 197 0
171 194 0
172 196 0
171 194 0
171 195 0
173 196 0
173 196 0
174 197 0
174 197 0
172 196 0
172 195 0
174 197 0
174 198 0
172 195 0
172 195 0
173 197 0
172 196 0
172 195 0
172 195 0
171 194 0
167 191 0
172 195 0
168 192 0
171 195 0
170 193 0
168 191 0
171 195 0
170 193 0
166 190 0
170 193 0
170 193 0
171 195 0
171 195 0
167 190 0
169 193 0
171 194 0
171 195 0
168 192 0
172 196 0
166 189 0
165 188 0
162 185 0
168 191 0
166 189 0
166 190 0
160 183 0
160 183 0
158 180 0
150 172 0
143 164 0
148 171 0
142 165 0
137 160 0
146 168 0
150 173 0
145 168 0
149 172 0
155 178 0
151 173 0
152 174 0
149 172 0
151 175 0
164 187 0
153 175 0
156 179 0
160 183 0
162 185 0
155 177 0
155 178 0
158 180 0
162 187 0
161 185 0
166 189 0
165 189 0
160 183 0
164 187 0
166 190 0
162 185 0
161 184 0
167 190 0
168 192 0
168 191 0
166 189 0
169 193 0
169 192 0
172 195 0
170 194 0
173 195 0
172 195 0
172 195 0
172 196 0
173 196 0
172 195 0
173 196 0
171 195 0
206 222 199
223 236 255
208 224 217
172 196 0
173 196 0
171 195 0
171 194 0
170 194 0
171 195 0
172 196 0
174 197 0
173 196 0
174 198 0
173 196 0
173 196 0
173 196 0
173 197 0
173 195 0
172 195 0
169 193 0
171 194 0
171 195 0
174 198 0
172 196 0
172 195 0
171 194 0
171 194 0
171 195 0
171 196 0
170 194 0
174 197 0
173 196 0
172 195 0
172 196 0
170 194 0
172 195 0
170 194 0
168 193 0
168 191 0
171 195 0
172 195 0
168 191 0
169 193 0
168 191 0
158 181 40
127 150 51
95 120 82
61 92 95
54 86 86
55 88 92
55 87 84
56 89 105
55 87 102
54 86 94
56 88 111
54 87 95
55 87 92
55 87 102
56 89 115
57 90 102
57 90 102
55 87 99
56 89 99
58 91 114
56 90 102
56 88 95
55 87 105
55 87 105
55 88 99
57 90 105
55 88 95
57 90 95
54 85 99
54 86 99
53 85 99
53 85 84
55 88 90
54 86 103
57 91 117
56 88 94
54 86 95
55 88 88
55 87 111
55 88 102
54 85 88
54 86 88
53 85 92
55 87 95
54 86 84
57 90 114
55 87 102
54 86 105
53 84 84
54 86 90
54 86 90
54 86 103
54 86 100
53 85 90
52 83 78
53 83 99
53 84 94
56 88 102
54 84 97
54 85 95
54 85 103
53 84 80
52 82 84
53 84 88
53 84 86
51 82 80
52 82 82
53 83 90
51 81 90
51 80 78
53 84 92
51 81 76
51 82 80
52 82 78
51 81 80
49 78 76
51 81 86
46 74 79
45 72 62
51 80 80
48 77 78
51 80 86
45 72 65
46 73 67
44 70 60
42 68 57
56 72 51
51 59 0
68 78 0
77 87 0
84 96 0
61 72 0
77 89 0
102 113 0
96 108 0
98 109 0
103 115 0
94 107 0
115 129 0
106 120 0
118 134 0
117 130 0
112 128 0
117 131 0
113 127 0
109 123 0
131 147 0
121 136 0
124 139 0
128 144 0
122 137 0
127 143 0
136 149 0
130 146 0
129 146 0
126 140 0
135 150 0
142 158 0
137 154 0
137 152 0
147 164 0
139 156 0
131 145 0
139 155 0
140 151 0
144 160 0
143 158 0
139 151 0
152 166 0
147 162 0
144 158 0
149 164 0
138 150 0
151 167 0
150 164 0
151 166 0
148 166 0
149 163 0
154 173 0
150 166 0
160 176 0
146 161 0
154 171 0
150 165 0
161 178 0
156 170 0
159 175 0
162 180 0
159 175 0
159 178 0
161 177 0
155 170 0
158 175 0
160 177 0
160 177 0
160 177 0
161 180 0
162 182 0
160 177 0
165 183 0
160 178 0
165 185 0
162 182 0
165 184 0
164 183 0
168 189 0
162 182 0
166 186 0
165 185 0
168 189 0
168 187 0
167 189 0
168 189 0
167 188 0
170 191 0
169 189 0
167 189 0
171 193 0
172 195 0
168 190 0
166 188 0
171 192 0
169 191 0
173 195 0
170 190 0
171 194 0
173 195 0
165 188 0
169 190 0
172 194 0
170 193 0
171 193 0
173 196 0
171 194 0
173 195 0
173 194 0
170 193 0
171 193 0
173 196 0
169 192 0
170 194 0
172 194 0
174 196 0
171 194 0
169 192 0
172 193 0
173 196 0
169 193 0
171 193 0
172 195 0
173 195 0
169 192 0
174 196 0
171 195 0
173 197 0
173 196 0
172 196 0
173 196 0
172 196 0
173 196 0
172 195 0
174 196 0
170 193 0
175 198 0
173 196 0
173 196 0
174 197 0
171 195 0
172 196 0
175 198 0
171 195 0
172 196 0
171 194 0
172 196 0
174 196 0
173 197 0
173 196 0
173 196 0
171 195 0
171 195 0
172 195 0
174 198 0
174 197 0
173 196 0
173 196 0
173 196 0
174 197 0
173 196 0
171 195 0
171 195 0
174 197 0
174 198 0
174 197 0
174 197 0
174 197 0
173 196 0
174 197 0
172 195 0
171 195 0
173 196 0
174 197 0
173 197 0
173 196 0
172 196 0
168 192 0
171 194 0
169 193 0
167 191 0
173 197 0
172 196 0
172 195 0
173 196 0
172 195 0
172 195 0
169 193 0
171 194 0
171 194 0
171 195 0
170 193 0
172 196 0
172 195 0
171 195 0
167 191 0
168 192 0
170 194 0
171 194 0
173 197 0
171 195 0
168 192 0
164 188 0
168 192 0
171 194 0
168 191 0
171 194 0
169 193 0
169 192 0
168 192 0
166 190 0
167 191 0
168 191 0
164 186 0
165 189 0
166 190 0
167 192 0
161 185 0
165 188 0
163 185 0
166 190 0
163 187 0
146 169 0
145 165 0
143 164 0
145 166 0
147 169 0
148 171 0
147 169 0
141 164 0
154 177 0
158 180 0
150 173 0
150 173 0
147 169 0
159 181 0
159 181 0
158 181 0
152 175 0
163 187 0
159 182 0
156 179 0
162 186 0
164 187 0
162 184 0
159 183 0
166 189 0
162 186 0
165 188 0
161 184 0
159 183 0
164 188 0
164 187 0
169 192 0
166 190 0
169 193 0
168 192 0
165 188 0
169 193 0
166 190 0
171 194 0
170 193 0
169 193 0
167 191 0
173 197 0
172 195 0
173 196 0
174 197 0
174 198 0
186 207 120
223 237 255
220 235 253
176 199 51
174 197 0
170 194 0
175 198 0
172 196 0
174 197 0
174 197 0
173 197 0
174 197 0
174 197 0
169 193 0
171 195 0
170 194 0
173 197 0
175 197 0
172 195 0
174 197 0
173 196 0
173 196 0
173 196 0
170 194 0
171 194 0
169 193 0
171 194 0
171 195 0
171 194 0
171 195 0
171 194 0
171 194 0
170 194 0
169 192 0
170 193 0
172 195 0
169 193 0
172 195 0
168 192 0
170 194 0
167 191 0
170 194 0
169 192 0
172 195 0
172 195 0
171 194 0
169 193 0
163 187 25
137 159 47
125 148 67
77 104 82
55 87 95
54 86 88
55 88 95
55 87 97
55 88 94
55 87 88
54 86 88
55 87 105
55 87 90
55 87 92
52 83 90
55 87 102
55 88 99
55 87 99
54 86 88
56 88 105
53 85 92
56 88 107
56 88 102
53 85 82
55 87 103
54 86 84
52 83 88
54 86 94
54 86 88
53 84 94
55 87 95
54 87 94
54 86 82
55 87 92
54 86 94
55 88 97
55 88 88
56 89 110
53 84 94
54 86 95
57 89 97
56 88 103
54 86 100
56 88 92
56 88 108
54 86 84
51 82 78
54 86 94
52 83 88
52 83 82
55 87 86
54 86 99
53 84 97
53 85 95
54 86 92
54 86 92
54 86 86
51 81 80
52 83 80
53 84 92
54 86 102
54 85 103
53 83 97
53 84 84
52 82 90
53 84 94
49 78 74
50 79 88
50 80 78
52 83 88
51 82 84
49 79 72
47 76 62
49 77 80
50 79 92
49 77 72
46 74 70
48 77 76
45 72 40
44 69 70
44 70 51
40 59 44
60 72 47
65 75 0
72 82 0
79 88 0
87 98 0
73 83 0
90 102 0
92 103 0
107 118 0
105 119 0
106 120 0
96 112 0
100 114 0
106 120 0
117 132 0
115 127 0
116 131 0
117 132 0
114 130 0
127 142 0
125 138 0
125 141 0
118 134 0
115 129 0
129 144 0
119 134 0
126 140 0
139 155 0
139 155 0
139 152 0
132 148 0
134 148 0
138 155 0
131 148 0
139 155 0
140 155 0
144 160 0
145 162 0
139 154 0
142 158 0
143 160 0
144 162 0
146 161 0
142 157 0
150 167 0
147 162 0
156 174 0
147 162 0
148 163 0
153 172 0
150 164 0
148 165 0
155 172 0
150 168 0
150 164 0
152 169 0
148 164 0
154 172 0
156 172 0
155 174 0
151 167 0
154 168 0
160 179 0
163 181 0
155 172 0
160 178 0
161 180 0
160 179 0
162 177 0
154 172 0
157 176 0
162 181 0
152 170 0
160 177 0
157 178 0
160 177 0
165 185 0
165 183 0
165 187 0
161 179 0
166 187 0
168 187 0
165 184 0
155 173 0
170 189 0
164 186 0
169 188 0
164 184 0
165 183 0
169 190 0
166 188 0
166 186 0
168 187 0
168 189 0
170 192 0
170 190 0
165 187 0
173 194 0
165 187 0
166 186 0
167 190 0
172 193 0
172 194 0
170 191 0
169 190 0
171 194 0
170 194 0
172 195 0
172 193 0
172 195 0
171 192 0
170 193 0
169 192 0
174 195 0
174 196 0
171 193 0
172 195 0
172 195 0
173 197 0
172 195 0
173 196 0
171 194 0
167 191 0
171 193 0
172 194 0
173 196 0
171 194 0
173 195 0
169 193 0
174 197 0
171 195 0
171 193 0
172 195 0
170 194 0
169 192 0
172 196 0
172 195 0
173 194 0
173 196 0
173 195 0
173 196 0
174 198 0
172 195 0
173 196 0
173 196 0
172 197 0
172 195 0
175 197 0
174 197 0
172 196 0
173 196 0
173 196 0
172 194 0
173 196 0
172 195 0
174 197 0
174 197 0
173 197 0
173 196 0
176 199 0
172 196 0
172 196 0
175 198 0
172 195 0
173 196 0
173 196 0
172 197 0
171 194 0
174 197 0
173 197 0
172 196 0
170 194 0
171 195 0
172 195 0
173 197 0
173 197 0
173 196 0
171 195 0
175 198 0
173 196 0
171 195 0
172 196 0
172 195 0
172 195 0
172 195 0
171 195 0
174 197 0
171 194 0
170 194 0
172 195 0
171 194 0
171 193 0
171 195 0
173 195 0
171 195 0
172 195 0
172 196 0
172 195 0
171 194 0
171 195 0
172 196 0
169 193 0
166 189 0
171 195 0
171 195 0
171 194 0
165 189 0
165 189 0
171 194 0
170 193 0
167 189 0
166 189 0
172 195 0
165 188 0
166 190 0
167 190 0
168 191 0
163 186 0
169 192 0
166 190 0
164 187 0
164 187 0
158 182 0
153 176 0
161 183 0
148 170 0
139 160 0
148 170 0
143 164 0
148 170 0
153 175 0
151 174 0
144 166 0
149 171 0
149 171 0
155 178 0
152 175 0
150 173 0
154 176 0
165 188 0
150 174 0
159 182 0
156 178 0
157 180 0
156 179 0
158 181 0
153 177 0
161 183 0
157 180 0
156 180 0
163 186 0
165 189 0
168 192 0
164 188 0
162 186 0
167 190 0
160 183 0
166 189 0
168 191 0
167 190 0
165 188 0
166 189 0
169 193 0
170 194 0
172 194 0
173 196 0
170 195 0
174 197 0
175 198 0
175 198 0
173 197 0
175 198 0
219 233 242
222 236 255
183 205 114
172 195 0
171 194 0
172 196 0
170 194 0
174 198 0
173 197 0
174 197 0
171 195 0
171 194 0
171 195 0
171 195 0
171 194 0
171 194 0
171 195 0
171 194 0
172 195 0
173 197 0
171 195 0
171 195 0
170 194 0
168 192 0
173 196 0
173 196 0
167 191 0
170 194 0
171 195 0
172 195 0
174 197 0
168 192 0
171 194 0
169 193 0
169 192 0
167 191 0
166 190 0
174 197 0
168 192 0
168 192 0
165 189 0
169 193 0
170 193 0
167 191 0
168 191 0
168 191 0
167 191 0
169 192 0
166 190 0
168 191 0
153 177 40
139 163 51
100 125 65
79 106 94
53 84 86
54 85 102
56 88 102
56 89 102
56 88 95
55 87 92
55 87 99
56 88 97
54 85 90
52 83 88
57 90 103
54 86 97
54 86 74
54 86 88
54 86 92
55 87 82
53 85 92
53 84 92
55 88 95
52 84 84
54 86 100
55 86 99
54 85 88
54 86 100
56 88 105
54 85 94
55 87 97
54 86 88
53 84 86
56 88 94
55 87 94
55 87 99
53 85 86
55 87 97
52 83 99
54 85 94
52 82 80
54 85 100
53 85 88
54 86 82
55 87 107
51 81 82
51 82 76
53 84 82
52 83 95
50 80 76
52 82 95
51 82 80
51 82 90
52 83 78
53 84 88
52 83 86
50 80 74
51 82 82
51 81 88
50 80 82
50 79 80
51 82 84
48 77 78
50 80 70
49 78 76
51 80 86
49 77 76
46 74 72
50 80 88
47 74 67
48 76 74
47 75 74
45 73 62
42 67 72
39 63 60
41 58 40
38 49 0
51 58 0
70 81 0
68 78 0
69 78 0
74 85 0
81 95 0
76 89 0
93 107 0
110 123 0
95 109 0
93 106 0
104 117 0
105 120 0
106 121 0
120 137 0
112 125 0
122 138 0
108 125 0
121 134 0
116 130 0
120 135 0
120 134 0
129 145 0
127 144 0
129 144 0
130 148 0
135 153 0
130 145 0
128 146 0
135 150 0
134 150 0
130 147 0
140 156 0
137 155 0
150 166 0
147 164 0
135 149 0
142 160 0
152 169 0
142 158 0
131 145 0
137 154 0
139 154 0
151 168 0
147 162 0
152 167 0
141 156 0
151 169 0
149 167 0
149 168 0
150 168 0
149 166 0
153 169 0
152 169 0
160 177 0
153 171 0
152 170 0
154 171 0
153 169 0
160 179 0
154 171 0
160 177 0
162 181 0
160 179 0
162 181 0
163 182 0
156 175 0
161 181 0
157 174 0
156 176 0
163 182 0
155 174 0
167 188 0
159 176 0
163 184 0
161 182 0
157 175 0
163 181 0
163 183 0
165 187 0
161 179 0
166 187 0
163 184 0
167 190 0
163 183 0
166 186 0
166 185 0
170 191 0
166 187 0
166 188 0
169 188 0
169 191 0
168 190 0
165 185 0
163 184 0
169 189 0
167 190 0
168 189 0
170 191 0
169 192 0
167 189 0
170 193 0
172 195 0
168 190 0
171 194 0
169 191 0
169 191 0
170 191 0
173 195 0
172 194 0
169 192 0
171 193 0
170 192 0
170 193 0
170 192 0
171 192 0
168 191 0
173 195 0
169 191 0
172 193 0
171 195 0
171 195 0
174 196 0
171 193 0
170 193 0
173 196 0
172 194 0
170 193 0
174 195 0
173 196 0
174 197 0
173 197 0
173 196 0
171 194 0
172 196 0
172 195 0
172 195 0
171 193 0
173 196 0
174 197 0
171 193 0
174 196 0
173 197 0
172 195 0
171 195 0
172 196 0
172 194 0
174 197 0
174 197 0
175 198 0
174 197 0
174 197 0
172 196 0
172 196 0
174 197 0
171 193 0
174 197 0
174 197 0
173 196 0
172 196 0
172 195 0
172 196 0
173 195 0
173 197 0
172 196 0
174 197 0
173 196 0
173 197 0
173 196 0
174 198 0
174 197 0
172 196 0
173 196 0
172 195 0
172 195 0
169 193 0
171 195 0
169 192 0
171 194 0
175 197 0
174 197 0
171 195 0
173 197 0
172 196 0
172 196 0
171 195 0
170 193 0
173 197 0
174 197 0
173 197 0
176 199 0
171 195 0
168 191 0
174 197 0
172 196 0
172 194 0
167 191 0
170 193 0
171 195 0
170 194 0
172 195 0
171 194 0
169 192 0
167 191 0
166 189 0
172 195 0
169 192 0
174 197 0
171 194 0
165 188 0
165 189 0
168 191 0
168 193 0
169 192 0
170 193 0
168 192 0
166 189 0
164 187 0
167 190 0
165 188 0
165 189 0
164 188 0
157 180 0
166 189 0
156 179 0
154 178 0
142 164 0
136 158 0
132 153 0
158 179 0
144 166 0
141 163 0
151 172 0
147 170 0
149 171 0
146 169 0
144 167 0
152 175 0
155 177 0
155 178 0
156 178 0
148 171 0
157 180 0
152 175 0
151 174 0
149 172 0
166 188 0
156 179 0
151 175 0
162 185 0
159 183 0
163 187 0
164 187 0
160 183 0
166 189 0
164 187 0
165 189 0
161 184 0
166 190 0
168 192 0
169 192 0
166 189 0
168 190 0
166 190 0
170 194 0
167 191 0
168 192 0
167 191 0
174 197 0
172 195 0
174 197 0
173 196 0
172 196 0
209 225 211
222 236 255
197 216 177
172 195 0
172 196 0
171 195 0
173 196 0
172 197 0
172 196 0
174 197 0
172 195 0
171 195 0
169 194 0
171 194 0
172 196 0
171 194 0
170 194 0
172 195 0
169 193 0
166 189 0
170 193 0
173 196 0
172 195 0
168 191 0
172 195 0
174 196 0
166 190 0
166 190 0
166 190 0
172 196 0
167 192 0
169 192 0
172 196 0
166 190 0
165 189 0
166 190 0
165 188 0
168 191 0
168 191 0
168 191 0
166 191 0
170 192 0
167 190 0
168 192 0
168 191 0
164 188 0
169 193 0
167 190 0
169 193 0
163 186 0
168 191 0
164 188 0
165 188 0
165 189 0
152 176 25
140 164 54
106 130 60
84 109 90
53 84 67
55 87 95
55 87 100
54 86 88
56 88 107
52 83 94
52 83 80
56 88 95
55 87 86
56 88 108
53 85 82
54 86 92
54 86 90
51 82 80
54 86 88
52 83 86
55 86 100
54 86 82
52 83 82
53 84 94
50 81 80
55 87 94
52 83 82
54 86 92
56 88 102
52 82 84
52 83 86
53 85 86
53 83 94
52 84 99
56 88 107
55 87 86
55 86 88
52 82 86
53 84 84
54 86 82
49 79 67
55 87 94
52 83 80
51 81 80
50 80 67
54 86 94
54 85 88
50 81 84
51 81 90
52 82 80
52 82 86
51 82 86
51 81 78
51 81 86
49 78 80
50 80 74
55 86 97
48 78 84
51 81 86
47 75 65
48 77 74
48 76 74
48 76 67
48 76 65
46 74 67
45 72 70
45 72 76
44 71 72
44 70 70
57 70 36
44 54 31
47 55 0
49 56 0
77 88 0
79 88 0
73 84 0
73 84 0
78 90 0
86 98 0
92 105 0
94 108 0
107 122 0
88 101 0
105 119 0
110 120 0
103 116 0
108 123 0
102 115 0
120 134 0
123 139 0
123 139 0
121 136 0
125 141 0
121 135 0
121 137 0
124 140 0
130 146 0
124 141 0
138 157 0
133 150 0
138 155 0
131 148 0
135 153 0
139 154 0
139 155 0
140 159 0
136 150 0
141 159 0
135 153 0
144 160 0
146 162 0
147 163 0
144 162 0
147 165 0
147 164 0
150 168 0
148 165 0
143 163 0
156 174 0
148 165 0
157 175 0
145 163 0
149 165 0
147 165 0
160 180 0
153 170 0
156 174 0
152 169 0
152 171 0
161 178 0
155 170 0
156 174 0
157 177 0
156 173 0
153 170 0
157 175 0
163 181 0
157 175 0
159 177 0
156 176 0
159 178 0
158 176 0
162 182 0
164 183 0
162 181 0
161 180 0
163 180 0
164 185 0
161 180 0
163 183 0
167 186 0
166 186 0
163 185 0
161 181 0
166 187 0
166 187 0
162 182 0
167 186 0
168 190 0
165 185 0
167 186 0
166 187 0
167 187 0
168 189 0
163 185 0
168 190 0
166 187 0
170 191 0
170 191 0
170 192 0
166 188 0
167 189 0
171 193 0
171 193 0
168 190 0
173 195 0
170 191 0
172 194 0
167 189 0
171 192 0
173 195 0
169 192 0
170 193 0
169 191 0
172 195 0
172 195 0
171 193 0
172 195 0
168 191 0
173 195 0
171 194 0
171 192 0
170 193 0
170 192 0
169 191 0
172 194 0
170 193 0
171 194 0
173 195 0
172 195 0
172 194 0
175 197 0
172 195 0
173 194 0
173 196 0
171 195 0
172 195 0
173 195 0
172 194 0
173 197 0
173 195 0
173 196 0
172 195 0
173 196 0
170 194 0
174 196 0
173 196 0
173 196 0
171 194 0
172 195 0
173 197 0
174 197 0
174 197 0
171 194 0
171 194 0
174 197 0
171 193 0
171 194 0
176 197 0
174 197 0
174 197 0
173 196 0
174 197 0
174 196 0
173 197 0
174 197 0
173 197 0
173 197 0
173 196 0
174 197 0
173 197 0
171 195 0
173 196 0
173 196 0
173 197 0
171 195 0
170 194 0
169 193 0
173 196 0
172 196 0
173 196 0
172 196 0
172 196 0
170 194 0
171 195 0
172 195 0
173 196 0
172 195 0
168 191 0
169 192 0
173 197 0
171 194 0
174 197 0
172 195 0
170 193 0
173 196 0
170 193 0
170 194 0
172 196 0
170 194 0
171 195 0
169 193 0
173 195 0
170 192 0
168 192 0
166 190 0
167 191 0
169 193 0
170 193 0
168 192 0
167 190 0
170 193 0
169 193 0
165 187 0
169 192 0
166 189 0
169 193 0
166 189 0
164 188 0
169 193 0
168 191 0
166 189 0
160 184 0
167 191 0
160 184 0
160 183 0
154 177 0
159 182 0
153 175 0
150 171 0
136 156 0
145 167 0
144 166 0
139 160 0
147 168 0
144 166 0
149 171 0
152 175 0
147 169 0
152 173 0
148 170 0
155 177 0
151 174 0
156 178 0
151 174 0
148 171 0
155 177 0
158 181 0
156 180 0
159 181 0
158 181 0
161 184 0
160 184 0
158 182 0
162 186 0
156 179 0
166 189 0
163 187 0
162 186 0
166 189 0
157 180 0
169 192 0
163 187 0
171 194 0
167 191 0
169 192 0
165 189 0
169 192 0
170 193 0
169 193 0
169 193 0
170 194 0
171 195 0
172 195 0
173 197 0
174 197 0
197 215 165
222 236 255
202 220 198
171 194 0
171 195 0
169 192 0
172 195 0
172 195 0
174 197 0
170 195 0
171 195 0
171 194 0
171 194 0
168 191 0
172 195 0
171 194 0
173 196 0
173 197 0
171 195 0
168 192 0
170 193 0
171 195 0
168 192 0
170 194 0
171 194 0
170 193 0
171 194 0
167 190 0
175 197 0
171 195 0
168 192 0
169 193 0
174 197 0
167 191 0
166 190 0
174 197 0
168 192 0
169 191 0
167 191 0
165 189 0
168 192 0
164 188 0
168 192 0
160 184 0
169 193 0
171 195 0
167 190 0
163 186 0
171 194 0
166 190 0
167 191 0
157 181 0
166 189 0
167 190 0
164 187 0
163 187 0
161 184 0
163 186 0
151 173 0
143 166 44
110 134 65
97 122 72
73 101 84
54 85 80
52 84 80
51 82 74
54 85 110
55 87 92
54 85 99
54 86 95
52 82 90
52 83 78
53 84 92
52 83 86
54 86 86
54 86 90
51 81 82
53 84 94
53 85 88
54 85 92
55 87 94
53 85 82
52 83 88
52 83 84
52 82 86
52 84 80
53 85 82
51 81 92
51 82 72
53 84 94
52 84 86
52 83 88
49 79 67
52 83 92
52 82 84
49 78 67
54 86 94
50 80 72
51 82 80
51 81 80
51 82 76
53 84 90
46 74 62
49 79 78
50 80 65
51 82 90
48 78 67
51 81 80
50 79 80
47 75 72
49 79 78
47 76 72
49 78 62
46 74 62
48 77 78
46 74 72
44 70 67
42 68 51
39 62 54
39 63 47
46 61 31
55 66 36
53 62 0
67 77 0
63 73 0
71 81 0
79 90 0
58 68 0
81 93 0
95 107 0
77 90 0
99 111 0
88 100 0
95 109 0
104 119 0
102 119 0
101 118 0
96 113 0
105 121 0
101 119 0
129 147 0
114 130 0
115 130 0
117 132 0
122 139 0
114 133 0
130 146 0
130 148 0
131 149 0
139 156 0
124 141 0
127 144 0
140 159 0
138 157 0
133 151 0
137 154 0
133 149 0
142 160 0
151 170 0
140 157 0
144 160 0
146 163 0
139 155 0
146 165 0
144 163 0
149 168 0
149 166 0
139 156 0
143 159 0
156 173 0
150 168 0
149 168 0
153 172 0
151 167 0
155 174 0
147 165 0
149 169 0
148 166 0
153 171 0
150 170 0
149 166 0
157 176 0
158 177 0
158 175 0
154 171 0
157 175 0
158 177 0
152 170 0
155 174 0
156 175 0
156 174 0
163 182 0
164 184 0
161 183 0
159 177 0
164 183 0
161 179 0
159 179 0
167 188 0
162 181 0
160 180 0
161 180 0
165 185 0
163 183 0
164 182 0
168 189 0
162 180 0
163 183 0
166 187 0
164 185 0
165 184 0
167 187 0
166 187 0
164 186 0
169 190 0
166 187 0
167 188 0
165 186 0
168 189 0
167 189 0
164 186 0
170 191 0
169 189 0
169 190 0
171 193 0
168 189 0
169 190 0
170 191 0
167 189 0
163 182 0
170 192 0
172 195 0
169 191 0
167 187 0
168 188 0
169 190 0
171 193 0
171 195 0
171 193 0
169 191 0
170 193 0
172 194 0
170 193 0
171 194 0
170 193 0
168 191 0
168 192 0
169 192 0
172 196 0
172 195 0
171 193 0
170 191 0
171 194 0
172 195 0
173 195 0
171 193 0
171 193 0
173 196 0
170 193 0
173 196 0
173 197 0
172 195 0
172 195 0
170 192 0
171 194 0
173 197 0
171 195 0
173 196 0
173 196 0
172 195 0
173 196 0
173 196 0
174 197 0
173 196 0
173 195 0
172 195 0
173 196 0
171 194 0
173 196 0
170 194 0
171 195 0
175 198 0
174 197 0
173 195 0
173 197 0
175 198 0
172 196 0
171 194 0
171 194 0
172 195 0
173 196 0
171 193 0
172 195 0
174 196 0
172 195 0
175 197 0
172 195 0
173 195 0
171 195 0
173 197 0
174 197 0
171 196 0
172 196 0
172 196 0
172 196 0
171 194 0
172 195 0
169 193 0
171 194 0
175 198 0
171 195 0
171 194 0
169 192 0
172 195 0
169 193 0
171 195 0
172 196 0
173 196 0
171 195 0
170 194 0
172 195 0
168 191 0
170 194 0
170 194 0
170 193 0
171 194 0
172 195 0
168 193 0
168 191 0
172 196 0
171 195 0
171 195 0
168 191 0
170 195 0
167 190 0
165 189 0
170 194 0
164 188 0
165 189 0
169 193 0
163 186 0
163 185 0
165 188 0
164 188 0
169 192 0
162 186 0
162 185 0
162 186 0
166 190 0
158 181 0
159 181 0
148 172 0
156 179 0
150 173 0
142 163 0
151 172 0
148 169 0
146 167 0
147 170 0
146 168 0
144 165 0
151 173 0
153 174 0
152 174 0
152 174 0
150 172 0
150 173 0
154 176 0
150 173 0
153 175 0
153 175 0
157 179 0
156 179 0
152 175 0
154 178 0
154 176 0
159 182 0
154 177 0
155 178 0
163 186 0
161 184 0
165 188 0
161 183 0
166 190 0
164 187 0
161 184 0
165 188 0
163 185 0
165 188 0
163 186 0
166 189 0
167 191 0
168 192 0
172 196 0
172 195 0
169 194 0
169 192 0
174 197 0
174 197 0
175 198 0
187 207 122
223 236 255
199 217 191
169 192 0
173 196 0
172 195 0
170 194 0
168 192 0
172 195 0
172 195 0
172 196 0
171 195 0
171 195 0
173 197 0
171 195 0
165 189 0
167 190 0
171 194 0
172 195 0
171 195 0
171 194 0
167 190 0
169 192 0
170 194 0
167 191 0
174 197 0
172 195 0
171 195 0
170 193 0
168 192 0
167 191 0
171 195 0
170 194 0
165 188 0
171 194 0
164 187 0
169 193 0
167 192 0
167 190 0
168 192 0
167 191 0
167 190 0
165 189 0
162 185 0
165 188 0
161 184 0
167 190 0
161 184 0
164 187 0
162 185 0
168 191 0
164 187 0
162 186 0
163 186 0
160 183 0
162 185 0
166 189 0
163 187 0
163 187 0
158 181 0
158 181 0
164 186 0
160 183 0
145 169 25
134 156 47
101 125 65
99 125 80
78 104 74
54 84 70
50 80 74
52 82 74
55 86 90
53 84 86
52 83 92
54 86 80
51 81 82
51 81 82
54 86 90
51 81 84
53 85 92
54 86 88
50 80 74
53 85 82
53 84 84
50 80 72
48 78 72
53 85 97
52 83 84
54 87 88
53 84 95
50 80 72
52 83 82
53 84 90
50 81 80
49 79 76
50 79 80
50 80 82
47 75 47
52 83 78
53 85 90
51 82 82
49 78 72
49 77 74
47 74 67
52 82 78
49 79 82
48 77 80
45 71 67
48 76 72
45 73 62
46 73 78
46 74 60
45 72 60
46 73 67
43 69 74
43 69 57
41 63 40
41 62 31
60 71 0
89 98 0
55 64 0
66 75 0
66 76 0
71 82 0
81 92 0
57 68 0
86 99 0
83 97 0
81 95 0
105 120 0
103 118 0
96 111 0
103 118 0
111 125 0
101 117 0
110 125 0
107 123 0
113 128 0
111 128 0
108 124 0
122 137 0
119 133 0
113 129 0
119 135 0
123 140 0
125 142 0
130 147 0
133 151 0
127 145 0
133 150 0
127 145 0
142 159 0
142 161 0
140 157 0
132 149 0
133 149 0
133 151 0
134 151 0
143 161 0
140 157 0
142 159 0
137 157 0
147 165 0
146 162 0
148 167 0
144 164 0
151 168 0
153 170 0
156 175 0
148 167 0
153 171 0
148 166 0
150 166 0
150 166 0
155 172 0
149 167 0
159 178 0
149 168 0
157 175 0
158 175 0
157 172 0
160 179 0
157 176 0
148 167 0
156 174 0
158 176 0
158 177 0
157 176 0
160 178 0
163 182 0
158 178 0
157 176 0
158 177 0
162 180 0
161 179 0
161 182 0
156 176 0
159 178 0
159 179 0
163 183 0
163 182 0
162 180 0
160 180 0
163 182 0
162 181 0
167 187 0
165 187 0
163 184 0
164 184 0
166 185 0
165 186 0
165 185 0
165 185 0
165 184 0
165 185 0
169 188 0
165 186 0
165 186 0
168 189 0
167 188 0
171 192 0
169 190 0
169 191 0
168 190 0
170 191 0
170 192 0
169 192 0
170 193 0
167 187 0
166 187 0
168 191 0
169 191 0
168 191 0
169 190 0
169 191 0
174 195 0
170 192 0
166 189 0
172 195 0
167 189 0
170 193 0
171 192 0
169 191 0
171 194 0
170 193 0
170 192 0
173 195 0
172 196 0
169 190 0
172 196 0
172 193 0
171 194 0
174 197 0
173 196 0
172 195 0
172 195 0
174 196 0
171 195 0
169 193 0
171 195 0
173 196 0
172 195 0
172 194 0
175 196 0
172 195 0
173 196 0
172 195 0
172 195 0
172 195 0
171 194 0
172 195 0
173 195 0
174 196 0
172 194 0
173 195 0
172 196 0
174 197 0
171 194 0
173 196 0
174 196 0
172 195 0
172 195 0
170 194 0
176 198 0
174 197 0
174 197 0
172 196 0
174 197 0
170 195 0
173 197 0
171 195 0
175 197 0
173 196 0
170 194 0
174 197 0
172 195 0
172 196 0
173 196 0
173 196 0
175 198 0
169 193 0
171 194 0
171 195 0
171 195 0
174 197 0
172 196 0
170 194 0
171 195 0
172 195 0
170 194 0
171 194 0
173 197 0
172 196 0
169 193 0
172 195 0
167 190 0
167 191 0
171 194 0
165 190 0
169 193 0
170 194 0
166 189 0
169 193 0
171 194 0
173 197 0
169 192 0
170 193 0
170 195 0
174 197 0
168 191 0
168 191 0
166 189 0
169 192 0
166 189 0
172 196 0
167 191 0
167 191 0
166 189 0
171 194 0
168 192 0
169 192 0
169 192 0
162 186 0
168 191 0
163 186 0
162 186 0
161 185 0
168 191 0
164 186 0
156 180 0
155 178 0
158 181 0
148 171 0
157 179 0
142 163 0
145 166 0
146 168 0
143 164 0
147 169 0
143 165 0
136 158 0
144 166 0
151 174 0
143 165 0
146 167 0
142 165 0
157 179 0
150 172 0
159 182 0
154 176 0
157 179 0
163 185 0
156 179 0
154 178 0
157 180 0
159 181 0
160 183 0
148 172 0
163 186 0
157 180 0
162 185 0
159 182 0
161 184 0
158 181 0
158 181 0
158 182 0
163 187 0
170 194 0
169 191 0
164 187 0
165 189 0
167 190 0
168 192 0
167 190 0
171 194 0
173 197 0
172 195 0
172 195 0
169 193 0
174 197 0
182 204 95
223 236 255
208 224 215
171 194 0
172 195 0
171 194 0
173 196 0
173 197 0
171 195 0
170 193 0
172 196 0
169 193 0
170 194 0
172 194 0
171 194 0
170 194 0
170 194 0
172 196 0
171 194 0
171 196 0
166 189 0
168 192 0
171 195 0
167 191 0
172 195 0
172 195 0
168 191 0
167 191 0
166 190 0
170 193 0
164 188 0
169 193 0
169 192 0
173 196 0
173 195 0
168 191 0
168 192 0
166 189 0
164 187 0
166 189 0
168 191 0
165 189 0
163 187 0
162 185 0
163 186 0
169 192 0
164 188 0
166 189 0
164 187 0
165 190 0
157 180 0
159 184 0
162 185 0
162 186 0
164 188 0
165 189 0
157 180 0
160 183 0
164 187 0
159 182 0
157 180 0
159 183 0
160 182 0
161 183 0
151 173 0
158 181 0
152 175 0
147 170 0
150 172 18
135 158 25
127 150 40
112 135 47
101 125 70
73 99 74
62 91 74
54 86 82
53 85 88
53 84 67
54 86 82
48 77 67
52 82 80
49 79 72
53 83 86
50 80 72
53 84 86
49 78 72
51 81 78
51 82 80
50 81 70
50 80 76
51 81 82
51 80 80
49 79 76
50 79 70
48 77 62
54 85 84
48 77 72
49 78 78
45 73 57
47 75 60
49 77 72
49 79 74
47 76 62
48 78 72
46 73 62
46 73 62
44 71 62
44 70 47
44 71 57
43 69 62
40 65 60
40 64 47
37 60 51
34 55 44
56 69 36
57 66 0
65 74 0
64 74 0
62 72 0
78 89 0
64 75 0
80 91 0
73 85 0
84 97 0
85 96 0
88 101 0
80 93 0
84 97 0
90 105 0
95 110 0
110 126 0
109 125 0
103 119 0
118 135 0
103 118 0
107 123 0
110 126 0
120 138 0
129 146 0
128 145 0
114 130 0
116 133 0
133 150 0
129 145 0
131 150 0
129 148 0
139 156 0
131 146 0
135 154 0
129 149 0
138 157 0
129 148 0
137 155 0
133 151 0
144 163 0
144 163 0
144 165 0
147 166 0
139 159 0
135 153 0
145 164 0
153 172 0
141 159 0
149 167 0
147 165 0
144 164 0
146 165 0
156 175 0
149 166 0
148 166 0
155 174 0
145 163 0
151 171 0
153 171 0
157 174 0
157 177 0
151 168 0
153 173 0
152 169 0
144 162 0
156 176 0
157 176 0
152 170 0
157 175 0
162 183 0
162 180 0
163 182 0
157 177 0
164 184 0
158 178 0
162 183 0
162 181 0
155 172 0
161 181 0
164 183 0
159 179 0
164 185 0
165 186 0
157 178 0
161 182 0
160 181 0
163 182 0
165 185 0
160 181 0
163 185 0
161 179 0
162 182 0
164 186 0
163 184 0
165 186 0
165 184 0
167 189 0
166 186 0
167 187 0
167 189 0
168 191 0
167 188 0
171 193 0
168 190 0
168 189 0
168 189 0
167 188 0
171 194 0
171 192 0
171 192 0
167 188 0
168 190 0
167 189 0
167 188 0
169 190 0
169 192 0
167 190 0
166 187 0
172 193 0
170 192 0
172 194 0
172 194 0
171 194 0
170 192 0
170 192 0
174 196 0
168 190 0
173 195 0
169 192 0
166 189 0
171 193 0
172 196 0
169 191 0
171 193 0
171 195 0
171 193 0
172 195 0
170 193 0
171 194 0
171 194 0
172 194 0
170 193 0
174 196 0
172 194 0
174 197 0
171 194 0
169 191 0
171 192 0
172 195 0
174 197 0
172 194 0
173 196 0
172 194 0
170 193 0
172 196 0
174 197 0
173 195 0
174 197 0
171 195 0
172 194 0
174 197 0
173 196 0
175 197 0
174 197 0
172 196 0
172 196 0
172 196 0
174 197 0
171 193 0
173 196 0
174 197 0
176 198 0
175 198 0
173 196 0
172 195 0
172 195 0
175 197 0
171 194 0
173 194 0
175 197 0
168 192 0
170 193 0
172 196 0
169 193 0
169 192 0
169 193 0
171 196 0
170 194 0
171 194 0
171 194 0
171 195 0
171 194 0
169 193 0
175 198 0
171 194 0
167 191 0
173 196 0
169 192 0
172 195 0
171 194 0
172 195 0
173 196 0
170 194 0
166 190 0
168 192 0
170 194 0
169 193 0
172 195 0
171 194 0
171 195 0
171 194 0
167 191 0
169 192 0
167 191 0
169 192 0
169 192 0
166 189 0
170 193 0
169 192 0
169 193 0
169 192 0
167 189 0
171 194 0
168 191 0
168 191 0
168 192 0
168 190 0
163 187 0
163 187 0
166 188 0
161 184 0
164 188 0
167 190 0
156 180 0
160 184 0
159 182 0
147 170 0
154 177 0
149 171 0
143 165 0
148 170 0
140 161 0
141 162 0
148 169 0
156 177 0
142 164 0
150 172 0
149 170 0
146 168 0
147 169 0
140 162 0
153 174 0
145 168 0
148 170 0
157 178 0
152 174 0
157 180 0
154 177 0
160 183 0
156 180 0
150 173 0
157 179 0
154 176 0
155 177 0
161 184 0
156 179 0
156 179 0
161 184 0
166 189 0
161 185 0
164 187 0
165 189 0
165 188 0
162 186 0
167 190 0
160 183 0
165 189 0
169 193 0
166 189 0
170 193 0
173 196 0
172 196 0
172 196 0
172 196 0
174 197 0
178 200 67
223 236 255
205 222 203
173 196 0
168 191 0
172 196 0
167 191 0
167 190 0
171 194 0
173 196 0
171 194 0
172 196 0
167 191 0
171 194 0
170 194 0
171 194 0
170 194 0
167 190 0
170 193 0
170 192 0
165 189 0
169 192 0
166 189 0
171 194 0
171 195 0
171 194 0
168 191 0
170 193 0
170 193 0
166 190 0
169 192 0
169 192 0
165 189 0
168 191 0
161 185 0
162 186 0
169 192 0
169 192 0
166 189 0
163 186 0
167 190 0
165 188 0
166 190 0
164 187 0
166 189 0
168 191 0
161 183 0
162 186 0
167 189 0
159 182 0
163 186 0
155 178 0
163 186 0
153 176 0
160 183 0
161 184 0
158 181 0
160 182 0
156 179 0
156 179 0
160 183 0
162 184 0
160 182 0
156 178 0
158 181 0
156 179 0
157 180 0
151 173 0
153 175 0
149 170 0
142 163 0
152 174 0
150 172 0
147 169 0
137 159 0
128 149 0
125 146 31
126 148 40
101 123 51
86 109 40
83 107 54
80 104 72
63 88 72
59 86 65
49 78 65
52 83 76
50 80 78
49 79 54
52 83 86
48 76 60
51 81 82
48 77 67
48 77 72
50 79 80
49 78 74
47 76 74
47 75 67
47 75 65
47 76 60
45 72 57
46 75 72
45 72 62
44 72 57
47 72 54
41 67 51
50 75 65
63 83 51
46 66 31
52 67 36
70 84 31
58 71 25
68 78 0
71 82 0
68 80 0
76 89 0
62 73 0
68 79 0
65 77 0
82 95 0
85 96 0
72 86 0
76 89 0
71 83 0
100 114 0
89 103 0
85 98 0
97 112 0
97 111 0
98 112 0
100 116 0
111 125 0
105 121 0
116 134 0
115 130 0
109 126 0
120 136 0
115 131 0
115 133 0
121 137 0
120 138 0
128 146 0
132 152 0
131 147 0
134 152 0
128 146 0
127 145 0
131 150 0
131 150 0
139 158 0
138 157 0
124 141 0
138 156 0
140 159 0
135 155 0
147 167 0
144 161 0
139 157 0
146 165 0
145 164 0
136 155 0
139 158 0
141 160 0
146 164 0
154 174 0
140 157 0
152 169 0
152 173 0
148 169 0
155 173 0
146 165 0
151 168 0
154 173 0
151 168 0
156 174 0
157 177 0
157 176 0
155 175 0
154 174 0
151 169 0
160 180 0
152 171 0
154 173 0
158 176 0
159 180 0
157 177 0
163 184 0
161 181 0
160 177 0
155 176 0
157 177 0
163 182 0
163 184 0
161 178 0
157 178 0
162 183 0
159 180 0
162 180 0
162 181 0
165 186 0
160 179 0
165 186 0
164 184 0
162 182 0
162 183 0
165 186 0
164 185 0
162 181 0
160 180 0
162 183 0
164 184 0
165 187 0
165 185 0
169 189 0
168 188 0
168 189 0
166 188 0
166 187 0
168 189 0
162 184 0
166 189 0
165 187 0
169 190 0
167 189 0
170 191 0
171 193 0
167 188 0
170 192 0
168 191 0
168 190 0
171 193 0
174 195 0
171 192 0
174 196 0
169 190 0
166 188 0
170 192 0
168 190 0
172 194 0
171 193 0
172 194 0
170 191 0
166 188 0
170 193 0
171 194 0
170 193 0
169 192 0
166 187 0
172 195 0
170 193 0
169 191 0
170 192 0
169 192 0
171 194 0
171 194 0
172 193 0
170 193 0
172 195 0
171 194 0
171 193 0
171 193 0
169 192 0
174 197 0
172 195 0
173 195 0
171 195 0
171 194 0
173 196 0
172 194 0
171 194 0
169 193 0
173 195 0
173 197 0
172 194 0
171 194 0
173 195 0
173 196 0
171 194 0
170 193 0
172 195 0
174 196 0
174 197 0
173 196 0
172 195 0
173 196 0
174 197 0
173 197 0
173 196 0
171 195 0
173 196 0
173 196 0
172 196 0
173 197 0
172 196 0
175 198 0
173 196 0
173 197 0
172 195 0
174 197 0
169 193 0
174 197 0
170 194 0
169 194 0
172 195 0
174 198 0
173 197 0
169 194 0
172 195 0
171 194 0
172 195 0
169 193 0
169 192 0
169 193 0
173 196 0
172 196 0
172 196 0
169 192 0
170 193 0
170 193 0
169 193 0
168 192 0
172 195 0
165 189 0
171 194 0
166 190 0
168 192 0
170 194 0
168 193 0
170 194 0
167 191 0
170 193 0
168 191 0
166 190 0
165 189 0
169 192 0
162 185 0
161 185 0
166 188 0
168 192 0
164 187 0
171 194 0
166 189 0
163 186 0
169 192 0
166 189 0
168 192 0
161 184 0
165 188 0
165 188 0
156 180 0
158 180 0
156 180 0
159 182 0
158 181 0
152 175 0
132 153 0
142 164 0
137 158 0
143 165 0
144 164 0
140 162 0
148 170 0
154 176 0
146 168 0
144 166 0
149 171 0
146 167 0
153 175 0
152 175 0
156 178 0
148 170 0
152 174 0
149 171 0
149 172 0
159 182 0
151 173 0
147 170 0
154 176 0
154 178 0
162 185 0
160 183 0
157 180 0
159 182 0
160 182 0
158 181 0
159 183 0
159 183 0
167 190 0
166 189 0
167 191 0
162 187 0
166 190 0
167 191 0
167 191 0
165 189 0
170 194 0
172 196 0
169 191 0
172 196 0
173 196 0
173 197 0
173 196 36
223 236 255
208 224 221
170 194 0
168 191 0
170 194 0
171 195 0
172 195 0
169 193 0
167 190 0
172 195 0
172 195 0
170 194 0
172 195 0
169 192 0
169 193 0
171 194 0
166 190 0
171 194 0
166 190 0
170 194 0
166 190 0
168 192 0
171 194 0
167 191 0
167 191 0
169 192 0
166 190 0
168 190 0
164 187 0
171 194 0
169 193 0
169 194 0
164 188 0
168 192 0
165 188 0
167 191 0
163 187 0
166 189 0
166 190 0
164 188 0
160 184 0
168 192 0
162 185 0
161 184 0
164 188 0
163 186 0
161 184 0
166 190 0
164 186 0
162 185 0
154 177 0
156 179 0
163 187 0
152 175 0
163 186 0
154 176 0
162 184 0
157 180 0
148 171 0
153 176 0
150 172 0
150 172 0
159 182 0
147 170 0
153 175 0
145 167 0
154 176 0
155 177 0
143 164 0
152 174 0
150 171 0
148 170 0
143 164 0
139 161 0
135 157 0
140 162 0
138 160 0
145 165 0
142 163 0
134 155 0
130 150 0
128 148 0
139 158 0
124 144 0
115 135 0
111 129 0
109 128 31
105 125 36
102 121 25
96 114 25
103 122 36
101 120 44
84 104 31
105 122 31
92 111 31
76 94 36
78 95 40
79 96 31
75 90 18
78 94 25
81 95 0
60 74 18
82 94 0
79 93 0
98 112 0
72 84 0
84 97 0
78 89 0
59 71 0
67 80 0
78 88 0
61 73 0
85 98 0
80 93 0
71 84 0
83 96 0
98 111 0
84 97 0
88 104 0
78 90 0
107 122 0
104 119 0
86 101 0
96 111 0
96 111 0
111 126 0
102 116 0
101 115 0
107 124 0
116 133 0
115 133 0
116 133 0
107 124 0
117 134 0
120 137 0
107 124 0
127 145 0
115 132 0
133 152 0
131 148 0
133 152 0
128 145 0
125 143 0
125 144 0
131 149 0
136 152 0
135 154 0
141 160 0
135 154 0
137 156 0
134 152 0
134 153 0
139 158 0
146 165 0
145 164 0
152 173 0
141 160 0
139 160 0
153 173 0
140 159 0
144 163 0
150 168 0
145 164 0
145 164 0
139 159 0
149 169 0
151 169 0
147 167 0
160 180 0
154 173 0
157 177 0
157 175 0
153 171 0
153 171 0
161 182 0
153 175 0
160 180 0
154 173 0
155 173 0
159 180 0
150 171 0
158 177 0
163 184 0
160 179 0
152 171 0
154 173 0
163 184 0
162 180 0
162 182 0
159 180 0
166 186 0
161 182 0
163 182 0
160 180 0
166 188 0
159 181 0
159 177 0
167 187 0
164 185 0
163 182 0
165 186 0
163 184 0
167 186 0
164 184 0
166 186 0
165 184 0
158 177 0
168 191 0
165 185 0
166 187 0
168 188 0
166 189 0
164 187 0
164 185 0
167 190 0
165 186 0
166 187 0
168 189 0
167 188 0
169 191 0
169 190 0
167 190 0
167 186 0
167 189 0
165 187 0
171 192 0
172 193 0
171 194 0
169 190 0
167 188 0
168 189 0
170 193 0
170 192 0
169 192 0
169 191 0
169 191 0
169 192 0
168 190 0
167 188 0
172 195 0
170 192 0
171 192 0
171 194 0
169 192 0
173 194 0
167 188 0
172 194 0
170 192 0
171 191 0
171 193 0
174 196 0
172 194 0
172 195 0
170 192 0
171 193 0
173 195 0
170 192 0
171 194 0
172 194 0
171 194 0
172 195 0
173 195 0
172 195 0
173 196 0
172 196 0
171 193 0
171 193 0
171 194 0
171 194 0
171 194 0
174 196 0
168 191 0
173 196 0
170 192 0
170 194 0
173 196 0
173 196 0
174 196 0
173 196 0
173 196 0
174 197 0
173 196 0
172 195 0
172 194 0
172 194 0
171 194 0
174 196 0
173 196 0
171 193 0
173 195 0
171 194 0
174 196 0
173 196 0
174 196 0
173 196 0
172 196 0
173 196 0
171 195 0
171 194 0
172 195 0
173 196 0
172 196 0
172 195 0
170 194 0
165 189 0
169 193 0
171 194 0
171 195 0
169 192 0
171 194 0
172 195 0
168 192 0
172 195 0
171 194 0
167 192 0
171 194 0
172 196 0
169 194 0
169 193 0
169 193 0
168 192 0
168 192 0
170 193 0
165 190 0
169 192 0
166 190 0
169 192 0
170 194 0
169 193 0
168 191 0
166 190 0
164 188 0
169 192 0
164 187 0
167 189 0
167 191 0
166 190 0
166 189 0
162 184 0
165 189 0
163 186 0
164 187 0
164 187 0
164 187 0
166 189 0
165 187 0
161 184 0
158 182 0
158 182 0
160 183 0
160 182 0
154 175 0
153 176 0
144 165 0
137 159 0
136 158 0
138 159 0
145 166 0
150 172 0
143 165 0
142 164 0
148 171 0
146 168 0
148 169 0
148 170 0
144 166 0
147 170 0
144 167 0
148 169 0
150 173 0
151 174 0
153 176 0
155 177 0
159 182 0
154 177 0
157 179 0
163 186 0
161 184 0
163 185 0
162 185 0
155 178 0
164 186 0
162 185 0
165 188 0
159 182 0
164 187 0
166 190 0
166 190 0
163 187 0
168 190 0
167 191 0
167 191 0
167 192 0
170 194 0
173 197 0
170 194 0
174 197 0
171 194 0
174 197 0
175 199 57
223 236 255
204 221 204
166 189 0
173 197 0
171 195 0
169 192 0
169 192 0
170 194 0
168 191 0
168 192 0
173 197 0
170 194 0
173 197 0
169 193 0
169 193 0
169 192 0
169 192 0
165 189 0
167 190 0
170 194 0
164 188 0
168 191 0
166 190 0
165 188 0
165 189 0
168 192 0
167 191 0
165 189 0
165 187 0
169 191 0
167 191 0
166 190 0
165 188 0
163 186 0
165 188 0
163 187 0
165 188 0
165 188 0
168 191 0
167 191 0
161 184 0
162 186 0
167 190 0
161 185 0
170 193 0
158 181 0
161 184 0
167 190 0
163 187 0
157 180 0
157 180 0
158 180 0
164 187 0
155 178 0
156 179 0
162 184 0
159 182 0
148 170 0
151 173 0
157 180 0
146 169 0
155 177 0
149 171 0
157 179 0
147 169 0
142 163 0
150 173 0
142 164 0
145 167 0
141 163 0
144 165 0
143 165 0
142 163 0
146 168 0
145 165 0
131 152 0
136 157 0
124 145 0
132 153 0
129 149 0
131 151 0
130 149 0
123 142 0
130 151 0
127 146 0
117 134 0
122 141 0
120 139 0
122 140 0
111 129 0
109 126 0
100 116 0
109 126 0
107 124 0
95 111 0
99 114 0
90 105 0
92 107 0
85 100 0
97 112 0
86 100 0
88 100 0
74 88 0
91 105 0
72 86 0
63 78 0
86 99 0
84 98 0
89 103 0
76 89 0
83 96 0
76 90 0
88 101 0
84 98 0
87 100 0
87 100 0
99 114 0
88 102 0
88 104 0
100 114 0
102 118 0
107 123 0
100 116 0
111 126 0
104 121 0
105 122 0
124 142 0
106 120 0
105 122 0
124 142 0
118 135 0
121 137 0
116 135 0
127 144 0
122 139 0
123 142 0
125 144 0
123 141 0
118 135 0
132 150 0
137 155 0
125 143 0
136 155 0
134 152 0
129 147 0
136 156 0
138 156 0
139 158 0
143 163 0
132 151 0
140 159 0
137 157 0
146 163 0
135 155 0
158 179 0
133 151 0
140 160 0
142 162 0
146 164 0
152 172 0
149 166 0
153 174 0
148 167 0
154 172 0
144 164 0
154 174 0
152 172 0
148 167 0
154 174 0
152 172 0
158 179 0
158 177 0
154 173 0
161 181 0
157 177 0
152 170 0
158 177 0
159 178 0
158 178 0
164 183 0
161 181 0
161 179 0
161 181 0
155 175 0
154 176 0
155 174 0
159 178 0
157 176 0
160 180 0
158 178 0
159 179 0
157 177 0
163 183 0
159 178 0
162 182 0
164 185 0
164 186 0
162 183 0
161 180 0
162 182 0
165 186 0
165 186 0
162 183 0
166 186 0
168 189 0
165 187 0
162 183 0
165 186 0
168 189 0
168 188 0
163 184 0
168 190 0
171 193 0
165 188 0
168 188 0
168 191 0
173 195 0
165 187 0
171 192 0
171 192 0
166 189 0
167 189 0
162 184 0
168 190 0
169 192 0
167 189 0
169 191 0
170 192 0
168 190 0
171 193 0
170 191 0
172 194 0
169 192 0
171 194 0
170 192 0
169 191 0
169 192 0
167 190 0
170 192 0
169 192 0
170 193 0
168 190 0
171 194 0
172 195 0
173 196 0
171 193 0
171 193 0
173 194 0
172 194 0
173 195 0
172 195 0
173 195 0
171 193 0
171 194 0
171 194 0
171 194 0
172 194 0
170 193 0
173 195 0
172 195 0
173 197 0
173 195 0
171 194 0
174 195 0
168 190 0
173 195 0
174 197 0
171 194 0
172 196 0
172 195 0
173 197 0
171 194 0
174 196 0
174 196 0
169 192 0
174 197 0
171 195 0
173 196 0
173 196 0
171 193 0
172 196 0
171 194 0
175 198 0
174 198 0
173 196 0
175 198 0
173 196 0
173 195 0
173 195 0
172 196 0
173 196 0
173 197 0
174 197 0
173 195 0
173 197 0
174 197 0
169 193 0
170 194 0
172 196 0
172 195 0
174 197 0
166 190 0
172 196 0
173 197 0
168 191 0
174 197 0
175 198 0
173 197 0
172 195 0
170 194 0
169 192 0
171 195 0
168 192 0
170 194 0
171 195 0
171 194 0
171 194 0
170 194 0
168 192 0
165 189 0
169 192 0
173 196 0
170 193 0
170 194 0
169 192 0
170 193 0
168 191 0
166 189 0
166 190 0
172 196 0
169 192 0
170 193 0
167 190 0
166 189 0
169 192 0
168 192 0
168 191 0
169 192 0
160 184 0
166 190 0
166 190 0
168 191 0
163 187 0
162 186 0
154 177 0
161 184 0
162 185 0
156 178 0
161 183 0
156 180 0
155 178 0
150 172 0
145 168 0
134 155 0
134 155 0
145 166 0
143 165 0
131 152 0
144 166 0
142 164 0
142 164 0
142 164 0
145 167 0
144 164 0
150 172 0
149 171 0
147 170 0
152 175 0
154 176 0
152 174 0
156 178 0
149 171 0
154 177 0
162 185 0
154 176 0
153 176 0
160 183 0
159 183 0
152 176 0
150 173 0
160 183 0
161 185 0
157 181 0
159 182 0
167 189 0
165 188 0
158 181 0
163 186 0
165 187 0
166 189 0
167 190 0
170 194 0
165 188 0
175 198 0
169 192 0
170 194 0
171 195 0
173 197 0
174 197 0
179 201 57
222 236 255
198 217 182
167 190 0
164 188 0
169 193 0
170 194 0
171 194 0
169 193 0
169 192 0
167 191 0
167 192 0
170 193 0
171 194 0
168 192 0
171 194 0
162 186 0
169 192 0
170 193 0
170 194 0
166 190 0
168 191 0
166 190 0
168 191 0
169 193 0
165 188 0
164 187 0
166 190 0
165 188 0
164 187 0
165 189 0
164 188 0
164 188 0
161 186 0
166 190 0
164 187 0
168 190 0
162 185 0
160 184 0
161 184 0
168 191 0
166 190 0
164 188 0
160 184 0
163 186 0
162 184 0
157 181 0
164 187 0
158 181 0
163 186 0
154 177 0
160 183 0
159 182 0
153 175 0
152 176 0
153 175 0
149 171 0
154 176 0
151 173 0
154 177 0
158 180 0
155 178 0
143 165 0
152 174 0
152 175 0
142 163 0
146 168 0
147 168 0
147 169 0
141 163 0
146 167 0
145 167 0
136 159 0
139 160 0
138 159 0
137 158 0
138 158 0
133 152 0
133 154 0
123 144 0
129 150 0
125 145 0
132 153 0
123 142 0
121 140 0
121 141 0
133 151 0
121 140 0
117 135 0
112 129 0
108 126 0
114 130 0
96 114 0
104 120 0
103 119 0
91 107 0
100 115 0
90 106 0
93 109 0
83 99 0
96 110 0
87 101 0
103 118 0
95 109 0
98 113 0
88 101 0
92 108 0
74 88 0
82 96 0
68 83 0
92 106 0
93 107 0
87 101 0
89 106 0
85 100 0
80 95 0
97 113 0
91 108 0
84 99 0
100 116 0
110 126 0
106 123 0
106 123 0
108 124 0
93 110 0
103 120 0
108 124 0
111 128 0
120 136 0
112 131 0
119 138 0
116 133 0
118 136 0
117 135 0
118 137 0
128 146 0
132 149 0
138 158 0
134 153 0
130 148 0
142 161 0
131 150 0
137 155 0
133 150 0
145 166 0
144 165 0
139 158 0
131 150 0
142 161 0
141 162 0
147 167 0
139 158 0
135 154 0
149 167 0
142 162 0
137 157 0
134 154 0
147 168 0
149 169 0
151 171 0
153 174 0
146 163 0
144 163 0
153 173 0
146 165 0
149 169 0
148 167 0
151 172 0
148 167 0
148 168 0
152 172 0
151 170 0
157 176 0
152 171 0
150 170 0
150 170 0
150 169 0
163 184 0
163 184 0
153 172 0
155 175 0
157 177 0
158 177 0
159 179 0
153 174 0
163 183 0
157 177 0
158 178 0
158 179 0
162 181 0
164 185 0
163 183 0
164 185 0
166 185 0
165 186 0
162 184 0
165 186 0
163 184 0
161 181 0
162 183 0
165 185 0
159 178 0
167 188 0
160 181 0
166 188 0
162 184 0
162 183 0
168 189 0
167 188 0
168 191 0
161 180 0
169 190 0
164 185 0
166 185 0
167 189 0
166 188 0
162 183 0
162 182 0
169 191 0
166 187 0
168 189 0
168 190 0
169 192 0
164 186 0
167 189 0
168 189 0
171 194 0
168 190 0
168 190 0
167 188 0
170 192 0
168 190 0
168 190 0
170 192 0
171 194 0
168 189 0
171 193 0
171 194 0
169 192 0
170 193 0
168 191 0
172 194 0
169 191 0
169 193 0
172 194 0
171 192 0
170 193 0
172 195 0
173 195 0
172 193 0
170 193 0
171 194 0
170 192 0
173 196 0
170 193 0
170 193 0
174 196 0
173 195 0
171 194 0
171 194 0
171 193 0
172 194 0
171 194 0
172 195 0
173 195 0
170 194 0
171 194 0
171 195 0
172 195 0
171 194 0
173 195 0
170 193 0
171 193 0
171 194 0
176 198 0
172 194 0
173 196 0
173 195 0
173 196 0
174 197 0
175 197 0
172 196 0
173 195 0
173 195 0
172 195 0
173 196 0
172 196 0
172 195 0
171 195 0
174 198 0
174 198 0
173 196 0
174 197 0
172 195 0
175 197 0
169 193 0
173 196 0
169 193 0
170 194 0
169 193 0
173 196 0
165 189 0
170 194 0
172 195 0
170 194 0
168 192 0
172 195 0
167 190 0
172 196 0
167 191 0
170 194 0
174 197 0
171 194 0
169 193 0
171 195 0
167 190 0
169 194 0
168 192 0
170 194 0
170 193 0
165 189 0
170 193 0
169 192 0
171 195 0
167 190 0
169 193 0
170 194 0
168 191 0
169 193 0
168 191 0
168 192 0
164 188 0
168 191 0
166 188 0
167 191 0
165 189 0
164 187 0
165 189 0
163 186 0
166 190 0
165 188 0
163 187 0
166 190 0
152 176 0
162 185 0
164 187 0
159 182 0
157 180 0
155 178 0
153 175 0
158 180 0
157 179 0
151 173 0
142 164 0
126 147 0
139 160 0
135 156 0
141 164 0
151 173 0
141 164 0
146 168 0
147 169 0
152 174 0
146 168 0
140 163 0
156 177 0
149 171 0
148 170 0
146 167 0
143 166 0
151 173 0
147 170 0
147 170 0
154 177 0
156 179 0
156 178 0
163 185 0
155 178 0
151 174 0
159 182 0
162 184 0
161 184 0
155 178 0
159 182 0
167 189 0
161 183 0
166 189 0
159 183 0
165 188 0
163 187 0
166 190 0
166 190 0
167 190 0
170 194 0
163 187 0
171 195 0
169 192 0
173 197 0
171 195 0
176 199 0
182 204 99
222 236 255
193 213 165
169 192 0
172 196 0
169 194 0
165 188 0
168 192 0
169 194 0
167 190 0
168 192 0
168 192 0
167 190 0
173 196 0
170 193 0
168 192 0
167 190 0
169 192 0
169 193 0
170 193 0
169 193 0
168 192 0
168 191 0
168 191 0
165 188 0
167 190 0
165 188 0
166 190 0
167 191 0
166 189 0
162 186 0
164 187 0
167 191 0
168 192 0
166 188 0
159 182 0
162 186 0
168 191 0
163 186 0
161 184 0
165 190 0
160 184 0
162 185 0
162 185 0
157 179 0
156 180 0
159 182 0
155 178 0
160 182 0
159 183 0
160 183 0
157 179 0
156 178 0
152 175 0
156 179 0
160 182 0
156 179 0
144 166 0
157 180 0
144 167 0
151 173 0
155 178 0
143 164 0
146 169 0
146 168 0
146 168 0
142 164 0
142 163 0
152 175 0
148 169 0
145 165 0
139 160 0
142 164 0
143 165 0
139 160 0
136 157 0
132 152 0
139 160 0
114 135 0
134 154 0
130 150 0
139 159 0
129 149 0
123 142 0
124 144 0
106 125 0
125 144 0
119 137 0
104 122 0
119 137 0
108 127 0
101 119 0
100 116 0
102 119 0
104 120 0
112 130 0
107 124 0
113 130 0
109 125 0
91 107 0
91 107 0
90 106 0
87 102 0
90 105 0
99 113 0
104 118 0
96 111 0
93 107 0
87 102 0
92 108 0
88 103 0
89 103 0
102 117 0
96 111 0
110 125 0
100 115 0
101 118 0
108 124 0
96 113 0
116 134 0
107 123 0
97 114 0
113 131 0
110 126 0
114 130 0
116 134 0
127 145 0
119 136 0
125 142 0
117 133 0
105 124 0
120 136 0
128 147 0
126 143 0
128 146 0
131 149 0
132 150 0
132 150 0
138 157 0
132 152 0
138 158 0
143 163 0
130 149 0
133 153 0
136 156 0
144 162 0
140 158 0
138 155 0
139 158 0
143 162 0
138 157 0
151 171 0
148 169 0
142 163 0
154 174 0
145 163 0
149 169 0
146 165 0
146 166 0
150 169 0
152 173 0
149 170 0
154 175 0
145 164 0
146 167 0
158 178 0
155 175 0
151 171 0
153 172 0
150 170 0
157 177 0
157 178 0
157 177 0
156 178 0
154 173 0
152 173 0
159 180 0
159 179 0
156 178 0
151 172 0
163 184 0
159 180 0
156 176 0
161 182 0
165 187 0
159 178 0
154 173 0
158 177 0
158 178 0
157 177 0
158 179 0
161 180 0
162 183 0
165 186 0
166 185 0
162 183 0
165 186 0
167 187 0
164 185 0
166 186 0
162 183 0
166 188 0
162 183 0
164 184 0
164 185 0
165 187 0
166 187 0
163 185 0
168 188 0
165 187 0
167 189 0
166 186 0
168 190 0
170 190 0
166 186 0
166 187 0
165 187 0
166 187 0
167 189 0
168 188 0
171 192 0
170 191 0
169 191 0
169 191 0
168 190 0
170 191 0
167 188 0
174 196 0
164 188 0
170 193 0
166 188 0
169 190 0
172 195 0
168 191 0
171 193 0
171 195 0
170 194 0
171 193 0
170 193 0
171 194 0
172 193 0
170 192 0
172 195 0
173 196 0
171 194 0
171 195 0
172 195 0
173 195 0
174 196 0
172 193 0
172 194 0
169 192 0
172 194 0
173 196 0
170 192 0
171 194 0
169 191 0
171 193 0
172 195 0
173 196 0
169 192 0
173 196 0
169 192 0
170 193 0
173 195 0
171 193 0
171 193 0
172 195 0
169 192 0
173 196 0
172 195 0
173 196 0
173 196 0
173 196 0
174 197 0
174 196 0
173 195 0
169 192 0
174 197 0
170 193 0
172 195 0
174 197 0
172 194 0
171 194 0
172 195 0
175 198 0
173 196 0
172 195 0
171 194 0
171 193 0
173 197 0
173 197 0
174 197 0
174 198 0
174 197 0
172 196 0
173 196 0
171 195 0
170 194 0
168 192 0
169 193 0
171 195 0
171 195 0
169 193 0
167 191 0
170 194 0
173 195 0
173 196 0
168 191 0
168 192 0
170 194 0
170 193 0
170 194 0
171 194 0
167 190 0
172 195 0
170 194 0
172 196 0
169 192 0
169 193 0
171 193 0
167 191 0
168 191 0
165 188 0
165 190 0
168 191 0
167 191 0
169 193 0
167 191 0
166 190 0
166 190 0
166 189 0
170 193 0
165 188 0
164 188 0
166 190 0
165 187 0
168 192 0
169 192 0
164 188 0
162 185 0
167 191 0
163 187 0
156 180 0
166 190 0
159 183 0
157 179 0
162 185 0
160 184 0
163 186 0
164 187 0
155 177 0
144 166 0
136 158 0
143 163 0
142 163 0
138 159 0
147 168 0
149 170 0
149 171 0
143 164 0
150 172 0
140 162 0
145 167 0
145 167 0
150 172 0
153 175 0
146 169 0
149 171 0
145 168 0
151 173 0
146 167 0
155 178 0
151 173 0
153 175 0
157 179 0
157 180 0
156 178 0
143 165 0
149 173 0
155 178 0
159 181 0
159 182 0
156 179 0
158 181 0
162 185 0
162 184 0
163 186 0
168 191 0
165 188 0
166 189 0
164 187 0
167 190 0
168 192 0
166 189 0
168 192 0
170 193 0
172 195 0
173 196 0
174 197 0
193 213 155
221 236 255
182 204 114
172 196 0
166 190 0
170 193 0
171 195 0
168 191 0
171 194 0
167 191 0
169 192 0
170 193 0
169 192 0
169 192 0
166 190 0
170 193 0
171 194 0
166 190 0
165 189 0
168 192 0
165 189 0
165 188 0
163 187 0
165 188 0
170 193 0
168 191 0
164 188 0
164 188 0
162 185 0
166 190 0
160 184 0
163 186 0
160 184 0
162 185 0
158 181 0
166 189 0
163 186 0
158 180 0
161 184 0
164 187 0
163 185 0
159 182 0
162 184 0
158 179 0
166 189 0
157 180 0
163 185 0
159 181 0
164 187 0
158 181 0
161 183 0
158 181 0
156 178 0
150 173 0
149 172 0
164 186 0
154 176 0
157 179 0
154 177 0
147 168 0
153 175 0
149 172 0
148 170 0
147 170 0
147 168 0
153 174 0
153 175 0
147 169 0
139 160 0
146 167 0
152 173 0
137 158 0
133 154 0
142 162 0
139 160 0
136 156 0
139 159 0
126 145 0
124 145 0
127 147 0
121 139 0
123 143 0
130 149 0
122 140 0
124 143 0
119 139 0
114 132 0
120 138 0
103 120 0
111 129 0
123 141 0
118 136 0
110 128 0
108 125 0
123 139 0
102 120 0
109 126 0
125 142 0
107 124 0
99 116 0
115 131 0
105 121 0
105 121 0
99 114 0
123 139 0
116 134 0
108 124 0
109 125 0
108 124 0
100 114 0
93 109 0
99 115 0
106 123 0
113 130 0
105 121 0
113 130 0
109 125 0
113 130 0
110 126 0
100 119 0
109 125 0
117 135 0
118 136 0
115 133 0
112 132 0
118 136 0
124 145 0
115 133 0
120 140 0
112 129 0
131 149 0
119 140 0
128 148 0
128 146 0
133 153 0
122 141 0
127 146 0
140 159 0
131 149 0
136 157 0
134 155 0
130 149 0
143 164 0
135 153 0
144 164 0
140 160 0
134 152 0
141 160 0
147 168 0
145 164 0
131 150 0
146 167 0
147 166 0
146 165 0
144 164 0
151 173 0
152 172 0
147 168 0
143 162 0
149 168 0
149 169 0
151 171 0
155 176 0
154 174 0
152 172 0
154 172 0
155 175 0
154 175 0
154 174 0
155 174 0
161 181 0
154 174 0
152 172 0
151 172 0
159 179 0
155 175 0
156 176 0
154 175 0
164 183 0
162 182 0
160 181 0
160 179 0
161 180 0
159 179 0
162 182 0
160 181 0
158 178 0
156 177 0
159 179 0
161 182 0
164 184 0
167 186 0
158 180 0
162 183 0
159 180 0
162 183 0
161 181 0
163 185 0
165 184 0
166 188 0
169 189 0
166 187 0
156 177 0
164 185 0
163 183 0
166 189 0
168 189 0
159 178 0
159 179 0
165 185 0
169 190 0
163 185 0
164 185 0
165 187 0
169 190 0
169 191 0
170 191 0
167 188 0
164 185 0
172 195 0
169 190 0
169 191 0
170 192 0
160 182 0
172 191 0
168 190 0
166 189 0
169 192 0
166 189 0
168 191 0
169 192 0
168 189 0
167 190 0
172 195 0
167 190 0
172 194 0
166 187 0
169 191 0
168 191 0
169 192 0
171 193 0
169 191 0
174 196 0
170 193 0
166 190 0
170 192 0
173 195 0
170 191 0
170 193 0
172 194 0
167 189 0
173 196 0
169 192 0
169 192 0
171 192 0
170 193 0
170 193 0
172 195 0
172 194 0
171 194 0
170 192 0
172 195 0
171 194 0
171 194 0
171 194 0
173 195 0
170 194 0
173 195 0
173 195 0
171 194 0
170 192 0
173 196 0
171 193 0
174 197 0
174 197 0
172 194 0
173 195 0
174 197 0
170 193 0
171 194 0
173 196 0
173 196 0
172 193 0
173 196 0
171 194 0
174 196 0
172 196 0
172 194 0
173 197 0
172 196 0
169 192 0
171 194 0
172 195 0
172 196 0
173 196 0
169 193 0
172 195 0
170 194 0
170 194 0
166 190 0
173 196 0
168 192 0
172 195 0
169 192 0
173 196 0
166 189 0
166 189 0
171 195 0
173 196 0
169 193 0
170 193 0
169 193 0
168 192 0
171 195 0
170 193 0
170 194 0
170 194 0
169 192 0
168 192 0
166 190 0
167 191 0
169 193 0
169 192 0
168 191 0
166 190 0
169 192 0
169 192 0
164 187 0
168 192 0
162 186 0
169 193 0
166 190 0
170 193 0
165 188 0
163 186 0
170 193 0
163 186 0
162 185 0
163 186 0
161 184 0
164 188 0
159 183 0
165 189 0
162 185 0
160 183 0
162 186 0
157 180 0
166 189 0
155 178 0
155 178 0
156 178 0
151 173 0
155 177 0
146 167 0
144 166 0
143 164 0
134 155 0
143 164 0
152 174 0
146 168 0
149 171 0
150 173 0
143 165 0
154 177 0
152 174 0
144 166 0
146 168 0
154 177 0
143 166 0
153 176 0
155 178 0
157 180 0
151 174 0
151 173 0
151 173 0
160 182 0
152 176 0
155 177 0
153 175 0
154 177 0
157 181 0
161 183 0
163 186 0
160 184 0
165 188 0
158 181 0
163 186 0
165 189 0
164 187 0
164 187 0
165 189 0
165 189 0
169 192 0
164 187 0
165 188 0
173 196 0
173 197 0
174 198 0
173 196 0
171 195 0
202 219 186
215 230 242
172 196 25
165 189 0
169 192 0
168 191 0
169 194 0
169 193 0
164 187 0
169 192 0
167 190 0
165 189 0
169 193 0
165 189 0
167 190 0
170 194 0
167 190 0
168 191 0
166 190 0
168 191 0
169 193 0
171 194 0
164 189 0
165 188 0
164 187 0
167 190 0
166 189 0
165 189 0
163 187 0
165 188 0
166 189 0
169 192 0
161 184 0
157 180 0
161 184 0
160 183 0
163 186 0
162 185 0
153 177 0
163 186 0
160 182 0
158 181 0
159 183 0
166 189 0
163 186 0
149 172 0
152 175 0
157 180 0
160 183 0
157 179 0
158 181 0
156 178 0
148 171 0
150 172 0
159 181 0
161 183 0
146 169 0
153 175 0
152 174 0
147 168 0
149 171 0
148 169 0
144 166 0
143 164 0
139 160 0
140 161 0
139 161 0
147 168 0
141 161 0
134 155 0
145 166 0
136 157 0
143 164 0
135 156 0
134 153 0
132 152 0
142 161 0
130 150 0
131 151 0
132 151 0
134 154 0
128 147 0
116 135 0
117 134 0
122 140 0
129 147 0
119 138 0
117 135 0
104 122 0
112 130 0
116 135 0
110 127 0
119 135 0
98 116 0
116 134 0
109 127 0
107 124 0
108 123 0
103 121 0
105 122 0
97 113 0
113 131 0
109 127 0
101 119 0
101 117 0
104 121 0
116 133 0
111 128 0
104 121 0
117 134 0
108 124 0
109 126 0
122 139 0
116 135 0
111 129 0
127 144 0
112 130 0
116 134 0
123 143 0
125 143 0
114 131 0
122 139 0
121 140 0
122 140 0
121 140 0
130 148 0
129 148 0
123 142 0
128 146 0
130 148 0
132 149 0
132 150 0
133 152 0
130 150 0
130 149 0
138 158 0
132 150 0
144 164 0
138 159 0
138 158 0
143 164 0
139 157 0
136 154 0
142 162 0
135 155 0
145 164 0
136 156 0
138 158 0
149 168 0
140 160 0
149 170 0
147 168 0
147 167 0
139 158 0
150 170 0
147 167 0
143 163 0
156 178 0
151 171 0
148 170 0
148 169 0
153 176 0
153 174 0
155 177 0
149 170 0
153 173 0
151 172 0
160 181 0
156 178 0
153 173 0
153 173 0
154 173 0
161 181 0
154 174 0
152 171 0
159 179 0
157 177 0
163 183 0
160 182 0
162 182 0
159 181 0
158 178 0
160 181 0
164 185 0
158 179 0
164 187 0
157 177 0
162 181 0
163 184 0
161 180 0
157 177 0
164 184 0
161 182 0
161 183 0
163 184 0
165 188 0
162 185 0
167 188 0
155 175 0
164 186 0
165 187 0
167 187 0
164 185 0
162 183 0
162 183 0
166 186 0
165 187 0
168 189 0
165 187 0
162 184 0
162 183 0
169 190 0
165 187 0
164 185 0
165 184 0
166 187 0
166 188 0
164 185 0
166 188 0
168 190 0
166 187 0
170 193 0
170 192 0
170 193 0
169 191 0
171 193 0
168 190 0
167 188 0
170 193 0
166 188 0
164 186 0
170 193 0
171 193 0
168 190 0
164 187 0
169 190 0
171 194 0
168 191 0
171 193 0
168 191 0
169 190 0
170 193 0
171 194 0
168 190 0
173 196 0
169 192 0
171 192 0
170 192 0
170 191 0
172 194 0
170 192 0
171 193 0
172 195 0
173 195 0
168 191 0
171 194 0
171 194 0
168 191 0
168 190 0
172 194 0
169 192 0
172 195 0
174 197 0
170 194 0
174 195 0
171 194 0
174 198 0
173 195 0
174 197 0
171 194 0
170 194 0
172 194 0
171 195 0
174 197 0
172 195 0
171 194 0
172 195 0
171 194 0
171 194 0
170 193 0
174 197 0
174 197 0
172 195 0
173 196 0
170 193 0
173 197 0
173 196 0
169 191 0
172 196 0
173 196 0
173 196 0
173 196 0
174 198 0
174 196 0
174 198 0
169 193 0
172 196 0
169 193 0
171 195 0
169 192 0
172 195 0
171 194 0
169 192 0
169 192 0
171 194 0
171 195 0
171 194 0
170 194 0
168 191 0
168 191 0
168 191 0
169 193 0
170 194 0
171 195 0
167 191 0
166 190 0
167 190 0
171 194 0
162 185 0
165 188 0
166 190 0
169 192 0
166 190 0
168 191 0
170 193 0
166 189 0
172 195 0
164 187 0
169 193 0
170 194 0
169 193 0
168 192 0
166 189 0
164 187 0
164 187 0
158 181 0
160 184 0
163 186 0
168 191 0
164 187 0
169 192 0
165 188 0
158 181 0
159 182 0
164 186 0
162 185 0
164 186 0
159 182 0
151 173 0
156 179 0
157 179 0
150 173 0
145 167 0
147 169 0
149 171 0
142 164 0
147 170 0
145 167 0
131 152 0
140 162 0
144 165 0
143 164 0
144 165 0
140 161 0
147 168 0
145 168 0
156 179 0
153 174 0
150 172 0
145 167 0
151 173 0
156 179 0
155 177 0
157 179 0
156 178 0
154 176 0
159 182 0
159 182 0
156 179 0
156 179 0
162 185 0
153 177 0
155 178 0
161 184 0
160 183 0
162 184 0
160 184 0
165 187 0
163 186 0
160 183 0
163 186 0
169 191 0
170 193 0
165 188 0
169 193 0
170 193 0
172 195 0
168 192 0
172 196 0
173 197 0
213 228 224
209 225 218
169 193 0
167 190 0
170 193 0
167 192 0
167 190 0
169 194 0
168 192 0
167 190 0
168 191 0
169 193 0
169 193 0
167 190 0
171 193 0
162 184 0
167 191 0
165 188 0
164 188 0
162 185 0
166 188 0
164 188 0
166 189 0
164 188 0
166 190 0
167 191 0
160 184 0
159 183 0
167 191 0
162 185 0
165 188 0
164 187 0
165 188 0
157 180 0
167 191 0
164 187 0
158 181 0
161 185 0
158 181 0
165 188 0
155 178 0
159 182 0
162 185 0
157 178 0
159 182 0
152 175 0
161 183 0
153 175 0
152 174 0
160 183 0
157 180 0
159 181 0
153 175 0
157 179 0
151 172 0
144 166 0
158 180 0
148 170 0
151 173 0
146 169 0
145 167 0
142 164 0
138 160 0
142 164 0
140 162 0
138 159 0
140 161 0
139 160 0
144 164 0
139 160 0
132 151 0
142 162 0
146 166 0
133 153 0
135 156 0
122 144 0
129 149 0
134 154 0
136 156 0
119 140 0
134 154 0
128 148 0
135 155 0
125 145 0
116 135 0
113 131 0
118 137 0
126 145 0
122 141 0
105 122 0
121 139 0
120 139 0
120 138 0
112 130 0
102 121 0
103 121 0
104 121 0
107 124 0
102 119 0
100 118 0
108 126 0
113 131 0
104 121 0
106 123 0
111 127 0
125 143 0
127 144 0
108 126 0
116 134 0
114 132 0
108 126 0
107 124 0
108 126 0
119 138 0
116 134 0
109 128 0
116 135 0
111 129 0
119 137 0
122 140 0
129 147 0
128 147 0
125 144 0
121 139 0
119 137 0
137 157 0
129 148 0
124 144 0
124 142 0
124 143 0
130 149 0
138 157 0
135 153 0
128 147 0
141 162 0
136 155 0
135 155 0
134 152 0
125 145 0
144 165 0
154 175 0
145 165 0
136 154 0
147 168 0
150 170 0
143 163 0
141 161 0
137 158 0
150 169 0
146 167 0
152 171 0
141 162 0
141 161 0
150 169 0
152 174 0
146 166 0
150 171 0
153 174 0
143 164 0
148 169 0
154 175 0
149 169 0
154 176 0
154 175 0
152 173 0
149 170 0
158 179 0
156 177 0
150 171 0
161 182 0
159 181 0
152 171 0
162 184 0
156 175 0
161 182 0
154 175 0
157 176 0
156 177 0
161 182 0
158 179 0
156 177 0
161 180 0
163 186 0
157 177 0
156 176 0
160 182 0
162 182 0
162 182 0
162 184 0
168 190 0
156 177 0
160 181 0
159 179 0
166 187 0
159 180 0
162 184 0
165 186 0
156 177 0
163 184 0
169 190 0
164 184 0
168 190 0
159 179 0
167 189 0
165 185 0
164 184 0
166 188 0
165 185 0
165 186 0
165 186 0
165 187 0
164 185 0
167 188 0
162 183 0
166 186 0
169 190 0
164 185 0
169 191 0
169 191 0
162 183 0
169 192 0
167 188 0
169 191 0
171 192 0
167 189 0
167 189 0
168 191 0
168 189 0
171 193 0
166 188 0
171 193 0
169 192 0
169 192 0
171 194 0
169 190 0
170 193 0
170 192 0
169 191 0
166 189 0
170 193 0
169 191 0
168 190 0
173 196 0
168 190 0
170 192 0
171 193 0
172 195 0
172 195 0
168 190 0
169 191 0
172 195 0
171 193 0
173 195 0
171 194 0
172 193 0
173 195 0
172 195 0
171 194 0
173 196 0
170 193 0
173 196 0
168 191 0
171 194 0
172 196 0
171 195 0
169 191 0
171 194 0
172 193 0
171 194 0
171 194 0
172 194 0
171 194 0
172 195 0
170 193 0
170 192 0
171 193 0
175 198 0
170 192 0
174 197 0
173 197 0
173 195 0
174 197 0
171 195 0
171 194 0
172 195 0
174 197 0
172 195 0
172 195 0
171 194 0
175 197 0
174 197 0
173 195 0
174 197 0
173 196 0
173 196 0
170 193 0
170 193 0
172 196 0
171 194 0
169 193 0
166 189 0
170 193 0
168 191 0
170 194 0
167 191 0
172 195 0
168 192 0
168 191 0
171 195 0
173 197 0
171 194 0
167 191 0
170 194 0
169 192 0
170 194 0
169 193 0
168 192 0
164 187 0
168 193 0
167 191 0
169 192 0
173 196 0
170 194 0
169 193 0
166 189 0
165 189 0
168 191 0
165 188 0
164 187 0
162 185 0
169 193 0
163 186 0
161 185 0
167 190 0
166 189 0
164 188 0
163 187 0
166 190 0
160 183 0
161 185 0
160 183 0
163 186 0
158 182 0
165 188 0
156 179 0
161 183 0
154 177 0
161 183 0
155 178 0
153 176 0
161 183 0
157 180 0
147 169 0
146 167 0
154 176 0
144 165 0
144 165 0
137 157 0
150 171 0
146 168 0
141 164 0
152 174 0
157 179 0
147 170 0
152 174 0
160 182 0
144 166 0
160 182 0
148 169 0
147 170 0
158 180 0
155 176 0
153 175 0
156 178 0
155 176 0
158 179 0
159 181 0
153 175 0
164 186 0
155 178 0
161 183 0
159 183 0
154 177 0
157 180 0
156 178 0
161 184 0
164 187 0
154 177 0
170 192 0
163 186 0
164 187 0
165 189 0
167 190 0
169 192 0
170 193 0
166 189 0
167 192 0
173 197 0
171 195 0
177 200 57
221 235 252
184 204 147
166 190 0
169 192 0
166 189 0
170 195 0
167 191 0
166 190 0
164 187 0
165 187 0
168 192 0
167 190 0
165 187 0
165 188 0
170 193 0
167 190 0
158 182 0
167 191 0
167 189 0
166 189 0
168 191 0
165 189 0
163 187 0
163 186 0
163 186 0
165 189 0
165 189 0
168 191 0
164 187 0
166 189 0
160 184 0
167 190 0
159 182 0
158 182 0
163 186 0
165 188 0
165 187 0
159 181 0
160 183 0
160 183 0
164 186 0
161 184 0
158 181 0
159 183 0
154 176 0
157 180 0
160 182 0
153 175 0
161 183 0
154 177 0
153 175 0
157 179 0
155 177 0
160 183 0
149 173 0
147 168 0
148 170 0
150 172 0
145 166 0
148 169 0
150 172 0
144 166 0
141 162 0
141 163 0
148 169 0
142 164 0
140 160 0
145 166 0
140 161 0
140 160 0
136 157 0
139 160 0
139 160 0
142 164 0
136 156 0
135 155 0
121 141 0
136 156 0
111 130 0
128 147 0
120 138 0
125 144 0
126 144 0
115 134 0
130 149 0
120 140 0
115 133 0
104 122 0
120 138 0
127 145 0
113 132 0
107 123 0
114 132 0
110 128 0
112 131 0
113 131 0
114 132 0
94 112 0
111 130 0
100 118 0
116 133 0
120 137 0
111 128 0
123 141 0
102 119 0
108 125 0
117 136 0
106 124 0
123 142 0
109 127 0
108 126 0
108 127 0
112 130 0
115 134 0
112 131 0
127 146 0
119 138 0
123 141 0
125 144 0
130 148 0
126 143 0
130 149 0
132 151 0
122 142 0
130 149 0
134 153 0
132 149 0
126 146 0
131 151 0
134 153 0
131 151 0
134 153 0
129 149 0
138 159 0
141 161 0
140 160 0
139 159 0
141 160 0
132 152 0
144 164 0
136 156 0
145 165 0
143 163 0
145 166 0
146 166 0
138 158 0
136 156 0
142 164 0
145 164 0
142 162 0
144 166 0
149 171 0
151 172 0
153 175 0
153 175 0
156 177 0
150 171 0
148 169 0
157 177 0
151 171 0
152 172 0
152 173 0
143 163 0
154 176 0
152 174 0
159 181 0
158 178 0
152 173 0
154 176 0
157 178 0
150 170 0
156 177 0
157 178 0
155 177 0
158 177 0
161 182 0
161 182 0
152 172 0
156 177 0
161 182 0
163 184 0
162 184 0
158 178 0
163 184 0
163 185 0
162 183 0
161 181 0
161 182 0
163 184 0
160 180 0
161 182 0
163 184 0
159 179 0
163 185 0
164 185 0
164 186 0
168 188 0
166 187 0
160 182 0
166 187 0
161 183 0
162 183 0
169 188 0
164 186 0
169 191 0
164 186 0
164 184 0
167 188 0
164 186 0
170 191 0
167 190 0
165 186 0
165 186 0
164 185 0
163 184 0
163 185 0
168 190 0
162 183 0
170 191 0
169 191 0
164 185 0
166 189 0
163 186 0
170 190 0
166 188 0
168 191 0
166 188 0
166 187 0
169 192 0
170 192 0
172 195 0
170 192 0
168 190 0
169 192 0
169 191 0
169 191 0
164 185 0
169 190 0
166 189 0
169 193 0
168 190 0
169 191 0
170 191 0
169 192 0
169 190 0
169 192 0
169 192 0
172 195 0
171 194 0
171 193 0
171 193 0
171 194 0
170 192 0
172 194 0
170 193 0
169 192 0
174 196 0
169 193 0
172 196 0
173 195 0
169 193 0
170 192 0
168 191 0
169 194 0
170 193 0
173 196 0
171 194 0
171 193 0
170 193 0
170 194 0
172 194 0
174 197 0
172 196 0
170 194 0
172 195 0
168 192 0
171 194 0
171 194 0
168 191 0
172 195 0
174 196 0
171 194 0
171 195 0
173 197 0
171 195 0
174 197 0
171 194 0
172 195 0
172 195 0
173 196 0
173 197 0
173 196 0
174 197 0
173 195 0
172 195 0
173 197 0
173 196 0
173 197 0
172 195 0
168 192 0
170 194 0
169 192 0
170 194 0
173 197 0
172 195 0
170 194 0
170 193 0
170 193 0
169 192 0
166 190 0
168 191 0
167 191 0
163 187 0
168 191 0
168 192 0
168 191 0
168 192 0
173 196 0
169 191 0
164 188 0
166 189 0
164 187 0
164 189 0
170 194 0
166 189 0
170 193 0
167 191 0
162 185 0
166 189 0
164 187 0
167 190 0
166 189 0
168 192 0
168 192 0
170 193 0
158 180 0
165 188 0
161 184 0
162 185 0
155 178 0
165 187 0
161 184 0
156 179 0
162 186 0
162 185 0
157 180 0
157 180 0
157 179 0
159 182 0
150 172 0
153 176 0
151 173 0
138 159 0
137 158 0
151 172 0
140 162 0
142 164 0
150 172 0
144 166 0
151 172 0
148 169 0
157 179 0
156 179 0
151 173 0
149 172 0
158 179 0
151 174 0
155 177 0
155 176 0
154 176 0
151 174 0
150 173 0
152 174 0
157 179 0
155 178 0
162 184 0
155 178 0
153 177 0
163 186 0
156 179 0
159 181 0
154 177 0
159 182 0
160 183 0
162 185 0
162 184 0
163 186 0
156 179 0
162 185 0
160 183 0
154 178 0
163 186 0
163 187 0
166 189 0
165 188 0
168 191 0
170 194 0
172 196 0
174 198 0
198 216 173
219 234 250
165 189 36
164 188 0
162 185 0
166 190 0
166 190 0
166 190 0
169 192 0
168 192 0
168 191 0
167 191 0
170 193 0
160 184 0
169 192 0
166 190 0
162 186 0
165 189 0
164 188 0
164 188 0
168 191 0
165 188 0
164 187 0
169 193 0
162 186 0
158 181 0
160 183 0
158 181 0
158 181 0
167 191 0
162 185 0
161 184 0
164 187 0
160 183 0
163 186 0
164 187 0
160 184 0
164 187 0
157 180 0
161 183 0
157 180 0
155 178 0
158 181 0
155 178 0
161 184 0
158 181 0
156 179 0
151 172 0
156 179 0
149 172 0
155 177 0
154 176 0
149 173 0
156 178 0
146 168 0
144 166 0
157 179 0
147 169 0
151 173 0
147 168 0
144 165 0
141 163 0
142 162 0
146 168 0
142 163 0
137 159 0
138 159 0
148 169 0
145 166 0
139 161 0
137 158 0
129 149 0
144 165 0
139 159 0
126 147 0
135 156 0
135 155 0
135 155 0
131 151 0
132 152 0
125 144 0
122 142 0
137 158 0
124 143 0
127 146 0
119 139 0
122 141 0
120 139 0
122 141 0
132 151 0
120 139 0
129 148 0
119 139 0
109 128 0
110 129 0
113 132 0
119 138 0
116 135 0
127 144 0
118 136 0
114 133 0
117 136 0
125 144 0
119 137 0
133 151 0
124 141 0
124 143 0
123 141 0
125 145 0
109 128 0
125 144 0
106 125 0
126 143 0
124 143 0
113 132 0
129 148 0
123 142 0
124 143 0
121 141 0
131 150 0
139 159 0
124 142 0
116 135 0
131 150 0
111 130 0
131 150 0
130 149 0
138 156 0
135 156 0
136 156 0
138 158 0
133 154 0
137 156 0
127 147 0
150 170 0
139 159 0
141 159 0
141 161 0
139 159 0
143 163 0
144 164 0
150 172 0
152 171 0
139 160 0
142 163 0
146 167 0
141 163 0
148 167 0
141 162 0
148 167 0
145 166 0
149 169 0
156 178 0
148 169 0
154 175 0
145 165 0
154 174 0
154 176 0
157 178 0
150 170 0
144 165 0
149 170 0
156 177 0
157 179 0
157 178 0
155 177 0
162 184 0
152 173 0
156 177 0
151 171 0
161 182 0
155 176 0
160 182 0
156 178 0
160 181 0
156 177 0
156 176 0
163 185 0
166 188 0
159 180 0
156 176 0
160 181 0
158 178 0
159 180 0
159 179 0
159 180 0
168 191 0
160 182 0
164 185 0
167 189 0
167 191 0
161 182 0
160 181 0
161 181 0
164 185 0
164 186 0
167 189 0
161 183 0
166 187 0
167 190 0
166 185 0
166 186 0
169 190 0
159 180 0
163 185 0
162 184 0
163 185 0
164 184 0
171 192 0
166 187 0
163 185 0
162 183 0
168 189 0
168 191 0
167 189 0
171 193 0
165 188 0
170 191 0
170 192 0
166 187 0
167 187 0
170 192 0
168 190 0
169 191 0
166 189 0
167 189 0
169 191 0
167 189 0
168 191 0
166 187 0
167 191 0
171 193 0
167 190 0
167 191 0
168 190 0
163 187 0
168 189 0
170 193 0
167 190 0
167 188 0
166 187 0
171 194 0
170 193 0
166 187 0
170 191 0
166 189 0
171 194 0
170 193 0
170 192 0
170 192 0
171 195 0
169 193 0
165 186 0
167 190 0
169 192 0
170 194 0
172 195 0
172 196 0
170 192 0
170 192 0
170 193 0
171 194 0
171 195 0
172 195 0
171 194 0
168 191 0
170 193 0
174 196 0
171 195 0
172 194 0
169 192 0
172 194 0
173 195 0
173 196 0
171 194 0
173 197 0
169 192 0
170 194 0
168 192 0
173 196 0
171 194 0
172 195 0
171 195 0
173 196 0
170 193 0
172 195 0
175 198 0
173 196 0
171 195 0
172 194 0
172 196 0
175 198 0
171 194 0
174 197 0
173 197 0
173 196 0
172 195 0
170 193 0
171 194 0
173 196 0
171 195 0
170 194 0
172 195 0
168 191 0
171 195 0
168 193 0
169 193 0
170 194 0
169 193 0
169 193 0
170 194 0
171 194 0
170 194 0
166 189 0
168 192 0
168 191 0
170 194 0
163 187 0
169 193 0
166 190 0
164 188 0
168 191 0
167 191 0
166 189 0
165 189 0
165 188 0
167 191 0
165 188 0
172 195 0
167 191 0
159 182 0
165 189 0
163 187 0
159 182 0
164 188 0
163 186 0
168 191 0
166 189 0
163 187 0
163 186 0
161 184 0
160 183 0
159 183 0
157 179 0
151 174 0
159 182 0
161 184 0
161 183 0
160 181 0
160 183 0
150 172 0
151 173 0
146 168 0
151 171 0
132 154 0
137 158 0
142 164 0
147 168 0
143 165 0
139 160 0
151 172 0
153 175 0
148 170 0
150 172 0
144 165 0
153 175 0
151 173 0
156 177 0
151 174 0
155 177 0
150 173 0
149 171 0
156 178 0
154 175 0
158 180 0
148 172 0
157 180 0
159 182 0
155 177 0
152 174 0
153 176 0
155 177 0
158 180 0
159 182 0
162 185 0
158 182 0
155 179 0
158 182 0
167 191 0
156 180 0
162 185 0
163 186 0
167 190 0
166 189 0
167 190 0
169 192 0
170 193 0
171 194 0
169 193 0
176 199 0
211 227 220
206 223 214
167 190 0
168 192 0
171 194 0
170 193 0
162 186 0
166 190 0
167 191 0
171 193 0
165 188 0
166 190 0
165 188 0
165 188 0
163 187 0
166 190 0
166 189 0
168 191 0
166 189 0
166 190 0
161 184 0
159 183 0
166 189 0
169 191 0
162 185 0
161 185 0
160 183 0
157 180 0
163 186 0
163 186 0
165 187 0
157 180 0
166 189 0
158 182 0
157 180 0
159 181 0
158 182 0
157 180 0
157 179 0
151 174 0
152 174 0
160 182 0
157 180 0
163 186 0
157 179 0
161 184 0
158 180 0
151 173 0
151 174 0
153 175 0
149 171 0
152 174 0
148 170 0
147 169 0
153 174 0
148 170 0
147 169 0
143 165 0
145 167 0
151 173 0
140 162 0
150 172 0
139 160 0
145 165 0
149 170 0
135 157 0
141 161 0
137 159 0
140 161 0
131 153 0
141 161 0
138 158 0
127 147 0
138 159 0
135 155 0
127 146 0
140 160 0
126 146 0
129 147 0
130 149 0
126 146 0
128 147 0
131 151 0
131 150 0
126 145 0
127 147 0
133 152 0
121 140 0
125 144 0
108 127 0
123 142 0
123 142 0
118 137 0
120 139 0
125 143 0
127 146 0
120 139 0
104 124 0
125 143 0
121 139 0
110 129 0
125 144 0
115 133 0
109 126 0
115 133 0
121 140 0
117 135 0
117 137 0
112 132 0
122 140 0
115 134 0
112 130 0
123 143 0
131 150 0
124 142 0
127 146 0
124 143 0
130 151 0
132 151 0
136 156 0
136 156 0
129 149 0
124 144 0
139 158 0
132 151 0
136 156 0
140 159 0
137 157 0
125 145 0
137 156 0
145 165 0
142 162 0
133 153 0
144 163 0
136 156 0
135 155 0
140 160 0
144 165 0
150 171 0
141 161 0
149 169 0
133 153 0
143 163 0
143 164 0
148 167 0
142 163 0
146 166 0
152 172 0
149 170 0
154 175 0
144 165 0
152 174 0
152 174 0
158 180 0
153 174 0
160 183 0
158 179 0
155 175 0
155 175 0
155 176 0
157 178 0
149 168 0
156 176 0
155 176 0
150 171 0
154 175 0
157 177 0
151 171 0
159 180 0
164 186 0
157 178 0
160 181 0
159 180 0
157 177 0
164 184 0
156 177 0
160 182 0
154 175 0
160 180 0
159 178 0
157 179 0
156 176 0
160 182 0
157 177 0
165 187 0
161 183 0
161 182 0
159 180 0
160 181 0
165 188 0
163 185 0
166 187 0
163 185 0
163 185 0
163 185 0
162 184 0
159 179 0
163 184 0
158 179 0
160 182 0
165 188 0
164 183 0
167 186 0
166 189 0
167 189 0
162 186 0
165 187 0
163 184 0
166 189 0
163 184 0
168 189 0
168 190 0
161 182 0
167 187 0
165 186 0
165 187 0
169 191 0
167 189 0
165 188 0
169 190 0
164 186 0
167 190 0
168 191 0
168 191 0
162 184 0
166 188 0
171 193 0
166 189 0
169 191 0
170 193 0
169 191 0
168 190 0
169 190 0
167 190 0
164 185 0
168 191 0
172 194 0
169 191 0
168 191 0
170 191 0
170 192 0
166 188 0
173 195 0
173 196 0
170 193 0
171 194 0
167 189 0
169 191 0
170 192 0
172 195 0
171 193 0
167 190 0
168 190 0
172 195 0
172 195 0
168 191 0
169 192 0
172 195 0
171 194 0
170 193 0
169 190 0
171 193 0
173 195 0
173 195 0
170 192 0
171 195 0
170 193 0
169 191 0
169 191 0
173 195 0
173 196 0
172 195 0
172 195 0
170 194 0
172 196 0
173 196 0
172 195 0
172 195 0
173 197 0
173 196 0
170 193 0
173 196 0
173 196 0
172 195 0
174 197 0
172 196 0
172 196 0
172 195 0
174 196 0
172 196 0
171 193 0
173 196 0
171 195 0
172 195 0
172 196 0
172 195 0
170 193 0
171 195 0
171 195 0
171 194 0
171 195 0
168 193 0
171 195 0
170 194 0
165 189 0
166 191 0
170 193 0
169 192 0
169 192 0
168 191 0
165 189 0
170 193 0
167 191 0
165 189 0
171 194 0
167 190 0
165 188 0
165 188 0
165 189 0
160 183 0
171 195 0
165 188 0
170 193 0
162 185 0
166 190 0
163 186 0
166 189 0
166 190 0
166 189 0
166 190 0
163 187 0
160 184 0
168 191 0
163 186 0
167 190 0
166 190 0
165 188 0
162 184 0
164 187 0
163 187 0
155 178 0
156 178 0
163 186 0
166 190 0
159 183 0
160 183 0
154 177 0
158 181 0
157 180 0
152 174 0
149 172 0
143 165 0
139 161 0
147 168 0
145 166 0
146 167 0
146 167 0
140 162 0
137 158 0
159 182 0
151 173 0
141 164 0
153 174 0
147 169 0
143 165 0
147 169 0
153 175 0
160 182 0
154 175 0
160 182 0
158 181 0
155 178 0
158 181 0
155 178 0
154 176 0
156 179 0
151 173 0
157 178 0
148 171 0
161 183 0
157 180 0
151 173 0
161 183 0
158 181 0
162 185 0
164 187 0
164 188 0
165 189 0
166 188 0
167 189 0
164 187 0
163 187 0
166 189 0
164 186 0
166 189 0
167 190 0
167 191 0
171 195 0
171 195 0
180 202 84
222 236 255
180 201 114
167 190 0
164 189 0
165 189 0
168 191 0
166 190 0
167 190 0
169 192 0
170 192 0
165 187 0
166 190 0
173 196 0
167 190 0
167 190 0
167 190 0
163 187 0
161 184 0
159 183 0
165 188 0
165 188 0
159 182 0
159 182 0
161 185 0
163 185 0
160 184 0
162 184 0
160 182 0
162 185 0
163 187 0
160 184 0
157 180 0
159 183 0
160 184 0
159 183 0
155 178 0
153 176 0
158 181 0
157 181 0
154 176 0
151 173 0
157 180 0
154 177 0
148 170 0
165 187 0
152 174 0
150 172 0
154 177 0
149 171 0
158 180 0
155 178 0
155 177 0
154 176 0
149 169 0
150 172 0
133 155 0
147 169 0
153 175 0
141 162 0
144 165 0
144 166 0
146 167 0
143 165 0
140 161 0
149 170 0
137 158 0
141 163 0
138 159 0
137 158 0
145 165 0
139 161 0
134 154 0
134 155 0
134 154 0
139 160 0
129 149 0
126 145 0
131 152 0
135 155 0
136 157 0
127 146 0
134 155 0
139 160 0
135 156 0
131 151 0
124 144 0
121 140 0
127 147 0
134 154 0
134 154 0
133 152 0
125 144 0
116 136 0
119 138 0
135 154 0
131 151 0
124 143 0
117 137 0
115 133 0
124 144 0
120 138 0
124 144 0
125 144 0
127 146 0
123 143 0
136 154 0
126 146 0
122 141 0
114 132 0
136 156 0
114 132 0
129 148 0
127 146 0
122 140 0
132 153 0
120 138 0
136 155 0
126 146 0
127 148 0
130 150 0
136 156 0
134 154 0
129 150 0
127 147 0
143 163 0
141 160 0
142 162 0
139 161 0
139 160 0
131 151 0
131 151 0
140 159 0
148 170 0
132 150 0
141 163 0
138 158 0
138 158 0
139 159 0
144 164 0
153 175 0
147 168 0
143 164 0
142 161 0
148 169 0
150 172 0
156 176 0
153 173 0
145 165 0
144 164 0
154 174 0
152 174 0
151 172 0
156 177 0
149 169 0
147 166 0
149 172 0
153 173 0
151 171 0
148 169 0
141 162 0
157 176 0
151 171 0
157 180 0
155 176 0
155 177 0
158 181 0
159 179 0
155 176 0
154 173 0
159 183 0
160 181 0
155 176 0
160 182 0
159 180 0
161 183 0
158 179 0
165 185 0
159 178 0
162 184 0
160 182 0
156 178 0
161 182 0
163 184 0
159 181 0
158 178 0
163 185 0
168 190 0
159 179 0
159 180 0
159 179 0
161 181 0
165 185 0
166 189 0
163 183 0
165 188 0
158 179 0
159 180 0
167 188 0
161 183 0
165 188 0
162 184 0
165 187 0
163 184 0
165 187 0
163 185 0
164 186 0
169 191 0
164 186 0
168 189 0
165 187 0
168 190 0
170 192 0
163 185 0
168 189 0
164 185 0
166 189 0
166 187 0
168 190 0
166 187 0
167 188 0
168 190 0
168 191 0
168 190 0
171 193 0
168 190 0
166 188 0
165 185 0
167 189 0
170 191 0
166 188 0
168 190 0
167 189 0
172 193 0
167 189 0
166 188 0
171 193 0
168 190 0
170 194 0
169 192 0
171 193 0
169 192 0
168 190 0
164 186 0
170 193 0
170 192 0
167 190 0
172 195 0
171 193 0
168 191 0
172 195 0
168 192 0
169 191 0
171 194 0
170 192 0
169 191 0
172 195 0
169 192 0
169 192 0
169 193 0
170 191 0
173 196 0
169 192 0
171 193 0
172 195 0
173 195 0
170 194 0
173 195 0
173 195 0
170 194 0
170 193 0
170 194 0
172 195 0
171 193 0
173 196 0
171 195 0
174 197 0
169 192 0
172 195 0
170 194 0
173 196 0
172 195 0
172 194 0
171 194 0
171 194 0
171 193 0
170 193 0
173 196 0
173 195 0
172 196 0
173 196 0
171 194 0
172 195 0
174 198 0
171 194 0
173 196 0
172 194 0
171 194 0
164 188 0
170 193 0
168 191 0
167 190 0
168 192 0
171 194 0
168 192 0
163 188 0
163 187 0
168 191 0
170 194 0
170 194 0
168 191 0
169 192 0
170 193 0
168 191 0
164 189 0
168 191 0
163 186 0
165 189 0
168 192 0
167 190 0
168 191 0
167 189 0
164 188 0
165 188 0
165 189 0
167 191 0
168 191 0
170 193 0
165 188 0
166 190 0
170 193 0
167 191 0
164 188 0
161 183 0
163 186 0
162 185 0
160 184 0
162 184 0
167 190 0
164 186 0
162 185 0
157 180 0
161 184 0
162 184 0
164 188 0
154 177 0
159 181 0
160 183 0
157 179 0
154 176 0
147 169 0
145 167 0
148 170 0
156 178 0
144 165 0
145 167 0
150 172 0
146 168 0
149 171 0
151 173 0
155 176 0
152 174 0
143 165 0
147 170 0
150 171 0
153 174 0
152 173 0
157 179 0
155 177 0
147 168 0
152 174 0
153 176 0
152 174 0
146 168 0
148 170 0
156 178 0
160 182 0
156 179 0
151 174 0
159 182 0
158 181 0
161 184 0
157 180 0
158 180 0
158 180 0
161 184 0
156 179 0
163 187 0
157 181 0
166 189 0
163 186 0
163 187 0
165 189 0
161 185 0
165 188 0
168 190 0
165 189 0
168 191 0
169 193 0
171 194 0
199 217 182
209 226 224
166 190 0
167 190 0
164 187 0
163 187 0
159 182 0
164 187 0
169 192 0
169 193 0
166 189 0
169 191 0
170 192 0
165 188 0
163 186 0
162 185 0
164 187 0
163 186 0
165 189 0
167 190 0
162 185 0
167 191 0
159 183 0
160 183 0
161 183 0
159 183 0
162 185 0
159 182 0
160 184 0
161 184 0
161 184 0
158 181 0
160 183 0
158 181 0
159 181 0
160 182 0
162 184 0
160 182 0
153 176 0
159 182 0
153 175 0
156 178 0
160 182 0
151 174 0
155 177 0
152 174 0
156 179 0
151 173 0
145 168 0
158 180 0
150 171 0
151 173 0
139 161 0
144 165 0
142 163 0
146 168 0
138 160 0
141 162 0
143 164 0
145 166 0
141 163 0
145 166 0
148 169 0
154 174 0
145 166 0
136 157 0
145 167 0
138 159 0
141 162 0
144 165 0
132 153 0
142 163 0
127 148 0
144 166 0
132 152 0
146 167 0
134 154 0
129 149 0
134 154 0
137 157 0
128 147 0
130 148 0
123 143 0
121 141 0
133 153 0
120 141 0
130 149 0
136 155 0
117 138 0
127 146 0
120 140 0
124 145 0
132 152 0
114 133 0
123 143 0
131 150 0
119 138 0
127 146 0
118 137 0
118 137 0
117 137 0
120 138 0
127 147 0
127 146 0
121 141 0
128 148 0
125 144 0
128 147 0
118 138 0
133 152 0
131 151 0
133 154 0
132 151 0
118 137 0
133 152 0
131 150 0
134 153 0
127 146 0
132 153 0
132 154 0
132 152 0
133 153 0
133 153 0
129 149 0
139 159 0
132 153 0
141 160 0
136 156 0
140 159 0
135 155 0
137 157 0
136 155 0
144 166 0
147 167 0
131 150 0
135 154 0
140 160 0
144 164 0
150 170 0
135 156 0
153 176 0
151 172 0
152 175 0
148 169 0
151 172 0
149 171 0
151 172 0
140 161 0
152 174 0
149 170 0
150 171 0
149 168 0
155 177 0
154 175 0
151 172 0
158 180 0
154 177 0
151 173 0
159 181 0
155 175 0
148 169 0
158 179 0
152 173 0
155 177 0
161 183 0
161 182 0
153 175 0
151 173 0
154 175 0
159 181 0
157 177 0
161 184 0
157 180 0
160 180 0
160 182 0
154 175 0
156 177 0
164 186 0
153 174 0
161 181 0
153 176 0
157 177 0
162 182 0
164 185 0
156 178 0
165 187 0
159 180 0
162 183 0
162 183 0
166 188 0
160 182 0
167 187 0
162 183 0
163 186 0
165 187 0
165 187 0
165 187 0
161 182 0
164 184 0
157 178 0
165 188 0
166 189 0
169 191 0
167 190 0
165 186 0
166 186 0
161 184 0
166 186 0
163 184 0
163 184 0
164 184 0
168 189 0
163 186 0
166 187 0
167 190 0
166 188 0
172 194 0
168 191 0
168 190 0
164 186 0
169 192 0
165 187 0
172 194 0
169 190 0
168 190 0
170 193 0
164 187 0
168 190 0
168 189 0
169 192 0
168 189 0
169 192 0
169 191 0
164 186 0
170 194 0
169 191 0
161 184 0
170 193 0
169 192 0
167 190 0
168 192 0
171 193 0
171 193 0
171 193 0
170 192 0
170 193 0
168 190 0
170 193 0
169 192 0
170 193 0
170 191 0
167 189 0
171 193 0
170 192 0
171 192 0
173 196 0
169 192 0
168 192 0
171 193 0
171 194 0
168 192 0
172 194 0
171 195 0
171 194 0
170 192 0
174 197 0
172 195 0
171 194 0
171 195 0
171 194 0
173 195 0
170 193 0
170 193 0
173 197 0
173 195 0
172 195 0
173 196 0
172 193 0
170 193 0
174 197 0
171 194 0
171 194 0
169 191 0
172 195 0
168 189 0
171 194 0
172 196 0
173 195 0
172 194 0
169 193 0
174 197 0
172 195 0
172 196 0
172 195 0
173 197 0
173 196 0
172 195 0
169 192 0
167 191 0
171 195 0
171 195 0
169 193 0
171 194 0
169 192 0
171 194 0
172 195 0
170 194 0
167 191 0
169 193 0
171 193 0
171 194 0
166 189 0
164 188 0
166 190 0
171 195 0
168 192 0
168 192 0
168 192 0
162 185 0
164 188 0
168 191 0
164 188 0
164 188 0
164 187 0
163 187 0
169 192 0
166 189 0
161 184 0
163 186 0
162 186 0
160 183 0
166 188 0
164 187 0
163 186 0
161 184 0
162 185 0
165 188 0
168 190 0
160 183 0
154 178 0
155 177 0
161 184 0
160 182 0
161 183 0
153 177 0
157 180 0
152 175 0
154 176 0
153 175 0
155 178 0
155 177 0
149 171 0
141 162 0
151 172 0
146 167 0
147 168 0
148 170 0
150 173 0
142 164 0
145 167 0
156 178 0
147 169 0
147 168 0
157 179 0
151 172 0
149 172 0
152 174 0
148 170 0
154 177 0
155 177 0
150 173 0
156 178 0
149 171 0
152 175 0
159 181 0
154 177 0
157 179 0
155 178 0
153 176 0
165 187 0
161 184 0
156 179 0
154 177 0
158 181 0
164 187 0
156 179 0
159 182 0
159 182 0
159 181 0
161 185 0
165 188 0
162 185 0
164 187 0
166 189 0
166 189 0
164 187 0
172 196 0
172 195 0
170 194 0
177 199 67
221 235 252
185 205 135
170 194 0
170 193 0
166 189 0
168 192 0
159 182 0
163 187 0
168 191 0
164 187 0
169 191 0
168 192 0
164 187 0
164 187 0
166 190 0
162 185 0
162 186 0
157 180 0
157 180 0
164 187 0
154 177 0
162 185 0
161 184 0
157 181 0
161 185 0
165 188 0
158 181 0
162 184 0
161 183 0
163 186 0
154 177 0
157 181 0
157 180 0
155 178 0
154 177 0
159 181 0
154 176 0
160 183 0
158 180 0
154 176 0
160 182 0
158 181 0
157 180 0
160 182 0
157 178 0
150 172 0
158 180 0
147 169 0
153 175 0
157 178 0
142 163 0
149 170 0
146 168 0
149 171 0
157 179 0
143 164 0
145 167 0
142 164 0
136 158 0
152 175 0
148 169 0
133 154 0
151 172 0
150 171 0
135 156 0
143 164 0
131 151 0
147 167 0
145 166 0
138 158 0
139 160 0
145 165 0
135 156 0
142 163 0
134 155 0
136 156 0
139 159 0
146 167 0
142 163 0
127 148 0
141 161 0
128 149 0
143 163 0
138 159 0
116 136 0
129 150 0
131 150 0
128 148 0
126 145 0
118 138 0
125 144 0
128 147 0
122 143 0
131 151 0
137 156 0
126 146 0
124 144 0
127 146 0
136 156 0
128 147 0
120 139 0
135 156 0
120 139 0
127 146 0
126 146 0
134 154 0
133 153 0
125 145 0
135 156 0
137 158 0
125 145 0
128 148 0
131 151 0
133 152 0
136 156 0
134 155 0
144 165 0
141 161 0
134 151 0
130 151 0
139 159 0
136 156 0
135 155 0
141 161 0
134 155 0
140 161 0
148 168 0
147 167 0
141 163 0
143 164 0
145 166 0
133 153 0
147 169 0
142 162 0
140 162 0
143 162 0
146 167 0
149 170 0
145 166 0
150 170 0
148 168 0
152 174 0
147 168 0
138 158 0
148 169 0
151 171 0
150 172 0
149 171 0
153 173 0
154 174 0
145 166 0
151 173 0
151 171 0
153 174 0
148 168 0
156 177 0
152 175 0
155 177 0
154 175 0
153 174 0
159 182 0
153 174 0
160 182 0
152 172 0
157 178 0
154 174 0
162 183 0
159 180 0
157 179 0
153 173 0
155 178 0
153 174 0
162 184 0
156 177 0
160 179 0
159 181 0
158 179 0
161 182 0
161 183 0
160 182 0
158 180 0
156 179 0
164 187 0
159 180 0
155 174 0
164 186 0
163 185 0
157 180 0
161 183 0
164 186 0
163 185 0
164 186 0
168 188 0
165 186 0
163 185 0
161 182 0
165 186 0
165 187 0
164 186 0
166 189 0
170 192 0
162 184 0
161 182 0
167 189 0
163 184 0
164 187 0
169 191 0
166 188 0
166 188 0
166 188 0
167 189 0
165 188 0
170 192 0
165 187 0
168 189 0
166 188 0
169 192 0
168 190 0
168 190 0
168 190 0
164 185 0
168 191 0
167 189 0
172 196 0
169 192 0
169 191 0
168 189 0
168 189 0
165 188 0
164 186 0
169 191 0
166 188 0
170 192 0
167 190 0
167 189 0
170 193 0
168 190 0
171 194 0
168 190 0
165 188 0
168 190 0
168 189 0
172 193 0
171 192 0
171 194 0
171 192 0
169 190 0
170 192 0
170 192 0
171 194 0
171 194 0
164 185 0
170 193 0
167 189 0
170 191 0
170 192 0
170 193 0
170 193 0
169 192 0
168 190 0
171 194 0
171 194 0
173 196 0
169 191 0
170 193 0
169 192 0
172 195 0
169 191 0
173 196 0
172 194 0
173 195 0
172 195 0
171 193 0
170 193 0
173 197 0
171 194 0
170 192 0
170 193 0
171 192 0
173 195 0
172 196 0
171 195 0
170 193 0
174 197 0
169 192 0
170 193 0
170 192 0
173 196 0
172 195 0
171 195 0
172 194 0
171 195 0
172 194 0
174 197 0
172 195 0
172 195 0
169 191 0
169 192 0
168 192 0
169 193 0
168 192 0
170 193 0
169 193 0
171 195 0
168 191 0
168 191 0
169 192 0
170 193 0
167 191 0
166 190 0
165 189 0
169 193 0
171 194 0
172 195 0
169 193 0
170 192 0
168 190 0
165 189 0
171 194 0
159 182 0
168 191 0
165 189 0
168 191 0
170 194 0
163 186 0
162 186 0
166 189 0
169 193 0
165 189 0
161 184 0
170 193 0
165 189 0
168 191 0
160 183 0
162 185 0
163 186 0
156 179 0
165 188 0
154 177 0
164 187 0
156 178 0
166 189 0
162 184 0
167 189 0
159 182 0
159 182 0
159 181 0
157 180 0
152 175 0
156 179 0
147 169 0
143 165 0
143 165 0
140 162 0
142 163 0
149 170 0
147 169 0
140 162 0
146 167 0
149 170 0
150 172 0
148 170 0
159 181 0
152 174 0
145 166 0
147 169 0
160 182 0
155 177 0
146 167 0
148 170 0
146 168 0
148 171 0
156 179 0
158 179 0
154 176 0
157 178 0
157 179 0
153 175 0
149 172 0
158 180 0
154 177 0
161 184 0
154 177 0
162 184 0
163 186 0
159 182 0
155 178 0
158 180 0
161 184 0
162 185 0
164 187 0
164 187 0
167 190 0
164 188 0
168 191 0
167 191 0
170 193 0
172 195 0
172 196 0
201 219 184
206 223 217
165 188 0
166 190 0
160 184 0
167 189 0
163 187 0
162 185 0
167 190 0
165 188 0
165 189 0
167 190 0
160 183 0
164 186 0
168 191 0
167 190 0
158 182 0
166 189 0
163 186 0
160 184 0
163 185 0
159 181 0
165 187 0
155 178 0
162 184 0
160 183 0
159 182 0
152 176 0
158 180 0
154 176 0
156 179 0
151 174 0
156 178 0
154 177 0
154 177 0
154 176 0
156 179 0
162 184 0
164 185 0
161 184 0
152 174 0
159 181 0
161 183 0
149 171 0
156 178 0
151 173 0
156 178 0
152 173 0
153 176 0
156 178 0
140 162 0
149 170 0
151 173 0
152 173 0
153 174 0
157 178 0
145 166 0
152 174 0
143 165 0
145 166 0
152 172 0
131 151 0
146 168 0
142 163 0
145 166 0
137 157 0
142 163 0
140 161 0
146 166 0
143 164 0
134 155 0
145 166 0
128 148 0
142 163 0
133 153 0
140 160 0
135 155 0
135 155 0
135 155 0
141 161 0
135 155 0
127 148 0
137 158 0
137 158 0
129 149 0
137 158 0
133 154 0
138 159 0
132 152 0
135 155 0
124 145 0
125 146 0
124 144 0
138 159 0
127 147 0
126 145 0
133 151 0
127 146 0
128 148 0
131 151 0
133 154 0
133 154 0
134 153 0
145 165 0
125 145 0
137 157 0
126 146 0
133 154 0
129 148 0
136 156 0
138 157 0
139 160 0
131 151 0
138 159 0
123 143 0
129 150 0
131 150 0
130 150 0
125 145 0
133 153 0
137 156 0
142 163 0
140 160 0
150 170 0
140 160 0
141 162 0
130 151 0
140 161 0
144 165 0
140 160 0
133 154 0
139 161 0
146 167 0
150 171 0
141 162 0
156 176 0
147 167 0
153 174 0
151 172 0
145 167 0
139 160 0
154 176 0
143 165 0
148 169 0
147 168 0
151 171 0
154 177 0
151 173 0
147 168 0
144 165 0
149 170 0
146 168 0
150 172 0
155 176 0
153 172 0
146 167 0
155 176 0
151 170 0
154 176 0
159 181 0
152 173 0
155 176 0
157 180 0
154 176 0
155 176 0
157 179 0
154 175 0
156 179 0
163 186 0
155 175 0
165 187 0
159 180 0
153 174 0
158 181 0
161 183 0
158 180 0
155 177 0
159 180 0
161 182 0
162 184 0
162 185 0
159 180 0
161 182 0
164 185 0
161 181 0
159 181 0
161 182 0
163 185 0
164 185 0
163 185 0
161 184 0
164 185 0
167 189 0
167 188 0
160 182 0
163 184 0
161 182 0
165 186 0
168 189 0
168 189 0
161 182 0
165 188 0
165 186 0
165 187 0
167 187 0
165 186 0
165 187 0
167 187 0
170 192 0
167 189 0
169 190 0
167 189 0
167 189 0
168 191 0
168 190 0
170 193 0
168 188 0
165 189 0
168 191 0
167 189 0
169 192 0
165 187 0
167 188 0
165 188 0
170 193 0
169 191 0
168 190 0
164 186 0
172 194 0
170 195 0
167 187 0
169 191 0
167 190 0
170 191 0
165 188 0
173 195 0
169 191 0
171 193 0
166 188 0
171 193 0
170 193 0
170 192 0
167 191 0
168 191 0
171 193 0
171 195 0
167 188 0
169 192 0
172 195 0
170 194 0
170 193 0
167 188 0
169 192 0
169 192 0
171 193 0
172 195 0
170 194 0
168 191 0
171 193 0
170 193 0
170 191 0
172 195 0
173 194 0
173 195 0
172 196 0
170 194 0
171 193 0
172 194 0
172 195 0
170 193 0
172 194 0
171 194 0
167 191 0
172 196 0
169 193 0
173 195 0
169 192 0
171 193 0
172 195 0
172 195 0
171 194 0
171 194 0
173 196 0
174 197 0
171 194 0
174 197 0
173 196 0
172 196 0
172 194 0
172 195 0
171 195 0
171 193 0
172 195 0
173 195 0
175 198 0
175 197 0
171 194 0
172 195 0
173 196 0
169 193 0
173 196 0
170 193 0
168 192 0
163 187 0
165 189 0
167 190 0
167 192 0
168 191 0
166 189 0
169 192 0
172 196 0
169 192 0
164 188 0
165 189 0
172 195 0
164 187 0
169 192 0
164 188 0
166 189 0
162 186 0
166 189 0
159 182 0
165 188 0
162 184 0
164 187 0
162 186 0
168 191 0
164 187 0
169 192 0
167 190 0
160 184 0
163 186 0
161 183 0
158 182 0
164 187 0
163 186 0
166 189 0
162 185 0
164 187 0
166 190 0
155 178 0
156 178 0
166 188 0
159 182 0
164 186 0
151 174 0
154 176 0
160 182 0
152 174 0
155 176 0
149 170 0
144 165 0
154 177 0
150 171 0
141 162 0
148 169 0
149 171 0
146 168 0
145 166 0
149 172 0
147 169 0
156 178 0
144 166 0
151 173 0
150 172 0
160 181 0
156 177 0
154 176 0
152 175 0
155 176 0
148 171 0
156 177 0
156 177 0
152 175 0
155 177 0
156 178 0
155 177 0
159 182 0
157 179 0
158 180 0
153 175 0
158 181 0
166 188 0
157 180 0
157 180 0
158 180 0
159 182 0
156 179 0
164 186 0
163 186 0
155 178 0
165 189 0
167 190 0
167 190 0
168 191 0
166 190 0
168 192 0
171 195 0
173 195 0
181 203 95
217 232 245
182 203 133
172 195 0
163 187 0
166 190 0
166 189 0
171 194 0
165 188 0
161 184 0
168 191 0
168 190 0
164 187 0
160 183 0
163 185 0
161 184 0
159 183 0
164 187 0
166 189 0
157 180 0
161 183 0
161 183 0
162 185 0
164 186 0
154 177 0
161 182 0
162 184 0
163 187 0
160 182 0
159 181 0
161 184 0
155 178 0
154 178 0
166 188 0
164 186 0
161 184 0
151 173 0
150 172 0
152 173 0
156 178 0
161 182 0
153 175 0
146 168 0
153 175 0
162 185 0
154 176 0
157 179 0
147 169 0
151 173 0
146 167 0
150 171 0
152 173 0
153 175 0
147 168 0
148 170 0
149 170 0
153 174 0
142 164 0
144 165 0
145 167 0
147 169 0
151 172 0
141 162 0
139 160 0
142 165 0
136 158 0
139 160 0
147 168 0
141 162 0
139 161 0
149 170 0
130 150 0
135 156 0
133 154 0
147 168 0
137 158 0
137 157 0
141 162 0
132 154 0
134 155 0
134 155 0
138 159 0
134 154 0
145 166 0
129 149 0
138 158 0
134 155 0
129 150 0
137 156 0
131 151 0
131 151 0
118 139 0
130 150 0
119 140 0
127 147 0
136 155 0
147 167 0
125 146 0
131 151 0
117 138 0
127 147 0
134 155 0
126 144 0
124 145 0
130 151 0
129 149 0
133 154 0
136 155 0
138 157 0
144 164 0
135 156 0
136 157 0
139 159 0
139 159 0
135 154 0
144 164 0
123 144 0
140 161 0
134 155 0
136 156 0
140 161 0
140 162 0
148 169 0
133 154 0
139 159 0
145 166 0
141 163 0
138 158 0
139 159 0
143 163 0
152 173 0
150 172 0
138 159 0
143 165 0
153 175 0
144 167 0
149 171 0
149 170 0
140 162 0
139 161 0
146 169 0
145 167 0
150 172 0
151 173 0
152 174 0
149 171 0
148 170 0
148 169 0
157 179 0
150 172 0
149 172 0
154 176 0
142 163 0
158 178 0
154 175 0
155 176 0
159 180 0
161 183 0
152 174 0
149 171 0
158 181 0
160 181 0
154 175 0
153 174 0
163 183 0
156 178 0
151 172 0
157 178 0
157 178 0
157 179 0
157 177 0
162 184 0
154 175 0
158 180 0
161 182 0
163 184 0
160 181 0
164 186 0
159 180 0
154 175 0
166 188 0
161 183 0
163 185 0
156 176 0
161 184 0
159 182 0
163 184 0
161 182 0
161 183 0
163 184 0
159 182 0
164 184 0
164 186 0
161 183 0
160 182 0
164 186 0
163 185 0
161 183 0
164 185 0
167 190 0
163 184 0
162 184 0
160 181 0
166 187 0
167 189 0
169 191 0
167 188 0
166 188 0
168 190 0
167 189 0
162 185 0
161 183 0
169 192 0
167 189 0
168 191 0
162 184 0
167 190 0
166 188 0
164 185 0
164 187 0
167 188 0
164 186 0
165 188 0
166 188 0
166 189 0
165 187 0
161 183 0
168 190 0
167 188 0
166 188 0
169 191 0
170 193 0
169 192 0
171 193 0
170 194 0
167 188 0
165 187 0
171 193 0
168 191 0
170 193 0
168 190 0
170 193 0
172 194 0
171 194 0
169 191 0
172 193 0
172 193 0
170 192 0
169 192 0
170 192 0
169 191 0
170 192 0
169 191 0
167 190 0
170 191 0
172 195 0
169 193 0
170 194 0
168 191 0
169 191 0
173 196 0
171 193 0
168 191 0
174 196 0
171 194 0
171 194 0
170 192 0
172 194 0
170 193 0
172 195 0
172 194 0
168 190 0
168 191 0
171 193 0
174 196 0
172 195 0
172 195 0
171 194 0
173 196 0
174 195 0
172 194 0
172 193 0
170 193 0
169 191 0
172 195 0
172 194 0
172 194 0
171 194 0
172 195 0
173 196 0
173 196 0
169 190 0
171 194 0
174 197 0
175 197 0
173 197 0
170 193 0
174 198 0
173 196 0
170 194 0
168 191 0
167 190 0
166 190 0
165 189 0
166 190 0
163 186 0
170 193 0
166 190 0
167 190 0
168 191 0
168 192 0
164 187 0
166 190 0
167 190 0
167 191 0
168 191 0
166 190 0
165 188 0
168 191 0
164 188 0
167 189 0
166 188 0
165 188 0
164 187 0
168 192 0
163 186 0
170 193 0
169 193 0
165 189 0
159 182 0
158 181 0
169 191 0
164 187 0
162 185 0
156 179 0
160 182 0
163 185 0
153 176 0
162 185 0
161 184 0
155 178 0
163 185 0
156 178 0
158 180 0
150 173 0
157 179 0
160 182 0
154 176 0
158 180 0
150 172 0
152 174 0
154 176 0
146 168 0
154 176 0
146 168 0
146 167 0
154 176 0
148 169 0
156 177 0
148 170 0
147 169 0
150 172 0
148 170 0
148 170 0
154 175 0
153 176 0
149 171 0
149 171 0
157 179 0
156 179 0
156 177 0
155 177 0
149 171 0
152 175 0
160 182 0
163 186 0
156 178 0
153 174 0
154 176 0
149 171 0
153 175 0
150 172 0
160 184 0
156 179 0
162 184 0
164 187 0
157 180 0
154 177 0
157 180 0
158 180 0
163 186 0
162 186 0
161 184 0
166 189 0
165 189 0
168 191 0
167 191 0
170 194 0
170 195 0
172 196 0
208 225 212
196 214 186
170 193 0
164 187 0
162 185 0
162 186 0
162 186 0
161 184 0
169 192 0
164 186 0
164 186 0
161 183 0
159 182 0
161 185 0
169 191 0
165 188 0
155 179 0
164 186 0
157 180 0
161 184 0
159 182 0
162 185 0
160 183 0
158 180 0
167 190 0
160 183 0
154 177 0
158 181 0
159 181 0
161 184 0
152 173 0
160 182 0
157 179 0
148 172 0
153 175 0
159 181 0
154 176 0
156 178 0
149 172 0
150 172 0
150 173 0
148 171 0
158 179 0
154 177 0
152 174 0
154 177 0
152 174 0
150 172 0
150 171 0
157 179 0
146 168 0
147 168 0
147 169 0
147 168 0
150 171 0
145 166 0
141 162 0
144 166 0
156 178 0
150 171 0
152 172 0
138 160 0
145 166 0
154 175 0
147 169 0
147 168 0
139 159 0
141 162 0
149 169 0
138 159 0
142 163 0
140 160 0
136 157 0
142 162 0
140 162 0
139 158 0
136 158 0
144 165 0
134 155 0
132 152 0
139 159 0
136 158 0
134 154 0
126 146 0
121 140 0
142 163 0
139 161 0
132 152 0
136 157 0
136 157 0
132 152 0
140 161 0
136 156 0
134 153 0
129 149 0
139 160 0
132 150 0
137 157 0
135 156 0
138 158 0
136 156 0
143 163 0
127 147 0
133 155 0
142 162 0
136 156 0
136 158 0
139 160 0
126 147 0
133 154 0
136 157 0
128 148 0
138 159 0
141 160 0
140 162 0
131 151 0
137 159 0
141 163 0
136 156 0
139 161 0
134 156 0
148 168 0
128 148 0
141 161 0
142 164 0
144 166 0
147 169 0
136 157 0
141 162 0
142 162 0
143 164 0
145 166 0
145 165 0
153 174 0
151 172 0
151 173 0
149 170 0
146 167 0
147 168 0
155 178 0
153 175 0
158 179 0
144 166 0
146 168 0
156 177 0
148 170 0
148 169 0
155 177 0
160 183 0
156 176 0
149 170 0
159 179 0
151 172 0
153 173 0
156 178 0
154 174 0
157 178 0
154 175 0
154 176 0
149 169 0
159 181 0
161 181 0
153 176 0
153 174 0
161 185 0
156 177 0
158 180 0
159 182 0
162 183 0
153 174 0
161 184 0
159 179 0
158 179 0
158 179 0
166 188 0
163 185 0
154 173 0
162 185 0
162 183 0
159 180 0
165 188 0
163 186 0
159 181 0
163 184 0
160 182 0
162 185 0
157 180 0
158 180 0
167 189 0
162 183 0
162 184 0
163 185 0
166 187 0
152 172 0
162 183 0
167 188 0
165 186 0
167 189 0
169 191 0
167 189 0
165 186 0
168 190 0
166 189 0
164 186 0
165 189 0
166 187 0
168 191 0
167 190 0
164 186 0
171 193 0
162 185 0
166 189 0
163 187 0
166 188 0
169 190 0
168 191 0
167 190 0
168 189 0
162 185 0
167 189 0
167 189 0
163 183 0
169 191 0
169 192 0
166 189 0
166 189 0
170 192 0
170 193 0
169 192 0
165 188 0
167 190 0
166 189 0
171 192 0
172 194 0
169 192 0
170 192 0
167 191 0
165 187 0
170 192 0
168 190 0
167 190 0
167 190 0
168 190 0
169 192 0
168 189 0
170 194 0
164 187 0
172 194 0
171 195 0
172 195 0
172 195 0
170 193 0
168 191 0
172 196 0
170 191 0
169 192 0
169 192 0
165 186 0
170 192 0
169 191 0
170 193 0
168 191 0
170 194 0
169 193 0
171 194 0
171 195 0
170 194 0
169 192 0
172 195 0
171 194 0
172 196 0
172 195 0
173 195 0
169 192 0
169 191 0
173 195 0
173 196 0
171 195 0
170 192 0
171 195 0
172 194 0
169 191 0
170 193 0
173 196 0
174 197 0
173 196 0
173 196 0
173 197 0
175 198 0
172 194 0
172 195 0
172 195 0
171 193 0
173 195 0
172 194 0
171 194 0
173 196 0
172 195 0
172 195 0
162 185 0
169 193 0
171 195 0
170 194 0
169 192 0
168 192 0
165 188 0
168 192 0
170 193 0
166 191 0
169 193 0
162 186 0
166 189 0
168 192 0
162 186 0
167 190 0
165 188 0
170 192 0
164 188 0
165 189 0
168 191 0
165 188 0
164 186 0
167 190 0
162 185 0
162 185 0
163 186 0
164 188 0
167 189 0
163 186 0
166 189 0
159 181 0
165 188 0
161 184 0
155 178 0
165 188 0
165 188 0
157 179 0
158 180 0
156 179 0
167 189 0
162 183 0
157 180 0
160 182 0
159 181 0
160 182 0
154 177 0
158 181 0
163 185 0
156 178 0
146 168 0
153 174 0
153 175 0
155 176 0
148 169 0
146 169 0
147 169 0
160 181 0
143 165 0
155 177 0
149 170 0
158 180 0
137 159 0
145 167 0
157 178 0
152 173 0
153 175 0
154 177 0
151 173 0
144 166 0
157 179 0
151 174 0
150 171 0
151 173 0
154 177 0
157 179 0
154 177 0
151 173 0
158 180 0
162 184 0
156 178 0
157 180 0
164 186 0
159 182 0
156 179 0
153 175 0
164 186 0
166 187 0
166 189 0
158 181 0
164 186 0
161 184 0
167 190 0
163 187 0
163 186 0
170 193 0
168 191 0
166 190 0
169 193 0
172 196 0
190 210 144
212 227 233
168 191 25
167 189 0
163 185 0
164 187 0
166 189 0
166 189 0
160 184 0
166 189 0
164 187 0
162 185 0
160 183 0
162 185 0
166 188 0
163 185 0
162 184 0
163 185 0
168 191 0
159 182 0
162 184 0
163 185 0
162 184 0
161 184 0
158 181 0
160 183 0
159 181 0
155 177 0
160 182 0
157 179 0
154 176 0
154 176 0
157 179 0
160 182 0
152 174 0
151 173 0
153 175 0
151 173 0
157 178 0
158 181 0
148 171 0
151 173 0
147 168 0
155 176 0
149 171 0
155 176 0
153 176 0
161 184 0
153 175 0
152 174 0
141 163 0
150 170 0
155 178 0
149 170 0
154 176 0
152 174 0
144 167 0
154 176 0
143 166 0
145 167 0
148 170 0
148 170 0
148 168 0
145 165 0
144 166 0
148 170 0
143 164 0
141 161 0
147 168 0
140 161 0
139 160 0
136 157 0
149 170 0
137 158 0
137 157 0
144 165 0
142 163 0
140 161 0
130 150 0
138 159 0
128 149 0
142 164 0
142 162 0
135 155 0
134 153 0
148 169 0
141 161 0
139 159 0
139 159 0
131 151 0
139 159 0
135 156 0
141 161 0
130 152 0
137 157 0
132 151 0
130 151 0
129 150 0
142 162 0
139 159 0
136 157 0
130 150 0
130 151 0
144 164 0
132 151 0
135 155 0
132 153 0
131 152 0
138 158 0
129 149 0
131 152 0
141 162 0
135 155 0
135 156 0
132 153 0
142 163 0
139 161 0
136 158 0
140 162 0
135 156 0
137 158 0
144 166 0
134 156 0
148 168 0
149 170 0
136 157 0
153 173 0
138 160 0
139 160 0
136 157 0
143 166 0
148 169 0
137 159 0
149 171 0
148 169 0
153 175 0
136 157 0
151 173 0
148 170 0
157 177 0
148 168 0
149 170 0
144 165 0
150 172 0
148 170 0
151 172 0
153 175 0
145 167 0
154 174 0
148 170 0
152 173 0
162 182 0
155 176 0
157 178 0
154 175 0
151 172 0
158 180 0
159 180 0
150 172 0
157 178 0
154 177 0
150 172 0
159 182 0
161 184 0
162 183 0
157 179 0
160 181 0
151 171 0
166 188 0
159 180 0
158 180 0
163 184 0
160 182 0
162 182 0
160 183 0
166 187 0
159 182 0
160 182 0
156 178 0
162 185 0
163 184 0
161 183 0
162 183 0
165 188 0
162 185 0
166 188 0
169 192 0
160 182 0
161 183 0
163 184 0
159 180 0
163 186 0
162 183 0
163 184 0
169 191 0
159 181 0
161 182 0
163 185 0
165 185 0
159 182 0
163 185 0
163 184 0
167 190 0
157 180 0
167 189 0
161 182 0
154 176 0
161 183 0
166 187 0
165 186 0
166 188 0
162 182 0
166 188 0
167 188 0
167 189 0
166 187 0
170 192 0
169 190 0
167 190 0
167 190 0
167 188 0
167 189 0
172 194 0
167 189 0
167 190 0
168 190 0
169 190 0
173 194 0
169 191 0
168 191 0
165 186 0
168 189 0
169 192 0
169 192 0
169 191 0
170 193 0
166 189 0
169 193 0
167 187 0
169 191 0
170 192 0
170 193 0
170 193 0
168 191 0
168 190 0
171 194 0
167 189 0
165 187 0
172 194 0
170 193 0
168 191 0
170 193 0
170 192 0
171 193 0
172 195 0
171 193 0
169 190 0
172 194 0
170 193 0
170 193 0
170 192 0
172 195 0
167 190 0
173 195 0
174 197 0
169 193 0
169 191 0
173 194 0
171 193 0
169 192 0
170 192 0
170 193 0
172 194 0
172 194 0
171 194 0
170 193 0
172 194 0
170 194 0
171 193 0
170 194 0
172 195 0
170 193 0
170 193 0
171 195 0
172 195 0
170 193 0
171 193 0
171 193 0
175 197 0
171 195 0
172 196 0
173 196 0
173 196 0
170 194 0
171 195 0
170 193 0
173 195 0
172 195 0
171 194 0
172 196 0
171 194 0
172 195 0
169 193 0
170 193 0
165 189 0
171 194 0
164 187 0
169 191 0
167 191 0
168 192 0
165 189 0
164 188 0
168 192 0
169 193 0
169 192 0
166 190 0
165 189 0
164 188 0
162 186 0
164 187 0
162 186 0
161 184 0
165 189 0
167 191 0
158 181 0
168 191 0
165 189 0
159 182 0
165 188 0
161 184 0
167 189 0
166 189 0
161 184 0
158 182 0
164 187 0
163 186 0
162 184 0
163 186 0
158 181 0
164 187 0
160 182 0
165 187 0
162 184 0
159 182 0
157 179 0
157 179 0
159 182 0
158 180 0
161 183 0
147 168 0
151 174 0
152 174 0
153 174 0
143 165 0
146 167 0
150 171 0
146 168 0
148 170 0
152 173 0
152 174 0
152 174 0
151 173 0
161 182 0
156 177 0
150 171 0
154 176 0
152 175 0
152 174 0
157 178 0
159 180 0
151 172 0
153 175 0
151 172 0
155 176 0
157 180 0
155 176 0
156 178 0
158 179 0
160 182 0
151 174 0
161 184 0
149 172 0
156 179 0
156 178 0
150 173 0
154 177 0
164 186 0
160 183 0
163 185 0
162 184 0
160 183 0
164 186 0
166 188 0
164 186 0
165 188 0
166 190 0
165 190 0
168 192 0
168 192 0
178 201 76
219 234 248
180 200 128
160 183 0
168 190 0
166 189 0
163 186 0
161 183 0
163 186 0
158 181 0
167 189 0
162 186 0
165 188 0
161 183 0
164 188 0
164 187 0
161 183 0
167 191 0
155 177 0
160 182 0
166 189 0
152 174 0
160 181 0
156 179 0
161 184 0
160 182 0
159 182 0
155 178 0
160 182 0
156 179 0
160 183 0
156 178 0
153 175 0
162 184 0
161 182 0
157 178 0
160 182 0
161 184 0
153 175 0
158 180 0
159 181 0
158 180 0
151 172 0
155 176 0
153 175 0
155 177 0
147 168 0
156 178 0
151 173 0
148 169 0
153 174 0
146 168 0
149 170 0
151 174 0
147 168 0
157 179 0
142 164 0
152 174 0
151 172 0
147 169 0
148 169 0
151 173 0
140 161 0
141 162 0
147 168 0
144 166 0
141 162 0
149 170 0
145 167 0
137 158 0
139 160 0
143 164 0
141 161 0
141 162 0
143 163 0
139 159 0
135 157 0
148 168 0
140 160 0
134 155 0
132 151 0
145 166 0
132 153 0
138 157 0
126 146 0
125 146 0
134 155 0
138 158 0
140 161 0
133 155 0
141 161 0
137 158 0
138 159 0
142 163 0
135 156 0
130 151 0
137 158 0
133 154 0
136 158 0
139 160 0
145 166 0
128 149 0
128 148 0
131 153 0
138 159 0
129 150 0
136 157 0
138 159 0
145 167 0
140 161 0
145 165 0
133 154 0
137 158 0
143 164 0
144 164 0
146 166 0
147 167 0
141 162 0
137 157 0
142 165 0
150 172 0
147 168 0
138 159 0
143 163 0
144 166 0
146 166 0
139 161 0
151 173 0
142 163 0
150 170 0
145 166 0
144 164 0
147 169 0
151 173 0
145 166 0
149 169 0
147 167 0
152 173 0
151 172 0
149 169 0
155 177 0
141 162 0
148 169 0
151 172 0
147 167 0
145 167 0
153 175 0
154 176 0
158 180 0
153 174 0
149 171 0
149 170 0
152 174 0
158 180 0
156 178 0
150 171 0
155 177 0
159 180 0
155 177 0
152 174 0
159 181 0
163 184 0
154 178 0
160 183 0
158 179 0
158 180 0
154 175 0
158 180 0
159 180 0
157 178 0
162 186 0
157 179 0
155 176 0
167 189 0
162 183 0
164 187 0
153 174 0
162 184 0
164 186 0
158 181 0
165 187 0
162 185 0
160 182 0
160 182 0
164 186 0
170 193 0
161 183 0
163 185 0
158 181 0
165 185 0
162 183 0
165 189 0
165 186 0
166 188 0
164 187 0
165 184 0
165 186 0
163 186 0
168 190 0
165 187 0
162 186 0
165 188 0
165 185 0
166 190 0
164 186 0
168 191 0
163 185 0
166 188 0
166 188 0
167 190 0
165 188 0
165 187 0
161 184 0
165 187 0
169 191 0
166 188 0
171 192 0
167 189 0
169 190 0
167 188 0
164 186 0
168 190 0
168 190 0
167 190 0
165 188 0
166 187 0
167 190 0
167 189 0
164 187 0
169 191 0
164 187 0
165 187 0
169 193 0
169 192 0
166 188 0
168 191 0
168 191 0
168 191 0
168 190 0
168 190 0
170 192 0
167 188 0
169 192 0
166 190 0
168 191 0
167 189 0
169 191 0
170 192 0
168 191 0
169 192 0
171 192 0
169 192 0
170 194 0
171 194 0
171 194 0
169 192 0
173 195 0
169 192 0
173 196 0
171 194 0
167 189 0
167 190 0
170 193 0
171 193 0
172 195 0
171 194 0
168 191 0
173 195 0
168 191 0
171 193 0
173 196 0
170 192 0
169 191 0
168 191 0
171 195 0
170 194 0
172 195 0
167 189 0
172 194 0
171 194 0
171 194 0
170 194 0
174 197 0
172 195 0
171 193 0
173 196 0
171 194 0
171 196 0
170 193 0
169 192 0
171 193 0
173 196 0
170 193 0
173 196 0
171 194 0
171 194 0
171 194 0
174 197 0
173 196 0
171 194 0
171 193 0
166 189 0
169 192 0
169 193 0
166 189 0
169 192 0
166 189 0
165 189 0
167 190 0
169 193 0
166 189 0
166 189 0
161 184 0
166 189 0
169 192 0
167 189 0
168 192 0
166 189 0
162 185 0
166 189 0
170 194 0
167 190 0
167 191 0
166 189 0
160 182 0
162 185 0
163 186 0
160 183 0
161 184 0
159 182 0
165 188 0
159 181 0
169 191 0
166 188 0
157 180 0
157 179 0
160 183 0
165 187 0
162 184 0
161 183 0
165 188 0
161 183 0
155 177 0
165 186 0
159 180 0
164 186 0
158 180 0
158 179 0
154 176 0
152 174 0
151 173 0
150 171 0
146 168 0
152 173 0
157 179 0
149 171 0
145 166 0
144 165 0
154 175 0
156 178 0
152 175 0
158 179 0
159 182 0
146 168 0
147 168 0
151 173 0
144 166 0
151 172 0
151 174 0
150 173 0
147 168 0
160 181 0
153 175 0
162 184 0
156 177 0
154 177 0
157 178 0
150 172 0
155 176 0
153 175 0
160 183 0
159 182 0
158 180 0
163 185 0
155 177 0
158 180 0
165 188 0
161 183 0
160 183 0
158 180 0
166 188 0
166 189 0
162 185 0
165 188 0
160 183 0
168 192 0
169 192 0
167 190 0
171 194 0
171 195 25
213 229 230
195 213 182
161 184 0
162 184 0
161 185 0
167 189 0
163 186 0
166 188 0
160 182 0
164 187 0
165 188 0
160 183 0
160 182 0
156 179 0
161 183 0
168 190 0
160 183 0
156 179 0
161 183 0
163 186 0
163 185 0
157 179 0
160 182 0
159 182 0
164 187 0
163 186 0
157 180 0
158 181 0
153 174 0
156 178 0
163 184 0
157 179 0
154 175 0
159 182 0
157 179 0
162 184 0
153 175 0
156 178 0
151 173 0
150 173 0
152 174 0
150 172 0
151 172 0
152 174 0
151 173 0
143 165 0
145 167 0
154 175 0
145 166 0
147 168 0
153 175 0
154 176 0
142 163 0
149 170 0
154 176 0
149 170 0
147 168 0
148 169 0
144 166 0
150 171 0
139 160 0
139 161 0
135 156 0
144 164 0
138 159 0
146 168 0
150 172 0
138 159 0
144 165 0
142 162 0
142 162 0
135 157 0
136 157 0
138 160 0
145 166 0
134 155 0
141 161 0
136 157 0
139 160 0
132 153 0
138 159 0
146 167 0
143 165 0
143 164 0
132 153 0
128 148 0
129 149 0
138 159 0
145 167 0
131 153 0
140 162 0
137 157 0
141 162 0
132 154 0
129 149 0
132 154 0
131 152 0
141 161 0
139 160 0
143 164 0
140 159 0
141 162 0
151 172 0
134 154 0
135 155 0
131 151 0
134 155 0
141 163 0
136 157 0
153 175 0
144 166 0
132 151 0
146 167 0
138 158 0
142 163 0
144 164 0
144 165 0
132 152 0
147 168 0
142 164 0
142 163 0
137 159 0
154 175 0
144 167 0
144 166 0
152 171 0
152 174 0
154 175 0
138 158 0
147 169 0
154 176 0
142 164 0
138 160 0
144 166 0
153 175 0
146 168 0
147 168 0
151 174 0
154 176 0
151 173 0
138 160 0
152 173 0
143 164 0
158 180 0
146 168 0
150 171 0
154 175 0
153 173 0
158 180 0
157 180 0
155 177 0
157 178 0
155 177 0
155 177 0
157 180 0
153 174 0
152 172 0
158 180 0
161 182 0
159 180 0
160 183 0
155 177 0
151 174 0
157 179 0
151 173 0
152 175 0
163 184 0
165 188 0
151 173 0
157 178 0
156 180 0
156 178 0
162 184 0
156 179 0
160 182 0
159 179 0
164 186 0
162 184 0
163 185 0
158 179 0
156 178 0
159 181 0
161 182 0
159 179 0
163 185 0
167 188 0
165 187 0
161 182 0
165 187 0
163 185 0
164 186 0
163 183 0
165 188 0
162 183 0
166 187 0
165 187 0
165 187 0
166 189 0
166 189 0
166 189 0
162 185 0
165 187 0
167 189 0
164 185 0
160 183 0
166 187 0
168 191 0
167 188 0
167 188 0
163 186 0
165 187 0
166 187 0
165 188 0
165 188 0
168 190 0
163 185 0
163 186 0
166 188 0
168 191 0
162 185 0
168 191 0
170 193 0
169 191 0
166 188 0
169 192 0
171 194 0
170 193 0
165 186 0
170 193 0
168 190 0
167 189 0
169 191 0
168 191 0
171 193 0
169 191 0
166 190 0
167 190 0
170 193 0
167 191 0
169 191 0
166 188 0
169 191 0
170 193 0
168 190 0
172 195 0
168 191 0
167 190 0
171 194 0
165 189 0
167 191 0
170 192 0
171 194 0
171 193 0
171 194 0
169 192 0
169 191 0
169 193 0
171 194 0
172 194 0
170 193 0
168 190 0
168 191 0
172 195 0
169 190 0
172 195 0
168 190 0
171 193 0
169 192 0
172 195 0
170 193 0
169 193 0
170 192 0
172 195 0
171 194 0
170 193 0
171 194 0
171 194 0
173 197 0
172 194 0
170 192 0
170 193 0
170 193 0
170 194 0
174 196 0
169 192 0
173 196 0
171 194 0
169 191 0
171 194 0
170 193 0
171 194 0
172 195 0
172 195 0
172 196 0
172 195 0
171 194 0
173 196 0
172 195 0
174 197 0
172 195 0
174 197 0
168 191 0
168 192 0
165 189 0
171 194 0
169 192 0
173 196 0
162 185 0
167 190 0
168 191 0
169 192 0
168 191 0
166 190 0
168 190 0
166 190 0
169 191 0
159 182 0
170 193 0
164 187 0
164 186 0
167 191 0
160 183 0
163 186 0
164 187 0
162 185 0
167 189 0
169 191 0
159 182 0
167 189 0
160 182 0
163 186 0
170 193 0
167 190 0
167 190 0
163 186 0
161 184 0
161 184 0
162 185 0
162 185 0
157 179 0
163 186 0
158 180 0
160 182 0
161 184 0
156 178 0
158 179 0
151 173 0
159 180 0
150 173 0
152 174 0
142 163 0
149 170 0
152 174 0
144 167 0
150 171 0
159 181 0
149 171 0
147 169 0
148 170 0
144 166 0
152 172 0
151 172 0
154 176 0
150 172 0
159 180 0
150 171 0
155 177 0
153 176 0
156 178 0
164 185 0
149 170 0
151 172 0
157 179 0
151 172 0
153 175 0
153 175 0
157 180 0
152 174 0
152 174 0
156 178 0
151 173 0
159 181 0
158 178 0
158 181 0
164 186 0
152 174 0
161 183 0
157 180 0
162 185 0
158 181 0
158 181 0
161 185 0
162 186 0
162 186 0
166 188 0
171 194 0
167 190 0
164 188 0
174 197 0
196 215 177
203 220 206
164 187 25
163 186 0
167 190 0
169 192 0
157 179 0
166 188 0
170 192 0
161 183 0
165 188 0
156 180 0
161 184 0
166 189 0
159 183 0
162 184 0
160 181 0
161 185 0
157 179 0
154 176 0
162 185 0
159 181 0
158 180 0
158 181 0
155 178 0
162 184 0
162 183 0
154 176 0
152 175 0
161 182 0
155 178 0
157 179 0
164 184 0
158 179 0
157 179 0
159 181 0
156 178 0
164 185 0
155 177 0
155 177 0
153 175 0
151 173 0
156 178 0
149 170 0
148 169 0
150 171 0
150 172 0
154 175 0
155 178 0
154 176 0
153 175 0
149 170 0
156 178 0
153 174 0
140 161 0
149 171 0
151 173 0
156 177 0
144 165 0
149 171 0
151 172 0
152 173 0
146 167 0
140 161 0
142 164 0
143 164 0
142 163 0
135 157 0
148 169 0
146 168 0
150 171 0
139 160 0
130 151 0
139 161 0
148 169 0
150 171 0
140 162 0
136 157 0
146 166 0
139 160 0
145 166 0
124 144 0
144 165 0
140 161 0
135 156 0
142 164 0
141 161 0
147 168 0
140 161 0
142 163 0
148 169 0
135 156 0
142 162 0
138 158 0
143 163 0
141 162 0
137 157 0
141 161 0
141 162 0
146 167 0
149 169 0
142 162 0
132 153 0
132 153 0
139 159 0
143 164 0
145 166 0
147 168 0
141 162 0
141 162 0
146 167 0
143 164 0
143 165 0
137 158 0
147 168 0
145 167 0
137 157 0
149 172 0
139 159 0
142 163 0
141 162 0
142 165 0
143 165 0
143 165 0
150 172 0
140 162 0
143 165 0
155 177 0
158 179 0
138 159 0
148 169 0
144 166 0
144 166 0
151 174 0
153 174 0
152 173 0
157 179 0
152 172 0
143 164 0
151 172 0
152 174 0
154 177 0
152 172 0
154 175 0
152 174 0
151 171 0
157 179 0
158 180 0
153 174 0
153 175 0
156 179 0
156 177 0
156 178 0
154 174 0
156 178 0
153 176 0
159 182 0
163 184 0
154 176 0
159 181 0
158 181 0
152 174 0
156 179 0
156 177 0
161 183 0
154 176 0
157 178 0
159 181 0
156 179 0
155 177 0
159 180 0
160 183 0
162 185 0
159 180 0
160 183 0
159 182 0
159 180 0
158 180 0
163 184 0
164 186 0
164 185 0
160 183 0
162 183 0
163 185 0
158 180 0
161 184 0
161 183 0
161 183 0
160 182 0
162 184 0
161 184 0
163 186 0
166 186 0
161 184 0
160 181 0
164 185 0
165 188 0
159 181 0
169 192 0
163 186 0
163 185 0
170 192 0
164 187 0
158 181 0
163 186 0
170 192 0
166 186 0
165 186 0
161 184 0
171 194 0
166 186 0
166 189 0
165 186 0
167 190 0
168 191 0
162 183 0
163 185 0
166 187 0
164 187 0
171 194 0
167 189 0
168 190 0
169 190 0
165 187 0
166 188 0
165 188 0
169 193 0
168 189 0
168 191 0
170 192 0
170 193 0
169 193 0
168 190 0
169 192 0
171 193 0
169 191 0
169 191 0
167 190 0
167 189 0
170 192 0
171 195 0
168 190 0
168 192 0
164 186 0
172 194 0
168 190 0
172 194 0
170 194 0
167 189 0
170 192 0
170 192 0
170 193 0
167 191 0
165 189 0
172 194 0
171 194 0
169 192 0
169 191 0
167 189 0
170 192 0
169 191 0
170 193 0
169 193 0
171 194 0
170 192 0
169 192 0
171 194 0
169 192 0
168 190 0
173 195 0
169 193 0
174 195 0
170 193 0
172 195 0
171 194 0
169 192 0
170 193 0
171 193 0
171 194 0
172 196 0
172 196 0
168 192 0
171 195 0
169 192 0
173 196 0
173 196 0
172 196 0
174 196 0
174 197 0
171 194 0
168 191 0
170 193 0
175 198 0
171 194 0
173 195 0
171 193 0
171 195 0
172 195 0
171 195 0
174 198 0
172 196 0
172 195 0
166 188 0
164 187 0
166 190 0
169 191 0
167 190 0
166 190 0
169 193 0
163 187 0
167 191 0
169 193 0
164 187 0
163 187 0
167 191 0
161 184 0
165 189 0
164 188 0
160 182 0
165 189 0
167 191 0
159 182 0
164 186 0
164 187 0
167 190 0
158 181 0
164 187 0
162 185 0
163 185 0
165 187 0
162 184 0
161 185 0
165 188 0
166 190 0
160 182 0
153 175 0
162 185 0
156 178 0
166 188 0
160 182 0
158 180 0
157 178 0
150 172 0
167 189 0
149 171 0
154 175 0
160 182 0
159 181 0
152 173 0
147 168 0
148 170 0
143 166 0
153 176 0
148 170 0
151 173 0
152 173 0
145 166 0
154 176 0
155 177 0
159 181 0
154 175 0
149 170 0
149 171 0
147 169 0
143 165 0
153 175 0
144 165 0
157 179 0
156 177 0
156 178 0
153 175 0
157 180 0
161 183 0
159 180 0
151 173 0
146 168 0
155 177 0
151 172 0
160 182 0
158 181 0
161 182 0
150 172 0
156 179 0
162 184 0
159 181 0
163 185 0
160 182 0
164 186 0
168 190 0
162 185 0
161 184 0
166 189 0
164 187 0
163 185 0
168 191 0
166 189 0
164 188 0
169 192 0
170 193 0
187 207 135
211 227 228
169 192 57
167 190 0
163 186 0
159 182 0
162 184 0
167 190 0
160 182 0
159 181 0
159 181 0
159 182 0
156 179 0
158 181 0
162 184 0
163 185 0
163 186 0
162 183 0
161 184 0
163 186 0
157 180 0
159 181 0
159 181 0
155 177 0
158 180 0
160 183 0
158 180 0
156 178 0
160 182 0
160 183 0
153 175 0
160 183 0
156 178 0
152 174 0
158 180 0
154 176 0
162 184 0
152 173 0
152 174 0
158 179 0
149 170 0
153 174 0
152 172 0
143 164 0
153 175 0
151 173 0
155 175 0
152 174 0
148 169 0
151 173 0
148 171 0
154 176 0
148 169 0
152 174 0
150 171 0
153 174 0
142 162 0
149 170 0
150 171 0
144 165 0
150 172 0
143 164 0
141 163 0
146 167 0
155 176 0
148 170 0
145 166 0
138 159 0
144 165 0
142 164 0
138 160 0
149 171 0
134 156 0
134 154 0
138 158 0
144 165 0
131 152 0
137 159 0
151 173 0
141 163 0
142 164 0
144 166 0
144 165 0
140 161 0
135 156 0
142 164 0
142 163 0
144 166 0
141 162 0
134 155 0
133 154 0
143 163 0
137 159 0
133 155 0
132 154 0
148 169 0
142 163 0
140 162 0
143 164 0
140 161 0
144 165 0
143 164 0
135 155 0
135 156 0
135 154 0
144 164 0
147 169 0
145 167 0
147 168 0
134 155 0
145 167 0
151 172 0
130 150 0
145 165 0
136 157 0
153 174 0
145 167 0
148 170 0
141 161 0
143 165 0
147 168 0
150 171 0
146 168 0
153 174 0
144 165 0
148 170 0
142 163 0
146 169 0
144 166 0
145 167 0
151 172 0
152 173 0
154 176 0
152 174 0
147 169 0
153 175 0
149 171 0
155 177 0
154 175 0
150 172 0
142 164 0
153 175 0
150 172 0
153 175 0
154 174 0
159 182 0
159 181 0
153 174 0
152 173 0
153 175 0
154 176 0
150 172 0
159 182 0
156 179 0
152 175 0
153 176 0
163 184 0
158 181 0
154 174 0
153 175 0
156 177 0
157 179 0
153 176 0
161 183 0
158 180 0
154 176 0
160 180 0
155 178 0
161 182 0
160 181 0
156 178 0
155 177 0
159 182 0
158 179 0
157 181 0
159 180 0
164 186 0
163 185 0
163 185 0
161 182 0
160 182 0
163 185 0
158 180 0
156 179 0
160 182 0
165 187 0
163 185 0
165 186 0
165 187 0
161 183 0
163 186 0
161 184 0
167 188 0
163 185 0
160 182 0
164 185 0
165 187 0
167 189 0
166 187 0
163 185 0
163 184 0
163 185 0
161 183 0
166 187 0
164 188 0
166 189 0
171 194 0
164 187 0
166 189 0
167 189 0
166 189 0
163 185 0
167 189 0
164 186 0
165 188 0
165 187 0
161 183 0
165 187 0
162 184 0
166 188 0
166 188 0
170 192 0
165 187 0
167 188 0
164 186 0
167 189 0
170 192 0
167 189 0
165 188 0
168 190 0
168 190 0
171 193 0
168 191 0
173 197 0
169 192 0
164 188 0
168 192 0
171 193 0
167 188 0
166 187 0
169 191 0
167 191 0
166 188 0
166 190 0
170 193 0
169 192 0
169 191 0
167 190 0
168 190 0
168 191 0
169 192 0
167 189 0
171 194 0
171 193 0
171 193 0
170 193 0
170 193 0
168 192 0
168 191 0
167 189 0
172 195 0
172 195 0
172 194 0
171 194 0
171 194 0
169 193 0
174 196 0
167 191 0
172 193 0
169 192 0
172 195 0
171 192 0
173 197 0
170 193 0
171 195 0
172 195 0
173 196 0
173 196 0
171 193 0
170 193 0
173 196 0
171 194 0
168 190 0
171 194 0
171 194 0
170 194 0
171 195 0
172 195 0
173 196 0
171 194 0
173 195 0
173 195 0
172 195 0
173 196 0
172 195 0
171 194 0
171 194 0
172 195 0
172 195 0
170 193 0
171 195 0
168 191 0
173 196 0
168 191 0
167 190 0
162 186 0
168 191 0
172 195 0
167 191 0
167 191 0
166 189 0
165 188 0
163 186 0
167 190 0
169 192 0
168 191 0
163 187 0
162 185 0
162 185 0
158 182 0
168 190 0
163 187 0
168 191 0
165 189 0
163 187 0
161 185 0
168 190 0
163 185 0
163 186 0
168 191 0
159 182 0
164 186 0
162 184 0
163 185 0
161 184 0
162 184 0
164 187 0
160 182 0
163 186 0
158 181 0
160 182 0
163 185 0
159 181 0
155 177 0
162 184 0
163 185 0
158 180 0
155 177 0
156 177 0
150 171 0
147 168 0
155 177 0
145 165 0
149 170 0
142 163 0
155 176 0
156 178 0
149 169 0
154 175 0
150 172 0
158 179 0
156 177 0
149 171 0
153 175 0
154 176 0
149 170 0
153 175 0
155 177 0
156 178 0
163 185 0
158 180 0
158 179 0
158 180 0
159 181 0
160 182 0
159 181 0
159 180 0
155 176 0
154 175 0
160 180 0
160 182 0
161 184 0
158 180 0
156 179 0
163 185 0
155 177 0
158 180 0
157 179 0
161 183 0
154 177 0
159 181 0
165 187 0
161 184 0
162 185 0
169 192 0
168 192 0
166 189 0
167 189 0
171 194 0
181 203 99
212 228 233
166 187 99
169 191 0
166 188 0
167 190 0
165 188 0
161 183 0
165 188 0
158 181 0
162 184 0
153 175 0
162 184 0
163 186 0
165 187 0
153 175 0
167 190 0
160 183 0
161 184 0
164 186 0
154 177 0
166 188 0
160 182 0
159 181 0
156 178 0
156 179 0
163 184 0
157 179 0
156 177 0
146 168 0
157 178 0
164 185 0
152 174 0
155 176 0
152 172 0
151 172 0
157 179 0
154 175 0
153 175 0
157 179 0
158 180 0
153 175 0
150 171 0
154 175 0
155 176 0
156 177 0
147 168 0
149 170 0
149 171 0
149 170 0
157 179 0
147 169 0
150 171 0
153 176 0
145 166 0
154 177 0
148 168 0
154 175 0
145 167 0
145 167 0
154 177 0
140 161 0
141 162 0
150 171 0
150 172 0
143 165 0
141 161 0
149 171 0
151 173 0
143 162 0
148 169 0
139 160 0
139 160 0
151 173 0
138 159 0
141 162 0
148 170 0
147 169 0
148 170 0
138 159 0
142 162 0
140 161 0
141 163 0
144 165 0
144 165 0
140 162 0
143 165 0
146 168 0
148 169 0
144 166 0
140 161 0
127 148 0
141 162 0
132 154 0
147 168 0
136 158 0
145 167 0
132 153 0
143 164 0
141 162 0
147 169 0
151 172 0
136 156 0
138 159 0
147 169 0
143 164 0
136 157 0
138 160 0
142 163 0
148 170 0
140 161 0
141 162 0
152 174 0
149 171 0
142 163 0
152 173 0
148 170 0
133 154 0
150 172 0
143 165 0
143 165 0
142 164 0
155 177 0
150 173 0
151 171 0
148 169 0
152 175 0
150 172 0
153 174 0
149 171 0
157 179 0
153 175 0
153 173 0
152 174 0
153 176 0
153 174 0
154 177 0
146 169 0
148 170 0
151 174 0
152 174 0
148 170 0
151 173 0
154 175 0
151 173 0
158 180 0
154 176 0
157 179 0
156 179 0
150 172 0
158 181 0
161 182 0
157 179 0
153 175 0
154 175 0
154 175 0
158 179 0
155 177 0
158 180 0
154 176 0
160 182 0
161 183 0
158 180 0
159 181 0
151 173 0
154 174 0
159 181 0
161 184 0
163 185 0
152 175 0
162 184 0
158 179 0
158 180 0
156 178 0
165 186 0
165 187 0
164 187 0
162 185 0
160 181 0
157 180 0
158 181 0
163 185 0
158 179 0
162 184 0
163 186 0
161 183 0
169 191 0
164 187 0
161 183 0
160 182 0
161 183 0
163 185 0
164 187 0
159 181 0
162 184 0
164 185 0
166 187 0
170 192 0
162 185 0
164 187 0
167 190 0
164 186 0
168 191 0
161 182 0
166 189 0
167 188 0
162 183 0
160 182 0
165 185 0
170 192 0
164 185 0
166 188 0
165 187 0
163 186 0
168 191 0
162 184 0
164 186 0
168 189 0
165 188 0
162 184 0
167 188 0
169 190 0
167 189 0
169 191 0
168 191 0
167 188 0
163 186 0
164 186 0
168 189 0
169 191 0
168 190 0
167 190 0
168 190 0
168 190 0
168 190 0
169 191 0
169 192 0
168 191 0
170 193 0
170 191 0
166 189 0
172 194 0
169 192 0
169 190 0
169 191 0
172 196 0
171 194 0
172 194 0
168 190 0
168 190 0
172 195 0
166 188 0
169 192 0
171 194 0
168 190 0
169 192 0
170 192 0
168 191 0
170 193 0
168 191 0
173 196 0
172 195 0
170 193 0
173 195 0
168 190 0
169 192 0
169 192 0
170 192 0
173 196 0
172 194 0
171 194 0
174 196 0
168 189 0
174 197 0
173 196 0
170 193 0
172 195 0
171 194 0
171 194 0
171 194 0
169 193 0
169 192 0
173 197 0
169 192 0
169 194 0
170 192 0
172 194 0
171 194 0
172 195 0
170 193 0
173 196 0
171 194 0
170 193 0
172 194 0
173 196 0
175 197 0
171 193 0
172 195 0
172 195 0
172 196 0
172 195 0
173 196 0
171 194 0
173 196 0
169 193 0
163 186 0
167 191 0
167 190 0
165 189 0
168 191 0
161 184 0
167 190 0
167 191 0
167 191 0
161 184 0
165 188 0
167 190 0
165 187 0
166 188 0
169 191 0
160 183 0
170 192 0
165 189 0
164 186 0
169 191 0
165 186 0
159 182 0
162 184 0
162 185 0
162 185 0
163 186 0
165 187 0
164 185 0
162 185 0
158 180 0
162 185 0
163 185 0
160 181 0
157 179 0
163 185 0
162 184 0
163 185 0
157 180 0
159 182 0
155 176 0
157 180 0
163 184 0
151 173 0
155 177 0
149 171 0
158 180 0
153 174 0
150 172 0
149 170 0
156 177 0
154 175 0
149 170 0
152 173 0
148 169 0
151 173 0
143 163 0
156 177 0
146 168 0
153 174 0
161 183 0
158 179 0
145 167 0
147 168 0
153 175 0
155 176 0
153 174 0
157 178 0
155 177 0
155 178 0
154 176 0
148 171 0
157 179 0
159 180 0
159 181 0
149 170 0
150 172 0
162 184 0
165 187 0
156 178 0
159 179 0
156 178 0
163 184 0
159 181 0
160 182 0
160 182 0
160 182 0
161 183 0
161 184 0
162 184 0
171 194 0
166 189 0
168 191 0
169 193 0
171 194 0
179 201 76
213 229 234
175 196 120
161 184 0
163 186 0
160 183 0
164 187 0
163 185 0
161 184 0
165 187 0
162 184 0
161 183 0
161 183 0
157 180 0
156 178 0
165 187 0
150 173 0
163 186 0
165 186 0
162 185 0
158 180 0
165 186 0
160 182 0
160 182 0
161 184 0
159 181 0
158 180 0
159 181 0
154 176 0
156 177 0
157 178 0
148 170 0
154 176 0
151 173 0
153 175 0
152 173 0
162 184 0
162 184 0
149 171 0
153 174 0
153 175 0
152 174 0
139 161 0
148 169 0
153 174 0
147 169 0
138 160 0
153 174 0
157 178 0
151 173 0
147 168 0
145 167 0
151 174 0
147 168 0
149 170 0
150 171 0
146 167 0
157 178 0
147 168 0
141 163 0
149 170 0
146 168 0
154 176 0
147 169 0
132 154 0
150 172 0
148 170 0
142 163 0
142 163 0
142 164 0
151 173 0
141 162 0
130 151 0
150 171 0
152 173 0
140 162 0
142 164 0
150 171 0
142 163 0
139 161 0
143 165 0
147 169 0
137 160 0
147 168 0
131 152 0
138 160 0
143 165 0
142 163 0
146 168 0
150 171 0
139 161 0
139 160 0
139 161 0
148 169 0
152 174 0
144 166 0
135 156 0
143 165 0
142 163 0
145 166 0
148 169 0
147 168 0
145 166 0
141 161 0
141 163 0
145 166 0
136 158 0
142 164 0
151 174 0
140 162 0
150 171 0
146 168 0
149 171 0
148 168 0
152 174 0
148 170 0
144 166 0
150 171 0
140 161 0
149 171 0
153 175 0
150 171 0
158 180 0
146 167 0
143 165 0
152 174 0
149 171 0
147 169 0
147 169 0
148 169 0
154 175 0
151 172 0
151 172 0
143 165 0
150 173 0
152 174 0
151 172 0
153 176 0
154 177 0
153 175 0
155 176 0
152 174 0
150 172 0
158 180 0
153 176 0
152 174 0
154 176 0
152 175 0
154 175 0
158 181 0
153 175 0
163 186 0
154 175 0
156 177 0
160 182 0
150 173 0
153 174 0
151 173 0
162 184 0
158 180 0
161 184 0
160 182 0
150 172 0
156 178 0
161 185 0
160 181 0
160 182 0
162 183 0
158 179 0
157 179 0
156 178 0
164 187 0
154 175 0
163 187 0
161 182 0
161 183 0
165 188 0
164 186 0
157 179 0
159 181 0
159 181 0
162 185 0
162 183 0
160 181 0
164 186 0
161 184 0
161 183 0
163 184 0
159 180 0
164 185 0
164 186 0
164 186 0
163 185 0
166 187 0
163 186 0
159 181 0
161 182 0
165 187 0
166 188 0
162 185 0
161 183 0
162 186 0
168 191 0
164 186 0
167 191 0
164 187 0
166 189 0
167 189 0
162 185 0
164 186 0
166 189 0
164 185 0
164 185 0
164 187 0
167 189 0
170 193 0
166 189 0
162 183 0
169 192 0
169 192 0
169 192 0
169 190 0
166 188 0
170 193 0
166 188 0
168 189 0
168 190 0
167 189 0
169 191 0
165 186 0
163 185 0
165 189 0
171 194 0
163 185 0
169 190 0
170 192 0
169 191 0
170 192 0
166 188 0
170 192 0
165 188 0
170 192 0
167 189 0
171 193 0
168 190 0
171 195 0
166 190 0
171 194 0
171 194 0
169 192 0
169 193 0
170 194 0
173 195 0
167 189 0
168 192 0
167 189 0
168 191 0
170 192 0
167 189 0
172 195 0
172 195 0
170 193 0
170 193 0
171 194 0
172 195 0
172 195 0
169 192 0
171 193 0
172 194 0
170 193 0
171 194 0
170 192 0
172 195 0
171 193 0
173 196 0
172 195 0
171 193 0
171 194 0
166 189 0
169 192 0
169 191 0
170 192 0
170 193 0
171 195 0
172 195 0
173 196 0
171 195 0
169 191 0
171 193 0
169 193 0
171 194 0
172 195 0
174 197 0
171 194 0
172 194 0
173 196 0
173 195 0
174 196 0
172 195 0
173 196 0
173 196 0
172 194 0
172 196 0
174 197 0
172 196 0
167 190 0
169 192 0
168 192 0
169 193 0
162 185 0
165 188 0
164 186 0
165 188 0
166 190 0
165 188 0
164 186 0
165 188 0
165 189 0
167 189 0
171 194 0
158 181 0
166 189 0
162 185 0
158 181 0
164 186 0
163 186 0
166 190 0
166 188 0
167 190 0
166 188 0
163 186 0
162 184 0
164 187 0
165 188 0
164 187 0
165 187 0
161 184 0
162 184 0
157 180 0
161 184 0
153 175 0
165 187 0
159 181 0
157 179 0
163 185 0
157 179 0
150 171 0
153 175 0
149 170 0
154 176 0
152 174 0
151 173 0
151 173 0
161 182 0
151 172 0
147 169 0
154 175 0
154 176 0
157 178 0
151 172 0
147 168 0
153 175 0
155 176 0
152 173 0
156 178 0
153 175 0
151 172 0
152 173 0
158 180 0
152 174 0
154 175 0
156 178 0
154 176 0
159 181 0
158 179 0
155 177 0
158 180 0
157 180 0
158 180 0
149 171 0
151 173 0
152 173 0
158 179 0
159 181 0
156 177 0
160 182 0
148 170 0
160 183 0
157 179 0
164 185 0
159 181 0
159 182 0
156 179 0
161 184 0
160 184 0
167 190 0
166 188 0
172 195 0
171 194 0
174 197 67
213 228 227
175 195 133
166 188 0
164 187 0
165 188 0
166 189 0
167 189 0
165 187 0
163 185 0
160 183 0
161 183 0
160 182 0
165 188 0
159 180 0
160 183 0
164 186 0
164 186 0
158 180 0
157 178 0
158 179 0
160 181 0
160 181 0
162 184 0
156 178 0
150 173 0
152 174 0
157 178 0
159 181 0
156 177 0
154 176 0
157 179 0
149 171 0
159 181 0
154 175 0
151 173 0
150 171 0
153 174 0
164 184 0
154 175 0
147 168 0
155 177 0
157 178 0
151 172 0
152 174 0
151 172 0
159 180 0
143 165 0
151 172 0
156 177 0
151 172 0
146 167 0
157 179 0
153 174 0
153 174 0
150 172 0
149 171 0
158 180 0
147 169 0
140 161 0
149 170 0
150 172 0
150 172 0
139 160 0
147 169 0
150 172 0
150 171 0
143 164 0
142 164 0
136 157 0
141 163 0
144 165 0
144 166 0
149 170 0
146 168 0
150 172 0
150 172 0
152 174 0
145 166 0
142 163 0
144 166 0
137 158 0
144 165 0
143 164 0
140 162 0
149 170 0
149 171 0
147 168 0
142 163 0
140 162 0
148 170 0
138 159 0
145 166 0
138 158 0
142 164 0
145 167 0
143 166 0
145 166 0
152 175 0
147 170 0
153 173 0
141 163 0
145 168 0
144 165 0
143 164 0
135 157 0
143 164 0
144 165 0
143 164 0
146 168 0
152 174 0
144 166 0
134 155 0
151 173 0
145 166 0
142 164 0
138 160 0
146 167 0
147 169 0
140 161 0
149 169 0
143 165 0
150 171 0
156 176 0
146 167 0
148 170 0
148 170 0
147 169 0
155 176 0
149 171 0
150 170 0
156 178 0
149 170 0
141 162 0
150 172 0
154 175 0
149 170 0
156 179 0
146 167 0
152 175 0
151 174 0
157 180 0
149 172 0
153 175 0
154 177 0
153 175 0
153 175 0
165 187 0
157 179 0
151 173 0
160 183 0
160 183 0
154 177 0
157 180 0
165 188 0
163 185 0
151 173 0
149 171 0
158 179 0
156 177 0
162 184 0
162 184 0
158 180 0
160 182 0
162 186 0
157 179 0
154 175 0
153 175 0
161 183 0
156 177 0
161 182 0
158 179 0
159 180 0
165 189 0
159 179 0
156 177 0
159 182 0
158 177 0
162 183 0
164 187 0
165 187 0
161 182 0
168 190 0
161 183 0
165 187 0
161 183 0
163 186 0
157 180 0
157 179 0
164 186 0
162 185 0
161 183 0
162 186 0
166 189 0
161 182 0
166 189 0
159 181 0
164 187 0
165 188 0
169 191 0
165 188 0
169 191 0
165 187 0
161 184 0
165 186 0
166 189 0
168 192 0
163 184 0
167 189 0
167 189 0
169 192 0
166 188 0
165 186 0
164 186 0
170 194 0
168 190 0
170 193 0
164 186 0
168 190 0
167 189 0
168 190 0
166 187 0
168 191 0
167 190 0
164 185 0
167 190 0
169 191 0
171 193 0
170 192 0
167 189 0
170 193 0
169 191 0
170 192 0
170 191 0
168 191 0
166 190 0
163 186 0
169 192 0
165 187 0
167 190 0
169 191 0
167 189 0
167 190 0
169 190 0
169 192 0
167 190 0
169 192 0
165 188 0
171 194 0
165 189 0
165 186 0
168 191 0
169 192 0
167 191 0
168 191 0
170 192 0
169 192 0
168 191 0
168 190 0
173 196 0
170 192 0
170 193 0
171 195 0
172 195 0
171 192 0
170 192 0
169 192 0
169 193 0
171 193 0
171 194 0
170 192 0
170 193 0
173 195 0
169 192 0
172 193 0
171 195 0
169 192 0
170 193 0
172 195 0
173 196 0
171 195 0
172 194 0
173 197 0
173 195 0
171 194 0
171 194 0
172 194 0
172 195 0
174 197 0
173 195 0
169 193 0
170 195 0
171 194 0
172 195 0
172 195 0
172 195 0
173 196 0
171 192 0
168 190 0
169 193 0
173 196 0
172 194 0
173 197 0
171 195 0
173 195 0
173 196 0
168 191 0
168 191 0
169 192 0
170 193 0
168 192 0
170 192 0
164 187 0
160 183 0
166 188 0
168 192 0
166 188 0
160 184 0
168 190 0
164 186 0
161 183 0
165 187 0
162 185 0
162 184 0
169 191 0
163 185 0
164 187 0
169 192 0
161 183 0
168 191 0
165 188 0
164 186 0
161 183 0
164 186 0
161 183 0
162 185 0
166 188 0
163 185 0
159 181 0
158 180 0
160 183 0
158 180 0
162 184 0
165 187 0
153 175 0
158 180 0
159 181 0
158 180 0
157 179 0
157 179 0
151 173 0
148 171 0
149 170 0
145 167 0
153 174 0
152 173 0
149 170 0
158 179 0
152 175 0
153 175 0
158 179 0
149 170 0
155 176 0
149 171 0
153 174 0
158 179 0
153 175 0
160 182 0
156 177 0
157 178 0
159 180 0
160 181 0
161 182 0
149 170 0
153 175 0
157 179 0
154 176 0
155 178 0
156 178 0
155 176 0
154 176 0
161 183 0
155 177 0
158 178 0
165 186 0
155 177 0
159 180 0
159 181 0
163 185 0
156 178 0
157 178 0
160 182 0
157 179 0
163 186 0
163 186 0
168 190 0
171 194 0
172 195 0
170 194 0
173 196 57
209 225 215
191 211 153
163 185 0
163 186 0
158 180 0
162 185 0
161 184 0
162 185 0
163 185 0
165 186 0
155 178 0
162 183 0
161 183 0
159 181 0
159 181 0
163 185 0
158 180 0
160 182 0
154 175 0
158 180 0
163 184 0
162 184 0
157 179 0
159 181 0
160 181 0
161 182 0
160 182 0
153 175 0
155 178 0
160 181 0
159 181 0
152 174 0
154 176 0
145 166 0
158 180 0
152 174 0
159 181 0
154 177 0
149 172 0
153 174 0
154 176 0
151 172 0
145 167 0
159 181 0
138 159 0
153 175 0
160 182 0
152 173 0
148 169 0
153 175 0
149 171 0
145 167 0
149 171 0
153 175 0
146 167 0
145 167 0
149 171 0
145 167 0
149 170 0
145 167 0
147 168 0
140 162 0
154 176 0
147 168 0
147 168 0
149 171 0
140 162 0
151 172 0
152 174 0
144 166 0
149 171 0
151 173 0
149 170 0
140 163 0
144 165 0
148 170 0
137 159 0
138 160 0
150 171 0
143 166 0
145 167 0
129 151 0
148 170 0
152 173 0
135 157 0
150 172 0
141 162 0
146 168 0
150 171 0
143 165 0
145 167 0
152 174 0
142 163 0
133 153 0
146 167 0
144 166 0
142 163 0
147 169 0
145 166 0
148 170 0
142 163 0
143 165 0
136 158 0
149 171 0
142 164 0
146 168 0
141 163 0
146 168 0
144 166 0
153 175 0
151 173 0
148 170 0
144 166 0
149 171 0
153 176 0
146 168 0
142 165 0
152 174 0
159 182 0
142 165 0
146 167 0
147 170 0
152 174 0
150 172 0
155 178 0
147 168 0
154 176 0
148 170 0
146 169 0
149 171 0
152 175 0
154 176 0
150 171 0
151 172 0
156 177 0
138 158 0
150 171 0
151 172 0
159 182 0
155 176 0
149 171 0
157 179 0
154 176 0
153 175 0
159 182 0
156 179 0
157 178 0
158 182 0
157 179 0
157 178 0
155 178 0
152 175 0
156 179 0
158 180 0
160 183 0
153 174 0
153 175 0
159 181 0
161 184 0
156 178 0
155 177 0
155 176 0
160 183 0
158 180 0
158 180 0
161 183 0
158 180 0
167 190 0
160 183 0
161 184 0
164 187 0
160 183 0
164 186 0
159 181 0
158 180 0
164 186 0
157 177 0
161 184 0
166 188 0
160 181 0
168 191 0
159 181 0
156 177 0
169 192 0
161 184 0
158 179 0
163 187 0
165 188 0
162 185 0
163 184 0
164 185 0
164 186 0
164 186 0
165 187 0
160 184 0
167 190 0
166 188 0
168 191 0
167 188 0
165 187 0
167 190 0
168 190 0
165 188 0
166 187 0
164 187 0
166 188 0
166 187 0
163 186 0
163 186 0
165 187 0
163 184 0
165 186 0
166 189 0
171 192 0
166 189 0
166 187 0
169 190 0
160 183 0
161 182 0
169 193 0
170 192 0
169 192 0
166 189 0
168 189 0
168 190 0
170 192 0
167 189 0
162 184 0
163 185 0
167 187 0
167 190 0
165 187 0
166 189 0
166 188 0
168 191 0
165 186 0
168 191 0
166 188 0
170 193 0
166 188 0
168 191 0
170 192 0
168 191 0
168 189 0
167 189 0
168 191 0
168 191 0
167 189 0
171 194 0
167 190 0
168 191 0
171 195 0
168 190 0
175 197 0
171 193 0
173 196 0
169 192 0
170 193 0
170 193 0
172 195 0
166 188 0
170 193 0
165 187 0
173 195 0
172 195 0
170 192 0
171 194 0
171 194 0
173 195 0
169 192 0
173 196 0
169 192 0
173 195 0
170 193 0
170 192 0
168 192 0
170 192 0
169 192 0
170 193 0
173 196 0
170 193 0
171 194 0
167 189 0
172 194 0
172 195 0
171 194 0
172 195 0
167 190 0
171 195 0
172 195 0
171 193 0
175 197 0
172 195 0
173 195 0
168 191 0
172 195 0
172 195 0
170 193 0
170 194 0
171 195 0
173 196 0
170 193 0
171 194 0
171 194 0
171 195 0
170 193 0
170 194 0
166 188 0
166 189 0
167 190 0
159 182 0
168 191 0
167 189 0
166 190 0
166 188 0
165 189 0
166 189 0
166 190 0
161 183 0
164 187 0
165 188 0
164 188 0
167 189 0
167 189 0
167 189 0
164 187 0
164 185 0
164 187 0
166 188 0
168 190 0
161 183 0
157 179 0
160 182 0
162 185 0
162 185 0
158 180 0
163 185 0
160 182 0
157 179 0
157 179 0
163 185 0
157 178 0
158 179 0
154 177 0
158 180 0
160 182 0
152 173 0
153 176 0
150 170 0
160 181 0
157 178 0
162 184 0
162 183 0
159 180 0
146 168 0
156 178 0
155 177 0
156 177 0
150 171 0
155 176 0
155 176 0
157 179 0
147 169 0
148 170 0
154 176 0
152 173 0
152 174 0
155 176 0
161 183 0
153 176 0
155 176 0
149 171 0
161 184 0
160 181 0
168 190 0
158 180 0
160 181 0
161 184 0
157 178 0
159 181 0
153 173 0
156 179 0
161 183 0
159 181 0
159 181 0
161 182 0
164 187 0
164 186 0
155 177 0
161 183 0
160 183 0
158 180 0
165 189 0
168 191 0
164 187 0
166 190 0
164 187 0
166 189 0
172 195 44
208 225 212
185 203 171
160 183 0
167 189 0
163 186 0
163 184 0
161 183 0
156 179 0
160 182 0
159 182 0
161 183 0
161 183 0
158 180 0
162 183 0
158 179 0
160 180 0
162 183 0
153 175 0
158 179 0
159 181 0
158 179 0
164 185 0
158 179 0
161 183 0
162 182 0
164 186 0
158 180 0
159 181 0
160 182 0
162 183 0
152 174 0
158 181 0
158 179 0
162 183 0
147 169 0
147 170 0
153 175 0
153 175 0
155 177 0
157 178 0
147 168 0
156 178 0
148 169 0
155 176 0
159 180 0
150 171 0
146 168 0
149 171 0
150 173 0
158 180 0
148 170 0
147 169 0
151 172 0
145 167 0
151 171 0
152 175 0
151 173 0
150 172 0
154 177 0
149 170 0
139 161 0
147 169 0
145 166 0
148 169 0
146 168 0
145 167 0
151 173 0
150 171 0
155 177 0
135 156 0
150 171 0
154 176 0
147 168 0
146 167 0
144 166 0
150 172 0
143 165 0
157 180 0
144 165 0
149 171 0
142 164 0
139 161 0
138 159 0
143 165 0
150 171 0
147 169 0
143 164 0
150 172 0
141 162 0
136 157 0
135 157 0
144 165 0
147 169 0
140 161 0
141 161 0
149 172 0
147 168 0
141 161 0
146 167 0
143 164 0
141 162 0
148 169 0
154 176 0
146 169 0
141 163 0
148 169 0
146 167 0
146 168 0
145 168 0
145 166 0
152 174 0
147 168 0
136 157 0
155 177 0
141 162 0
149 170 0
150 171 0
138 159 0
150 171 0
150 173 0
150 171 0
149 171 0
148 169 0
150 170 0
148 171 0
146 168 0
151 171 0
155 176 0
155 177 0
154 177 0
153 174 0
156 177 0
153 175 0
155 178 0
154 177 0
152 174 0
148 171 0
159 182 0
153 176 0
157 179 0
157 179 0
153 174 0
156 179 0
153 176 0
150 170 0
154 175 0
156 179 0
159 181 0
148 170 0
152 174 0
152 175 0
152 175 0
150 172 0
153 175 0
158 180 0
153 175 0
156 178 0
155 178 0
151 173 0
160 183 0
162 184 0
156 178 0
162 186 0
159 181 0
156 179 0
161 182 0
158 180 0
157 179 0
168 191 0
157 180 0
161 184 0
161 182 0
163 184 0
159 181 0
164 186 0
158 181 0
160 182 0
161 182 0
161 183 0
160 182 0
158 179 0
163 184 0
165 188 0
155 176 0
165 188 0
168 190 0
162 184 0
159 181 0
165 188 0
166 187 0
169 191 0
160 182 0
165 188 0
160 183 0
159 180 0
165 187 0
162 185 0
167 189 0
166 188 0
163 186 0
164 186 0
165 186 0
163 186 0
167 189 0
160 182 0
163 186 0
166 188 0
166 188 0
165 187 0
166 188 0
166 188 0
165 187 0
163 186 0
164 187 0
164 186 0
165 188 0
163 185 0
168 190 0
164 187 0
163 187 0
164 185 0
165 187 0
164 186 0
170 192 0
166 188 0
170 192 0
168 191 0
167 189 0
165 187 0
167 189 0
168 190 0
166 188 0
166 188 0
166 189 0
169 192 0
168 190 0
165 187 0
168 191 0
167 188 0
170 192 0
168 192 0
170 192 0
171 194 0
170 192 0
170 192 0
166 190 0
168 189 0
169 190 0
170 193 0
166 189 0
165 188 0
168 191 0
169 192 0
167 190 0
168 190 0
167 189 0
171 193 0
171 194 0
169 193 0
168 191 0
170 192 0
171 194 0
169 191 0
166 189 0
172 194 0
167 190 0
171 194 0
173 194 0
169 191 0
168 191 0
170 193 0
165 188 0
174 197 0
170 192 0
170 193 0
171 194 0
170 192 0
169 191 0
171 194 0
172 195 0
171 194 0
171 194 0
170 192 0
173 195 0
171 194 0
172 195 0
170 193 0
171 194 0
169 192 0
170 193 0
172 195 0
170 194 0
172 195 0
168 191 0
172 195 0
172 194 0
171 194 0
172 196 0
172 194 0
171 194 0
172 194 0
173 197 0
173 196 0
174 197 0
171 193 0
173 197 0
170 193 0
167 191 0
167 191 0
171 194 0
162 185 0
168 191 0
170 193 0
163 186 0
166 189 0
159 182 0
170 192 0
162 184 0
163 186 0
167 190 0
163 186 0
172 194 0
162 185 0
162 183 0
161 183 0
166 188 0
165 186 0
155 178 0
166 189 0
161 183 0
160 182 0
165 187 0
165 187 0
158 180 0
162 184 0
162 184 0
159 181 0
159 181 0
158 179 0
155 176 0
156 178 0
164 186 0
164 186 0
155 177 0
159 181 0
149 170 0
156 177 0
151 172 0
146 168 0
151 173 0
155 176 0
150 172 0
159 180 0
156 177 0
155 178 0
156 178 0
141 162 0
147 169 0
162 183 0
153 175 0
160 181 0
153 175 0
155 177 0
155 177 0
162 182 0
156 177 0
149 171 0
152 173 0
155 177 0
158 181 0
151 172 0
162 183 0
155 177 0
156 177 0
158 180 0
158 179 0
150 171 0
163 185 0
152 174 0
159 181 0
162 184 0
160 182 0
163 185 0
159 182 0
155 177 0
162 184 0
163 184 0
158 180 0
162 184 0
157 179 0
163 185 0
161 183 0
159 181 0
166 189 0
167 189 0
167 190 0
171 194 0
171 194 0
174 197 51
211 227 220
190 209 171
162 185 0
167 190 0
154 176 0
153 176 0
161 183 0
165 187 0
167 189 0
156 178 0
158 180 0
158 180 0
157 179 0
163 185 0
162 183 0
160 183 0
161 183 0
161 182 0
162 184 0
160 182 0
155 177 0
155 177 0
164 186 0
154 175 0
154 176 0
161 183 0
155 176 0
160 180 0
154 175 0
159 181 0
152 174 0
160 181 0
153 175 0
156 177 0
156 178 0
156 179 0
149 170 0
156 178 0
152 174 0
154 175 0
156 177 0
152 173 0
157 178 0
155 177 0
163 185 0
152 174 0
160 180 0
153 174 0
152 173 0
152 174 0
151 171 0
153 176 0
154 176 0
160 180 0
146 168 0
146 167 0
143 164 0
154 176 0
146 168 0
142 163 0
145 167 0
153 175 0
146 167 0
157 179 0
155 177 0
144 167 0
152 174 0
150 172 0
153 175 0
149 170 0
140 162 0
152 173 0
145 168 0
137 159 0
135 157 0
151 172 0
145 166 0
141 162 0
149 170 0
146 167 0
145 166 0
143 165 0
144 166 0
145 168 0
153 174 0
146 168 0
150 172 0
149 171 0
137 159 0
143 165 0
146 168 0
146 169 0
149 170 0
139 162 0
155 176 0
148 170 0
145 166 0
144 165 0
138 160 0
147 169 0
155 176 0
140 160 0
143 165 0
146 167 0
144 165 0
147 169 0
147 169 0
140 161 0
153 176 0
148 170 0
145 166 0
147 169 0
149 170 0
150 172 0
152 174 0
148 170 0
153 174 0
154 176 0
154 177 0
146 168 0
144 166 0
146 167 0
151 171 0
151 173 0
150 171 0
153 174 0
151 173 0
157 179 0
154 176 0
146 169 0
154 175 0
153 176 0
152 174 0
153 176 0
143 165 0
154 175 0
150 172 0
148 170 0
150 173 0
151 173 0
157 181 0
157 180 0
155 176 0
154 177 0
158 180 0
159 181 0
154 176 0
160 183 0
156 178 0
157 180 0
161 182 0
152 175 0
147 169 0
152 173 0
161 183 0
160 183 0
159 181 0
158 180 0
159 182 0
158 180 0
155 177 0
159 181 0
153 174 0
162 185 0
155 178 0
167 189 0
162 184 0
156 178 0
162 184 0
158 180 0
156 179 0
158 179 0
166 188 0
163 185 0
160 182 0
169 191 0
160 182 0
159 181 0
163 187 0
162 183 0
166 187 0
162 184 0
160 183 0
162 184 0
164 186 0
161 184 0
165 189 0
160 182 0
163 186 0
165 187 0
163 185 0
166 189 0
165 187 0
166 188 0
161 182 0
166 188 0
165 188 0
160 183 0
167 189 0
162 184 0
168 191 0
167 188 0
169 191 0
164 187 0
167 190 0
159 181 0
167 189 0
163 185 0
169 193 0
169 191 0
167 189 0
167 190 0
167 190 0
164 186 0
166 187 0
167 190 0
163 184 0
165 187 0
164 186 0
165 188 0
165 187 0
164 187 0
168 190 0
170 193 0
164 186 0
163 186 0
167 189 0
166 187 0
169 192 0
166 189 0
167 188 0
165 188 0
167 190 0
169 191 0
167 189 0
169 192 0
169 192 0
165 188 0
167 190 0
166 189 0
168 190 0
168 190 0
169 192 0
163 184 0
174 197 0
169 192 0
170 194 0
164 187 0
167 189 0
172 195 0
167 190 0
170 193 0
168 192 0
172 194 0
168 189 0
173 197 0
170 192 0
171 193 0
172 194 0
168 191 0
167 189 0
171 194 0
171 194 0
168 191 0
168 192 0
168 190 0
169 191 0
167 189 0
172 195 0
170 193 0
167 191 0
170 193 0
168 190 0
171 194 0
170 193 0
169 192 0
171 192 0
167 191 0
172 195 0
167 189 0
169 191 0
171 193 0
171 194 0
169 192 0
171 194 0
170 193 0
174 197 0
171 195 0
174 195 0
173 197 0
172 196 0
173 196 0
169 193 0
172 194 0
170 192 0
170 195 0
173 197 0
172 194 0
173 195 0
170 193 0
171 194 0
172 194 0
173 196 0
171 193 0
172 196 0
175 198 0
173 195 0
172 195 0
164 186 0
167 189 0
166 190 0
164 187 0
166 188 0
166 189 0
165 188 0
168 191 0
162 185 0
165 187 0
163 185 0
162 186 0
160 182 0
165 188 0
163 186 0
162 185 0
164 187 0
165 188 0
161 183 0
169 192 0
168 191 0
164 186 0
160 182 0
160 182 0
163 184 0
161 184 0
161 183 0
163 184 0
166 189 0
160 181 0
160 182 0
160 182 0
156 176 0
160 182 0
155 177 0
158 179 0
157 178 0
155 176 0
156 177 0
145 167 0
159 181 0
152 173 0
149 171 0
160 182 0
153 174 0
152 173 0
158 179 0
150 171 0
151 171 0
150 172 0
150 172 0
158 180 0
158 179 0
159 180 0
149 169 0
157 178 0
157 178 0
160 181 0
148 168 0
162 183 0
166 187 0
157 179 0
153 175 0
156 177 0
153 175 0
161 181 0
151 174 0
157 179 0
159 181 0
154 175 0
161 183 0
159 181 0
157 179 0
161 183 0
157 179 0
160 181 0
161 183 0
167 188 0
157 179 0
157 179 0
158 181 0
164 186 0
164 187 0
162 183 0
161 183 0
163 184 0
167 190 0
164 186 0
172 195 0
167 191 0
173 197 44
209 226 218
185 204 159
158 179 0
157 179 0
168 190 0
162 184 0
161 182 0
163 184 0
162 184 0
158 179 0
161 183 0
165 187 0
166 189 0
159 180 0
160 182 0
159 181 0
157 179 0
157 179 0
157 178 0
163 184 0
157 179 0
157 179 0
160 181 0
161 183 0
153 176 0
159 180 0
155 177 0
158 179 0
152 173 0
154 175 0
154 176 0
159 181 0
156 177 0
149 171 0
158 179 0
158 179 0
152 174 0
158 179 0
155 177 0
156 178 0
154 176 0
145 167 0
153 174 0
151 173 0
152 173 0
160 181 0
151 173 0
152 173 0
150 171 0
161 183 0
158 180 0
154 176 0
150 172 0
150 172 0
147 168 0
155 177 0
150 171 0
152 173 0
154 175 0
150 171 0
154 175 0
146 168 0
157 178 0
148 169 0
150 170 0
138 159 0
155 177 0
141 162 0
138 160 0
143 165 0
149 171 0
147 169 0
151 172 0
147 169 0
152 173 0
149 171 0
148 169 0
149 170 0
146 168 0
157 179 0
147 170 0
137 159 0
142 164 0
144 167 0
149 171 0
139 160 0
149 171 0
148 170 0
145 167 0
143 166 0
143 165 0
136 157 0
136 158 0
148 169 0
147 168 0
150 172 0
149 172 0
138 160 0
145 167 0
138 161 0
153 174 0
143 165 0
151 172 0
146 167 0
153 175 0
142 164 0
151 173 0
151 172 0
153 175 0
145 166 0
140 163 0
153 175 0
149 171 0
147 170 0
145 167 0
142 164 0
151 173 0
145 166 0
158 180 0
155 177 0
153 175 0
155 177 0
151 174 0
153 175 0
150 171 0
150 173 0
153 176 0
159 182 0
144 165 0
153 174 0
147 170 0
150 172 0
157 179 0
158 180 0
151 174 0
161 183 0
156 178 0
155 177 0
156 179 0
155 178 0
158 180 0
158 179 0
151 173 0
153 176 0
154 174 0
160 182 0
153 176 0
154 177 0
165 188 0
152 173 0
163 185 0
151 174 0
154 177 0
157 179 0
160 182 0
160 182 0
156 178 0
159 182 0
158 180 0
159 181 0
159 181 0
160 183 0
153 174 0
158 181 0
159 182 0
162 183 0
156 178 0
162 185 0
166 189 0
155 179 0
162 183 0
162 185 0
163 185 0
160 182 0
159 181 0
163 186 0
157 179 0
161 183 0
163 184 0
168 190 0
162 184 0
169 191 0
162 185 0
164 186 0
166 188 0
164 185 0
156 178 0
163 186 0
164 185 0
165 187 0
165 186 0
161 183 0
163 186 0
165 188 0
159 182 0
161 182 0
166 189 0
161 183 0
168 191 0
163 184 0
163 186 0
158 179 0
160 183 0
158 180 0
166 188 0
165 186 0
161 183 0
163 185 0
166 188 0
168 190 0
166 189 0
167 189 0
167 189 0
167 191 0
164 186 0
170 191 0
164 187 0
164 186 0
167 189 0
169 192 0
162 185 0
168 190 0
168 189 0
167 188 0
166 190 0
170 192 0
170 193 0
164 186 0
167 190 0
169 192 0
166 189 0
164 186 0
167 190 0
167 189 0
167 189 0
170 192 0
166 187 0
171 194 0
168 191 0
168 191 0
169 193 0
168 190 0
170 191 0
167 189 0
172 194 0
169 192 0
164 187 0
170 193 0
168 190 0
171 192 0
168 190 0
167 189 0
166 189 0
169 191 0
170 192 0
169 189 0
172 194 0
167 190 0
171 194 0
171 194 0
167 190 0
167 190 0
167 189 0
173 196 0
169 191 0
172 195 0
172 194 0
171 194 0
171 195 0
168 189 0
171 194 0
170 193 0
170 194 0
170 194 0
172 194 0
169 191 0
174 196 0
171 194 0
171 193 0
171 193 0
172 195 0
173 195 0
172 195 0
169 192 0
168 191 0
170 193 0
174 197 0
172 195 0
172 195 0
171 195 0
170 192 0
172 195 0
172 195 0
173 196 0
170 193 0
171 195 0
170 192 0
172 195 0
170 193 0
173 196 0
174 196 0
172 193 0
171 194 0
170 192 0
173 195 0
171 194 0
173 195 0
171 194 0
173 197 0
162 186 0
169 192 0
168 191 0
164 187 0
166 189 0
166 190 0
166 189 0
164 187 0
165 187 0
162 185 0
163 186 0
164 187 0
165 188 0
164 187 0
160 182 0
165 187 0
163 185 0
161 183 0
160 182 0
162 184 0
161 183 0
160 182 0
166 188 0
164 186 0
162 184 0
160 182 0
160 182 0
164 186 0
162 184 0
157 178 0
160 181 0
163 185 0
147 170 0
159 181 0
153 174 0
159 181 0
155 177 0
155 176 0
153 174 0
155 176 0
153 175 0
159 181 0
152 173 0
154 177 0
156 178 0
159 180 0
157 178 0
157 178 0
152 173 0
154 176 0
159 181 0
164 185 0
149 170 0
152 175 0
150 171 0
159 180 0
158 180 0
152 173 0
155 176 0
148 170 0
157 180 0
157 180 0
153 174 0
154 175 0
156 177 0
155 177 0
151 172 0
153 175 0
157 179 0
158 180 0
160 182 0
162 183 0
158 179 0
161 183 0
165 186 0
157 178 0
164 185 0
162 185 0
158 179 0
159 182 0
162 184 0
154 176 0
162 184 0
162 184 0
162 184 0
162 185 0
166 189 0
167 190 0
165 189 0
176 199 62
206 223 203
186 205 151
163 186 0
165 187 0
157 178 0
168 190 0
165 186 0
166 188 0
154 175 0
164 186 0
159 181 0
156 178 0
160 182 0
161 181 0
162 184 0
155 177 0
152 173 0
153 174 0
160 182 0
155 176 0
161 182 0
159 181 0
161 183 0
160 182 0
160 181 0
153 175 0
158 180 0
159 181 0
154 176 0
154 175 0
159 181 0
162 184 0
159 180 0
151 173 0
163 185 0
156 178 0
149 170 0
157 179 0
150 173 0
158 180 0
159 181 0
150 171 0
148 170 0
152 174 0
154 176 0
150 172 0
150 172 0
149 171 0
150 172 0
150 172 0
154 176 0
150 171 0
155 177 0
153 175 0
151 172 0
148 169 0
157 178 0
151 173 0
149 170 0
152 174 0
150 171 0
150 171 0
147 169 0
149 171 0
149 170 0
152 175 0
140 161 0
149 170 0
139 161 0
143 164 0
144 167 0
147 168 0
146 167 0
150 172 0
137 159 0
147 168 0
153 174 0
136 158 0
144 165 0
145 167 0
145 168 0
150 172 0
142 164 0
148 170 0
146 168 0
141 163 0
153 175 0
151 174 0
145 166 0
142 165 0
137 159 0
144 167 0
146 169 0
145 167 0
142 163 0
155 177 0
147 169 0
146 169 0
146 167 0
155 177 0
140 162 0
152 173 0
144 165 0
147 169 0
137 158 0
147 169 0
142 164 0
143 164 0
141 163 0
150 171 0
149 171 0
147 169 0
147 169 0
153 175 0
146 167 0
147 169 0
144 168 0
150 173 0
151 173 0
149 170 0
149 171 0
151 171 0
144 166 0
158 180 0
155 177 0
156 179 0
155 178 0
157 180 0
150 171 0
150 172 0
154 176 0
150 173 0
152 175 0
152 174 0
156 178 0
155 177 0
154 176 0
144 166 0
149 172 0
151 173 0
156 177 0
155 177 0
152 176 0
151 173 0
151 173 0
153 175 0
162 185 0
156 177 0
152 173 0
154 176 0
165 188 0
159 182 0
154 176 0
154 176 0
157 180 0
150 173 0
160 183 0
159 181 0
159 182 0
156 177 0
156 179 0
163 185 0
157 178 0
155 176 0
160 183 0
161 185 0
160 182 0
156 177 0
159 183 0
163 186 0
162 184 0
162 184 0
159 181 0
166 189 0
167 190 0
161 184 0
157 178 0
158 180 0
160 181 0
165 186 0
166 188 0
157 180 0
162 183 0
156 179 0
159 180 0
165 188 0
165 188 0
164 186 0
161 183 0
157 180 0
157 179 0
164 187 0
166 188 0
163 186 0
158 180 0
163 186 0
169 192 0
170 193 0
164 185 0
163 186 0
163 186 0
162 183 0
163 184 0
163 186 0
166 189 0
162 185 0
166 188 0
171 193 0
162 184 0
169 192 0
171 193 0
166 188 0
164 185 0
168 192 0
167 190 0
164 186 0
165 188 0
164 187 0
169 192 0
167 191 0
166 189 0
166 188 0
167 189 0
169 192 0
166 190 0
166 187 0
168 190 0
167 190 0
167 188 0
166 188 0
167 189 0
165 186 0
165 187 0
169 192 0
169 192 0
168 190 0
164 187 0
168 191 0
166 189 0
169 190 0
170 192 0
167 190 0
168 190 0
168 191 0
168 190 0
166 188 0
168 191 0
169 192 0
171 194 0
170 192 0
167 189 0
169 191 0
170 194 0
167 189 0
172 194 0
169 192 0
172 196 0
167 189 0
168 191 0
170 193 0
170 193 0
173 195 0
170 193 0
168 191 0
170 193 0
169 191 0
170 193 0
170 192 0
171 193 0
171 194 0
168 191 0
171 194 0
170 193 0
171 193 0
169 191 0
170 193 0
172 193 0
169 192 0
169 192 0
172 195 0
172 195 0
173 196 0
171 194 0
173 195 0
171 194 0
171 193 0
171 193 0
171 195 0
172 195 0
173 195 0
172 194 0
171 193 0
168 192 0
172 195 0
172 195 0
171 193 0
170 193 0
170 193 0
170 194 0
170 194 0
171 194 0
168 191 0
171 193 0
170 192 0
173 196 0
173 196 0
174 197 0
172 195 0
170 194 0
172 196 0
165 188 0
165 187 0
168 190 0
162 185 0
166 189 0
164 187 0
167 189 0
166 188 0
169 191 0
162 185 0
162 183 0
159 181 0
165 188 0
156 178 0
162 184 0
162 185 0
164 185 0
165 187 0
157 180 0
161 182 0
159 181 0
158 179 0
160 182 0
167 189 0
165 186 0
160 181 0
156 178 0
157 179 0
159 181 0
160 182 0
161 183 0
155 177 0
157 178 0
160 181 0
154 175 0
161 182 0
158 180 0
153 175 0
157 179 0
153 174 0
158 180 0
150 172 0
152 173 0
159 181 0
158 180 0
161 183 0
152 174 0
160 181 0
153 175 0
156 177 0
157 178 0
151 172 0
153 175 0
155 177 0
154 176 0
154 175 0
155 177 0
153 175 0
156 177 0
156 178 0
147 169 0
155 177 0
160 182 0
153 175 0
146 168 0
161 182 0
158 180 0
162 184 0
163 185 0
163 184 0
155 177 0
156 178 0
158 180 0
159 181 0
156 177 0
164 185 0
164 185 0
157 178 0
156 177 0
159 180 0
158 179 0
164 186 0
161 184 0
166 187 0
164 186 0
168 190 0
169 192 0
168 192 0
167 190 44
209 225 218
178 197 130
157 178 0
171 192 0
159 182 0
164 186 0
159 181 0
155 177 0
159 181 0
166 187 0
157 179 0
158 180 0
160 182 0
163 185 0
163 185 0
167 187 0
162 184 0
159 180 0
155 177 0
163 184 0
166 187 0
157 178 0
154 175 0
159 181 0
159 181 0
155 176 0
158 179 0
152 173 0
156 178 0
162 182 0
163 184 0
155 177 0
156 178 0
152 173 0
152 173 0
156 177 0
155 176 0
153 175 0
154 177 0
155 176 0
151 173 0
152 174 0
154 176 0
151 172 0
153 175 0
157 178 0
156 178 0
154 176 0
157 177 0
151 173 0
139 160 0
150 171 0
141 162 0
142 164 0
146 168 0
155 177 0
151 173 0
157 178 0
156 178 0
150 172 0
148 169 0
143 166 0
155 177 0
148 170 0
150 172 0
157 179 0
144 166 0
147 168 0
147 169 0
148 169 0
150 172 0
144 165 0
149 171 0
148 169 0
144 167 0
146 168 0
150 172 0
148 170 0
152 174 0
143 164 0
148 169 0
153 176 0
144 165 0
141 163 0
137 159 0
147 169 0
151 173 0
143 163 0
154 176 0
148 169 0
149 172 0
151 174 0
151 173 0
152 174 0
147 168 0
147 168 0
150 173 0
153 175 0
152 173 0
149 170 0
147 170 0
150 173 0
153 175 0
146 168 0
155 176 0
152 174 0
148 168 0
149 170 0
148 170 0
152 174 0
149 170 0
148 171 0
146 169 0
143 166 0
147 169 0
152 174 0
137 159 0
153 175 0
148 168 0
151 173 0
154 177 0
151 173 0
148 170 0
154 176 0
152 175 0
152 174 0
157 178 0
146 167 0
154 175 0
153 176 0
148 170 0
152 174 0
160 182 0
156 179 0
151 173 0
154 175 0
150 171 0
156 178 0
154 177 0
160 183 0
140 161 0
151 172 0
153 175 0
162 184 0
152 172 0
153 174 0
161 183 0
159 181 0
160 182 0
159 181 0
155 177 0
160 182 0
159 181 0
155 178 0
155 177 0
154 174 0
156 178 0
157 179 0
151 173 0
160 182 0
161 183 0
160 181 0
159 182 0
158 180 0
158 180 0
151 173 0
159 181 0
159 182 0
164 187 0
152 173 0
161 184 0
156 178 0
159 181 0
157 179 0
158 182 0
164 186 0
155 177 0
162 185 0
161 184 0
165 187 0
163 185 0
160 183 0
159 180 0
163 186 0
162 184 0
166 188 0
161 182 0
168 191 0
161 183 0
161 184 0
157 178 0
162 184 0
164 186 0
161 183 0
163 186 0
167 190 0
164 186 0
162 184 0
165 187 0
163 185 0
163 185 0
166 188 0
159 182 0
160 182 0
163 186 0
165 188 0
164 187 0
165 187 0
168 190 0
167 190 0
170 192 0
164 184 0
165 188 0
160 181 0
161 183 0
168 191 0
168 190 0
164 188 0
169 191 0
166 190 0
166 188 0
168 189 0
165 187 0
166 189 0
167 190 0
164 186 0
166 189 0
163 184 0
170 193 0
167 192 0
164 187 0
164 187 0
169 191 0
168 190 0
169 192 0
162 186 0
169 192 0
169 192 0
168 190 0
167 188 0
163 185 0
167 189 0
166 189 0
167 189 0
170 192 0
167 190 0
168 191 0
167 190 0
165 187 0
172 195 0
168 191 0
171 194 0
169 191 0
165 188 0
169 191 0
168 190 0
167 189 0
170 193 0
170 193 0
164 187 0
174 197 0
169 193 0
165 188 0
168 190 0
172 195 0
170 191 0
172 195 0
169 192 0
170 193 0
169 192 0
171 194 0
170 193 0
170 193 0
172 194 0
173 196 0
170 193 0
170 192 0
170 192 0
167 189 0
170 192 0
167 190 0
168 190 0
172 194 0
171 194 0
170 193 0
171 192 0
171 195 0
173 196 0
170 193 0
170 193 0
172 195 0
170 193 0
172 193 0
170 194 0
170 193 0
169 193 0
173 196 0
171 193 0
173 195 0
171 195 0
172 194 0
175 198 0
173 196 0
169 192 0
173 195 0
170 193 0
173 196 0
174 196 0
168 191 0
172 194 0
173 196 0
171 192 0
160 182 0
170 193 0
168 190 0
167 190 0
169 191 0
168 191 0
165 187 0
163 185 0
167 189 0
162 183 0
165 187 0
164 186 0
159 181 0
160 181 0
164 186 0
159 181 0
161 183 0
164 186 0
161 183 0
158 180 0
152 175 0
161 183 0
158 180 0
158 180 0
163 185 0
163 183 0
160 181 0
163 185 0
157 178 0
158 179 0
157 178 0
156 176 0
159 179 0
157 179 0
156 178 0
153 175 0
147 170 0
151 173 0
148 169 0
159 180 0
150 172 0
155 177 0
153 174 0
155 177 0
159 181 0
153 174 0
161 182 0
149 170 0
152 174 0
155 176 0
152 174 0
157 180 0
156 177 0
154 174 0
146 167 0
154 175 0
154 175 0
160 181 0
157 178 0
153 174 0
155 176 0
155 177 0
158 178 0
158 180 0
156 178 0
163 185 0
161 182 0
159 180 0
162 183 0
156 178 0
159 181 0
160 182 0
160 181 0
157 179 0
155 178 0
156 178 0
169 190 0
163 184 0
158 181 0
164 186 0
160 182 0
165 188 0
163 185 0
164 186 0
170 191 0
168 191 0
183 205 117
206 223 214
176 196 108
162 185 0
159 182 0
159 181 0
164 185 0
162 183 0
163 186 0
165 187 0
157 179 0
151 172 0
157 179 0
152 173 0
167 187 0
161 183 0
160 182 0
166 188 0
164 185 0
157 179 0
157 179 0
164 185 0
158 180 0
162 184 0
161 182 0
164 185 0
154 174 0
156 178 0
156 177 0
159 181 0
155 176 0
152 173 0
150 172 0
160 181 0
155 177 0
149 171 0
161 183 0
151 172 0
157 178 0
158 180 0
154 176 0
150 172 0
158 180 0
159 181 0
153 175 0
152 174 0
155 177 0
158 180 0
157 179 0
147 168 0
151 172 0
155 176 0
155 175 0
145 166 0
147 169 0
148 171 0
149 170 0
150 172 0
144 166 0
150 172 0
152 175 0
139 161 0
146 169 0
153 175 0
146 168 0
155 177 0
147 167 0
148 169 0
144 166 0
148 170 0
151 174 0
152 174 0
147 169 0
142 164 0
144 165 0
144 166 0
149 170 0
150 173 0
152 175 0
153 175 0
150 172 0
151 173 0
148 170 0
147 169 0
146 167 0
144 166 0
150 173 0
150 171 0
145 167 0
145 166 0
141 164 0
150 172 0
147 169 0
143 166 0
148 171 0
147 169 0
154 176 0
153 176 0
152 173 0
145 167 0
148 170 0
156 178 0
148 171 0
156 178 0
148 169 0
144 167 0
155 177 0
159 182 0
147 170 0
150 171 0
146 168 0
147 170 0
147 169 0
152 175 0
147 170 0
155 177 0
154 177 0
153 174 0
154 176 0
145 169 0
152 173 0
152 173 0
148 171 0
147 169 0
150 173 0
160 181 0
142 164 0
157 180 0
150 172 0
154 176 0
150 172 0
152 174 0
151 174 0
156 178 0
154 176 0
154 174 0
160 182 0
160 181 0
155 177 0
151 173 0
156 179 0
156 179 0
155 177 0
155 176 0
154 176 0
156 178 0
160 181 0
159 182 0
158 181 0
157 177 0
147 169 0
152 174 0
158 179 0
161 184 0
156 179 0
158 180 0
161 183 0
157 178 0
152 174 0
161 183 0
159 182 0
162 184 0
157 179 0
163 185 0
157 180 0
163 186 0
159 180 0
159 182 0
156 178 0
158 180 0
160 183 0
162 185 0
162 184 0
160 182 0
160 183 0
163 186 0
161 183 0
161 183 0
158 181 0
161 183 0
162 185 0
158 181 0
166 190 0
161 184 0
164 186 0
158 180 0
166 189 0
159 181 0
167 189 0
165 187 0
162 186 0
164 187 0
163 186 0
164 187 0
163 185 0
165 189 0
164 185 0
164 188 0
165 187 0
166 189 0
165 188 0
158 180 0
163 184 0
167 188 0
165 186 0
169 193 0
163 186 0
159 181 0
158 181 0
164 185 0
166 188 0
166 189 0
164 186 0
164 186 0
169 192 0
169 191 0
169 191 0
165 187 0
167 188 0
168 191 0
167 192 0
165 187 0
164 187 0
170 194 0
170 192 0
165 188 0
166 189 0
169 191 0
162 185 0
169 191 0
166 190 0
168 190 0
168 190 0
171 192 0
167 189 0
163 184 0
166 190 0
169 192 0
166 188 0
171 193 0
169 193 0
168 190 0
167 189 0
167 188 0
169 191 0
164 188 0
171 195 0
170 192 0
168 192 0
170 192 0
170 193 0
167 191 0
168 191 0
168 189 0
167 190 0
171 194 0
168 191 0
170 192 0
173 196 0
168 190 0
169 192 0
170 193 0
164 187 0
168 191 0
171 193 0
171 192 0
171 192 0
169 191 0
170 192 0
170 193 0
171 195 0
168 190 0
169 189 0
172 195 0
167 191 0
170 194 0
170 192 0
170 193 0
170 193 0
169 192 0
169 191 0
171 194 0
172 194 0
169 191 0
168 191 0
170 193 0
172 194 0
172 195 0
172 194 0
172 195 0
169 192 0
171 195 0
171 194 0
169 193 0
168 190 0
172 195 0
167 191 0
173 195 0
169 193 0
173 196 0
172 195 0
173 196 0
171 195 0
172 196 0
174 197 0
171 194 0
170 192 0
172 196 0
173 196 0
170 193 0
172 194 0
171 193 0
171 194 0
171 193 0
160 183 0
167 189 0
159 181 0
163 186 0
163 185 0
163 185 0
160 182 0
167 189 0
165 187 0
168 190 0
164 186 0
161 183 0
157 179 0
157 180 0
162 183 0
165 187 0
160 183 0
161 184 0
160 182 0
160 182 0
166 188 0
170 192 0
163 184 0
164 186 0
156 178 0
156 178 0
165 186 0
159 181 0
158 180 0
154 176 0
161 182 0
157 178 0
153 175 0
155 177 0
155 176 0
149 171 0
157 179 0
154 176 0
158 179 0
153 174 0
156 176 0
150 171 0
156 176 0
155 176 0
162 184 0
156 178 0
152 174 0
155 176 0
157 178 0
163 184 0
157 178 0
162 184 0
156 178 0
150 171 0
160 181 0
154 176 0
160 182 0
157 178 0
160 181 0
156 178 0
157 179 0
157 178 0
158 179 0
163 185 0
163 184 0
153 175 0
161 182 0
162 182 0
158 179 0
152 175 0
161 183 0
165 186 0
159 181 0
159 182 0
160 182 0
161 184 0
159 181 0
165 188 0
162 184 0
158 180 0
164 186 0
159 182 0
167 191 0
167 189 0
172 195 0
183 204 122
205 221 211
170 192 84
159 181 0
163 186 0
158 181 0
166 187 0
156 178 0
156 177 0
159 181 0
162 183 0
161 182 0
165 186 0
162 184 0
158 180 0
161 183 0
167 188 0
164 185 0
163 184 0
156 178 0
159 180 0
164 185 0
162 183 0
152 173 0
158 180 0
155 177 0
157 177 0
162 185 0
161 182 0
157 178 0
156 178 0
160 181 0
157 179 0
151 172 0
158 180 0
156 178 0
154 176 0
159 181 0
145 166 0
157 178 0
154 176 0
160 182 0
149 171 0
157 179 0
155 177 0
148 170 0
158 180 0
155 176 0
153 174 0
157 178 0
144 166 0
150 172 0
144 165 0
148 170 0
155 177 0
151 172 0
156 177 0
148 170 0
140 162 0
157 179 0
148 169 0
153 174 0
153 174 0
146 167 0
152 173 0
154 175 0
150 172 0
160 181 0
145 167 0
150 171 0
149 171 0
139 162 0
149 171 0
144 165 0
151 173 0
141 163 0
156 179 0
144 166 0
151 173 0
159 181 0
154 176 0
146 167 0
149 170 0
149 170 0
150 171 0
146 168 0
155 177 0
145 165 0
144 166 0
148 168 0
146 168 0
145 167 0
143 164 0
149 170 0
143 165 0
156 178 0
151 173 0
156 178 0
148 170 0
150 172 0
148 170 0
141 163 0
148 169 0
151 173 0
146 169 0
147 170 0
151 172 0
150 172 0
148 171 0
152 173 0
150 172 0
152 174 0
144 166 0
145 169 0
154 176 0
146 169 0
150 172 0
152 174 0
144 166 0
149 171 0
144 166 0
156 179 0
151 172 0
154 177 0
149 171 0
158 181 0
155 177 0
154 176 0
159 181 0
159 181 0
155 177 0
150 173 0
154 176 0
157 181 0
157 179 0
154 176 0
155 177 0
156 178 0
152 175 0
153 175 0
162 184 0
159 182 0
159 182 0
155 177 0
154 175 0
161 182 0
151 174 0
156 179 0
160 183 0
155 178 0
155 177 0
152 174 0
161 183 0
154 176 0
161 183 0
162 184 0
164 186 0
158 180 0
161 182 0
161 183 0
156 178 0
162 185 0
157 178 0
159 181 0
161 184 0
166 188 0
164 186 0
162 185 0
161 184 0
153 176 0
164 187 0
158 180 0
156 179 0
162 184 0
156 178 0
161 185 0
163 185 0
159 181 0
158 180 0
161 184 0
160 184 0
161 183 0
155 178 0
164 187 0
167 190 0
163 185 0
164 185 0
165 187 0
165 187 0
162 183 0
163 187 0
163 185 0
164 186 0
160 182 0
164 187 0
161 184 0
163 185 0
164 186 0
158 180 0
156 179 0
171 192 0
167 191 0
163 186 0
171 194 0
170 192 0
162 185 0
167 190 0
164 188 0
164 187 0
170 192 0
167 190 0
169 192 0
165 188 0
165 188 0
161 183 0
166 188 0
166 187 0
167 190 0
172 194 0
164 186 0
170 194 0
166 189 0
166 188 0
166 188 0
169 192 0
166 189 0
170 193 0
167 189 0
167 190 0
162 186 0
170 193 0
167 188 0
168 190 0
166 188 0
166 187 0
166 190 0
167 189 0
169 192 0
166 188 0
171 194 0
170 193 0
169 191 0
167 190 0
168 192 0
170 193 0
170 193 0
169 192 0
169 191 0
171 194 0
170 192 0
167 191 0
170 193 0
166 188 0
167 189 0
170 193 0
169 192 0
169 192 0
171 194 0
170 193 0
168 192 0
170 192 0
170 194 0
168 191 0
170 192 0
167 189 0
172 196 0
171 194 0
170 193 0
168 191 0
169 192 0
171 194 0
169 192 0
172 194 0
172 196 0
171 192 0
170 193 0
171 193 0
172 195 0
171 193 0
170 193 0
169 190 0
172 195 0
167 190 0
170 193 0
170 193 0
168 191 0
170 193 0
170 193 0
169 192 0
171 194 0
172 195 0
172 195 0
169 192 0
170 193 0
172 194 0
170 192 0
172 194 0
171 194 0
171 194 0
169 191 0
171 195 0
174 196 0
172 194 0
172 195 0
168 191 0
169 192 0
174 195 0
170 193 0
172 195 0
171 193 0
173 196 0
173 195 0
169 192 0
169 192 0
166 189 0
163 186 0
164 186 0
167 190 0
166 188 0
167 188 0
166 189 0
162 184 0
163 185 0
161 182 0
161 182 0
170 192 0
160 181 0
160 182 0
167 189 0
159 180 0
161 183 0
164 187 0
161 183 0
157 180 0
158 181 0
160 182 0
163 184 0
164 185 0
164 185 0
156 177 0
163 185 0
161 183 0
163 184 0
160 181 0
155 177 0
154 176 0
145 166 0
156 177 0
158 180 0
153 175 0
159 181 0
157 179 0
150 171 0
148 169 0
156 178 0
144 165 0
158 179 0
146 168 0
150 171 0
152 174 0
160 182 0
147 168 0
160 180 0
156 176 0
163 185 0
157 178 0
160 181 0
154 175 0
160 181 0
155 177 0
158 179 0
157 179 0
156 177 0
168 189 0
161 182 0
161 182 0
157 179 0
157 178 0
159 181 0
155 177 0
160 181 0
153 174 0
152 174 0
158 178 0
162 183 0
160 181 0
157 178 0
164 185 0
157 181 0
162 184 0
161 184 0
164 185 0
156 178 0
169 191 0
168 190 0
168 190 0
167 189 0
164 187 0
169 192 0
193 212 155
204 220 209
164 186 57
161 183 0
166 188 0
162 183 0
160 180 0
165 187 0
164 185 0
163 185 0
166 186 0
159 180 0
161 183 0
164 185 0
161 183 0
159 181 0
166 188 0
157 178 0
162 184 0
164 186 0
162 183 0
159 181 0
163 184 0
163 185 0
159 181 0
157 179 0
153 175 0
158 179 0
156 178 0
157 178 0
162 183 0
158 180 0
156 178 0
158 181 0
157 179 0
159 181 0
153 175 0
157 179 0
157 179 0
150 172 0
150 171 0
149 171 0
155 177 0
156 177 0
157 178 0
148 170 0
149 171 0
145 166 0
153 175 0
148 169 0
145 167 0
156 177 0
156 177 0
163 185 0
153 175 0
150 172 0
148 170 0
155 177 0
159 182 0
156 177 0
149 171 0
150 172 0
152 173 0
153 175 0
159 181 0
157 179 0
160 182 0
154 177 0
153 175 0
157 179 0
149 171 0
151 173 0
155 177 0
140 162 0
160 182 0
150 171 0
152 174 0
148 170 0
153 175 0
157 179 0
143 165 0
151 173 0
162 183 0
155 176 0
145 166 0
150 172 0
154 176 0
148 170 0
156 178 0
145 167 0
151 172 0
151 174 0
152 174 0
147 170 0
144 167 0
148 170 0
155 178 0
147 169 0
155 178 0
141 164 0
154 176 0
148 169 0
151 173 0
151 173 0
156 178 0
154 177 0
156 177 0
163 185 0
160 183 0
153 176 0
144 165 0
146 168 0
149 170 0
148 170 0
145 167 0
153 175 0
156 179 0
154 175 0
156 179 0
153 175 0
156 178 0
156 178 0
152 175 0
154 175 0
143 166 0
155 178 0
153 176 0
149 170 0
153 175 0
150 173 0
161 183 0
153 175 0
157 180 0
153 175 0
150 173 0
161 183 0
155 179 0
154 175 0
144 166 0
152 173 0
148 170 0
159 180 0
157 179 0
158 179 0
161 184 0
160 183 0
149 172 0
162 185 0
156 178 0
152 174 0
157 178 0
158 181 0
153 173 0
158 180 0
156 179 0
153 175 0
155 176 0
162 185 0
158 180 0
160 182 0
157 179 0
160 183 0
164 186 0
156 179 0
159 182 0
162 185 0
167 190 0
161 183 0
160 181 0
158 180 0
166 189 0
161 184 0
166 188 0
166 190 0
157 179 0
165 188 0
163 186 0
165 188 0
162 185 0
159 181 0
164 188 0
160 182 0
162 185 0
160 182 0
163 185 0
162 185 0
163 185 0
160 182 0
158 181 0
160 181 0
163 185 0
162 185 0
165 187 0
161 184 0
167 189 0
166 189 0
162 184 0
163 185 0
163 184 0
161 184 0
164 186 0
164 187 0
167 188 0
163 185 0
161 183 0
166 188 0
166 189 0
167 190 0
164 187 0
162 185 0
169 190 0
161 183 0
170 193 0
167 189 0
170 192 0
168 189 0
161 184 0
168 191 0
160 183 0
168 191 0
167 188 0
166 188 0
165 186 0
166 187 0
163 185 0
168 191 0
167 190 0
165 189 0
169 192 0
167 188 0
169 191 0
165 186 0
170 193 0
168 191 0
171 193 0
166 189 0
169 192 0
169 190 0
171 194 0
168 190 0
169 191 0
167 190 0
168 192 0
168 191 0
167 189 0
169 192 0
168 191 0
172 194 0
168 190 0
168 191 0
170 192 0
172 194 0
169 192 0
171 193 0
168 190 0
169 192 0
169 191 0
167 190 0
168 191 0
170 192 0
169 191 0
173 196 0
171 193 0
167 190 0
170 192 0
171 192 0
167 189 0
164 186 0
173 194 0
170 193 0
165 187 0
169 191 0
173 195 0
172 195 0
169 192 0
169 193 0
172 196 0
170 193 0
169 193 0
170 193 0
174 197 0
170 192 0
170 193 0
171 195 0
170 192 0
170 192 0
167 189 0
173 195 0
170 194 0
172 195 0
170 192 0
170 192 0
170 192 0
168 190 0
167 190 0
172 195 0
172 195 0
173 196 0
173 195 0
172 195 0
169 194 0
173 196 0
171 195 0
171 195 0
173 196 0
170 193 0
170 194 0
173 196 0
172 195 0
172 195 0
169 192 0
170 193 0
168 191 0
173 196 0
168 191 0
165 188 0
169 190 0
168 190 0
163 186 0
165 187 0
167 189 0
167 189 0
164 186 0
166 188 0
166 189 0
163 185 0
168 189 0
164 187 0
155 177 0
165 187 0
162 184 0
164 186 0
162 184 0
162 184 0
167 188 0
162 183 0
165 186 0
160 181 0
161 183 0
162 182 0
167 189 0
154 176 0
159 180 0
157 178 0
159 180 0
157 179 0
151 172 0
157 179 0
154 176 0
150 171 0
159 180 0
155 176 0
164 185 0
158 179 0
144 165 0
154 175 0
156 178 0
151 172 0
164 186 0
153 174 0
154 175 0
147 168 0
153 174 0
158 180 0
160 181 0
164 185 0
162 184 0
158 180 0
159 181 0
159 180 0
158 180 0
158 180 0
161 183 0
155 176 0
157 178 0
161 181 0
160 181 0
164 186 0
163 185 0
157 178 0
151 173 0
155 177 0
154 177 0
158 179 0
164 185 0
163 185 0
159 181 0
159 181 0
160 182 0
160 182 0
161 182 0
160 181 0
160 182 0
166 187 0
166 188 0
164 187 0
168 190 0
172 195 0
166 189 36
200 218 191
198 216 186
159 182 25
160 182 0
164 186 0
170 191 0
157 178 0
164 185 0
160 181 0
165 186 0
166 187 0
161 183 0
159 180 0
161 182 0
162 183 0
163 185 0
167 189 0
160 181 0
162 184 0
155 176 0
164 186 0
153 175 0
153 175 0
162 182 0
166 187 0
156 178 0
160 181 0
151 171 0
159 180 0
153 175 0
160 181 0
150 171 0
153 175 0
157 179 0
154 175 0
154 175 0
157 178 0
148 170 0
155 176 0
150 172 0
157 178 0
155 177 0
147 168 0
155 176 0
158 178 0
151 172 0
148 170 0
148 169 0
156 177 0
151 172 0
153 175 0
149 170 0
152 173 0
156 179 0
148 170 0
151 174 0
154 177 0
151 173 0
152 174 0
154 177 0
144 165 0
155 177 0
159 181 0
146 168 0
146 167 0
150 172 0
145 167 0
156 178 0
147 167 0
146 169 0
150 173 0
161 184 0
150 172 0
154 176 0
154 176 0
148 170 0
152 174 0
150 172 0
149 171 0
148 171 0
146 167 0
148 170 0
155 177 0
146 168 0
154 177 0
148 171 0
150 172 0
145 168 0
148 170 0
151 172 0
147 169 0
140 161 0
153 174 0
156 178 0
148 171 0
153 174 0
151 173 0
158 181 0
154 176 0
152 174 0
150 172 0
153 176 0
155 178 0
146 168 0
155 177 0
145 166 0
148 170 0
153 175 0
151 173 0
153 176 0
151 174 0
149 171 0
158 181 0
153 176 0
153 176 0
150 173 0
156 177 0
156 179 0
152 175 0
155 178 0
152 175 0
152 174 0
153 175 0
157 179 0
146 167 0
150 172 0
144 166 0
152 176 0
157 181 0
149 171 0
155 177 0
156 178 0
153 175 0
152 174 0
149 171 0
164 186 0
156 178 0
151 172 0
158 182 0
157 179 0
151 173 0
158 181 0
152 174 0
149 171 0
154 177 0
163 186 0
156 179 0
161 182 0
153 174 0
161 183 0
157 179 0
162 184 0
159 179 0
161 184 0
162 184 0
156 178 0
156 178 0
159 181 0
158 181 0
155 177 0
154 176 0
161 183 0
157 181 0
167 190 0
160 182 0
160 183 0
164 188 0
157 179 0
161 183 0
157 179 0
161 184 0
163 185 0
158 179 0
162 185 0
163 185 0
161 184 0
160 183 0
162 185 0
158 179 0
163 185 0
160 182 0
156 179 0
164 187 0
163 186 0
163 185 0
161 183 0
162 185 0
164 187 0
168 190 0
164 188 0
170 193 0
164 187 0
161 184 0
170 191 0
161 184 0
161 184 0
169 191 0
162 186 0
166 189 0
163 186 0
165 188 0
166 189 0
167 189 0
163 186 0
165 187 0
157 179 0
167 190 0
162 183 0
167 190 0
164 187 0
165 188 0
160 182 0
167 190 0
165 188 0
167 189 0
165 189 0
168 191 0
166 188 0
170 194 0
169 192 0
167 188 0
162 184 0
171 194 0
164 187 0
168 190 0
167 189 0
166 189 0
170 192 0
166 188 0
168 192 0
171 193 0
167 190 0
172 195 0
165 187 0
169 192 0
167 190 0
167 190 0
168 190 0
170 192 0
164 187 0
169 192 0
170 193 0
169 191 0
169 191 0
169 192 0
169 192 0
168 191 0
167 190 0
168 190 0
170 193 0
170 193 0
170 192 0
171 193 0
167 190 0
168 192 0
171 194 0
171 194 0
168 190 0
169 192 0
168 191 0
169 193 0
168 190 0
167 190 0
168 191 0
168 191 0
169 192 0
169 190 0
171 194 0
169 192 0
173 195 0
171 194 0
170 192 0
172 194 0
170 193 0
172 194 0
173 195 0
171 194 0
174 195 0
171 193 0
168 190 0
172 193 0
172 195 0
166 189 0
168 191 0
175 198 0
169 191 0
173 195 0
170 193 0
171 194 0
169 191 0
171 193 0
170 193 0
171 195 0
173 195 0
173 196 0
171 195 0
175 197 0
170 193 0
175 197 0
168 190 0
173 195 0
167 190 0
172 194 0
171 195 0
170 192 0
171 195 0
169 191 0
172 196 0
173 195 0
170 192 0
173 195 0
173 195 0
169 193 0
172 196 0
173 197 0
168 191 0
163 185 0
167 189 0
170 192 0
157 179 0
166 188 0
163 185 0
167 189 0
165 187 0
163 185 0
159 181 0
168 190 0
164 186 0
161 182 0
165 186 0
161 182 0
159 181 0
162 183 0
162 183 0
164 185 0
165 187 0
162 184 0
153 174 0
161 183 0
161 182 0
163 184 0
152 174 0
158 180 0
158 180 0
154 175 0
162 183 0
158 179 0
159 179 0
157 178 0
157 179 0
156 178 0
144 166 0
147 169 0
148 169 0
156 178 0
157 178 0
153 175 0
150 173 0
158 179 0
154 175 0
160 181 0
149 169 0
158 180 0
154 177 0
164 185 0
163 185 0
158 181 0
164 185 0
153 174 0
146 168 0
154 175 0
159 180 0
157 180 0
161 182 0
155 177 0
155 176 0
159 181 0
159 181 0
158 180 0
163 184 0
158 179 0
158 179 0
158 178 0
162 184 0
162 184 0
157 178 0
159 181 0
160 181 0
162 183 0
158 180 0
161 183 0
160 182 0
166 188 0
165 188 0
166 189 0
166 188 0
167 189 0
171 194 0
171 194 51
204 221 209
183 203 130
164 186 0
163 184 0
159 181 0
162 184 0
167 188 0
163 183 0
166 188 0
158 179 0
166 187 0
165 187 0
153 175 0
164 185 0
160 182 0
162 184 0
161 183 0
154 175 0
156 178 0
153 175 0
163 184 0
156 178 0
149 170 0
157 178 0
159 181 0
154 175 0
158 180 0
160 181 0
159 180 0
154 176 0
153 174 0
155 176 0
152 173 0
153 175 0
151 172 0
164 185 0
153 174 0
153 174 0
151 173 0
159 182 0
155 176 0
153 175 0
154 175 0
157 178 0
161 183 0
161 182 0
152 172 0
156 178 0
154 176 0
152 174 0
158 180 0
149 170 0
154 175 0
148 171 0
149 170 0
155 176 0
153 175 0
153 176 0
154 176 0
146 167 0
155 176 0
151 173 0
147 168 0
151 173 0
150 171 0
148 169 0
145 168 0
148 169 0
151 173 0
148 170 0
162 184 0
142 164 0
159 182 0
158 180 0
146 168 0
156 178 0
146 168 0
142 164 0
151 172 0
144 166 0
144 167 0
155 178 0
152 174 0
147 170 0
144 167 0
141 162 0
157 179 0
145 167 0
153 176 0
157 179 0
150 171 0
153 174 0
151 173 0
146 168 0
149 172 0
149 170 0
154 176 0
160 182 0
148 171 0
144 166 0
149 171 0
148 172 0
148 170 0
154 176 0
142 164 0
155 177 0
151 174 0
153 175 0
149 170 0
155 177 0
151 173 0
154 175 0
149 171 0
158 181 0
151 173 0
154 177 0
153 175 0
160 183 0
156 178 0
156 179 0
159 182 0
147 169 0
152 174 0
155 177 0
152 174 0
148 171 0
156 178 0
159 182 0
154 177 0
154 177 0
151 172 0
153 175 0
152 175 0
156 178 0
156 179 0
156 180 0
151 174 0
157 179 0
160 182 0
155 177 0
158 181 0
154 177 0
159 181 0
164 186 0
157 180 0
157 178 0
159 181 0
159 183 0
155 178 0
158 181 0
165 189 0
157 179 0
164 187 0
162 184 0
157 179 0
161 184 0
159 180 0
155 178 0
158 180 0
161 183 0
161 184 0
155 178 0
159 181 0
163 186 0
158 181 0
161 185 0
161 183 0
166 188 0
163 187 0
159 181 0
158 179 0
158 181 0
156 178 0
162 185 0
161 183 0
156 179 0
161 183 0
162 185 0
164 187 0
163 185 0
162 184 0
163 186 0
158 180 0
162 185 0
163 186 0
167 188 0
161 184 0
161 184 0
159 181 0
167 188 0
164 186 0
163 185 0
162 184 0
164 187 0
165 189 0
165 187 0
164 185 0
165 187 0
165 187 0
166 188 0
165 188 0
161 184 0
167 189 0
164 186 0
168 191 0
165 188 0
167 190 0
165 188 0
165 188 0
166 187 0
160 183 0
164 187 0
168 190 0
167 190 0
165 187 0
162 184 0
167 190 0
168 190 0
167 190 0
162 184 0
166 189 0
166 188 0
164 186 0
167 189 0
164 188 0
165 188 0
169 192 0
169 192 0
167 189 0
171 192 0
169 193 0
168 190 0
169 191 0
166 188 0
166 189 0
168 189 0
168 190 0
169 192 0
168 191 0
168 189 0
169 192 0
169 191 0
172 195 0
167 191 0
168 191 0
166 188 0
169 191 0
168 191 0
167 191 0
169 192 0
167 190 0
167 189 0
167 190 0
170 193 0
170 193 0
170 193 0
166 189 0
168 191 0
173 196 0
172 194 0
171 194 0
167 190 0
172 194 0
167 189 0
171 194 0
170 192 0
170 191 0
167 189 0
170 193 0
169 193 0
170 193 0
170 193 0
168 190 0
167 189 0
170 192 0
170 192 0
169 192 0
172 195 0
171 194 0
170 192 0
168 191 0
172 195 0
171 195 0
172 195 0
170 194 0
172 195 0
172 196 0
170 194 0
169 192 0
172 194 0
170 194 0
170 193 0
171 193 0
173 196 0
169 193 0
171 194 0
172 195 0
172 195 0
169 191 0
171 193 0
171 193 0
173 195 0
172 195 0
172 195 0
173 195 0
171 193 0
172 195 0
171 193 0
171 195 0
173 196 0
172 195 0
173 195 0
172 195 0
173 195 0
172 196 0
173 196 0
170 193 0
167 189 0
171 193 0
165 186 0
164 186 0
163 185 0
166 188 0
166 188 0
163 184 0
158 180 0
165 187 0
163 185 0
160 182 0
160 181 0
160 182 0
157 179 0
162 183 0
166 187 0
163 184 0
165 186 0
154 176 0
161 183 0
158 179 0
160 182 0
151 173 0
156 176 0
151 173 0
156 178 0
157 179 0
151 172 0
154 176 0
154 175 0
157 179 0
153 174 0
156 177 0
155 177 0
151 172 0
158 178 0
158 180 0
160 181 0
153 175 0
157 178 0
156 178 0
160 182 0
155 176 0
147 169 0
152 173 0
162 183 0
154 176 0
164 185 0
157 179 0
156 177 0
163 184 0
158 179 0
153 174 0
163 184 0
158 180 0
166 188 0
165 186 0
165 186 0
155 177 0
161 182 0
158 179 0
159 180 0
158 181 0
157 179 0
151 172 0
159 180 0
160 181 0
162 183 0
158 180 0
156 177 0
162 183 0
163 185 0
161 182 0
160 182 0
163 185 0
160 182 0
163 185 0
167 190 0
165 188 0
172 195 0
180 202 102
206 223 211
176 196 114
162 184 0
162 184 0
163 185 0
159 181 0
161 182 0
161 183 0
162 183 0
165 186 0
159 180 0
161 182 0
167 189 0
162 184 0
159 180 0
156 179 0
154 175 0
157 179 0
159 181 0
156 176 0
156 178 0
161 183 0
153 174 0
162 184 0
161 182 0
162 184 0
157 178 0
156 177 0
161 182 0
160 182 0
158 180 0
160 182 0
158 180 0
159 180 0
159 180 0
148 171 0
157 178 0
152 173 0
159 180 0
158 179 0
147 170 0
155 176 0
156 178 0
153 175 0
158 180 0
154 174 0
157 178 0
151 173 0
155 177 0
160 182 0
149 171 0
157 179 0
160 182 0
152 174 0
161 182 0
143 164 0
158 180 0
157 178 0
156 178 0
155 177 0
152 175 0
149 171 0
150 171 0
158 179 0
155 177 0
158 181 0
154 176 0
149 171 0
148 169 0
152 173 0
152 175 0
144 167 0
154 176 0
149 172 0
151 172 0
152 173 0
157 179 0
153 175 0
144 166 0
152 174 0
147 169 0
149 172 0
152 175 0
153 175 0
151 173 0
150 172 0
160 183 0
149 171 0
154 176 0
152 174 0
154 176 0
158 180 0
151 173 0
151 173 0
153 175 0
154 177 0
150 173 0
151 174 0
146 168 0
150 172 0
151 173 0
150 172 0
154 176 0
155 177 0
146 169 0
155 178 0
149 171 0
149 172 0
152 175 0
157 180 0
152 174 0
150 172 0
152 174 0
157 178 0
156 178 0
156 178 0
155 177 0
152 173 0
153 174 0
157 178 0
159 181 0
161 183 0
155 178 0
150 173 0
156 179 0
152 174 0
157 179 0
155 176 0
150 171 0
154 176 0
157 180 0
160 184 0
159 181 0
161 183 0
152 174 0
161 183 0
156 180 0
157 179 0
152 175 0
159 183 0
156 177 0
165 188 0
158 179 0
164 185 0
159 182 0
156 180 0
160 182 0
152 174 0
154 176 0
159 181 0
159 181 0
155 177 0
159 182 0
164 187 0
159 181 0
154 176 0
154 176 0
162 184 0
158 181 0
160 183 0
161 183 0
157 179 0
160 183 0
158 180 0
160 183 0
159 181 0
162 184 0
162 185 0
161 185 0
163 187 0
163 186 0
162 186 0
159 182 0
163 185 0
161 184 0
160 184 0
163 186 0
161 183 0
159 181 0
166 189 0
161 184 0
160 182 0
163 187 0
165 188 0
161 184 0
161 183 0
163 186 0
164 186 0
167 189 0
163 185 0
167 190 0
165 188 0
163 185 0
157 180 0
163 186 0
163 186 0
161 184 0
164 186 0
162 185 0
163 185 0
164 186 0
166 190 0
163 186 0
164 187 0
158 180 0
167 188 0
164 188 0
164 187 0
166 189 0
168 190 0
170 194 0
170 193 0
166 189 0
168 191 0
165 187 0
167 189 0
163 185 0
169 191 0
170 193 0
167 189 0
165 188 0
168 191 0
168 191 0
168 190 0
166 189 0
170 192 0
167 189 0
169 191 0
167 190 0
168 191 0
164 188 0
165 187 0
168 191 0
164 186 0
165 189 0
170 193 0
168 191 0
167 190 0
169 191 0
163 185 0
167 190 0
166 189 0
170 193 0
172 195 0
164 187 0
163 186 0
166 188 0
170 193 0
167 190 0
165 188 0
171 194 0
168 191 0
169 190 0
167 190 0
170 193 0
164 188 0
166 189 0
162 184 0
167 189 0
169 191 0
168 191 0
164 186 0
170 193 0
167 190 0
166 188 0
166 189 0
169 192 0
169 190 0
171 194 0
171 193 0
169 192 0
167 190 0
169 191 0
167 188 0
172 195 0
167 190 0
171 194 0
169 191 0
168 191 0
168 191 0
169 192 0
170 192 0
171 193 0
167 190 0
169 192 0
171 194 0
171 194 0
172 194 0
168 190 0
171 195 0
172 194 0
170 192 0
170 193 0
172 195 0
169 193 0
173 196 0
170 193 0
170 193 0
171 194 0
171 192 0
171 194 0
169 193 0
171 193 0
171 195 0
170 192 0
170 192 0
169 192 0
169 191 0
169 191 0
169 193 0
171 195 0
171 194 0
170 194 0
172 195 0
171 194 0
171 195 0
172 196 0
171 194 0
162 184 0
164 187 0
166 188 0
161 183 0
166 187 0
162 184 0
165 186 0
164 185 0
164 186 0
165 186 0
165 186 0
160 181 0
163 185 0
158 179 0
163 186 0
163 186 0
159 180 0
166 188 0
165 186 0
155 176 0
154 175 0
157 179 0
161 182 0
151 173 0
168 189 0
157 178 0
147 169 0
152 174 0
153 174 0
153 174 0
157 178 0
157 178 0
150 172 0
150 171 0
156 178 0
152 173 0
151 172 0
152 173 0
157 178 0
151 173 0
154 175 0
151 172 0
158 178 0
159 181 0
158 180 0
154 176 0
160 181 0
159 181 0
160 182 0
141 163 0
158 180 0
159 181 0
158 180 0
148 169 0
155 176 0
163 185 0
152 173 0
159 179 0
152 174 0
161 183 0
162 183 0
160 181 0
158 180 0
157 179 0
163 184 0
158 180 0
153 174 0
163 184 0
159 180 0
158 180 0
164 185 0
160 182 0
166 187 0
163 185 0
162 183 0
164 186 0
165 187 0
166 188 0
167 189 0
173 196 0
193 213 157
204 220 214
165 185 44
167 188 0
161 183 0
165 186 0
166 188 0
163 185 0
164 187 0
159 180 0
165 187 0
166 187 0
159 180 0
158 179 0
161 182 0
157 179 0
161 183 0
158 180 0
156 177 0
160 181 0
160 181 0
160 181 0
160 182 0
161 182 0
158 179 0
163 185 0
157 178 0
156 177 0
154 174 0
164 185 0
158 179 0
160 182 0
155 177 0
157 178 0
164 185 0
160 181 0
159 181 0
153 174 0
151 173 0
157 178 0
156 177 0
159 181 0
148 169 0
160 182 0
158 179 0
153 175 0
153 175 0
143 165 0
149 171 0
156 177 0
158 180 0
149 171 0
157 178 0
151 174 0
154 177 0
150 172 0
162 183 0
153 175 0
146 168 0
152 174 0
154 175 0
156 178 0
150 173 0
158 179 0
157 178 0
147 168 0
153 173 0
150 170 0
144 166 0
151 173 0
147 168 0
153 175 0
150 171 0
144 166 0
155 177 0
143 165 0
153 175 0
150 173 0
146 168 0
152 174 0
152 175 0
157 179 0
153 175 0
150 172 0
152 174 0
158 180 0
160 181 0
156 179 0
153 175 0
156 177 0
160 181 0
155 179 0
150 173 0
146 169 0
151 173 0
152 174 0
148 170 0
150 173 0
154 177 0
149 172 0
155 178 0
158 179 0
150 173 0
160 181 0
146 168 0
146 168 0
148 169 0
154 175 0
155 179 0
157 178 0
152 174 0
156 178 0
153 174 0
146 169 0
156 178 0
150 172 0
150 173 0
154 177 0
156 179 0
149 171 0
157 179 0
155 177 0
153 176 0
161 183 0
152 174 0
156 178 0
156 179 0
156 180 0
157 180 0
157 180 0
156 179 0
160 184 0
150 173 0
155 178 0
156 178 0
159 182 0
160 182 0
160 183 0
161 184 0
160 183 0
161 184 0
156 177 0
152 175 0
159 181 0
164 186 0
152 176 0
160 183 0
160 184 0
155 178 0
157 179 0
145 166 0
157 180 0
154 177 0
158 180 0
154 177 0
157 180 0
159 180 0
158 181 0
157 177 0
157 180 0
161 183 0
155 177 0
160 181 0
160 183 0
162 183 0
162 184 0
165 188 0
159 181 0
159 181 0
154 175 0
157 180 0
167 191 0
158 180 0
156 179 0
165 187 0
166 187 0
164 187 0
162 184 0
163 185 0
160 184 0
168 191 0
170 192 0
167 190 0
160 182 0
162 185 0
164 187 0
164 186 0
166 188 0
163 184 0
166 189 0
156 179 0
161 184 0
160 182 0
164 186 0
162 184 0
161 184 0
165 188 0
159 181 0
160 183 0
161 183 0
165 187 0
163 185 0
164 187 0
163 187 0
168 189 0
162 185 0
161 184 0
167 188 0
170 192 0
161 183 0
171 193 0
163 186 0
168 191 0
168 191 0
168 192 0
164 188 0
168 191 0
166 189 0
166 188 0
161 183 0
169 192 0
169 189 0
167 190 0
166 189 0
163 185 0
169 192 0
164 188 0
167 190 0
166 188 0
167 190 0
166 190 0
168 190 0
165 188 0
164 185 0
162 183 0
166 189 0
166 189 0
166 190 0
165 187 0
168 191 0
164 187 0
170 193 0
170 192 0
166 189 0
167 191 0
169 192 0
166 189 0
170 192 0
171 194 0
169 191 0
166 189 0
168 191 0
168 192 0
172 194 0
168 190 0
170 192 0
170 193 0
169 191 0
172 194 0
169 192 0
168 190 0
169 192 0
167 190 0
168 191 0
169 192 0
169 192 0
167 189 0
167 189 0
167 190 0
170 193 0
168 191 0
169 192 0
170 194 0
168 190 0
171 193 0
166 189 0
170 193 0
171 194 0
172 195 0
168 191 0
168 191 0
169 192 0
171 193 0
172 194 0
173 194 0
167 190 0
170 193 0
170 194 0
170 193 0
169 192 0
169 193 0
167 190 0
173 195 0
174 197 0
170 192 0
168 191 0
173 196 0
170 193 0
168 191 0
171 194 0
170 193 0
174 197 0
171 194 0
172 194 0
167 190 0
171 194 0
170 193 0
168 192 0
173 196 0
168 190 0
173 197 0
169 192 0
172 195 0
171 195 0
166 190 0
171 194 0
175 197 0
172 195 0
170 193 0
172 195 0
167 189 0
164 186 0
163 184 0
163 185 0
160 181 0
163 185 0
165 187 0
165 186 0
168 189 0
167 188 0
165 187 0
163 185 0
161 182 0
160 181 0
165 185 0
165 185 0
160 181 0
160 181 0
163 184 0
160 182 0
157 178 0
153 175 0
156 178 0
154 175 0
159 181 0
158 179 0
160 182 0
160 182 0
157 178 0
160 180 0
158 179 0
142 164 0
154 176 0
158 179 0
159 181 0
152 173 0
163 184 0
161 182 0
155 178 0
157 179 0
161 182 0
144 166 0
153 173 0
156 178 0
151 173 0
156 177 0
156 177 0
154 176 0
152 173 0
157 179 0
151 173 0
163 184 0
162 184 0
159 181 0
155 177 0
156 177 0
157 179 0
170 191 0
163 184 0
163 185 0
157 180 0
158 179 0
157 179 0
157 178 0
158 179 0
154 176 0
156 178 0
162 184 0
158 180 0
165 187 0
159 180 0
156 177 0
168 190 0
162 184 0
166 189 0
166 187 0
170 191 0
167 189 0
174 196 67
199 217 186
183 202 151
164 186 0
170 191 0
166 188 0
160 181 0
165 187 0
162 183 0
159 181 0
163 185 0
154 176 0
160 182 0
161 183 0
167 188 0
159 180 0
163 184 0
160 181 0
157 179 0
164 185 0
160 182 0
158 179 0
156 178 0
156 177 0
160 180 0
159 180 0
163 184 0
158 179 0
152 173 0
158 180 0
156 176 0
162 183 0
157 179 0
160 182 0
158 179 0
153 174 0
153 175 0
161 182 0
161 183 0
156 177 0
161 182 0
159 181 0
151 173 0
154 175 0
156 177 0
146 168 0
158 180 0
156 179 0
149 171 0
151 172 0
150 172 0
148 169 0
151 173 0
162 183 0
155 176 0
154 177 0
153 175 0
157 179 0
154 176 0
145 168 0
148 169 0
153 175 0
156 178 0
149 171 0
157 179 0
155 178 0
145 166 0
159 181 0
160 181 0
153 176 0
153 175 0
155 177 0
158 181 0
152 174 0
153 176 0
149 172 0
153 176 0
157 180 0
155 178 0
150 173 0
145 167 0
154 176 0
155 175 0
149 171 0
155 177 0
152 175 0
150 172 0
159 181 0
151 174 0
147 168 0
153 174 0
155 177 0
152 174 0
156 179 0
157 179 0
151 173 0
152 175 0
152 174 0
149 172 0
154 177 0
150 173 0
151 173 0
150 172 0
155 179 0
147 169 0
157 178 0
148 171 0
158 180 0
150 172 0
155 177 0
158 180 0
144 167 0
155 178 0
151 174 0
154 177 0
152 174 0
158 181 0
154 177 0
150 171 0
162 184 0
155 177 0
148 170 0
155 178 0
156 178 0
158 182 0
154 176 0
158 179 0
147 170 0
157 180 0
159 181 0
150 173 0
158 181 0
152 176 0
153 175 0
161 184 0
154 176 0
157 180 0
153 176 0
159 182 0
158 181 0
157 180 0
151 174 0
156 178 0
155 178 0
158 180 0
156 177 0
152 175 0
156 178 0
158 180 0
161 185 0
159 181 0
161 184 0
159 182 0
167 190 0
162 186 0
153 175 0
160 181 0
164 186 0
161 184 0
162 183 0
161 184 0
162 185 0
157 180 0
160 183 0
162 184 0
163 187 0
161 184 0
162 184 0
158 181 0
162 183 0
160 183 0
159 182 0
155 178 0
164 188 0
158 180 0
161 185 0
164 186 0
159 181 0
164 187 0
163 185 0
163 186 0
161 184 0
164 186 0
162 185 0
165 189 0
161 183 0
161 183 0
161 182 0
163 185 0
164 187 0
162 184 0
160 183 0
164 188 0
162 185 0
161 184 0
169 190 0
169 190 0
165 189 0
166 190 0
161 183 0
161 183 0
161 182 0
168 191 0
162 184 0
163 186 0
162 185 0
162 184 0
163 184 0
165 188 0
166 187 0
167 189 0
162 184 0
165 186 0
165 187 0
166 189 0
164 186 0
166 189 0
166 188 0
172 194 0
167 189 0
169 192 0
168 191 0
169 191 0
168 191 0
165 187 0
166 188 0
166 188 0
166 189 0
167 190 0
166 188 0
167 189 0
165 189 0
165 188 0
168 192 0
170 192 0
165 187 0
165 189 0
169 192 0
166 188 0
169 192 0
167 191 0
167 189 0
170 192 0
163 186 0
169 191 0
166 189 0
165 186 0
168 190 0
165 187 0
169 192 0
169 192 0
167 190 0
170 191 0
170 192 0
167 190 0
169 192 0
167 189 0
173 196 0
172 196 0
173 195 0
168 192 0
170 192 0
172 196 0
170 193 0
168 191 0
168 191 0
170 193 0
168 191 0
171 194 0
167 190 0
165 187 0
169 191 0
170 193 0
168 190 0
173 195 0
172 195 0
168 189 0
172 195 0
172 194 0
168 189 0
168 191 0
168 190 0
172 195 0
169 192 0
171 194 0
169 193 0
171 195 0
172 195 0
168 190 0
168 190 0
170 192 0
170 193 0
169 192 0
172 195 0
167 191 0
168 192 0
172 195 0
171 193 0
171 194 0
171 193 0
169 191 0
169 192 0
169 192 0
170 193 0
171 194 0
168 191 0
170 193 0
171 193 0
172 195 0
174 196 0
171 193 0
169 191 0
171 194 0
172 194 0
172 195 0
170 192 0
170 193 0
173 196 0
170 193 0
168 191 0
169 193 0
172 195 0
166 188 0
167 189 0
167 189 0
159 180 0
165 187 0
163 184 0
163 185 0
164 185 0
168 190 0
163 185 0
168 190 0
155 176 0
161 183 0
166 188 0
160 181 0
156 177 0
155 177 0
159 181 0
160 180 0
156 177 0
154 176 0
153 175 0
163 184 0
160 181 0
159 179 0
155 176 0
157 179 0
154 176 0
160 182 0
160 181 0
156 176 0
160 181 0
151 171 0
154 176 0
160 181 0
156 177 0
159 181 0
154 175 0
152 174 0
150 172 0
160 181 0
157 179 0
158 179 0
163 184 0
158 179 0
157 178 0
160 181 0
156 177 0
158 179 0
159 180 0
161 182 0
158 180 0
156 177 0
160 181 0
155 176 0
151 173 0
153 175 0
168 188 0
157 178 0
156 177 0
164 185 0
149 171 0
159 181 0
158 179 0
162 184 0
160 182 0
159 181 0
167 188 0
167 189 0
160 182 0
160 182 0
168 190 0
166 187 0
169 190 0
164 186 0
168 190 0
168 191 0
181 202 99
202 219 201
178 199 102
164 185 0
162 184 0
159 181 0
161 183 0
162 184 0
169 190 0
162 183 0
154 175 0
161 183 0
162 184 0
162 184 0
159 180 0
155 176 0
157 178 0
166 187 0
162 184 0
153 174 0
164 185 0
158 179 0
156 177 0
153 175 0
160 181 0
155 177 0
165 185 0
153 174 0
158 180 0
159 180 0
156 179 0
158 180 0
156 178 0
156 177 0
156 178 0
155 176 0
158 178 0
160 181 0
155 176 0
159 181 0
161 182 0
156 178 0
154 175 0
153 174 0
151 171 0
144 165 0
158 180 0
159 181 0
148 170 0
152 174 0
156 178 0
150 172 0
154 176 0
156 177 0
153 175 0
152 174 0
149 171 0
158 180 0
150 172 0
157 179 0
147 170 0
152 173 0
151 173 0
156 178 0
150 172 0
158 180 0
155 177 0
148 171 0
148 171 0
157 179 0
160 183 0
147 170 0
160 181 0
152 174 0
157 180 0
153 176 0
157 179 0
151 173 0
152 173 0
150 172 0
148 170 0
147 169 0
155 177 0
142 164 0
154 175 0
156 179 0
144 165 0
153 174 0
155 178 0
154 176 0
145 167 0
152 174 0
151 173 0
155 179 0
154 177 0
157 179 0
151 173 0
139 161 0
155 178 0
145 167 0
156 178 0
159 182 0
153 175 0
155 177 0
149 173 0
155 177 0
154 177 0
157 179 0
153 175 0
156 178 0
147 168 0
152 173 0
157 181 0
146 169 0
156 178 0
156 177 0
159 182 0
153 175 0
153 175 0
150 173 0
148 170 0
154 176 0
157 179 0
155 179 0
151 174 0
152 175 0
154 177 0
156 177 0
158 180 0
152 174 0
152 175 0
148 171 0
159 182 0
157 180 0
159 181 0
153 177 0
151 172 0
160 183 0
164 187 0
152 175 0
157 178 0
157 178 0
156 179 0
156 178 0
152 174 0
155 178 0
162 185 0
156 179 0
165 188 0
158 181 0
163 185 0
155 178 0
156 179 0
159 180 0
160 183 0
156 179 0
153 175 0
155 178 0
157 180 0
160 182 0
164 187 0
160 182 0
156 178 0
163 186 0
165 187 0
156 178 0
161 183 0
161 185 0
160 184 0
162 184 0
168 191 0
157 180 0
160 183 0
159 182 0
164 186 0
163 186 0
166 187 0
160 183 0
162 185 0
157 180 0
167 190 0
163 184 0
160 181 0
160 184 0
167 190 0
162 184 0
159 181 0
166 189 0
160 183 0
165 188 0
163 184 0
163 185 0
164 187 0
164 187 0
161 184 0
165 187 0
169 191 0
163 186 0
167 189 0
165 187 0
163 185 0
161 184 0
163 186 0
165 188 0
162 186 0
162 184 0
165 189 0
166 188 0
171 194 0
165 188 0
169 192 0
167 190 0
166 188 0
166 188 0
161 184 0
166 188 0
163 186 0
172 194 0
168 191 0
167 190 0
163 185 0
166 189 0
167 190 0
168 190 0
166 189 0
165 187 0
168 192 0
165 188 0
167 190 0
164 187 0
162 185 0
167 190 0
166 189 0
170 192 0
161 182 0
159 182 0
173 195 0
166 188 0
166 188 0
169 192 0
168 191 0
168 192 0
171 194 0
166 189 0
169 191 0
166 188 0
165 187 0
167 189 0
168 191 0
168 191 0
168 190 0
171 194 0
166 187 0
171 194 0
168 191 0
172 194 0
169 191 0
170 193 0
166 190 0
164 186 0
168 192 0
168 191 0
168 191 0
168 192 0
169 192 0
170 194 0
168 191 0
168 191 0
168 191 0
171 194 0
171 194 0
169 192 0
171 195 0
169 191 0
170 194 0
169 191 0
166 188 0
170 192 0
168 191 0
167 190 0
167 190 0
171 194 0
171 194 0
171 194 0
171 194 0
173 195 0
169 192 0
170 193 0
170 193 0
166 187 0
169 193 0
170 193 0
168 191 0
169 193 0
170 192 0
171 193 0
169 191 0
167 190 0
167 191 0
171 194 0
170 194 0
172 194 0
174 197 0
170 193 0
168 190 0
172 196 0
170 193 0
174 196 0
173 195 0
173 196 0
173 196 0
173 196 0
171 194 0
171 193 0
168 190 0
170 193 0
168 190 0
170 195 0
174 196 0
172 195 0
172 194 0
171 194 0
173 196 0
162 184 0
168 189 0
167 188 0
163 185 0
160 182 0
162 182 0
160 181 0
169 191 0
164 185 0
161 182 0
164 186 0
158 180 0
162 184 0
158 180 0
163 185 0
158 180 0
160 181 0
158 178 0
158 179 0
160 182 0
158 180 0
155 177 0
158 179 0
161 182 0
161 181 0
159 181 0
159 180 0
158 179 0
159 181 0
150 171 0
151 172 0
156 178 0
156 178 0
157 178 0
156 178 0
162 183 0
155 175 0
161 182 0
152 173 0
160 182 0
159 181 0
155 177 0
153 174 0
157 178 0
160 181 0
156 179 0
150 172 0
163 184 0
165 186 0
164 185 0
156 177 0
167 188 0
159 180 0
154 175 0
162 183 0
159 181 0
158 179 0
158 179 0
160 181 0
164 186 0
159 179 0
159 181 0
159 180 0
166 188 0
160 182 0
164 186 0
162 184 0
162 183 0
162 182 0
166 188 0
169 190 0
164 186 0
162 182 0
165 187 0
165 188 0
166 189 0
186 206 137
202 218 206
166 187 25
159 181 0
166 188 0
162 184 0
154 175 0
165 187 0
153 174 0
156 178 0
158 179 0
163 184 0
160 181 0
162 182 0
161 183 0
154 175 0
162 182 0
161 182 0
164 186 0
159 180 0
154 175 0
156 178 0
156 178 0
164 186 0
161 183 0
159 180 0
156 178 0
157 178 0
160 182 0
156 177 0
158 179 0
158 179 0
158 179 0
153 175 0
154 175 0
156 178 0
158 178 0
157 178 0
158 179 0
153 174 0
156 178 0
145 168 0
152 174 0
157 179 0
150 171 0
153 175 0
156 178 0
150 171 0
154 176 0
156 178 0
151 173 0
147 169 0
149 171 0
156 178 0
158 180 0
152 174 0
152 174 0
157 179 0
143 165 0
153 175 0
155 177 0
156 177 0
157 179 0
145 167 0
154 176 0
153 175 0
157 180 0
153 175 0
146 169 0
149 171 0
155 178 0
152 175 0
146 167 0
154 176 0
155 177 0
144 167 0
154 177 0
158 180 0
155 178 0
153 175 0
159 181 0
154 176 0
145 168 0
152 175 0
160 182 0
149 171 0
146 169 0
149 172 0
153 175 0
142 163 0
154 177 0
148 171 0
153 175 0
153 176 0
156 178 0
157 179 0
155 177 0
152 175 0
160 184 0
156 178 0
161 184 0
157 180 0
152 174 0
157 180 0
157 180 0
157 179 0
151 172 0
152 173 0
157 179 0
149 171 0
155 178 0
150 171 0
154 177 0
158 181 0
152 175 0
154 175 0
149 171 0
158 181 0
150 172 0
157 180 0
151 173 0
158 181 0
148 171 0
152 175 0
154 177 0
157 180 0
152 175 0
151 174 0
155 177 0
159 181 0
159 182 0
152 174 0
154 177 0
151 174 0
158 181 0
160 182 0
158 181 0
158 181 0
162 185 0
158 181 0
160 183 0
155 177 0
161 183 0
161 184 0
157 180 0
164 186 0
157 179 0
158 181 0
155 176 0
159 181 0
163 185 0
155 176 0
161 184 0
156 179 0
158 181 0
162 185 0
162 184 0
157 180 0
162 185 0
153 175 0
158 181 0
158 180 0
159 181 0
158 180 0
158 181 0
166 187 0
157 180 0
166 190 0
165 188 0
164 185 0
159 181 0
165 187 0
156 179 0
160 183 0
161 184 0
162 186 0
164 187 0
168 192 0
165 188 0
164 187 0
158 181 0
162 185 0
158 179 0
164 187 0
159 182 0
165 188 0
160 183 0
165 188 0
165 188 0
162 185 0
166 189 0
164 188 0
161 183 0
166 190 0
169 192 0
166 190 0
167 190 0
161 183 0
163 185 0
163 186 0
166 189 0
162 185 0
165 188 0
165 187 0
161 184 0
164 186 0
168 191 0
165 188 0
164 186 0
167 188 0
160 183 0
167 189 0
169 192 0
163 185 0
165 189 0
163 184 0
166 189 0
160 182 0
165 188 0
167 191 0
163 186 0
168 191 0
169 192 0
168 190 0
163 186 0
168 191 0
168 190 0
169 192 0
169 191 0
169 192 0
167 190 0
167 189 0
163 185 0
166 188 0
170 191 0
164 187 0
162 185 0
170 192 0
167 190 0
168 191 0
164 186 0
171 193 0
165 187 0
166 189 0
166 189 0
168 190 0
166 189 0
168 192 0
167 189 0
163 185 0
168 191 0
171 195 0
169 191 0
168 191 0
168 191 0
174 196 0
166 191 0
168 191 0
168 192 0
170 192 0
169 191 0
169 191 0
168 192 0
169 193 0
168 191 0
171 194 0
170 192 0
170 192 0
168 191 0
169 191 0
167 190 0
167 189 0
169 191 0
172 195 0
170 192 0
166 190 0
168 191 0
167 190 0
171 193 0
170 192 0
171 194 0
168 189 0
169 192 0
167 191 0
172 195 0
170 193 0
172 195 0
170 193 0
169 192 0
170 193 0
170 194 0
170 193 0
170 193 0
168 191 0
169 192 0
170 193 0
172 196 0
168 192 0
171 193 0
171 194 0
170 193 0
171 194 0
167 190 0
173 196 0
171 194 0
170 194 0
171 194 0
173 196 0
170 192 0
174 197 0
173 196 0
170 192 0
168 191 0
172 195 0
172 196 0
168 190 0
172 195 0
175 197 0
171 194 0
169 192 0
175 198 0
171 194 0
168 191 0
171 193 0
165 187 0
172 193 0
165 186 0
163 185 0
163 184 0
164 186 0
165 186 0
158 181 0
157 178 0
162 183 0
164 185 0
158 179 0
164 186 0
161 183 0
157 178 0
162 184 0
155 178 0
161 182 0
155 177 0
157 180 0
155 177 0
158 180 0
157 178 0
157 178 0
148 169 0
161 182 0
153 174 0
152 173 0
155 177 0
153 175 0
150 171 0
163 183 0
157 179 0
159 180 0
154 175 0
160 182 0
160 181 0
156 177 0
158 179 0
156 177 0
155 177 0
153 175 0
164 185 0
160 182 0
160 182 0
156 178 0
154 176 0
154 176 0
159 181 0
155 177 0
160 182 0
156 177 0
155 177 0
153 174 0
159 180 0
157 178 0
164 185 0
147 169 0
163 184 0
149 170 0
163 185 0
162 183 0
156 177 0
162 182 0
155 176 0
160 181 0
166 188 0
169 191 0
159 181 0
163 185 0
164 185 0
169 191 0
167 189 0
164 186 0
173 196 57
202 219 203
176 195 135
158 180 0
163 185 0
159 179 0
163 184 0
162 183 0
150 171 0
158 179 0
163 185 0
163 184 0
161 183 0
158 180 0
159 180 0
161 183 0
160 181 0
155 176 0
155 177 0
156 177 0
160 181 0
161 182 0
159 181 0
153 174 0
160 181 0
162 183 0
157 178 0
159 180 0
156 176 0
159 180 0
153 174 0
153 175 0
160 181 0
165 187 0
162 184 0
157 178 0
158 179 0
155 177 0
166 188 0
161 183 0
158 179 0
157 179 0
154 176 0
150 171 0
154 176 0
157 179 0
156 178 0
156 178 0
156 179 0
147 168 0
149 171 0
150 172 0
154 175 0
150 172 0
157 179 0
149 170 0
149 171 0
144 166 0
161 182 0
157 180 0
158 180 0
155 178 0
151 173 0
153 175 0
149 172 0
149 171 0
154 176 0
149 171 0
157 179 0
148 170 0
147 169 0
153 175 0
151 173 0
148 171 0
148 171 0
152 175 0
154 176 0
150 173 0
153 174 0
161 183 0
149 172 0
154 177 0
155 178 0
151 174 0
143 164 0
156 178 0
155 178 0
150 173 0
147 170 0
158 180 0
142 165 0
150 172 0
152 175 0
156 179 0
152 173 0
154 176 0
150 173 0
158 180 0
159 181 0
147 168 0
148 171 0
149 172 0
150 172 0
154 175 0
159 181 0
153 176 0
160 182 0
160 183 0
155 176 0
150 172 0
155 177 0
155 178 0
151 174 0
156 178 0
153 174 0
157 179 0
154 176 0
152 175 0
149 172 0
158 179 0
161 183 0
151 175 0
155 179 0
152 174 0
153 176 0
156 177 0
152 174 0
160 182 0
153 176 0
154 176 0
155 178 0
153 174 0
157 179 0
154 175 0
159 181 0
157 179 0
160 182 0
157 180 0
148 172 0
160 183 0
158 181 0
157 180 0
158 181 0
159 181 0
160 183 0
159 183 0
152 176 0
160 182 0
160 184 0
153 175 0
162 186 0
153 175 0
158 181 0
161 184 0
149 171 0
160 183 0
159 182 0
158 180 0
157 179 0
160 182 0
159 181 0
156 179 0
159 182 0
160 182 0
158 180 0
160 183 0
160 183 0
155 177 0
160 183 0
160 182 0
161 184 0
161 184 0
162 184 0
163 186 0
152 175 0
164 187 0
163 186 0
159 182 0
162 183 0
159 182 0
160 182 0
167 190 0
168 191 0
160 183 0
166 188 0
162 185 0
165 187 0
164 187 0
163 186 0
167 190 0
168 192 0
162 184 0
161 183 0
158 179 0
160 183 0
162 185 0
166 189 0
164 187 0
164 186 0
165 188 0
161 183 0
163 185 0
164 187 0
161 183 0
163 186 0
163 186 0
169 192 0
166 189 0
163 186 0
167 191 0
164 187 0
165 188 0
162 183 0
170 191 0
168 191 0
167 190 0
167 190 0
167 189 0
166 187 0
168 191 0
164 186 0
168 190 0
164 187 0
167 190 0
170 193 0
165 188 0
166 189 0
166 190 0
168 193 0
169 191 0
166 189 0
169 191 0
170 193 0
166 190 0
169 192 0
161 183 0
166 188 0
169 193 0
170 194 0
168 190 0
165 188 0
166 187 0
169 193 0
170 192 0
169 191 0
168 191 0
168 191 0
170 193 0
168 191 0
165 187 0
166 189 0
173 195 0
166 190 0
168 191 0
167 190 0
170 193 0
167 190 0
171 194 0
168 189 0
168 191 0
164 187 0
166 188 0
169 192 0
169 192 0
170 193 0
168 191 0
168 190 0
168 191 0
167 190 0
171 194 0
171 193 0
173 195 0
169 191 0
169 192 0
171 193 0
167 191 0
168 190 0
168 191 0
170 192 0
167 189 0
169 192 0
171 195 0
171 194 0
170 193 0
170 192 0
172 194 0
169 193 0
174 196 0
171 194 0
170 192 0
174 197 0
168 191 0
172 194 0
169 191 0
169 192 0
170 194 0
170 191 0
171 195 0
168 191 0
167 190 0
170 193 0
170 193 0
171 194 0
171 194 0
170 194 0
172 194 0
167 191 0
171 194 0
172 194 0
172 195 0
170 193 0
171 195 0
168 192 0
165 189 0
173 195 0
169 192 0
168 191 0
174 196 0
170 193 0
171 193 0
173 195 0
172 195 0
173 196 0
171 194 0
171 195 0
172 195 0
164 186 0
164 185 0
161 182 0
162 183 0
163 184 0
159 180 0
160 182 0
163 184 0
164 184 0
164 186 0
165 187 0
160 181 0
161 182 0
158 179 0
159 179 0
151 172 0
164 186 0
156 177 0
156 177 0
156 178 0
157 179 0
152 174 0
154 176 0
160 181 0
152 173 0
156 177 0
156 178 0
159 181 0
161 183 0
159 180 0
156 178 0
154 175 0
155 177 0
160 181 0
151 172 0
163 184 0
158 179 0
152 174 0
158 180 0
158 179 0
162 184 0
163 183 0
162 184 0
157 179 0
154 175 0
159 180 0
161 182 0
162 185 0
155 177 0
157 178 0
162 184 0
163 185 0
157 179 0
167 186 0
159 180 0
157 178 0
149 171 0
163 185 0
164 185 0
160 181 0
163 185 0
165 187 0
164 186 0
159 182 0
162 184 0
168 189 0
168 189 0
171 193 0
166 188 0
165 187 0
164 186 0
166 189 0
168 191 0
188 208 147
204 221 201
163 185 51
163 184 0
159 181 0
161 182 0
164 186 0
160 182 0
158 181 0
160 181 0
159 180 0
155 177 0
159 180 0
163 184 0
156 178 0
156 176 0
159 178 0
162 182 0
160 182 0
158 180 0
159 180 0
158 180 0
156 177 0
164 184 0
161 182 0
160 182 0
163 185 0
158 179 0
156 177 0
157 180 0
155 175 0
151 173 0
162 183 0
151 172 0
152 174 0
158 180 0
158 179 0
156 177 0
158 179 0
159 180 0
155 176 0
152 174 0
151 173 0
155 177 0
159 180 0
161 183 0
159 181 0
155 177 0
158 179 0
153 176 0
158 180 0
156 177 0
151 172 0
153 175 0
154 176 0
159 181 0
154 175 0
154 177 0
163 185 0
154 175 0
153 174 0
152 173 0
149 171 0
156 178 0
157 179 0
157 180 0
157 179 0
154 176 0
160 182 0
155 176 0
152 174 0
155 178 0
150 173 0
154 176 0
151 174 0
151 173 0
152 174 0
150 172 0
152 174 0
154 177 0
152 175 0
151 173 0
155 177 0
157 179 0
156 177 0
153 176 0
156 178 0
153 176 0
151 174 0
153 176 0
152 175 0
159 181 0
148 169 0
148 170 0
146 168 0
158 181 0
152 175 0
149 171 0
147 168 0
155 177 0
154 177 0
150 172 0
161 183 0
162 183 0
149 172 0
162 185 0
152 174 0
159 182 0
159 183 0
156 177 0
157 179 0
153 175 0
159 180 0
153 174 0
151 174 0
162 184 0
160 182 0
160 182 0
152 175 0
152 175 0
157 179 0
158 181 0
150 172 0
160 183 0
152 174 0
160 183 0
159 181 0
157 180 0
157 179 0
153 176 0
153 176 0
156 177 0
162 186 0
158 181 0
156 179 0
157 179 0
156 179 0
155 177 0
165 188 0
157 179 0
155 177 0
161 184 0
150 172 0
157 180 0
158 179 0
158 182 0
160 182 0
160 183 0
162 185 0
158 181 0
155 178 0
160 182 0
160 182 0
156 178 0
158 181 0
161 184 0
163 186 0
158 181 0
163 186 0
160 183 0
160 182 0
155 177 0
159 181 0
158 180 0
157 178 0
164 187 0
158 181 0
160 183 0
159 183 0
159 181 0
160 183 0
167 190 0
161 183 0
162 185 0
165 187 0
165 187 0
163 186 0
163 186 0
164 187 0
165 187 0
160 182 0
162 184 0
161 183 0
165 188 0
163 185 0
159 183 0
158 181 0
163 185 0
164 186 0
164 186 0
164 187 0
162 184 0
167 190 0
164 187 0
165 188 0
162 185 0
160 181 0
167 190 0
164 186 0
167 189 0
165 189 0
166 188 0
162 184 0
166 188 0
163 186 0
164 187 0
167 189 0
168 191 0
168 191 0
161 183 0
165 188 0
165 187 0
164 187 0
168 191 0
166 188 0
164 186 0
167 191 0
161 183 0
166 188 0
162 184 0
163 185 0
156 178 0
168 191 0
167 190 0
165 188 0
166 189 0
164 187 0
168 190 0
170 192 0
167 190 0
167 189 0
168 190 0
164 187 0
167 191 0
163 186 0
167 189 0
166 190 0
170 193 0
167 190 0
169 193 0
169 193 0
167 189 0
168 191 0
165 188 0
169 193 0
164 187 0
165 188 0
166 189 0
166 188 0
169 191 0
170 193 0
169 193 0
166 189 0
169 193 0
168 189 0
170 193 0
171 194 0
164 187 0
172 195 0
171 192 0
172 196 0
167 190 0
167 189 0
166 188 0
168 190 0
170 194 0
166 188 0
171 194 0
169 192 0
171 194 0
167 188 0
171 193 0
173 196 0
170 193 0
170 193 0
170 193 0
165 188 0
164 187 0
169 192 0
168 190 0
172 195 0
169 193 0
171 194 0
170 193 0
171 194 0
171 194 0
168 191 0
169 191 0
171 193 0
172 196 0
170 191 0
169 193 0
169 191 0
170 193 0
168 191 0
171 195 0
173 196 0
170 191 0
169 192 0
172 194 0
171 194 0
171 193 0
170 193 0
171 194 0
172 195 0
172 194 0
171 194 0
170 192 0
171 194 0
172 195 0
168 191 0
172 194 0
172 194 0
169 193 0
172 195 0
168 191 0
171 195 0
175 197 0
171 194 0
169 192 0
172 195 0
174 196 0
173 196 0
173 195 0
174 196 0
171 194 0
171 193 0
168 188 0
167 189 0
161 182 0
160 182 0
165 185 0
169 190 0
163 184 0
167 188 0
163 184 0
158 179 0
162 184 0
158 179 0
152 172 0
154 176 0
159 180 0
158 180 0
159 179 0
154 175 0
163 184 0
160 183 0
159 179 0
158 180 0
154 176 0
160 181 0
161 182 0
152 173 0
165 187 0
155 177 0
155 176 0
160 182 0
160 182 0
158 180 0
156 178 0
156 178 0
156 177 0
157 178 0
152 173 0
156 177 0
159 180 0
154 176 0
164 185 0
152 173 0
163 185 0
161 181 0
157 178 0
157 179 0
157 180 0
155 177 0
166 186 0
159 180 0
164 185 0
156 177 0
161 183 0
156 178 0
159 180 0
162 184 0
162 184 0
164 186 0
160 182 0
155 176 0
160 182 0
165 186 0
163 184 0
164 185 0
166 188 0
166 186 0
163 184 0
164 185 0
166 187 0
163 186 0
166 189 0
172 194 51
201 219 191
184 203 157
161 183 25
163 185 0
160 181 0
161 183 0
161 183 0
161 183 0
161 183 0
158 179 0
159 180 0
154 175 0
167 188 0
165 188 0
154 176 0
161 181 0
159 181 0
155 178 0
154 175 0
167 188 0
157 178 0
164 186 0
156 178 0
164 185 0
165 186 0
156 178 0
161 182 0
158 180 0
153 175 0
157 178 0
163 184 0
154 175 0
160 181 0
164 185 0
158 179 0
159 180 0
153 175 0
157 179 0
156 178 0
153 175 0
153 175 0
156 177 0
147 170 0
153 175 0
163 185 0
155 176 0
161 182 0
151 172 0
155 176 0
156 177 0
154 176 0
158 180 0
153 176 0
156 177 0
161 183 0
157 180 0
155 176 0
157 178 0
158 180 0
157 179 0
155 177 0
152 174 0
160 181 0
153 175 0
156 178 0
152 174 0
154 176 0
151 173 0
149 171 0
151 175 0
153 175 0
150 173 0
145 167 0
152 173 0
153 175 0
147 168 0
151 173 0
158 179 0
151 174 0
144 166 0
155 177 0
151 174 0
157 180 0
153 175 0
155 177 0
150 173 0
150 172 0
155 178 0
158 182 0
161 184 0
154 177 0
148 171 0
144 166 0
150 172 0
154 177 0
155 178 0
150 172 0
149 171 0
155 178 0
149 172 0
155 177 0
149 171 0
161 183 0
151 174 0
161 182 0
155 177 0
158 181 0
153 175 0
157 180 0
150 172 0
153 176 0
158 182 0
157 180 0
159 182 0
156 178 0
161 183 0
153 174 0
158 180 0
158 179 0
154 176 0
155 178 0
148 171 0
156 177 0
159 182 0
154 175 0
158 181 0
156 179 0
153 176 0
157 179 0
153 176 0
154 175 0
155 177 0
154 176 0
154 177 0
156 179 0
153 175 0
151 174 0
156 179 0
158 180 0
160 183 0
159 182 0
154 175 0
148 171 0
153 174 0
156 178 0
163 186 0
159 181 0
158 181 0
161 183 0
160 183 0
162 184 0
164 187 0
155 179 0
162 184 0
155 179 0
158 181 0
158 179 0
158 181 0
161 183 0
156 179 0
159 180 0
159 182 0
159 181 0
165 186 0
167 190 0
160 182 0
158 181 0
158 180 0
157 179 0
166 188 0
162 185 0
159 182 0
164 187 0
164 186 0
154 177 0
157 179 0
168 190 0
162 185 0
163 185 0
163 186 0
167 190 0
169 192 0
161 184 0
161 184 0
165 187 0
162 185 0
159 180 0
167 190 0
162 185 0
164 186 0
161 184 0
164 187 0
164 187 0
163 187 0
161 183 0
161 184 0
162 186 0
164 187 0
167 189 0
168 191 0
167 190 0
164 188 0
163 186 0
161 183 0
165 189 0
170 193 0
165 187 0
164 186 0
166 189 0
166 188 0
164 185 0
165 188 0
167 191 0
167 191 0
168 191 0
165 187 0
167 191 0
167 190 0
167 190 0
168 191 0
166 189 0
164 187 0
161 183 0
169 193 0
167 190 0
170 192 0
164 186 0
166 190 0
166 189 0
170 193 0
169 192 0
167 190 0
166 188 0
168 190 0
167 191 0
164 185 0
163 184 0
168 190 0
170 192 0
166 188 0
171 194 0
163 187 0
169 192 0
169 191 0
170 193 0
169 191 0
169 192 0
162 185 0
166 189 0
169 191 0
169 190 0
169 191 0
168 191 0
171 193 0
168 192 0
167 190 0
169 190 0
168 192 0
168 192 0
168 191 0
167 190 0
164 187 0
168 191 0
170 192 0
169 191 0
170 193 0
167 188 0
172 195 0
168 190 0
174 196 0
171 194 0
169 191 0
168 190 0
171 193 0
172 195 0
170 194 0
168 189 0
171 193 0
173 195 0
170 194 0
171 193 0
167 191 0
166 190 0
169 192 0
167 190 0
170 193 0
169 192 0
170 192 0
168 191 0
171 195 0
166 189 0
170 193 0
166 191 0
170 193 0
170 192 0
171 194 0
170 194 0
168 192 0
172 194 0
169 190 0
168 191 0
174 196 0
171 194 0
170 194 0
171 194 0
172 195 0
170 193 0
171 193 0
171 195 0
174 197 0
168 191 0
173 195 0
170 193 0
170 193 0
168 191 0
174 197 0
169 192 0
171 195 0
172 195 0
172 195 0
173 196 0
173 196 0
173 195 0
171 193 0
170 192 0
172 195 0
170 193 0
169 193 0
165 186 0
164 185 0
162 184 0
159 179 0
160 182 0
161 181 0
157 179 0
159 179 0
159 180 0
164 185 0
159 180 0
161 182 0
161 183 0
161 182 0
163 184 0
155 176 0
160 182 0
162 183 0
156 177 0
152 174 0
154 176 0
163 185 0
163 183 0
159 181 0
154 175 0
153 174 0
162 182 0
157 177 0
159 181 0
163 184 0
157 179 0
158 179 0
160 181 0
157 178 0
158 180 0
148 169 0
157 179 0
161 183 0
163 184 0
153 175 0
160 181 0
161 183 0
157 178 0
156 178 0
155 177 0
159 181 0
161 182 0
160 181 0
154 176 0
160 180 0
157 178 0
164 184 0
154 177 0
155 176 0
167 188 0
166 187 0
159 181 0
164 185 0
161 182 0
170 191 0
155 176 0
160 181 0
162 185 0
160 181 0
164 185 0
162 183 0
164 186 0
169 191 0
166 188 0
168 190 0
181 202 122
202 219 199
164 184 72
159 181 0
164 186 0
164 185 0
169 190 0
158 180 0
162 183 0
159 181 0
165 187 0
158 179 0
162 183 0
163 184 0
160 181 0
159 181 0
153 175 0
157 179 0
162 184 0
160 180 0
159 181 0
160 183 0
160 181 0
160 182 0
163 184 0
169 190 0
161 182 0
163 184 0
146 168 0
164 185 0
161 183 0
153 175 0
159 181 0
152 175 0
162 183 0
160 182 0
158 179 0
157 179 0
157 179 0
159 181 0
154 176 0
158 180 0
146 166 0
154 176 0
157 178 0
161 182 0
155 178 0
154 176 0
156 177 0
148 170 0
156 178 0
153 175 0
156 177 0
151 172 0
145 166 0
164 186 0
154 177 0
155 176 0
158 180 0
159 182 0
155 177 0
153 176 0
151 173 0
159 181 0
159 180 0
158 180 0
155 177 0
154 177 0
157 179 0
152 175 0
156 177 0
156 178 0
146 168 0
156 178 0
151 173 0
156 178 0
155 177 0
153 176 0
156 178 0
154 176 0
151 173 0
157 180 0
154 177 0
151 174 0
151 174 0
149 172 0
156 179 0
155 178 0
161 184 0
160 182 0
148 171 0
156 179 0
158 181 0
162 185 0
152 175 0
156 179 0
157 178 0
167 189 0
156 178 0
155 178 0
154 175 0
153 176 0
152 174 0
154 177 0
153 176 0
149 171 0
149 172 0
153 175 0
155 177 0
150 171 0
152 174 0
147 169 0
153 176 0
148 171 0
154 176 0
155 178 0
157 180 0
151 173 0
159 182 0
158 181 0
153 176 0
161 183 0
159 181 0
150 173 0
164 188 0
161 183 0
158 181 0
155 178 0
156 178 0
157 180 0
160 183 0
158 181 0
152 175 0
154 177 0
153 175 0
148 171 0
155 176 0
155 178 0
154 176 0
152 175 0
159 182 0
156 178 0
162 183 0
154 177 0
156 178 0
160 183 0
156 177 0
160 182 0
160 182 0
160 183 0
165 188 0
158 179 0
162 185 0
162 185 0
162 186 0
162 185 0
162 185 0
161 184 0
160 182 0
163 186 0
160 180 0
150 173 0
154 176 0
165 189 0
157 179 0
160 183 0
157 180 0
159 180 0
167 191 0
152 173 0
164 185 0
161 183 0
167 189 0
157 180 0
162 185 0
167 190 0
160 182 0
163 186 0
161 185 0
160 182 0
165 189 0
160 182 0
162 185 0
161 183 0
161 184 0
166 189 0
160 183 0
164 186 0
166 189 0
164 188 0
164 187 0
166 189 0
163 185 0
160 182 0
167 189 0
165 189 0
165 187 0
165 188 0
169 193 0
162 185 0
164 187 0
164 186 0
165 188 0
169 191 0
167 190 0
164 186 0
158 182 0
167 190 0
167 190 0
167 190 0
164 187 0
169 192 0
167 189 0
163 184 0
166 189 0
167 190 0
165 187 0
166 189 0
167 189 0
170 192 0
162 184 0
167 190 0
165 189 0
163 185 0
165 188 0
161 182 0
166 189 0
164 188 0
170 191 0
163 186 0
167 190 0
170 193 0
164 186 0
166 189 0
173 195 0
167 191 0
164 187 0
173 195 0
167 191 0
164 186 0
168 190 0
165 189 0
168 191 0
165 187 0
166 188 0
172 194 0
166 188 0
168 191 0
168 191 0
169 191 0
167 190 0
167 190 0
166 188 0
169 191 0
163 186 0
171 193 0
166 188 0
167 190 0
169 190 0
168 191 0
168 190 0
169 192 0
166 188 0
171 194 0
170 192 0
171 194 0
172 193 0
168 191 0
166 189 0
169 191 0
168 191 0
171 194 0
168 190 0
167 189 0
171 193 0
169 190 0
167 191 0
167 189 0
172 194 0
171 193 0
168 191 0
170 193 0
167 190 0
173 195 0
172 195 0
170 193 0
169 194 0
166 188 0
168 192 0
171 193 0
171 193 0
173 196 0
172 195 0
168 191 0
171 194 0
172 194 0
171 195 0
168 190 0
167 188 0
169 193 0
169 191 0
169 191 0
169 191 0
174 197 0
169 193 0
172 196 0
169 192 0
172 196 0
171 193 0
170 193 0
173 196 0
172 195 0
169 192 0
172 195 0
173 196 0
171 194 0
175 198 0
170 194 0
169 192 0
169 192 0
168 191 0
172 194 0
172 195 0
172 195 0
170 194 0
173 196 0
174 196 0
169 192 0
171 194 0
172 195 0
163 185 0
160 180 0
157 179 0
159 181 0
160 181 0
156 177 0
161 183 0
166 188 0
157 178 0
151 173 0
160 181 0
160 182 0
161 183 0
159 181 0
161 183 0
153 174 0
161 182 0
159 180 0
161 183 0
155 176 0
154 175 0
159 180 0
160 182 0
160 181 0
160 181 0
150 172 0
163 184 0
158 179 0
158 179 0
161 183 0
165 187 0
160 181 0
159 180 0
159 180 0
158 178 0
153 174 0
157 177 0
152 174 0
162 183 0
154 175 0
157 177 0
156 177 0
158 180 0
162 183 0
162 181 0
160 181 0
159 181 0
160 182 0
162 183 0
156 177 0
153 174 0
163 184 0
162 183 0
165 186 0
156 178 0
157 177 0
160 181 0
167 187 0
163 184 0
163 185 0
164 186 0
167 187 0
166 187 0
164 185 0
166 187 0
166 187 0
159 181 0
171 193 0
171 194 51
199 217 188
188 206 159
167 188 25
162 183 0
163 185 0
164 184 0
165 186 0
161 182 0
160 180 0
159 180 0
172 192 0
157 178 0
155 177 0
165 187 0
159 180 0
159 180 0
161 183 0
164 185 0
155 176 0
152 174 0
165 186 0
158 179 0
161 182 0
167 188 0
157 179 0
152 173 0
158 180 0
155 177 0
160 182 0
152 174 0
153 175 0
155 176 0
161 181 0
158 180 0
152 173 0
155 177 0
157 179 0
155 176 0
153 175 0
154 176 0
156 179 0
154 176 0
156 177 0
156 178 0
160 182 0
153 175 0
149 172 0
163 184 0
153 174 0
149 171 0
157 178 0
153 174 0
149 171 0
155 177 0
156 178 0
156 179 0
158 180 0
157 179 0
154 176 0
149 170 0
162 185 0
153 176 0
158 180 0
153 175 0
156 178 0
156 178 0
157 179 0
149 170 0
158 181 0
153 175 0
159 180 0
154 177 0
147 169 0
151 174 0
157 179 0
155 178 0
155 178 0
151 174 0
156 179 0
154 176 0
150 173 0
157 178 0
160 182 0
154 176 0
149 172 0
152 174 0
159 182 0
149 172 0
164 186 0
149 172 0
151 174 0
157 179 0
158 180 0
160 181 0
156 179 0
161 182 0
160 183 0
161 184 0
158 181 0
150 174 0
149 172 0
154 175 0
149 171 0
159 183 0
157 179 0
156 179 0
153 174 0
161 184 0
150 172 0
155 179 0
156 179 0
159 181 0
158 182 0
157 179 0
155 178 0
159 182 0
148 171 0
154 178 0
154 178 0
158 181 0
161 185 0
152 176 0
160 183 0
152 174 0
161 183 0
155 178 0
161 184 0
155 178 0
157 180 0
162 184 0
151 174 0
156 178 0
155 178 0
152 175 0
157 179 0
160 182 0
161 183 0
161 185 0
153 176 0
161 185 0
159 181 0
156 179 0
160 181 0
163 185 0
158 181 0
163 186 0
154 175 0
156 179 0
163 185 0
161 183 0
152 174 0
161 183 0
159 183 0
159 182 0
153 178 0
154 176 0
162 184 0
158 180 0
159 182 0
161 183 0
158 181 0
155 177 0
156 178 0
158 180 0
159 182 0
164 186 0
162 183 0
160 182 0
158 180 0
162 184 0
163 185 0
165 188 0
160 183 0
161 184 0
157 179 0
164 186 0
165 187 0
159 182 0
167 190 0
162 185 0
163 186 0
164 188 0
165 187 0
161 182 0
157 181 0
165 188 0
158 180 0
164 187 0
163 187 0
162 185 0
167 189 0
168 191 0
162 186 0
158 181 0
163 185 0
166 188 0
169 192 0
169 193 0
164 186 0
162 184 0
164 188 0
159 181 0
162 185 0
163 186 0
169 193 0
163 186 0
164 187 0
166 188 0
165 189 0
164 186 0
160 182 0
167 190 0
163 185 0
165 188 0
166 189 0
168 192 0
167 190 0
166 188 0
170 192 0
166 190 0
164 185 0
169 191 0
168 191 0
169 193 0
168 191 0
165 188 0
166 188 0
167 189 0
170 193 0
167 189 0
168 191 0
168 192 0
168 191 0
164 187 0
172 193 0
170 193 0
166 189 0
171 193 0
168 192 0
170 193 0
164 185 0
167 189 0
168 191 0
164 185 0
171 195 0
163 186 0
169 190 0
169 191 0
169 190 0
167 190 0
168 191 0
167 190 0
167 190 0
166 188 0
170 193 0
165 187 0
165 187 0
170 193 0
172 194 0
167 190 0
163 186 0
170 193 0
170 194 0
168 192 0
168 190 0
167 189 0
166 189 0
171 194 0
171 193 0
166 189 0
169 192 0
170 193 0
170 192 0
169 190 0
167 190 0
173 197 0
167 190 0
171 194 0
168 192 0
166 190 0
168 191 0
170 194 0
170 192 0
170 193 0
171 193 0
168 191 0
165 187 0
169 191 0
171 194 0
172 195 0
172 195 0
171 194 0
171 194 0
167 191 0
170 193 0
170 193 0
169 191 0
168 192 0
168 191 0
172 195 0
170 193 0
173 196 0
167 190 0
168 192 0
168 190 0
170 192 0
173 196 0
170 193 0
170 193 0
171 194 0
169 193 0
172 195 0
169 191 0
171 193 0
172 195 0
169 192 0
170 193 0
171 194 0
173 196 0
168 189 0
170 193 0
169 191 0
172 194 0
169 191 0
172 195 0
168 190 0
172 194 0
174 197 0
172 196 0
171 195 0
168 191 0
160 181 0
166 187 0
156 177 0
163 184 0
157 178 0
167 187 0
160 181 0
155 178 0
161 183 0
164 184 0
155 177 0
163 184 0
153 174 0
155 176 0
157 178 0
155 177 0
152 174 0
154 176 0
162 184 0
153 174 0
162 183 0
159 180 0
156 177 0
156 177 0
151 173 0
156 178 0
156 177 0
162 183 0
162 183 0
149 170 0
160 181 0
158 179 0
164 185 0
161 182 0
163 184 0
163 184 0
153 174 0
157 179 0
154 175 0
162 182 0
155 177 0
165 186 0
163 184 0
162 183 0
164 184 0
160 180 0
158 179 0
159 180 0
158 179 0
159 180 0
165 186 0
165 186 0
162 184 0
155 176 0
164 185 0
160 182 0
163 184 0
164 185 0
168 189 0
164 185 0
165 186 0
165 186 0
167 188 0
165 186 0
168 189 0
166 188 0
171 193 0
191 211 149
193 210 179
172 192 92
163 185 0
170 191 0
159 180 0
160 182 0
162 182 0
159 180 0
163 184 0
160 181 0
157 179 0
157 179 0
159 180 0
163 183 0
160 182 0
154 176 0
162 184 0
163 185 0
158 179 0
161 182 0
160 182 0
161 182 0
157 179 0
156 178 0
146 167 0
156 178 0
155 177 0
153 174 0
159 180 0
156 178 0
158 180 0
156 177 0
156 177 0
156 178 0
162 183 0
161 181 0
160 181 0
154 176 0
149 169 0
156 177 0
155 177 0
155 176 0
159 181 0
160 181 0
159 181 0
158 179 0
161 184 0
165 187 0
150 171 0
151 172 0
156 177 0
155 177 0
155 176 0
158 180 0
160 181 0
152 174 0
152 174 0
153 175 0
157 179 0
159 181 0
158 181 0
155 177 0
155 177 0
152 173 0
154 176 0
154 175 0
155 177 0
155 177 0
153 176 0
148 171 0
149 170 0
138 160 0
153 174 0
153 176 0
156 178 0
149 171 0
155 177 0
156 179 0
159 182 0
160 183 0
152 173 0
155 176 0
148 170 0
151 173 0
151 173 0
159 182 0
156 177 0
156 177 0
157 180 0
152 175 0
153 175 0
157 179 0
156 178 0
153 175 0
152 175 0
153 175 0
153 175 0
153 175 0
154 176 0
152 175 0
155 176 0
154 178 0
153 176 0
155 176 0
151 174 0
151 174 0
158 180 0
153 175 0
155 178 0
155 178 0
153 175 0
154 177 0
157 178 0
159 182 0
152 175 0
161 183 0
153 176 0
157 180 0
155 178 0
152 175 0
150 171 0
155 178 0
150 173 0
159 181 0
158 181 0
159 182 0
166 188 0
159 182 0
160 183 0
161 185 0
158 182 0
156 179 0
161 184 0
156 179 0
158 181 0
161 184 0
157 179 0
160 184 0
157 179 0
159 182 0
149 172 0
155 178 0
160 183 0
155 177 0
158 180 0
161 184 0
151 174 0
159 181 0
159 182 0
158 181 0
158 180 0
151 174 0
163 187 0
161 183 0
159 182 0
162 184 0
161 183 0
162 185 0
162 184 0
160 183 0
160 182 0
156 178 0
163 185 0
163 185 0
159 182 0
159 182 0
163 186 0
162 184 0
160 182 0
163 186 0
164 185 0
164 187 0
164 186 0
169 192 0
160 182 0
158 180 0
161 184 0
166 189 0
163 186 0
166 187 0
164 186 0
160 181 0
161 184 0
164 188 0
157 180 0
157 179 0
162 184 0
165 187 0
164 187 0
163 186 0
165 188 0
163 185 0
167 190 0
157 180 0
164 188 0
165 187 0
167 189 0
159 182 0
167 191 0
158 180 0
167 189 0
162 184 0
167 189 0
157 179 0
167 190 0
167 189 0
161 183 0
165 188 0
165 189 0
159 181 0
165 188 0
165 186 0
167 190 0
164 186 0
164 187 0
166 190 0
166 190 0
167 189 0
168 190 0
160 183 0
167 189 0
164 188 0
169 192 0
166 189 0
163 186 0
166 189 0
168 191 0
167 190 0
166 188 0
165 188 0
167 190 0
171 194 0
164 187 0
169 192 0
167 189 0
163 186 0
168 190 0
164 186 0
165 188 0
170 193 0
164 186 0
168 191 0
167 191 0
168 190 0
165 187 0
169 192 0
170 194 0
171 194 0
167 190 0
168 190 0
163 186 0
169 192 0
164 187 0
170 193 0
170 193 0
167 190 0
167 190 0
165 188 0
168 190 0
169 191 0
173 196 0
167 191 0
167 191 0
168 190 0
168 190 0
168 190 0
168 191 0
168 192 0
166 190 0
171 194 0
171 194 0
168 190 0
168 190 0
169 191 0
168 190 0
169 192 0
170 193 0
168 189 0
167 190 0
167 190 0
171 194 0
169 190 0
172 195 0
166 188 0
165 188 0
172 195 0
168 190 0
172 194 0
166 189 0
169 191 0
166 188 0
168 191 0
171 194 0
174 196 0
171 194 0
169 193 0
168 190 0
170 192 0
172 195 0
170 193 0
167 190 0
169 192 0
171 195 0
170 192 0
171 194 0
169 192 0
171 195 0
170 193 0
172 194 0
171 193 0
171 194 0
170 193 0
170 191 0
168 192 0
170 192 0
172 195 0
172 195 0
170 193 0
171 194 0
171 194 0
168 191 0
173 196 0
172 195 0
171 194 0
171 195 0
170 193 0
174 196 0
170 193 0
169 193 0
167 190 0
173 196 0
171 194 0
161 183 0
167 187 0
161 183 0
157 178 0
161 182 0
163 185 0
155 176 0
158 180 0
151 172 0
159 180 0
159 180 0
158 180 0
158 179 0
153 175 0
157 178 0
159 181 0
151 172 0
151 173 0
162 183 0
153 175 0
160 181 0
153 175 0
158 180 0
155 178 0
161 182 0
160 181 0
158 180 0
155 175 0
160 182 0
161 182 0
155 177 0
160 181 0
161 183 0
156 177 0
155 176 0
166 187 0
158 179 0
156 179 0
161 182 0
163 184 0
163 183 0
159 180 0
154 176 0
166 187 0
157 179 0
158 179 0
166 188 0
162 183 0
162 185 0
153 174 0
159 180 0
166 187 0
159 180 0
159 180 0
159 180 0
161 182 0
168 190 0
157 177 0
162 183 0
167 188 0
168 189 0
169 189 0
169 190 0
167 188 0
168 189 0
173 195 67
198 216 189
186 204 151
168 189 0
166 187 0
169 190 0
162 183 0
159 180 0
169 190 0
165 186 0
163 184 0
164 185 0
162 184 0
154 175 0
150 171 0
165 186 0
165 186 0
162 184 0
158 179 0
156 177 0
157 178 0
160 181 0
166 187 0
154 175 0
158 180 0
155 176 0
157 179 0
155 176 0
162 184 0
160 182 0
161 182 0
154 174 0
161 183 0
159 179 0
154 176 0
159 179 0
154 177 0
159 182 0
165 187 0
155 176 0
164 185 0
157 179 0
157 180 0
161 182 0
151 173 0
154 175 0
156 177 0
159 180 0
152 174 0
154 175 0
154 175 0
158 180 0
163 184 0
160 182 0
148 171 0
160 182 0
161 183 0
155 178 0
160 182 0
157 179 0
154 176 0
147 169 0
152 174 0
152 173 0
158 179 0
161 183 0
158 180 0
157 179 0
153 174 0
152 174 0
163 185 0
153 176 0
155 178 0
155 178 0
156 178 0
155 177 0
152 174 0
157 180 0
158 180 0
156 179 0
160 182 0
159 181 0
158 180 0
153 175 0
151 173 0
157 179 0
149 171 0
159 181 0
158 180 0
149 172 0
155 178 0
157 180 0
153 174 0
150 173 0
153 176 0
156 180 0
157 179 0
155 176 0
150 173 0
152 173 0
156 179 0
150 173 0
151 173 0
153 175 0
162 185 0
153 176 0
151 173 0
152 175 0
155 177 0
156 178 0
154 175 0
154 177 0
148 171 0
156 178 0
155 179 0
157 181 0
157 179 0
150 173 0
151 174 0
158 180 0
161 183 0
158 180 0
154 177 0
157 179 0
154 177 0
162 184 0
159 182 0
156 179 0
156 179 0
158 181 0
155 178 0
157 179 0
158 182 0
158 182 0
159 182 0
151 175 0
159 181 0
158 181 0
154 176 0
153 176 0
156 178 0
158 180 0
152 175 0
151 174 0
161 182 0
162 186 0
167 191 0
159 180 0
154 176 0
158 181 0
155 176 0
161 183 0
160 182 0
155 177 0
162 184 0
161 184 0
160 181 0
158 180 0
162 185 0
157 179 0
155 177 0
160 181 0
163 187 0
161 184 0
163 185 0
164 187 0
167 191 0
164 187 0
160 181 0
158 180 0
157 180 0
163 186 0
160 183 0
161 184 0
164 188 0
164 187 0
158 180 0
162 186 0
165 188 0
158 181 0
163 185 0
162 183 0
163 185 0
159 181 0
161 184 0
160 184 0
163 185 0
163 186 0
162 184 0
166 187 0
158 182 0
165 187 0
165 189 0
166 189 0
162 185 0
168 190 0
166 188 0
162 185 0
161 184 0
166 189 0
163 187 0
164 187 0
168 192 0
165 187 0
161 184 0
164 187 0
166 190 0
163 185 0
164 187 0
164 187 0
169 193 0
163 187 0
164 187 0
163 186 0
166 190 0
163 186 0
164 188 0
165 189 0
167 190 0
159 181 0
165 188 0
162 185 0
166 187 0
164 187 0
165 188 0
160 183 0
164 186 0
168 191 0
169 192 0
166 188 0
168 192 0
163 186 0
164 187 0
167 190 0
163 186 0
169 192 0
166 188 0
170 193 0
163 186 0
166 189 0
167 190 0
170 193 0
167 191 0
171 195 0
172 193 0
170 193 0
165 188 0
169 192 0
168 190 0
169 192 0
172 195 0
168 190 0
169 193 0
166 189 0
171 193 0
168 190 0
169 191 0
169 191 0
166 189 0
166 189 0
168 192 0
167 190 0
171 193 0
170 192 0
166 187 0
169 193 0
167 189 0
167 190 0
169 192 0
166 189 0
168 191 0
169 191 0
171 193 0
170 194 0
168 190 0
167 191 0
167 189 0
168 190 0
170 192 0
171 195 0
169 192 0
169 191 0
168 192 0
172 195 0
169 192 0
169 191 0
173 196 0
166 189 0
171 193 0
170 193 0
169 191 0
171 193 0
168 190 0
172 196 0
169 192 0
170 194 0
172 196 0
170 193 0
172 194 0
170 193 0
171 194 0
170 194 0
171 194 0
174 196 0
171 193 0
169 192 0
174 196 0
169 192 0
171 193 0
172 193 0
167 191 0
171 192 0
171 194 0
173 196 0
170 193 0
171 193 0
169 193 0
170 193 0
171 193 0
171 193 0
170 193 0
170 193 0
173 196 0
173 196 0
173 196 0
170 193 0
170 194 0
170 193 0
171 194 0
174 197 0
172 195 0
169 190 0
170 193 0
171 194 0
172 195 0
159 179 0
164 185 0
165 186 0
159 179 0
159 181 0
161 182 0
159 180 0
162 183 0
152 174 0
148 170 0
153 174 0
164 185 0
161 182 0
158 179 0
156 177 0
157 178 0
158 179 0
160 181 0
154 175 0
163 184 0
159 181 0
163 183 0
160 182 0
152 175 0
159 180 0
156 178 0
163 184 0
154 175 0
165 186 0
160 182 0
162 184 0
161 182 0
163 184 0
161 183 0
163 184 0
157 178 0
159 179 0
154 175 0
161 182 0
167 188 0
158 180 0
159 180 0
164 186 0
158 179 0
158 178 0
163 184 0
153 174 0
160 181 0
164 185 0
161 182 0
159 179 0
165 186 0
162 183 0
165 186 0
156 177 0
159 180 0
163 184 0
163 186 0
163 184 0
170 192 0
165 186 0
166 187 0
165 187 0
170 192 0
189 208 151
198 215 193
167 187 76
162 184 0
164 186 0
161 183 0
161 182 0
160 180 0
162 183 0
162 183 0
161 182 0
160 181 0
158 179 0
160 182 0
163 184 0
168 189 0
168 189 0
157 178 0
159 181 0
165 187 0
168 190 0
156 178 0
158 179 0
159 180 0
158 179 0
159 181 0
160 181 0
161 182 0
157 178 0
163 184 0
157 178 0
167 189 0
157 178 0
157 178 0
152 173 0
158 178 0
157 179 0
160 181 0
158 179 0
158 180 0
159 181 0
160 182 0
151 173 0
160 181 0
157 179 0
155 176 0
159 181 0
157 179 0
157 178 0
149 171 0
151 173 0
157 178 0
150 171 0
157 178 0
150 172 0
163 184 0
164 185 0
154 176 0
156 177 0
158 180 0
159 180 0
157 179 0
160 183 0
152 175 0
157 179 0
152 174 0
159 181 0
161 183 0
156 179 0
160 182 0
153 175 0
151 173 0
160 183 0
157 180 0
157 179 0
151 173 0
157 179 0
158 181 0
169 192 0
156 180 0
161 184 0
158 180 0
149 171 0
161 183 0
153 175 0
157 178 0
154 176 0
158 181 0
145 166 0
161 183 0
157 179 0
151 173 0
150 172 0
154 176 0
149 171 0
159 181 0
150 172 0
152 176 0
149 172 0
155 179 0
157 179 0
157 179 0
141 163 0
157 179 0
158 182 0
155 177 0
159 182 0
155 177 0
160 183 0
157 180 0
158 182 0
152 175 0
158 182 0
153 176 0
151 174 0
152 176 0
159 182 0
150 173 0
157 180 0
160 183 0
154 178 0
159 181 0
159 181 0
155 178 0
157 180 0
157 179 0
159 182 0
160 182 0
156 179 0
154 176 0
160 183 0
153 175 0
164 188 0
153 175 0
157 180 0
154 176 0
163 184 0
158 180 0
156 177 0
156 178 0
158 179 0
157 180 0
154 176 0
159 182 0
157 180 0
159 183 0
161 184 0
158 180 0
162 185 0
154 176 0
154 176 0
160 184 0
157 180 0
162 185 0
160 183 0
160 182 0
160 182 0
160 183 0
161 183 0
159 182 0
158 181 0
161 183 0
160 182 0
162 184 0
166 190 0
162 185 0
158 181 0
159 182 0
161 184 0
161 184 0
160 183 0
157 180 0
163 186 0
163 185 0
160 182 0
162 183 0
155 177 0
166 191 0
163 185 0
163 185 0
166 188 0
161 183 0
164 186 0
158 180 0
165 188 0
165 188 0
160 183 0
168 190 0
159 182 0
167 190 0
167 190 0
160 183 0
164 186 0
161 182 0
164 186 0
163 186 0
164 187 0
163 187 0
166 189 0
163 186 0
165 188 0
163 186 0
164 187 0
169 192 0
162 185 0
165 189 0
161 184 0
165 187 0
164 186 0
163 185 0
169 193 0
168 190 0
162 185 0
166 189 0
164 187 0
162 185 0
160 183 0
165 189 0
164 186 0
167 190 0
166 189 0
166 190 0
163 184 0
169 193 0
163 185 0
169 192 0
166 188 0
168 190 0
165 187 0
163 186 0
166 189 0
165 188 0
168 191 0
160 183 0
168 191 0
163 187 0
168 189 0
168 191 0
163 185 0
166 189 0
165 189 0
159 182 0
169 192 0
170 193 0
164 187 0
169 191 0
169 191 0
164 187 0
170 193 0
163 186 0
167 189 0
172 195 0
167 189 0
164 186 0
169 192 0
169 192 0
167 190 0
171 193 0
166 189 0
167 190 0
165 189 0
169 191 0
169 193 0
166 189 0
169 190 0
168 192 0
168 191 0
168 190 0
169 192 0
169 192 0
166 188 0
170 193 0
168 191 0
168 191 0
167 189 0
172 195 0
167 189 0
169 193 0
169 192 0
166 189 0
169 191 0
164 187 0
169 193 0
171 194 0
168 190 0
171 193 0
169 193 0
171 193 0
169 192 0
166 189 0
170 192 0
168 191 0
170 193 0
169 192 0
168 191 0
170 194 0
174 197 0
168 191 0
170 194 0
169 192 0
169 193 0
166 190 0
169 192 0
171 193 0
169 193 0
170 193 0
172 195 0
170 192 0
169 192 0
173 195 0
169 192 0
170 193 0
172 195 0
173 195 0
168 190 0
172 195 0
172 195 0
171 194 0
170 194 0
167 190 0
171 194 0
169 193 0
170 193 0
172 196 0
168 191 0
170 193 0
171 194 0
171 194 0
171 193 0
171 194 0
168 191 0
170 193 0
169 193 0
169 192 0
170 193 0
172 195 0
157 178 0
159 181 0
162 184 0
161 183 0
157 178 0
157 180 0
159 180 0
155 176 0
150 171 0
158 180 0
154 175 0
161 182 0
165 186 0
159 182 0
165 187 0
160 182 0
161 182 0
161 182 0
163 184 0
151 173 0
162 184 0
161 182 0
158 180 0
155 176 0
157 178 0
155 176 0
165 186 0
156 178 0
159 182 0
159 180 0
161 182 0
159 181 0
159 181 0
165 186 0
161 183 0
155 176 0
160 182 0
162 183 0
161 181 0
159 181 0
165 187 0
156 176 0
165 186 0
160 182 0
165 186 0
161 182 0
162 183 0
164 186 0
153 175 0
155 176 0
165 187 0
166 187 0
160 183 0
167 188 0
164 184 0
164 185 0
169 190 0
165 187 0
163 184 0
166 188 0
165 186 0
166 188 0
181 203 84
200 218 189
181 200 125
165 186 0
168 188 0
172 193 0
161 183 0
166 187 0
161 182 0
165 187 0
164 185 0
159 179 0
156 177 0
164 185 0
163 184 0
160 180 0
167 189 0
165 186 0
166 187 0
159 180 0
159 180 0
164 185 0
154 176 0
159 180 0
160 181 0
157 178 0
164 185 0
161 183 0
159 180 0
161 181 0
165 186 0
156 177 0
159 180 0
165 187 0
159 180 0
161 182 0
155 177 0
155 177 0
159 180 0
161 183 0
157 179 0
159 180 0
155 177 0
160 183 0
157 179 0
157 180 0
158 179 0
156 178 0
155 177 0
159 181 0
148 170 0
158 180 0
159 180 0
154 175 0
157 179 0
149 170 0
155 177 0
157 178 0
159 181 0
156 179 0
156 178 0
162 184 0
158 180 0
163 184 0
154 178 0
158 181 0
160 183 0
156 179 0
158 180 0
160 182 0
149 171 0
152 175 0
156 178 0
151 175 0
156 179 0
157 179 0
157 179 0
154 176 0
153 176 0
153 174 0
158 181 0
157 179 0
162 185 0
156 178 0
156 178 0
158 180 0
155 178 0
160 182 0
159 180 0
159 181 0
152 175 0
154 177 0
155 177 0
156 179 0
154 178 0
149 172 0
161 185 0
150 172 0
153 175 0
155 177 0
157 180 0
153 176 0
159 182 0
150 172 0
158 181 0
156 179 0
159 182 0
159 182 0
157 179 0
152 175 0
155 178 0
157 179 0
158 181 0
164 187 0
155 178 0
159 180 0
159 183 0
147 171 0
159 181 0
157 180 0
154 177 0
162 184 0
154 177 0
161 184 0
161 183 0
158 182 0
158 180 0
156 179 0
157 180 0
157 180 0
159 181 0
161 183 0
156 178 0
157 180 0
158 181 0
157 180 0
160 184 0
154 177 0
163 185 0
162 184 0
162 184 0
156 178 0
161 184 0
158 179 0
162 185 0
162 184 0
161 183 0
155 178 0
159 181 0
165 187 0
158 181 0
154 177 0
160 184 0
151 174 0
165 189 0
157 178 0
164 186 0
158 181 0
158 179 0
159 182 0
161 183 0
158 181 0
159 181 0
157 179 0
162 185 0
164 187 0
162 185 0
165 187 0
161 182 0
162 184 0
158 180 0
157 180 0
156 179 0
155 178 0
162 183 0
159 181 0
163 185 0
156 179 0
160 182 0
156 179 0
159 183 0
162 185 0
165 188 0
164 186 0
164 187 0
163 187 0
168 190 0
158 181 0
163 186 0
163 186 0
165 188 0
158 182 0
162 185 0
164 187 0
163 186 0
161 183 0
169 191 0
165 187 0
166 188 0
163 187 0
160 181 0
163 186 0
160 184 0
166 188 0
157 180 0
165 188 0
160 182 0
163 186 0
167 190 0
165 187 0
164 187 0
167 189 0
164 188 0
166 190 0
163 185 0
164 185 0
168 191 0
166 188 0
166 188 0
164 187 0
168 191 0
166 188 0
163 186 0
164 187 0
165 188 0
165 187 0
168 190 0
166 189 0
167 189 0
166 189 0
165 187 0
165 188 0
169 192 0
165 188 0
163 186 0
167 191 0
167 189 0
168 192 0
166 188 0
166 189 0
169 191 0
166 188 0
170 192 0
173 194 0
167 189 0
171 193 0
166 187 0
167 189 0
165 188 0
161 184 0
166 189 0
167 190 0
168 191 0
168 190 0
167 190 0
168 189 0
167 188 0
163 186 0
170 193 0
166 188 0
168 191 0
167 189 0
164 188 0
172 195 0
168 191 0
168 191 0
167 190 0
168 190 0
171 194 0
167 190 0
165 187 0
164 186 0
167 189 0
168 193 0
171 194 0
166 189 0
167 189 0
169 191 0
167 190 0
172 194 0
170 193 0
167 189 0
170 193 0
168 190 0
170 193 0
171 194 0
175 198 0
170 193 0
169 191 0
168 192 0
172 195 0
171 194 0
168 191 0
168 191 0
173 197 0
167 190 0
169 192 0
169 192 0
172 193 0
173 196 0
170 193 0
169 192 0
168 192 0
171 195 0
172 194 0
171 195 0
169 192 0
170 193 0
170 193 0
174 196 0
172 195 0
172 194 0
172 195 0
169 191 0
169 192 0
170 194 0
170 192 0
173 196 0
171 193 0
173 195 0
170 193 0
171 193 0
171 194 0
165 187 0
173 195 0
170 193 0
170 193 0
170 193 0
170 194 0
173 197 0
173 196 0
173 196 0
170 193 0
169 192 0
170 193 0
174 197 0
170 193 0
169 193 0
164 186 0
157 180 0
159 180 0
161 183 0
149 171 0
158 180 0
159 181 0
162 183 0
157 178 0
165 187 0
169 191 0
157 178 0
152 173 0
162 182 0
164 186 0
157 179 0
158 180 0
154 176 0
155 176 0
168 189 0
152 174 0
161 183 0
164 185 0
161 183 0
154 175 0
153 175 0
153 176 0
157 179 0
157 178 0
165 185 0
154 175 0
156 176 0
158 180 0
161 182 0
166 187 0
159 179 0
165 186 0
162 183 0
162 183 0
165 186 0
155 176 0
161 182 0
160 182 0
160 180 0
167 187 0
160 181 0
169 189 0
161 182 0
159 181 0
160 180 0
166 187 0
157 179 0
165 186 0
163 184 0
163 184 0
167 189 0
167 188 0
164 186 0
170 191 0
169 190 0
169 193 0
191 210 157
194 211 182
157 178 51
165 185 0
156 177 0
171 191 0
159 180 0
168 190 0
164 185 0
160 181 0
158 180 0
168 188 0
167 189 0
161 182 0
158 180 0
157 178 0
157 179 0
165 186 0
160 181 0
165 186 0
159 179 0
157 178 0
160 182 0
167 187 0
169 192 0
158 179 0
159 181 0
154 174 0
154 176 0
162 182 0
160 182 0
164 185 0
159 181 0
152 173 0
156 177 0
156 177 0
153 174 0
152 173 0
162 182 0
158 179 0
155 176 0
159 181 0
160 182 0
154 176 0
161 183 0
157 180 0
161 183 0
160 183 0
163 185 0
154 176 0
161 183 0
154 176 0
159 181 0
150 172 0
158 180 0
155 177 0
160 183 0
156 178 0
161 182 0
154 176 0
150 172 0
158 180 0
153 176 0
159 182 0
159 181 0
160 183 0
154 176 0
152 174 0
160 183 0
156 178 0
162 184 0
156 178 0
158 181 0
156 179 0
159 182 0
158 181 0
154 177 0
152 173 0
160 183 0
160 183 0
158 181 0
152 175 0
155 177 0
153 175 0
156 179 0
158 180 0
161 183 0
158 180 0
158 180 0
155 178 0
156 179 0
152 175 0
157 179 0
158 181 0
152 175 0
155 178 0
153 175 0
158 180 0
154 175 0
161 184 0
155 177 0
160 182 0
160 182 0
154 178 0
155 178 0
159 181 0
164 186 0
154 176 0
152 175 0
154 177 0
163 186 0
157 180 0
161 183 0
159 181 0
152 174 0
160 184 0
160 183 0
156 179 0
158 181 0
156 179 0
156 178 0
159 181 0
154 176 0
161 184 0
158 180 0
160 181 0
158 180 0
158 181 0
164 187 0
154 176 0
155 177 0
164 188 0
164 186 0
161 184 0
152 173 0
164 187 0
157 180 0
158 180 0
153 176 0
157 179 0
159 181 0
155 177 0
152 174 0
155 179 0
163 186 0
159 183 0
157 180 0
163 184 0
160 181 0
154 177 0
164 187 0
165 189 0
161 184 0
161 183 0
157 179 0
159 182 0
157 180 0
163 186 0
158 180 0
164 188 0
160 183 0
163 186 0
158 181 0
157 179 0
157 180 0
158 181 0
159 181 0
153 175 0
158 181 0
166 189 0
162 184 0
160 182 0
159 182 0
164 188 0
165 186 0
166 189 0
166 190 0
163 186 0
162 185 0
163 187 0
161 182 0
161 183 0
163 186 0
159 183 0
160 183 0
165 189 0
159 182 0
164 187 0
165 188 0
160 182 0
160 183 0
163 185 0
163 187 0
165 187 0
165 187 0
164 187 0
165 189 0
164 186 0
164 187 0
163 186 0
164 187 0
166 188 0
158 181 0
165 188 0
164 186 0
164 187 0
164 187 0
165 187 0
166 189 0
164 185 0
165 189 0
165 187 0
161 184 0
163 186 0
166 189 0
162 185 0
162 185 0
169 191 0
169 192 0
165 188 0
165 188 0
163 185 0
163 186 0
169 192 0
165 186 0
165 188 0
167 190 0
166 188 0
167 190 0
165 188 0
163 186 0
165 188 0
166 188 0
167 189 0
164 189 0
165 185 0
165 188 0
171 193 0
167 189 0
169 192 0
164 187 0
169 192 0
168 191 0
165 187 0
168 191 0
169 191 0
169 192 0
172 194 0
169 192 0
172 194 0
166 190 0
164 187 0
168 189 0
169 192 0
169 192 0
167 189 0
167 190 0
169 191 0
168 191 0
168 191 0
165 188 0
166 188 0
168 190 0
169 192 0
167 191 0
174 196 0
167 188 0
168 191 0
170 193 0
167 190 0
165 189 0
167 189 0
165 189 0
169 192 0
170 194 0
169 191 0
165 188 0
168 191 0
169 192 0
169 192 0
168 191 0
166 188 0
169 192 0
168 190 0
169 192 0
169 190 0
167 189 0
170 193 0
168 191 0
169 192 0
170 193 0
169 193 0
168 191 0
171 194 0
168 191 0
170 193 0
168 191 0
165 189 0
167 190 0
170 193 0
170 193 0
172 195 0
171 193 0
170 193 0
170 192 0
170 192 0
168 191 0
166 189 0
171 193 0
170 193 0
171 195 0
174 196 0
170 192 0
169 190 0
173 196 0
168 190 0
170 193 0
168 190 0
170 194 0
170 192 0
172 195 0
172 194 0
171 194 0
175 197 0
168 191 0
170 193 0
173 196 0
172 195 0
169 192 0
170 193 0
173 197 0
169 192 0
169 191 0
166 189 0
170 193 0
170 194 0
171 194 0
166 188 0
172 196 0
154 175 0
164 185 0
161 182 0
158 179 0
155 177 0
154 176 0
164 186 0
156 178 0
160 182 0
162 183 0
164 185 0
154 175 0
157 179 0
165 187 0
164 185 0
159 181 0
158 180 0
162 184 0
159 181 0
159 181 0
159 180 0
166 187 0
158 179 0
159 181 0
160 182 0
168 189 0
166 187 0
160 182 0
160 180 0
164 185 0
161 182 0
160 180 0
166 187 0
165 187 0
163 184 0
167 189 0
161 182 0
165 186 0
163 184 0
160 181 0
161 181 0
162 183 0
162 183 0
157 179 0
165 186 0
165 186 0
163 185 0
164 185 0
167 189 0
167 188 0
164 184 0
166 186 0
165 186 0
158 180 0
168 189 0
164 185 0
164 185 0
168 190 0
167 189 0
181 202 117
195 212 179
175 195 88
170 191 0
164 185 0
160 181 0
163 184 0
155 176 0
165 187 0
161 182 0
161 181 0
160 182 0
155 176 0
168 188 0
158 179 0
163 184 0
165 186 0
162 183 0
160 182 0
161 182 0
162 183 0
164 185 0
164 184 0
158 180 0
161 183 0
156 176 0
165 186 0
162 184 0
163 184 0
160 182 0
164 185 0
158 179 0
158 179 0
148 169 0
156 177 0
159 181 0
161 182 0
154 176 0
158 179 0
157 178 0
151 173 0
157 180 0
150 171 0
162 184 0
150 173 0
158 180 0
162 184 0
159 181 0
159 181 0
155 177 0
159 180 0
159 182 0
149 171 0
158 180 0
159 181 0
156 178 0
157 179 0
156 178 0
157 177 0
153 175 0
154 176 0
158 180 0
155 176 0
160 182 0
152 175 0
161 183 0
156 179 0
158 181 0
155 177 0
152 173 0
155 177 0
158 181 0
161 183 0
157 180 0
159 181 0
155 177 0
150 172 0
153 174 0
162 184 0
155 177 0
159 181 0
153 176 0
156 179 0
156 179 0
155 176 0
153 174 0
158 181 0
156 179 0
158 180 0
153 175 0
152 175 0
160 182 0
158 181 0
159 181 0
159 181 0
154 177 0
156 179 0
149 171 0
155 178 0
148 172 0
155 178 0
163 186 0
163 185 0
157 180 0
154 177 0
152 175 0
163 184 0
157 179 0
158 181 0
153 176 0
161 184 0
159 181 0
153 176 0
152 175 0
161 184 0
150 173 0
155 177 0
148 171 0
155 178 0
152 175 0
161 183 0
154 177 0
162 185 0
150 172 0
162 184 0
156 180 0
156 178 0
157 180 0
162 185 0
157 179 0
160 182 0
153 174 0
161 183 0
155 178 0
155 178 0
159 182 0
159 180 0
157 181 0
160 183 0
160 183 0
158 181 0
159 181 0
157 178 0
163 186 0
162 185 0
157 180 0
152 175 0
161 184 0
158 180 0
156 179 0
157 178 0
158 180 0
157 180 0
160 182 0
165 188 0
163 185 0
161 184 0
163 186 0
161 183 0
161 183 0
159 182 0
159 182 0
163 186 0
157 180 0
158 182 0
159 182 0
165 187 0
160 183 0
167 190 0
162 185 0
161 184 0
159 182 0
162 184 0
167 189 0
163 185 0
168 191 0
160 183 0
157 179 0
157 180 0
165 187 0
162 185 0
161 184 0
161 185 0
155 178 0
159 183 0
164 187 0
166 188 0
165 188 0
154 176 0
167 191 0
158 180 0
165 188 0
164 187 0
163 185 0
163 186 0
165 188 0
170 194 0
161 184 0
162 186 0
165 187 0
163 187 0
164 188 0
161 183 0
160 183 0
161 183 0
169 191 0
168 191 0
163 185 0
158 180 0
168 191 0
164 187 0
167 190 0
164 187 0
169 191 0
161 183 0
158 179 0
168 190 0
162 185 0
162 185 0
171 195 0
163 187 0
163 185 0
166 189 0
167 189 0
169 190 0
165 187 0
167 190 0
162 184 0
167 190 0
165 187 0
165 187 0
164 186 0
167 190 0
168 189 0
171 193 0
167 189 0
168 191 0
167 190 0
164 187 0
165 188 0
168 191 0
171 193 0
170 193 0
163 186 0
167 191 0
168 189 0
166 189 0
169 192 0
166 189 0
163 186 0
166 189 0
170 193 0
168 190 0
169 192 0
167 190 0
165 187 0
167 189 0
169 193 0
165 186 0
165 188 0
172 194 0
168 191 0
165 187 0
165 188 0
167 191 0
169 193 0
169 191 0
168 191 0
166 189 0
168 191 0
167 190 0
162 184 0
169 193 0
163 187 0
167 190 0
170 194 0
167 191 0
166 189 0
168 191 0
166 189 0
168 191 0
170 192 0
170 192 0
167 189 0
168 192 0
166 190 0
166 188 0
170 193 0
171 194 0
170 193 0
166 189 0
170 193 0
170 192 0
171 194 0
169 192 0
173 196 0
171 194 0
172 195 0
170 193 0
170 192 0
171 195 0
172 195 0
174 197 0
170 192 0
171 193 0
170 193 0
170 193 0
169 192 0
168 190 0
169 192 0
171 194 0
174 197 0
173 196 0
173 196 0
173 195 0
172 196 0
171 195 0
172 195 0
168 191 0
170 191 0
170 194 0
167 189 0
169 191 0
169 193 0
171 194 0
171 195 0
172 194 0
170 193 0
170 192 0
171 194 0
169 192 0
168 191 0
172 195 0
171 193 0
170 193 0
170 193 0
171 194 0
171 194 0
171 195 0
173 196 0
173 196 0
161 182 0
158 179 0
163 184 0
154 176 0
163 185 0
154 175 0
155 176 0
157 178 0
159 181 0
159 181 0
162 182 0
160 182 0
165 186 0
151 172 0
162 183 0
162 183 0
164 187 0
164 185 0
153 174 0
161 182 0
166 186 0
159 180 0
161 181 0
155 177 0
159 180 0
162 183 0
159 179 0
165 185 0
161 182 0
163 184 0
159 180 0
161 183 0
161 182 0
165 185 0
163 184 0
158 180 0
164 185 0
161 181 0
161 181 0
159 180 0
164 183 0
159 180 0
165 185 0
165 186 0
163 185 0
169 189 0
165 186 0
149 171 0
158 179 0
160 182 0
165 186 0
166 188 0
158 179 0
165 186 0
166 188 0
169 191 0
172 194 0
175 196 80
202 220 204
188 206 157
164 185 0
165 186 0
169 190 0
166 187 0
162 182 0
169 190 0
160 182 0
157 178 0
160 180 0
160 181 0
164 185 0
161 182 0
166 187 0
162 183 0
163 184 0
166 187 0
155 177 0
156 177 0
159 180 0
161 181 0
162 184 0
161 183 0
160 181 0
162 183 0
154 175 0
153 174 0
157 178 0
162 183 0
155 177 0
160 180 0
159 180 0
157 179 0
161 183 0
166 188 0
157 178 0
155 177 0
151 173 0
152 174 0
155 177 0
155 178 0
162 183 0
161 183 0
159 181 0
161 183 0
151 173 0
158 180 0
160 181 0
150 171 0
149 170 0
156 178 0
160 183 0
163 185 0
160 182 0
145 168 0
155 178 0
152 174 0
157 180 0
157 178 0
157 179 0
158 182 0
152 174 0
154 178 0
155 177 0
155 177 0
153 175 0
150 173 0
158 181 0
146 168 0
153 176 0
153 176 0
154 176 0
158 180 0
149 171 0
157 179 0
162 184 0
157 179 0
157 179 0
154 176 0
159 182 0
158 180 0
154 177 0
155 177 0
162 184 0
155 178 0
160 182 0
150 173 0
152 174 0
151 174 0
155 178 0
158 182 0
155 177 0
153 176 0
151 172 0
164 187 0
155 178 0
161 183 0
159 181 0
154 176 0
157 180 0
146 169 0
159 181 0
163 185 0
155 178 0
159 181 0
149 171 0
155 178 0
158 180 0
156 179 0
161 184 0
155 178 0
157 180 0
154 176 0
150 173 0
159 182 0
159 182 0
155 178 0
152 174 0
153 176 0
161 184 0
157 180 0
160 184 0
162 185 0
165 187 0
157 181 0
159 183 0
158 180 0
153 176 0
147 169 0
158 182 0
158 182 0
154 176 0
159 181 0
158 181 0
156 179 0
161 184 0
161 184 0
157 179 0
159 183 0
156 179 0
160 183 0
163 187 0
160 183 0
156 178 0
155 178 0
159 182 0
162 185 0
159 182 0
159 182 0
165 188 0
156 178 0
165 187 0
160 183 0
160 182 0
163 186 0
161 185 0
167 190 0
163 186 0
163 187 0
161 184 0
158 181 0
164 187 0
157 179 0
164 186 0
163 186 0
158 180 0
164 187 0
164 186 0
161 185 0
159 181 0
165 188 0
159 182 0
157 180 0
166 189 0
164 188 0
166 188 0
167 189 0
163 186 0
168 191 0
163 185 0
160 182 0
163 185 0
160 183 0
164 187 0
160 183 0
153 176 0
160 183 0
163 186 0
157 179 0
157 180 0
164 187 0
164 187 0
160 182 0
166 190 0
165 188 0
159 182 0
164 187 0
160 183 0
162 185 0
168 190 0
166 188 0
167 189 0
165 188 0
164 186 0
163 185 0
165 189 0
160 183 0
159 181 0
167 190 0
158 181 0
165 188 0
165 187 0
163 186 0
171 194 0
165 188 0
163 185 0
167 189 0
163 185 0
169 192 0
166 189 0
164 185 0
164 186 0
164 187 0
164 186 0
168 190 0
160 182 0
164 187 0
163 185 0
163 186 0
163 186 0
171 194 0
168 190 0
163 186 0
165 188 0
167 190 0
165 188 0
167 190 0
162 184 0
165 188 0
169 192 0
168 190 0
164 187 0
168 191 0
166 188 0
172 194 0
169 192 0
166 189 0
168 191 0
172 194 0
168 191 0
165 187 0
167 189 0
170 192 0
165 188 0
166 188 0
169 192 0
168 192 0
167 190 0
167 189 0
169 191 0
166 189 0
170 194 0
166 189 0
164 187 0
170 192 0
172 195 0
171 194 0
168 190 0
171 194 0
172 195 0
165 187 0
166 189 0
170 191 0
169 192 0
167 191 0
169 190 0
170 192 0
168 191 0
167 189 0
168 191 0
171 193 0
167 190 0
170 193 0
170 193 0
172 195 0
168 192 0
168 190 0
170 193 0
169 192 0
170 192 0
168 191 0
170 193 0
168 191 0
171 194 0
170 191 0
171 193 0
172 194 0
167 190 0
169 191 0
171 193 0
170 192 0
170 192 0
170 193 0
165 188 0
171 194 0
169 192 0
169 192 0
167 190 0
168 190 0
167 191 0
171 195 0
169 192 0
170 193 0
169 193 0
171 194 0
167 190 0
170 194 0
172 195 0
172 195 0
167 191 0
170 194 0
170 194 0
172 193 0
172 196 0
173 195 0
172 195 0
171 195 0
170 193 0
171 194 0
168 190 0
171 194 0
171 194 0
172 194 0
171 195 0
171 195 0
173 195 0
172 195 0
171 195 0
170 193 0
173 196 0
170 194 0
162 183 0
164 185 0
163 183 0
152 174 0
156 177 0
159 180 0
149 170 0
159 181 0
155 176 0
163 184 0
152 173 0
163 185 0
159 180 0
159 180 0
156 178 0
165 184 0
160 182 0
162 183 0
157 179 0
163 184 0
161 182 0
165 185 0
154 175 0
162 183 0
154 175 0
159 180 0
165 185 0
165 186 0
162 182 0
162 183 0
166 188 0
162 183 0
164 185 0
161 183 0
163 184 0
166 186 0
156 178 0
164 185 0
162 184 0
161 182 0
163 185 0
167 187 0
160 181 0
162 182 0
164 185 0
160 181 0
166 187 0
163 184 0
166 186 0
158 179 0
167 188 0
166 188 0
167 189 0
169 190 0
168 189 0
166 188 25
183 203 130
193 211 184
168 189 62
165 185 0
157 178 0
158 179 0
167 189 0
170 192 0
159 180 0
168 189 0
159 181 0
158 180 0
156 177 0
155 176 0
156 178 0
155 176 0
162 183 0
164 185 0
163 183 0
161 182 0
161 182 0
166 188 0
158 180 0
156 177 0
164 184 0
156 178 0
162 184 0
165 186 0
158 179 0
158 180 0
164 186 0
164 185 0
158 179 0
160 183 0
157 179 0
166 186 0
159 181 0
162 183 0
161 184 0
155 177 0
157 178 0
162 184 0
155 176 0
159 180 0
161 183 0
161 183 0
162 183 0
154 176 0
159 181 0
157 180 0
155 177 0
155 177 0
151 173 0
156 179 0
157 179 0
152 175 0
156 178 0
152 173 0
153 177 0
159 180 0
160 183 0
156 178 0
158 180 0
160 183 0
153 175 0
160 181 0
157 180 0
154 177 0
158 181 0
154 176 0
155 177 0
162 185 0
155 178 0
155 178 0
157 180 0
159 181 0
154 177 0
158 180 0
160 182 0
161 183 0
162 184 0
154 176 0
150 172 0
154 177 0
151 173 0
158 181 0
158 181 0
156 180 0
155 178 0
162 184 0
155 176 0
154 175 0
155 178 0
150 173 0
155 178 0
160 182 0
158 181 0
151 175 0
161 185 0
155 178 0
158 182 0
150 174 0
164 187 0
156 178 0
158 180 0
150 173 0
154 177 0
152 173 0
159 182 0
155 178 0
152 175 0
158 181 0
161 183 0
155 179 0
161 184 0
157 179 0
158 181 0
156 178 0
160 183 0
159 181 0
158 181 0
155 179 0
156 178 0
153 175 0
154 176 0
160 183 0
159 182 0
152 174 0
155 178 0
155 177 0
162 185 0
162 184 0
159 181 0
164 187 0
157 180 0
160 183 0
160 183 0
162 185 0
160 183 0
159 181 0
160 183 0
159 182 0
161 183 0
162 185 0
156 179 0
163 187 0
157 179 0
164 187 0
159 181 0
162 184 0
157 180 0
156 178 0
159 182 0
162 185 0
155 177 0
159 182 0
160 182 0
160 184 0
165 188 0
159 181 0
161 184 0
162 185 0
159 182 0
162 185 0
155 176 0
156 179 0
160 183 0
161 184 0
160 182 0
160 183 0
159 182 0
167 189 0
162 185 0
160 182 0
153 176 0
167 191 0
159 182 0
159 181 0
159 182 0
168 191 0
161 184 0
162 183 0
160 183 0
155 177 0
160 181 0
163 186 0
162 185 0
159 183 0
162 184 0
164 186 0
161 184 0
165 188 0
161 184 0
162 186 0
164 186 0
162 186 0
162 184 0
165 188 0
162 184 0
163 185 0
163 186 0
164 187 0
168 191 0
165 188 0
162 185 0
162 185 0
169 192 0
163 185 0
163 186 0
166 189 0
166 189 0
163 186 0
166 188 0
166 189 0
165 187 0
168 191 0
166 189 0
165 188 0
166 190 0
170 192 0
167 190 0
168 191 0
160 182 0
166 189 0
165 187 0
168 192 0
161 184 0
165 187 0
169 192 0
168 190 0
169 192 0
164 186 0
169 192 0
167 191 0
166 187 0
165 187 0
166 190 0
163 186 0
164 187 0
167 188 0
168 190 0
167 191 0
164 186 0
166 189 0
162 185 0
170 193 0
166 190 0
168 191 0
168 190 0
167 189 0
168 191 0
167 190 0
167 189 0
169 192 0
167 188 0
167 191 0
167 190 0
164 187 0
162 185 0
168 191 0
169 192 0
166 188 0
165 188 0
167 189 0
170 192 0
168 190 0
169 191 0
169 192 0
167 190 0
169 190 0
169 192 0
172 195 0
172 196 0
171 193 0
169 193 0
168 191 0
169 191 0
167 189 0
170 194 0
166 189 0
172 194 0
170 193 0
169 192 0
167 190 0
169 193 0
167 189 0
171 194 0
171 193 0
168 190 0
169 192 0
171 194 0
169 191 0
171 194 0
169 192 0
170 192 0
170 193 0
169 191 0
166 189 0
171 193 0
169 191 0
171 194 0
168 191 0
169 191 0
172 194 0
173 195 0
169 191 0
169 192 0
167 190 0
171 193 0
172 195 0
169 192 0
172 196 0
173 196 0
170 193 0
171 194 0
168 191 0
168 191 0
168 190 0
167 191 0
167 191 0
170 192 0
173 195 0
172 195 0
172 195 0
170 193 0
173 196 0
172 194 0
172 196 0
171 194 0
169 192 0
171 194 0
169 191 0
173 195 0
172 194 0
170 194 0
168 191 0
169 192 0
171 194 0
171 195 0
170 193 0
168 191 0
173 196 0
171 194 0
174 196 0
160 181 0
161 182 0
155 177 0
164 186 0
159 181 0
167 187 0
159 181 0
161 182 0
162 183 0
161 182 0
161 182 0
159 180 0
162 184 0
159 179 0
161 182 0
165 186 0
162 184 0
166 187 0
157 179 0
159 180 0
166 187 0
157 179 0
167 188 0
154 176 0
162 183 0
160 180 0
157 178 0
162 184 0
154 176 0
157 177 0
163 184 0
162 183 0
159 180 0
160 181 0
159 180 0
166 188 0
159 180 0
163 184 0
166 187 0
161 181 0
163 185 0
164 185 0
157 179 0
167 189 0
164 185 0
167 188 0
163 184 0
166 186 0
169 190 0
168 189 0
169 190 0
166 187 0
172 193 0
167 189 0
184 204 128
200 217 201
171 190 99
158 179 0
164 185 0
164 184 0
166 187 0
166 186 0
164 184 0
160 181 0
158 178 0
160 181 0
167 189 0
155 177 0
159 180 0
162 183 0
164 186 0
158 180 0
159 181 0
165 186 0
162 183 0
159 180 0
166 187 0
155 177 0
155 177 0
160 182 0
161 182 0
160 181 0
158 179 0
163 184 0
165 187 0
154 175 0
161 182 0
157 179 0
150 172 0
156 177 0
160 181 0
161 183 0
154 175 0
158 179 0
162 184 0
159 180 0
160 182 0
156 177 0
156 179 0
155 176 0
157 178 0
147 169 0
156 178 0
153 174 0
162 184 0
157 179 0
165 187 0
155 177 0
157 179 0
151 173 0
163 185 0
154 175 0
158 181 0
158 180 0
160 182 0
150 171 0
149 171 0
158 179 0
153 176 0
157 180 0
154 176 0
161 184 0
159 182 0
154 177 0
156 177 0
162 184 0
152 174 0
153 176 0
153 175 0
156 178 0
159 181 0
157 180 0
161 183 0
157 180 0
154 177 0
158 181 0
162 184 0
158 182 0
149 173 0
155 177 0
160 183 0
162 186 0
149 171 0
164 187 0
149 171 0
162 184 0
156 177 0
160 183 0
154 177 0
162 185 0
162 184 0
162 184 0
150 172 0
157 181 0
161 184 0
151 174 0
158 180 0
164 188 0
156 178 0
158 181 0
160 183 0
163 185 0
157 179 0
157 180 0
153 176 0
154 177 0
157 180 0
157 179 0
161 184 0
162 185 0
158 180 0
153 177 0
150 174 0
162 185 0
158 181 0
155 178 0
153 177 0
159 183 0
163 186 0
155 178 0
158 181 0
158 181 0
161 184 0
153 176 0
157 179 0
156 179 0
157 181 0
158 181 0
161 183 0
150 173 0
161 183 0
154 176 0
155 178 0
160 183 0
164 186 0
157 180 0
158 180 0
161 184 0
160 182 0
159 181 0
155 179 0
162 185 0
163 187 0
161 183 0
155 177 0
157 180 0
164 186 0
163 186 0
151 173 0
159 180 0
154 176 0
154 177 0
164 186 0
163 186 0
160 183 0
158 180 0
159 182 0
164 187 0
162 185 0
160 183 0
161 184 0
159 182 0
160 182 0
162 184 0
165 188 0
161 183 0
162 185 0
163 186 0
162 185 0
155 178 0
164 187 0
155 178 0
162 186 0
159 182 0
166 189 0
164 187 0
161 183 0
160 183 0
161 185 0
167 190 0
161 184 0
165 189 0
160 182 0
165 189 0
163 186 0
164 188 0
165 188 0
160 183 0
170 193 0
159 182 0
166 189 0
167 190 0
165 187 0
160 184 0
162 184 0
162 185 0
162 184 0
164 188 0
159 181 0
163 186 0
164 186 0
169 191 0
163 185 0
162 184 0
168 192 0
166 189 0
161 184 0
163 184 0
165 188 0
166 189 0
164 187 0
165 187 0
168 190 0
164 186 0
164 186 0
168 191 0
170 195 0
166 189 0
166 188 0
168 190 0
168 190 0
167 189 0
163 185 0
166 188 0
167 189 0
168 190 0
171 193 0
173 196 0
169 192 0
164 187 0
167 190 0
165 186 0
164 187 0
167 190 0
169 191 0
167 189 0
165 187 0
167 190 0
167 191 0
168 191 0
166 190 0
168 189 0
162 185 0
162 185 0
170 193 0
168 190 0
166 189 0
167 191 0
166 189 0
167 189 0
168 192 0
167 189 0
165 188 0
167 190 0
167 190 0
166 189 0
166 189 0
166 188 0
170 193 0
171 194 0
167 191 0
166 189 0
163 185 0
167 190 0
171 193 0
170 193 0
172 194 0
167 191 0
169 192 0
171 194 0
169 193 0
167 189 0
172 194 0
170 192 0
170 193 0
169 192 0
165 189 0
167 190 0
170 192 0
171 193 0
168 192 0
167 189 0
167 190 0
169 192 0
166 189 0
169 191 0
168 190 0
171 194 0
171 194 0
169 191 0
166 189 0
172 195 0
168 192 0
172 195 0
168 191 0
167 190 0
172 195 0
169 191 0
168 191 0
169 190 0
170 193 0
167 189 0
169 192 0
171 193 0
169 192 0
170 192 0
170 192 0
170 192 0
169 192 0
170 193 0
168 192 0
173 196 0
169 192 0
170 193 0
170 193 0
166 189 0
170 193 0
170 191 0
170 193 0
170 193 0
173 196 0
171 194 0
170 192 0
171 193 0
171 194 0
170 194 0
173 197 0
168 191 0
171 194 0
171 194 0
171 194 0
169 191 0
172 194 0
173 195 0
171 195 0
172 194 0
170 193 0
173 195 0
171 195 0
171 195 0
160 181 0
157 178 0
159 182 0
162 183 0
155 176 0
156 177 0
164 186 0
161 183 0
162 184 0
159 180 0
157 178 0
163 184 0
163 184 0
158 179 0
165 187 0
154 176 0
156 177 0
160 182 0
158 180 0
160 182 0
160 182 0
165 186 0
163 184 0
161 181 0
161 182 0
165 186 0
162 184 0
163 185 0
164 185 0
160 180 0
163 184 0
161 182 0
161 181 0
162 183 0
154 175 0
157 178 0
157 178 0
163 183 0
166 188 0
165 187 0
166 187 0
167 188 0
161 183 0
165 186 0
164 186 0
158 179 0
166 186 0
161 182 0
169 189 0
167 188 0
169 190 0
171 192 0
172 193 72
205 222 206
180 198 149
164 186 0
166 187 0
167 188 0
165 186 0
162 184 0
160 182 0
160 182 0
163 184 0
157 179 0
161 181 0
159 180 0
161 182 0
163 184 0
163 184 0
155 176 0
158 180 0
163 184 0
163 184 0
166 188 0
163 185 0
161 182 0
160 182 0
165 186 0
154 175 0
161 181 0
158 178 0
158 179 0
154 175 0
152 173 0
160 182 0
159 179 0
158 179 0
158 179 0
160 182 0
159 180 0
163 185 0
155 177 0
163 185 0
156 178 0
157 179 0
161 183 0
163 184 0
161 183 0
162 183 0
160 182 0
154 176 0
154 177 0
159 182 0
157 179 0
162 183 0
156 179 0
153 175 0
160 181 0
166 188 0
162 184 0
155 177 0
153 176 0
164 185 0
162 185 0
153 176 0
151 174 0
156 178 0
153 174 0
159 182 0
154 176 0
161 184 0
155 177 0
161 183 0
162 184 0
148 170 0
155 178 0
154 176 0
155 177 0
157 179 0
153 175 0
155 178 0
157 180 0
167 189 0
162 186 0
154 176 0
155 178 0
158 179 0
157 179 0
161 183 0
147 171 0
153 176 0
156 179 0
149 172 0
159 181 0
165 187 0
156 179 0
162 184 0
153 175 0
159 182 0
153 176 0
161 184 0
159 182 0
160 184 0
155 177 0
152 174 0
156 179 0
158 179 0
157 180 0
160 182 0
154 177 0
161 184 0
160 184 0
164 188 0
158 181 0
155 179 0
160 182 0
159 182 0
159 181 0
157 180 0
158 180 0
154 177 0
161 183 0
161 184 0
157 180 0
160 182 0
160 182 0
154 176 0
163 185 0
158 180 0
159 180 0
153 176 0
160 183 0
149 172 0
163 186 0
159 181 0
158 181 0
156 178 0
163 185 0
157 180 0
158 180 0
156 179 0
161 183 0
159 181 0
160 183 0
158 181 0
162 185 0
158 181 0
156 179 0
162 185 0
165 187 0
156 178 0
162 185 0
153 176 0
158 181 0
157 180 0
161 184 0
161 184 0
162 185 0
165 188 0
161 184 0
159 181 0
157 180 0
162 184 0
166 188 0
158 181 0
159 182 0
165 188 0
156 179 0
157 180 0
166 189 0
162 186 0
159 181 0
160 184 0
162 184 0
160 182 0
157 179 0
166 190 0
160 183 0
158 181 0
157 181 0
157 179 0
164 187 0
164 187 0
162 184 0
167 190 0
162 185 0
160 182 0
161 184 0
165 188 0
157 179 0
164 186 0
164 187 0
168 190 0
162 185 0
161 185 0
162 185 0
160 183 0
164 187 0
160 183 0
162 185 0
165 188 0
168 191 0
165 188 0
165 188 0
165 187 0
163 186 0
165 188 0
161 184 0
164 186 0
165 187 0
163 185 0
170 193 0
166 188 0
164 187 0
161 183 0
160 182 0
161 185 0
168 191 0
163 186 0
165 189 0
168 189 0
162 185 0
163 186 0
166 189 0
165 188 0
167 190 0
161 182 0
164 187 0
163 187 0
163 186 0
166 188 0
163 185 0
163 186 0
165 188 0
168 192 0
161 184 0
166 190 0
165 187 0
166 189 0
167 191 0
166 190 0
162 184 0
166 188 0
170 193 0
165 187 0
162 185 0
166 190 0
167 190 0
168 191 0
169 193 0
164 188 0
166 188 0
165 189 0
165 188 0
164 186 0
169 192 0
167 189 0
170 192 0
170 193 0
168 191 0
165 188 0
166 189 0
166 189 0
170 192 0
165 187 0
169 192 0
170 192 0
167 190 0
167 191 0
169 191 0
167 191 0
168 191 0
165 187 0
168 191 0
166 187 0
168 190 0
173 196 0
162 185 0
171 194 0
166 188 0
169 192 0
169 191 0
165 190 0
171 193 0
168 191 0
169 192 0
167 190 0
170 192 0
169 192 0
167 191 0
170 192 0
172 195 0
171 193 0
170 193 0
165 187 0
167 190 0
163 186 0
168 191 0
170 193 0
167 190 0
167 191 0
169 192 0
171 192 0
169 193 0
170 192 0
169 193 0
169 192 0
169 192 0
169 193 0
168 191 0
168 191 0
173 196 0
166 190 0
169 191 0
171 193 0
168 192 0
167 189 0
167 190 0
171 194 0
171 195 0
171 194 0
171 193 0
170 193 0
169 191 0
170 193 0
169 192 0
169 192 0
163 186 0
172 195 0
172 195 0
172 195 0
170 191 0
172 195 0
169 192 0
170 193 0
174 196 0
169 192 0
170 193 0
171 194 0
172 195 0
172 195 0
174 197 0
171 194 0
170 194 0
170 193 0
171 193 0
172 195 0
172 196 0
172 195 0
170 193 0
158 179 0
151 172 0
162 184 0
156 178 0
156 178 0
161 182 0
163 183 0
159 180 0
164 185 0
164 186 0
163 184 0
162 183 0
170 191 0
157 178 0
165 187 0
161 183 0
160 180 0
161 182 0
163 185 0
158 180 0
162 184 0
159 181 0
161 181 0
161 183 0
161 182 0
165 187 0
164 185 0
168 188 0
165 186 0
159 179 0
167 188 0
157 178 0
167 189 0
165 186 0
163 184 0
158 179 0
162 184 0
164 185 0
156 177 0
159 179 0
160 182 0
166 188 0
164 185 0
163 185 0
166 187 0
166 187 0
169 190 0
170 190 0
169 191 0
171 193 0
171 192 25
197 215 173
193 211 175
169 190 44
162 184 0
167 187 0
162 183 0
166 188 0
156 177 0
163 184 0
164 185 0
162 183 0
159 180 0
166 186 0
158 179 0
159 180 0
167 188 0
162 184 0
157 179 0
167 187 0
167 187 0
165 186 0
161 183 0
157 178 0
163 184 0
167 188 0
164 186 0
163 185 0
158 180 0
156 177 0
159 181 0
160 181 0
160 181 0
164 186 0
159 181 0
166 188 0
161 182 0
157 178 0
160 182 0
161 183 0
154 175 0
160 182 0
156 178 0
155 178 0
162 182 0
163 184 0
157 179 0
160 182 0
157 180 0
153 174 0
154 175 0
161 183 0
163 185 0
163 185 0
158 180 0
151 174 0
161 182 0
155 177 0
157 179 0
160 182 0
165 187 0
159 181 0
155 177 0
160 181 0
159 183 0
157 179 0
162 184 0
158 180 0
156 179 0
157 179 0
160 182 0
155 178 0
151 173 0
159 181 0
157 180 0
158 179 0
159 181 0
158 182 0
163 186 0
162 184 0
155 177 0
157 180 0
164 187 0
150 172 0
151 174 0
161 183 0
158 181 0
161 183 0
160 183 0
161 183 0
150 172 0
157 179 0
159 182 0
159 181 0
156 179 0
160 183 0
152 174 0
155 178 0
155 178 0
157 181 0
158 181 0
158 180 0
161 183 0
157 178 0
156 179 0
156 179 0
159 182 0
156 179 0
158 181 0
154 177 0
155 179 0
154 177 0
156 179 0
165 187 0
160 182 0
157 180 0
163 186 0
151 174 0
158 181 0
156 179 0
158 181 0
154 177 0
154 177 0
159 182 0
161 184 0
165 189 0
159 182 0
153 175 0
160 182 0
158 181 0
162 185 0
162 185 0
143 166 0
162 185 0
155 177 0
161 184 0
157 181 0
156 179 0
157 179 0
157 179 0
165 188 0
158 181 0
162 184 0
158 181 0
161 183 0
163 186 0
165 188 0
161 183 0
149 173 0
156 179 0
162 185 0
156 180 0
158 181 0
162 185 0
161 183 0
155 177 0
160 183 0
163 186 0
161 184 0
164 186 0
162 184 0
153 175 0
159 182 0
159 182 0
159 182 0
159 182 0
159 181 0
165 187 0
163 186 0
164 186 0
159 182 0
161 184 0
161 183 0
160 182 0
159 182 0
156 179 0
162 186 0
163 185 0
167 189 0
163 186 0
164 187 0
164 187 0
160 184 0
166 189 0
165 188 0
162 186 0
163 185 0
161 184 0
163 186 0
163 185 0
164 186 0
163 186 0
166 189 0
162 186 0
162 185 0
165 187 0
162 184 0
165 187 0
164 187 0
163 185 0
162 185 0
164 186 0
162 186 0
163 185 0
167 190 0
160 182 0
167 189 0
165 188 0
166 188 0
166 189 0
168 190 0
169 191 0
165 189 0
165 188 0
158 180 0
164 188 0
171 193 0
164 186 0
162 184 0
168 191 0
164 184 0
164 187 0
160 183 0
167 190 0
167 190 0
161 184 0
166 189 0
167 189 0
162 185 0
166 188 0
171 193 0
161 183 0
163 186 0
165 189 0
167 189 0
169 192 0
164 186 0
165 188 0
167 191 0
167 189 0
164 187 0
165 187 0
165 188 0
166 190 0
171 193 0
162 185 0
167 190 0
168 191 0
170 193 0
168 190 0
163 186 0
172 195 0
170 192 0
169 191 0
167 190 0
169 191 0
167 189 0
164 187 0
170 192 0
166 189 0
168 191 0
164 186 0
168 191 0
168 191 0
165 186 0
167 189 0
167 189 0
169 192 0
164 187 0
164 187 0
165 187 0
171 194 0
167 190 0
168 192 0
168 191 0
166 189 0
167 191 0
172 195 0
168 190 0
166 189 0
172 195 0
172 194 0
168 191 0
167 191 0
169 192 0
173 196 0
169 192 0
172 195 0
167 190 0
172 195 0
167 190 0
167 190 0
168 191 0
169 193 0
172 195 0
171 193 0
166 189 0
167 190 0
169 192 0
167 190 0
172 195 0
168 190 0
170 194 0
171 194 0
171 193 0
170 193 0
170 192 0
170 192 0
170 193 0
170 193 0
167 190 0
168 192 0
166 189 0
168 191 0
172 194 0
171 194 0
170 193 0
169 193 0
170 192 0
172 196 0
170 194 0
171 195 0
175 197 0
173 197 0
172 195 0
170 193 0
169 193 0
168 192 0
170 192 0
170 193 0
173 196 0
170 192 0
166 188 0
172 194 0
170 193 0
172 195 0
168 193 0
172 196 0
172 195 0
172 195 0
171 192 0
172 195 0
172 194 0
168 191 0
172 196 0
171 194 0
170 193 0
170 193 0
171 194 0
170 193 0
158 179 0
162 183 0
162 184 0
155 176 0
156 178 0
160 183 0
163 184 0
163 185 0
168 189 0
161 182 0
161 181 0
167 189 0
161 182 0
160 182 0
169 190 0
160 182 0
158 178 0
158 178 0
166 188 0
164 186 0
161 182 0
168 189 0
161 183 0
156 177 0
165 186 0
158 178 0
164 186 0
165 187 0
166 186 0
158 178 0
159 180 0
163 184 0
165 185 0
162 184 0
161 182 0
162 182 0
169 189 0
164 185 0
166 187 0
162 183 0
164 185 0
168 189 0
162 182 0
165 187 0
169 190 0
164 186 0
170 190 0
165 187 0
170 191 0
190 208 161
197 214 189
170 190 84
167 188 0
159 181 0
162 184 0
162 184 0
162 183 0
162 183 0
165 185 0
165 186 0
155 177 0
162 183 0
160 182 0
163 184 0
155 177 0
159 181 0
161 181 0
164 186 0
166 187 0
159 180 0
159 180 0
159 180 0
160 181 0
160 182 0
170 190 0
168 189 0
170 192 0
167 188 0
154 175 0
159 181 0
152 173 0
163 184 0
162 183 0
158 181 0
157 179 0
160 181 0
154 176 0
156 177 0
152 174 0
163 185 0
164 186 0
154 176 0
150 171 0
158 180 0
162 183 0
156 178 0
153 176 0
160 182 0
162 185 0
151 174 0
158 180 0
158 180 0
157 179 0
158 180 0
160 182 0
154 176 0
165 187 0
153 175 0
152 175 0
162 184 0
159 181 0
162 184 0
151 174 0
157 180 0
159 181 0
156 178 0
164 186 0
151 173 0
162 184 0
164 187 0
153 177 0
156 178 0
158 180 0
158 181 0
154 177 0
152 174 0
163 186 0
156 179 0
158 180 0
162 185 0
157 180 0
155 176 0
158 180 0
154 176 0
150 173 0
155 177 0
152 174 0
165 187 0
161 184 0
159 181 0
157 180 0
156 179 0
157 181 0
152 176 0
163 185 0
159 181 0
148 171 0
158 180 0
157 179 0
162 183 0
153 175 0
152 174 0
160 183 0
158 180 0
152 174 0
162 185 0
163 186 0
160 183 0
160 182 0
158 180 0
152 175 0
161 184 0
157 180 0
155 178 0
154 176 0
159 183 0
162 185 0
151 174 0
162 184 0
157 180 0
163 186 0
156 179 0
156 178 0
164 185 0
160 183 0
159 182 0
165 187 0
160 182 0
165 189 0
160 183 0
154 178 0
160 183 0
159 181 0
159 182 0
162 185 0
157 180 0
161 183 0
157 179 0
158 180 0
160 182 0
161 183 0
158 181 0
161 184 0
160 184 0
162 184 0
157 179 0
159 183 0
158 180 0
161 184 0
159 182 0
161 184 0
161 184 0
160 182 0
159 182 0
156 179 0
158 180 0
164 187 0
160 183 0
161 184 0
158 181 0
161 183 0
161 184 0
160 182 0
160 183 0
160 181 0
158 181 0
164 187 0
161 184 0
164 186 0
160 182 0
162 183 0
160 183 0
168 191 0
159 181 0
161 183 0
160 181 0
158 181 0
168 191 0
158 180 0
160 183 0
160 182 0
162 185 0
161 184 0
163 186 0
171 193 0
164 186 0
165 187 0
158 181 0
167 191 0
160 183 0
162 185 0
159 182 0
163 185 0
157 179 0
165 186 0
160 182 0
166 189 0
163 184 0
167 190 0
163 186 0
163 186 0
162 185 0
164 186 0
164 187 0
163 185 0
165 188 0
164 186 0
162 185 0
169 192 0
168 191 0
167 190 0
161 183 0
163 185 0
166 188 0
168 190 0
166 189 0
163 185 0
165 188 0
163 184 0
165 188 0
166 189 0
166 189 0
164 186 0
167 189 0
169 193 0
164 186 0
168 191 0
168 190 0
167 190 0
165 188 0
169 192 0
167 189 0
163 186 0
164 188 0
164 186 0
166 189 0
165 187 0
168 191 0
164 187 0
167 189 0
166 189 0
171 192 0
161 183 0
169 191 0
166 189 0
169 192 0
167 189 0
166 190 0
169 192 0
168 190 0
167 191 0
170 193 0
168 190 0
167 189 0
164 186 0
168 191 0
168 190 0
167 191 0
167 189 0
166 189 0
168 192 0
168 190 0
170 193 0
169 192 0
170 194 0
167 190 0
166 188 0
167 190 0
169 193 0
167 191 0
166 188 0
170 193 0
169 193 0
165 188 0
170 193 0
164 187 0
168 191 0
171 194 0
173 196 0
170 192 0
168 191 0
171 194 0
167 190 0
169 193 0
169 192 0
167 191 0
167 190 0
169 191 0
163 186 0
173 196 0
169 193 0
171 195 0
169 193 0
170 192 0
171 194 0
170 192 0
167 190 0
170 192 0
171 195 0
170 193 0
171 194 0
163 185 0
169 192 0
169 193 0
165 188 0
169 192 0
173 195 0
172 196 0
166 188 0
169 192 0
169 193 0
169 191 0
172 196 0
167 191 0
170 194 0
169 193 0
169 192 0
168 191 0
170 194 0
172 194 0
167 188 0
170 192 0
172 195 0
168 192 0
171 195 0
169 192 0
171 193 0
170 193 0
171 195 0
170 193 0
171 193 0
169 193 0
170 193 0
174 197 0
172 195 0
167 190 0
170 193 0
171 195 0
172 194 0
169 193 0
172 195 0
172 194 0
167 191 0
171 195 0
172 195 0
172 196 0
171 193 0
170 193 0
169 192 0
168 192 0
163 184 0
152 174 0
160 181 0
162 183 0
158 179 0
159 181 0
167 188 0
164 185 0
157 178 0
166 186 0
159 180 0
164 184 0
157 178 0
163 184 0
165 186 0
155 176 0
165 186 0
159 181 0
160 181 0
164 185 0
163 182 0
161 182 0
157 178 0
166 187 0
165 185 0
160 182 0
165 186 0
157 178 0
161 182 0
166 187 0
159 180 0
166 187 0
164 185 0
159 180 0
162 183 0
165 184 0
163 183 0
165 186 0
168 189 0
167 187 0
167 188 0
167 188 0
170 191 0
167 188 0
164 185 0
165 187 0
173 194 0
183 204 122
194 212 182
182 201 122
166 187 0
161 182 0
169 189 0
160 182 0
163 185 0
158 179 0
164 184 0
165 185 0
160 181 0
159 179 0
169 190 0
163 184 0
161 183 0
161 182 0
167 188 0
160 182 0
165 186 0
160 182 0
158 179 0
165 185 0
166 187 0
162 184 0
164 185 0
161 181 0
160 181 0
151 173 0
158 180 0
162 184 0
158 179 0
158 180 0
165 187 0
150 172 0
157 179 0
157 179 0
161 182 0
158 180 0
164 185 0
161 183 0
156 178 0
158 180 0
154 175 0
155 177 0
160 182 0
160 182 0
157 178 0
162 183 0
161 183 0
160 182 0
155 177 0
158 181 0
151 172 0
156 178 0
157 179 0
151 174 0
161 183 0
163 185 0
165 187 0
153 175 0
157 181 0
161 183 0
151 173 0
156 179 0
156 178 0
160 182 0
157 180 0
153 174 0
153 173 0
153 176 0
161 183 0
162 184 0
158 181 0
159 181 0
152 175 0
157 179 0
164 187 0
151 174 0
156 179 0
153 175 0
149 171 0
156 179 0
156 179 0
158 181 0
151 173 0
156 179 0
157 180 0
155 178 0
157 178 0
162 185 0
158 181 0
160 183 0
156 179 0
162 185 0
159 182 0
158 181 0
159 182 0
157 180 0
162 185 0
158 180 0
159 182 0
154 176 0
153 177 0
154 177 0
160 183 0
161 184 0
159 182 0
154 177 0
162 184 0
152 174 0
160 183 0
163 186 0
162 184 0
157 180 0
161 184 0
158 181 0
163 186 0
153 176 0
157 180 0
160 182 0
161 184 0
156 180 0
155 178 0
156 179 0
158 180 0
156 178 0
165 188 0
162 185 0
158 180 0
157 180 0
158 180 0
158 181 0
158 180 0
163 184 0
163 186 0
156 179 0
167 190 0
159 182 0
160 183 0
160 183 0
160 182 0
159 182 0
161 183 0
159 183 0
157 181 0
163 186 0
157 178 0
160 183 0
158 180 0
162 186 0
159 182 0
159 182 0
164 185 0
158 182 0
156 179 0
162 185 0
160 183 0
166 189 0
158 181 0
165 188 0
164 186 0
157 180 0
162 184 0
161 184 0
165 187 0
166 190 0
160 183 0
159 182 0
165 187 0
163 186 0
161 184 0
161 184 0
164 187 0
152 174 0
168 190 0
160 183 0
160 183 0
167 190 0
163 187 0
162 186 0
164 186 0
164 186 0
162 184 0
167 190 0
160 183 0
154 177 0
155 177 0
162 185 0
164 187 0
166 189 0
162 185 0
161 183 0
162 186 0
167 190 0
159 182 0
154 176 0
164 187 0
167 190 0
165 188 0
164 187 0
168 191 0
162 184 0
165 187 0
162 185 0
165 188 0
168 192 0
167 189 0
163 187 0
164 188 0
165 187 0
166 189 0
167 191 0
159 183 0
166 189 0
168 190 0
166 189 0
163 185 0
163 186 0
164 187 0
169 191 0
162 185 0
166 189 0
163 186 0
171 194 0
165 187 0
170 193 0
166 189 0
167 190 0
168 190 0
168 191 0
167 190 0
169 191 0
167 189 0
169 191 0
168 189 0
168 190 0
166 189 0
168 191 0
168 191 0
167 191 0
162 185 0
167 190 0
166 189 0
170 193 0
170 193 0
169 192 0
166 190 0
168 191 0
168 191 0
164 187 0
163 187 0
167 190 0
166 189 0
164 187 0
168 191 0
169 192 0
167 191 0
164 186 0
172 195 0
169 191 0
164 186 0
168 191 0
168 190 0
174 196 0
168 190 0
170 194 0
169 192 0
167 189 0
169 192 0
172 195 0
164 187 0
173 195 0
167 191 0
167 189 0
171 194 0
171 194 0
167 190 0
168 191 0
169 191 0
170 193 0
166 189 0
170 193 0
168 191 0
171 194 0
167 190 0
170 193 0
169 192 0
168 191 0
170 193 0
166 189 0
164 188 0
169 191 0
172 195 0
171 195 0
169 191 0
168 190 0
167 188 0
169 192 0
169 192 0
170 192 0
166 188 0
170 193 0
165 187 0
168 190 0
169 192 0
171 194 0
171 194 0
170 192 0
170 193 0
169 192 0
171 194 0
171 194 0
172 196 0
171 194 0
171 194 0
169 190 0
170 194 0
169 193 0
172 195 0
167 189 0
170 193 0
169 193 0
169 190 0
171 194 0
164 187 0
173 196 0
171 194 0
168 191 0
172 194 0
169 192 0
169 192 0
169 192 0
172 195 0
169 193 0
172 195 0
174 196 0
168 191 0
169 192 0
169 192 0
164 187 0
167 190 0
171 195 0
170 194 0
171 194 0
173 196 0
172 195 0
172 194 0
170 192 0
171 194 0
170 192 0
172 195 0
170 193 0
168 189 0
156 178 0
160 182 0
161 182 0
158 180 0
170 192 0
158 180 0
162 183 0
156 176 0
163 184 0
161 182 0
158 179 0
160 182 0
160 181 0
160 182 0
161 183 0
163 185 0
162 183 0
167 188 0
162 184 0
164 185 0
162 183 0
168 189 0
161 183 0
164 186 0
162 182 0
164 185 0
162 184 0
165 186 0
164 185 0
168 189 0
166 186 0
167 187 0
165 186 0
161 183 0
164 185 0
161 182 0
166 186 0
167 189 0
165 186 0
167 187 0
164 184 0
164 185 0
171 191 0
170 191 0
177 197 67
198 216 186
179 198 133
167 188 0
160 181 0
163 184 0
166 187 0
158 179 0
164 184 0
167 186 0
162 184 0
162 183 0
156 178 0
167 188 0
159 181 0
164 185 0
167 189 0
166 187 0
164 186 0
160 181 0
163 184 0
158 179 0
159 180 0
162 184 0
156 178 0
156 178 0
163 184 0
157 177 0
155 176 0
156 178 0
160 182 0
164 185 0
161 184 0
155 177 0
159 181 0
160 180 0
158 179 0
155 177 0
161 183 0
159 181 0
160 182 0
151 172 0
153 174 0
156 178 0
156 179 0
151 173 0
158 181 0
159 181 0
153 175 0
160 181 0
157 178 0
154 176 0
153 176 0
161 184 0
156 178 0
162 183 0
159 180 0
157 179 0
160 182 0
156 179 0
158 180 0
164 187 0
155 177 0
159 181 0
159 181 0
156 179 0
165 188 0
156 178 0
152 174 0
157 179 0
161 183 0
159 182 0
158 181 0
154 177 0
155 178 0
149 172 0
159 182 0
157 179 0
158 181 0
160 184 0
154 176 0
160 182 0
157 180 0
157 180 0
161 183 0
157 179 0
157 180 0
153 176 0
164 187 0
159 182 0
157 180 0
151 174 0
155 178 0
159 181 0
158 181 0
161 183 0
158 181 0
155 178 0
148 171 0
155 177 0
152 175 0
161 183 0
154 177 0
159 181 0
156 179 0
166 189 0
159 181 0
157 180 0
157 180 0
160 182 0
152 174 0
154 177 0
165 188 0
155 178 0
157 180 0
163 186 0
161 183 0
161 183 0
163 184 0
161 184 0
160 183 0
161 184 0
151 174 0
154 177 0
158 182 0
154 176 0
159 182 0
163 185 0
156 180 0
159 182 0
159 179 0
162 185 0
159 182 0
155 176 0
161 184 0
154 177 0
158 181 0
162 186 0
155 178 0
161 185 0
158 181 0
160 182 0
163 186 0
159 182 0
162 185 0
155 177 0
161 184 0
157 182 0
161 184 0
159 182 0
161 185 0
162 183 0
163 186 0
162 185 0
155 178 0
162 186 0
156 179 0
159 182 0
163 187 0
159 183 0
157 179 0
161 184 0
158 180 0
162 184 0
158 182 0
158 181 0
165 188 0
163 185 0
159 182 0
159 182 0
159 182 0
160 183 0
163 186 0
160 183 0
156 179 0
161 184 0
167 190 0
166 188 0
159 182 0
157 180 0
162 185 0
158 181 0
162 185 0
163 185 0
162 186 0
159 181 0
164 187 0
159 183 0
159 182 0
165 189 0
163 186 0
166 188 0
162 185 0
164 188 0
161 184 0
163 185 0
163 186 0
165 188 0
162 184 0
167 190 0
169 192 0
165 187 0
166 190 0
164 186 0
158 181 0
166 190 0
164 187 0
163 186 0
161 184 0
161 184 0
164 186 0
164 186 0
165 187 0
161 184 0
162 186 0
166 189 0
163 186 0
168 190 0
160 184 0
168 191 0
163 186 0
169 191 0
167 190 0
167 188 0
163 186 0
164 187 0
160 182 0
166 188 0
161 183 0
169 193 0
167 188 0
160 183 0
159 182 0
163 186 0
164 187 0
166 188 0
169 192 0
168 190 0
169 191 0
166 189 0
168 191 0
163 185 0
164 187 0
170 194 0
165 189 0
165 187 0
164 186 0
163 186 0
172 194 0
166 190 0
167 189 0
167 190 0
164 186 0
171 194 0
166 188 0
166 190 0
168 191 0
167 189 0
166 188 0
168 191 0
163 185 0
165 188 0
171 195 0
166 188 0
168 190 0
171 194 0
167 190 0
167 190 0
165 189 0
165 188 0
166 189 0
164 188 0
167 189 0
169 191 0
171 193 0
171 194 0
171 195 0
169 193 0
167 189 0
171 194 0
171 195 0
170 193 0
169 192 0
167 189 0
162 185 0
171 194 0
169 193 0
168 190 0
168 191 0
169 193 0
171 193 0
168 192 0
169 192 0
167 189 0
169 192 0
170 193 0
170 193 0
166 188 0
172 195 0
168 190 0
168 191 0
168 191 0
168 190 0
173 195 0
171 194 0
170 194 0
168 192 0
171 195 0
171 194 0
171 193 0
166 190 0
166 189 0
172 195 0
170 193 0
171 193 0
172 195 0
169 190 0
171 194 0
170 192 0
171 193 0
169 191 0
169 192 0
168 191 0
170 193 0
168 192 0
165 187 0
169 193 0
169 193 0
169 192 0
170 193 0
173 195 0
170 192 0
171 194 0
170 194 0
166 188 0
171 195 0
170 193 0
171 193 0
174 197 0
171 195 0
173 195 0
169 192 0
171 193 0
168 191 0
170 193 0
169 192 0
172 195 0
172 195 0
171 194 0
170 193 0
171 193 0
172 195 0
171 195 0
171 194 0
172 195 0
157 179 0
167 187 0
156 177 0
162 184 0
158 180 0
164 184 0
150 172 0
164 184 0
165 186 0
165 186 0
161 182 0
167 187 0
160 181 0
161 182 0
162 183 0
163 183 0
159 180 0
164 184 0
163 184 0
168 189 0
161 182 0
162 183 0
163 183 0
170 191 0
159 179 0
164 185 0
167 188 0
167 187 0
160 182 0
165 186 0
163 184 0
161 182 0
159 180 0
163 183 0
168 189 0
163 185 0
167 188 0
161 183 0
168 190 0
171 191 0
168 190 0
164 186 0
174 196 0
172 194 51
198 216 182
191 210 157
163 183 36
167 188 0
166 186 0
160 181 0
167 188 0
165 186 0
162 183 0
165 186 0
164 185 0
163 185 0
161 182 0
163 184 0
158 179 0
162 183 0
163 184 0
162 183 0
167 187 0
164 185 0
163 184 0
158 179 0
160 181 0
162 183 0
165 185 0
163 185 0
158 180 0
153 175 0
161 182 0
156 178 0
158 178 0
152 174 0
161 182 0
155 178 0
155 177 0
160 182 0
158 180 0
157 179 0
161 183 0
159 182 0
160 181 0
160 182 0
164 186 0
159 180 0
153 174 0
152 174 0
156 178 0
154 176 0
154 176 0
162 184 0
158 181 0
155 177 0
152 174 0
159 182 0
155 178 0
150 172 0
165 187 0
163 186 0
161 183 0
157 179 0
160 183 0
156 178 0
160 182 0
156 178 0
153 174 0
161 184 0
159 182 0
152 174 0
154 178 0
164 187 0
155 178 0
161 184 0
158 181 0
160 183 0
165 187 0
157 180 0
155 177 0
158 181 0
157 181 0
157 180 0
157 179 0
156 179 0
156 178 0
163 186 0
156 178 0
161 183 0
155 179 0
159 181 0
157 181 0
153 176 0
163 187 0
163 186 0
161 184 0
160 183 0
157 180 0
164 186 0
161 184 0
159 181 0
151 174 0
156 178 0
158 180 0
162 185 0
160 183 0
160 183 0
162 185 0
156 179 0
160 183 0
156 179 0
158 181 0
163 185 0
158 180 0
161 183 0
167 190 0
155 178 0
164 186 0
158 181 0
156 178 0
163 186 0
162 185 0
159 182 0
166 189 0
166 189 0
164 187 0
165 188 0
159 182 0
155 178 0
161 184 0
160 183 0
157 180 0
157 180 0
157 180 0
157 181 0
164 187 0
162 185 0
164 186 0
160 183 0
161 184 0
163 185 0
162 185 0
163 186 0
157 180 0
163 186 0
151 174 0
160 183 0
163 185 0
164 188 0
156 178 0
158 181 0
169 191 0
162 184 0
163 186 0
154 178 0
159 182 0
163 186 0
158 181 0
157 180 0
160 184 0
163 186 0
162 185 0
167 189 0
156 180 0
163 187 0
165 188 0
159 180 0
161 184 0
163 185 0
159 182 0
161 184 0
156 179 0
153 176 0
159 182 0
161 183 0
160 183 0
166 188 0
165 188 0
164 188 0
163 186 0
158 181 0
163 185 0
159 181 0
162 184 0
163 187 0
164 185 0
154 178 0
162 185 0
162 184 0
164 187 0
162 185 0
167 190 0
165 188 0
158 181 0
166 189 0
163 185 0
161 184 0
165 188 0
164 187 0
163 186 0
166 187 0
165 187 0
165 188 0
166 188 0
167 190 0
163 185 0
169 192 0
163 185 0
156 178 0
160 182 0
165 188 0
168 192 0
165 188 0
166 189 0
161 183 0
164 187 0
162 186 0
169 192 0
165 187 0
165 188 0
169 192 0
166 190 0
165 188 0
167 190 0
162 185 0
160 182 0
165 188 0
165 188 0
165 188 0
165 188 0
165 187 0
168 191 0
169 191 0
166 188 0
165 187 0
168 191 0
163 186 0
162 183 0
168 191 0
164 188 0
167 190 0
167 190 0
166 189 0
169 193 0
169 192 0
167 190 0
164 187 0
168 191 0
167 189 0
168 191 0
165 188 0
166 188 0
167 189 0
168 192 0
165 189 0
166 188 0
164 186 0
169 192 0
169 191 0
163 185 0
167 190 0
168 191 0
169 192 0
166 190 0
167 189 0
165 188 0
169 193 0
166 189 0
167 189 0
165 188 0
167 190 0
172 195 0
163 187 0
169 191 0
167 191 0
171 194 0
167 189 0
169 192 0
167 190 0
169 193 0
172 196 0
169 192 0
167 189 0
170 193 0
167 189 0
167 190 0
168 190 0
169 193 0
164 185 0
168 192 0
171 194 0
169 192 0
166 189 0
168 192 0
164 186 0
170 194 0
171 194 0
168 191 0
166 189 0
169 193 0
171 194 0
168 191 0
169 191 0
173 196 0
168 192 0
169 191 0
172 195 0
171 194 0
170 194 0
171 192 0
170 193 0
168 191 0
172 195 0
171 194 0
167 190 0
170 192 0
171 195 0
169 191 0
171 195 0
169 191 0
169 192 0
170 194 0
167 188 0
168 192 0
172 194 0
168 191 0
166 189 0
168 191 0
167 190 0
170 193 0
170 192 0
171 193 0
172 195 0
168 191 0
171 193 0
167 190 0
175 197 0
170 193 0
171 194 0
172 196 0
171 194 0
171 195 0
172 195 0
170 193 0
170 194 0
169 193 0
170 192 0
169 192 0
170 193 0
171 194 0
170 193 0
173 196 0
170 194 0
171 194 0
173 195 0
172 195 0
169 191 0
172 195 0
171 195 0
160 182 0
155 176 0
167 189 0
168 190 0
167 188 0
164 185 0
159 181 0
162 184 0
162 184 0
167 188 0
160 180 0
160 182 0
162 183 0
167 187 0
160 181 0
158 178 0
161 183 0
164 186 0
162 184 0
165 186 0
168 188 0
161 183 0
158 179 0
166 187 0
162 182 0
156 178 0
171 191 0
165 187 0
163 183 0
162 183 0
166 187 0
162 183 0
163 184 0
166 186 0
169 190 0
167 188 0
168 189 0
173 194 0
163 184 0
164 185 0
162 183 0
168 189 25
191 209 159
187 205 169
168 189 72
163 184 0
156 178 0
163 183 0
163 184 0
163 184 0
161 182 0
157 178 0
161 182 0
159 180 0
160 182 0
165 186 0
159 181 0
162 182 0
159 180 0
156 178 0
158 179 0
164 186 0
162 183 0
162 184 0
161 183 0
165 186 0
158 179 0
158 180 0
160 181 0
164 186 0
159 182 0
162 183 0
157 179 0
160 181 0
157 179 0
158 179 0
156 178 0
158 180 0
157 179 0
160 182 0
162 183 0
158 179 0
155 176 0
163 184 0
154 176 0
162 185 0
158 179 0
159 180 0
156 178 0
162 185 0
152 173 0
154 177 0
156 178 0
159 180 0
152 174 0
154 176 0
160 182 0
160 183 0
148 171 0
154 176 0
160 182 0
161 183 0
157 180 0
158 181 0
164 187 0
163 185 0
157 179 0
154 176 0
156 177 0
161 183 0
155 176 0
157 179 0
158 180 0
159 181 0
154 177 0
161 184 0
156 179 0
149 172 0
156 178 0
151 173 0
158 181 0
149 171 0
160 182 0
159 183 0
153 176 0
160 182 0
161 183 0
159 182 0
154 177 0
163 186 0
157 181 0
157 179 0
162 185 0
154 177 0
161 183 0
159 181 0
158 181 0
156 179 0
162 185 0
153 176 0
158 180 0
161 185 0
154 177 0
165 188 0
154 177 0
162 185 0
153 176 0
164 186 0
156 179 0
154 177 0
155 178 0
155 177 0
155 178 0
160 182 0
166 188 0
161 184 0
164 187 0
162 186 0
161 184 0
165 188 0
161 184 0
161 185 0
159 182 0
159 183 0
156 178 0
164 187 0
161 185 0
160 183 0
160 184 0
162 184 0
158 182 0
156 179 0
153 177 0
158 181 0
152 175 0
163 187 0
163 186 0
161 184 0
157 180 0
155 178 0
153 176 0
156 179 0
158 180 0
163 186 0
161 183 0
164 187 0
157 180 0
165 188 0
162 186 0
156 179 0
160 183 0
160 184 0
153 176 0
162 186 0
160 184 0
156 179 0
157 180 0
158 181 0
164 188 0
162 184 0
158 182 0
162 184 0
163 186 0
166 190 0
161 184 0
164 186 0
166 188 0
162 184 0
154 176 0
163 187 0
160 183 0
158 179 0
160 183 0
162 186 0
161 184 0
164 187 0
160 184 0
161 184 0
160 183 0
163 186 0
164 187 0
158 181 0
156 179 0
162 184 0
162 185 0
157 179 0
165 188 0
167 189 0
165 187 0
162 186 0
165 188 0
163 187 0
166 189 0
166 188 0
165 189 0
164 186 0
161 184 0
158 182 0
159 182 0
164 187 0
161 184 0
165 189 0
161 184 0
163 186 0
166 189 0
165 187 0
163 186 0
163 186 0
160 183 0
167 191 0
167 190 0
165 187 0
160 184 0
164 187 0
167 189 0
169 192 0
170 191 0
162 185 0
166 189 0
166 188 0
167 189 0
165 189 0
165 189 0
166 187 0
165 188 0
159 181 0
166 189 0
169 191 0
164 187 0
169 192 0
165 188 0
167 189 0
166 189 0
165 188 0
166 188 0
166 188 0
164 186 0
169 191 0
167 190 0
165 188 0
167 189 0
168 190 0
164 187 0
166 188 0
168 191 0
170 194 0
162 185 0
166 187 0
171 193 0
164 187 0
169 193 0
168 190 0
163 185 0
167 190 0
167 190 0
169 194 0
168 192 0
166 189 0
167 190 0
169 193 0
166 190 0
167 190 0
166 188 0
166 189 0
166 188 0
167 189 0
166 190 0
164 187 0
168 192 0
169 192 0
167 190 0
162 185 0
169 193 0
166 189 0
167 190 0
171 194 0
169 191 0
169 192 0
171 193 0
166 189 0
170 193 0
165 188 0
170 193 0
168 190 0
170 193 0
168 192 0
168 192 0
168 190 0
166 189 0
168 191 0
168 191 0
169 192 0
166 189 0
164 186 0
172 195 0
171 192 0
172 194 0
170 193 0
168 192 0
172 196 0
169 192 0
169 192 0
167 190 0
170 194 0
171 193 0
171 194 0
169 192 0
169 192 0
167 191 0
170 193 0
170 193 0
168 190 0
170 193 0
170 192 0
167 190 0
169 193 0
169 193 0
169 192 0
170 193 0
166 189 0
171 193 0
170 192 0
171 194 0
171 195 0
171 194 0
171 193 0
169 193 0
173 196 0
170 192 0
169 192 0
165 189 0
171 194 0
170 192 0
170 194 0
174 195 0
166 190 0
172 195 0
169 193 0
169 192 0
169 192 0
170 192 0
171 193 0
171 194 0
169 191 0
171 194 0
170 193 0
171 193 0
170 192 0
168 191 0
171 195 0
170 194 0
171 194 0
172 195 0
172 195 0
173 195 0
171 194 0
171 194 0
173 196 0
170 193 0
169 192 0
163 184 0
157 178 0
163 185 0
158 178 0
160 182 0
158 178 0
154 175 0
158 179 0
158 180 0
156 178 0
169 190 0
161 181 0
155 177 0
162 183 0
154 175 0
163 184 0
164 185 0
169 190 0
157 178 0
162 183 0
163 184 0
160 181 0
163 184 0
165 186 0
164 186 0
158 179 0
164 185 0
166 188 0
163 185 0
166 187 0
165 186 0
166 187 0
164 186 0
165 187 0
162 183 0
169 191 0
164 185 0
166 187 0
171 193 0
172 193 0
183 204 130
197 214 189
168 187 88
159 181 0
161 183 0
166 187 0
164 186 0
168 190 0
163 184 0
169 189 0
169 191 0
162 183 0
163 183 0
166 188 0
153 174 0
164 185 0
165 186 0
166 187 0
160 181 0
162 183 0
160 181 0
159 182 0
162 183 0
156 177 0
155 176 0
161 182 0
162 184 0
158 179 0
160 182 0
158 179 0
153 174 0
155 177 0
159 181 0
160 181 0
165 187 0
158 180 0
162 184 0
162 184 0
151 173 0
158 180 0
156 177 0
163 185 0
159 182 0
155 177 0
159 181 0
160 182 0
162 184 0
152 175 0
154 175 0
162 184 0
160 181 0
154 177 0
162 183 0
160 183 0
161 183 0
163 185 0
167 188 0
161 183 0
161 183 0
160 182 0
160 182 0
159 182 0
165 187 0
160 182 0
161 183 0
162 185 0
157 180 0
158 180 0
155 177 0
156 180 0
160 183 0
160 183 0
162 186 0
163 186 0
164 186 0
164 186 0
159 182 0
157 180 0
155 177 0
158 180 0
163 185 0
154 177 0
160 182 0
160 183 0
160 183 0
163 185 0
162 184 0
150 173 0
156 178 0
161 183 0
160 182 0
152 176 0
156 180 0
162 185 0
163 185 0
161 184 0
157 179 0
162 185 0
156 179 0
155 178 0
156 180 0
162 184 0
164 187 0
160 183 0
153 175 0
156 179 0
164 187 0
159 181 0
154 177 0
159 182 0
159 181 0
158 181 0
159 182 0
153 176 0
152 176 0
157 180 0
161 184 0
158 180 0
158 181 0
156 179 0
161 183 0
156 179 0
161 185 0
161 183 0
167 191 0
166 188 0
159 181 0
159 182 0
157 179 0
162 185 0
169 192 0
161 184 0
160 183 0
155 178 0
163 185 0
157 180 0
161 183 0
159 181 0
165 189 0
160 183 0
156 178 0
158 181 0
161 184 0
157 180 0
163 185 0
161 183 0
153 176 0
160 184 0
158 180 0
158 180 0
160 183 0
161 183 0
162 185 0
164 186 0
158 180 0
160 183 0
156 179 0
163 186 0
162 185 0
158 181 0
159 181 0
165 189 0
156 179 0
164 187 0
160 182 0
164 187 0
166 188 0
157 179 0
168 190 0
162 184 0
161 184 0
167 189 0
164 186 0
163 186 0
162 186 0
160 182 0
161 185 0
163 187 0
165 187 0
161 183 0
164 187 0
161 185 0
165 187 0
163 186 0
154 177 0
162 183 0
163 186 0
157 180 0
163 185 0
163 186 0
166 189 0
168 192 0
162 185 0
161 183 0
164 188 0
169 193 0
162 185 0
168 191 0
167 191 0
169 192 0
163 185 0
164 187 0
157 179 0
164 186 0
165 188 0
162 185 0
160 183 0
163 186 0
168 190 0
168 190 0
167 190 0
161 184 0
167 188 0
166 189 0
163 186 0
166 189 0
165 188 0
168 191 0
165 188 0
167 191 0
162 185 0
163 186 0
167 189 0
170 192 0
166 190 0
167 190 0
167 189 0
164 185 0
166 188 0
168 192 0
161 184 0
164 188 0
165 187 0
165 189 0
162 185 0
162 185 0
168 191 0
162 186 0
167 188 0
163 187 0
164 187 0
160 183 0
163 186 0
167 189 0
172 195 0
163 185 0
168 191 0
171 192 0
165 188 0
169 190 0
160 183 0
165 187 0
169 192 0
167 190 0
165 188 0
168 191 0
167 190 0
165 188 0
168 192 0
170 193 0
170 194 0
170 194 0
166 189 0
169 191 0
165 189 0
165 188 0
170 193 0
165 188 0
169 192 0
169 192 0
169 191 0
170 193 0
168 191 0
166 189 0
164 187 0
166 189 0
165 188 0
173 195 0
172 194 0
170 192 0
167 190 0
170 193 0
168 190 0
171 193 0
167 189 0
171 195 0
169 192 0
166 189 0
167 189 0
168 191 0
171 194 0
169 193 0
168 190 0
171 194 0
168 192 0
168 191 0
167 190 0
172 194 0
171 194 0
166 189 0
169 192 0
169 193 0
170 191 0
168 191 0
171 194 0
170 192 0
169 192 0
174 197 0
169 193 0
169 191 0
170 193 0
172 195 0
169 191 0
170 194 0
166 188 0
170 192 0
171 194 0
171 194 0
169 192 0
170 193 0
171 194 0
168 191 0
169 192 0
168 191 0
169 192 0
170 194 0
172 196 0
172 195 0
172 195 0
168 191 0
170 193 0
169 193 0
166 189 0
169 192 0
172 194 0
168 192 0
169 192 0
167 191 0
168 192 0
172 195 0
172 195 0
169 192 0
171 195 0
172 196 0
172 195 0
169 192 0
172 194 0
170 194 0
168 192 0
173 195 0
170 193 0
173 197 0
169 191 0
170 193 0
169 193 0
174 197 0
170 194 0
170 193 0
169 191 0
170 193 0
163 185 0
163 185 0
160 182 0
164 185 0
157 177 0
161 183 0
166 185 0
164 185 0
162 184 0
163 184 0
161 182 0
156 177 0
164 184 0
162 182 0
162 183 0
167 189 0
168 189 0
165 186 0
165 187 0
160 180 0
158 178 0
164 186 0
162 183 0
164 185 0
165 186 0
164 185 0
161 181 0
162 183 0
159 179 0
165 186 0
166 188 0
167 188 0
158 179 0
167 189 0
164 185 0
164 185 0
169 190 0
173 194 0
183 203 133
197 214 184
177 196 114
167 189 0
162 183 0
167 189 0
160 182 0
165 186 0
169 191 0
157 179 0
164 186 0
166 187 0
159 181 0
162 183 0
161 182 0
159 180 0
167 187 0
161 183 0
162 183 0
165 186 0
169 191 0
157 180 0
159 181 0
161 182 0
161 181 0
164 186 0
158 178 0
163 184 0
161 183 0
164 185 0
165 186 0
160 182 0
162 183 0
156 177 0
157 179 0
162 184 0
162 184 0
161 184 0
164 185 0
163 185 0
156 178 0
157 179 0
162 184 0
157 179 0
157 179 0
156 178 0
159 181 0
158 180 0
161 183 0
159 182 0
162 184 0
156 178 0
157 179 0
157 179 0
153 175 0
160 182 0
159 180 0
157 179 0
157 179 0
153 175 0
157 180 0
162 184 0
159 182 0
160 182 0
153 175 0
159 181 0
155 178 0
157 181 0
163 186 0
163 186 0
158 180 0
162 184 0
161 183 0
163 185 0
158 182 0
155 178 0
156 178 0
155 178 0
155 177 0
157 180 0
162 185 0
161 183 0
163 185 0
155 178 0
158 182 0
155 177 0
155 178 0
159 181 0
163 185 0
158 180 0
158 180 0
163 185 0
155 177 0
160 184 0
165 187 0
157 180 0
160 183 0
161 184 0
159 182 0
155 178 0
159 181 0
156 177 0
163 186 0
155 178 0
157 179 0
153 176 0
166 189 0
157 179 0
156 178 0
151 175 0
163 185 0
161 184 0
158 180 0
152 175 0
151 173 0
160 183 0
162 185 0
154 177 0
159 181 0
157 181 0
162 185 0
155 178 0
157 180 0
162 185 0
155 177 0
155 178 0
155 178 0
163 186 0
157 180 0
153 177 0
157 180 0
153 175 0
164 186 0
159 182 0
160 183 0
157 180 0
152 175 0
166 188 0
163 185 0
163 186 0
154 176 0
162 186 0
165 188 0
155 177 0
163 186 0
164 186 0
166 189 0
161 183 0
157 179 0
159 181 0
156 179 0
162 185 0
162 186 0
157 180 0
163 186 0
151 174 0
159 182 0
159 182 0
158 181 0
164 186 0
158 180 0
160 182 0
167 190 0
160 182 0
158 181 0
167 190 0
155 177 0
164 187 0
160 182 0
163 187 0
164 187 0
163 186 0
165 188 0
166 189 0
162 184 0
157 180 0
158 181 0
165 188 0
162 186 0
166 188 0
160 183 0
161 184 0
161 185 0
166 189 0
161 183 0
164 187 0
162 184 0
158 181 0
164 187 0
161 185 0
165 188 0
165 188 0
160 183 0
163 186 0
165 189 0
161 185 0
165 189 0
165 188 0
162 186 0
164 187 0
162 185 0
163 186 0
166 190 0
163 186 0
166 189 0
163 187 0
163 186 0
164 187 0
165 188 0
168 191 0
165 187 0
161 185 0
166 188 0
161 185 0
162 184 0
164 187 0
166 189 0
166 190 0
166 189 0
167 191 0
160 182 0
165 187 0
166 189 0
166 189 0
169 192 0
165 189 0
169 192 0
169 193 0
167 191 0
167 190 0
167 190 0
168 192 0
163 186 0
168 191 0
162 185 0
161 185 0
165 189 0
159 182 0
167 188 0
168 189 0
164 186 0
162 186 0
163 186 0
167 190 0
168 192 0
169 192 0
168 191 0
168 191 0
168 192 0
167 191 0
170 194 0
165 188 0
170 192 0
167 189 0
167 191 0
165 188 0
164 186 0
167 190 0
172 195 0
160 183 0
167 190 0
168 190 0
169 191 0
165 188 0
169 192 0
166 190 0
164 188 0
169 192 0
168 191 0
170 194 0
170 192 0
162 185 0
169 192 0
170 192 0
170 193 0
168 191 0
168 191 0
169 193 0
166 189 0
165 187 0
168 192 0
173 196 0
166 190 0
172 195 0
169 192 0
167 190 0
167 191 0
168 191 0
170 193 0
167 189 0
167 188 0
168 191 0
169 192 0
168 190 0
171 194 0
168 190 0
164 187 0
170 193 0
166 189 0
171 194 0
171 193 0
168 191 0
169 192 0
169 193 0
171 194 0
169 193 0
170 192 0
172 195 0
170 192 0
171 194 0
169 192 0
166 189 0
168 192 0
170 194 0
172 196 0
172 196 0
168 191 0
170 193 0
170 193 0
168 190 0
168 190 0
171 193 0
172 195 0
168 191 0
169 191 0
171 193 0
166 189 0
169 192 0
170 193 0
168 191 0
168 192 0
169 192 0
171 193 0
170 192 0
173 195 0
168 191 0
167 190 0
169 192 0
171 194 0
167 190 0
170 194 0
169 192 0
168 192 0
170 194 0
168 192 0
172 196 0
171 194 0
173 196 0
173 197 0
170 193 0
172 196 0
172 195 0
173 195 0
171 194 0
174 196 0
172 194 0
171 193 0
170 193 0
171 194 0
168 190 0
170 192 0
174 195 0
166 187 0
169 191 0
165 186 0
157 178 0
164 185 0
163 184 0
166 187 0
163 185 0
162 183 0
168 190 0
163 185 0
165 186 0
167 188 0
165 186 0
156 176 0
165 186 0
161 182 0
161 184 0
163 184 0
164 185 0
165 186 0
170 191 0
163 184 0
164 186 0
165 186 0
167 189 0
167 188 0
162 184 0
165 187 0
162 183 0
167 188 0
159 181 0
165 186 0
166 187 0
165 186 0
173 193 0
180 200 108
199 217 191
179 197 144
161 183 25
161 182 0
162 183 0
171 192 0
160 181 0
161 182 0
163 185 0
166 186 0
167 187 0
168 189 0
160 182 0
168 190 0
163 185 0
159 179 0
162 184 0
162 183 0
157 178 0
165 185 0
162 182 0
167 187 0
162 183 0
162 184 0
159 180 0
163 183 0
160 182 0
162 184 0
154 176 0
160 182 0
163 185 0
162 183 0
155 177 0
161 183 0
156 178 0
165 187 0
158 179 0
155 176 0
159 181 0
166 188 0
160 182 0
162 184 0
166 187 0
158 180 0
160 181 0
160 181 0
162 184 0
157 178 0
164 186 0
155 177 0
158 181 0
160 182 0
157 180 0
159 181 0
165 186 0
161 183 0
163 186 0
159 181 0
161 183 0
153 175 0
159 181 0
162 185 0
158 181 0
158 181 0
160 183 0
157 179 0
157 180 0
163 184 0
164 187 0
153 176 0
156 178 0
160 183 0
160 182 0
158 180 0
158 181 0
159 182 0
156 178 0
162 185 0
164 187 0
159 181 0
157 179 0
155 178 0
157 179 0
159 181 0
157 179 0
153 176 0
156 178 0
155 178 0
158 181 0
155 177 0
154 177 0
157 180 0
159 183 0
158 181 0
161 183 0
162 185 0
156 179 0
155 178 0
156 179 0
158 181 0
160 183 0
151 175 0
161 184 0
160 182 0
157 179 0
164 188 0
161 184 0
152 174 0
161 184 0
161 184 0
159 182 0
161 183 0
159 182 0
164 187 0
155 177 0
158 181 0
159 183 0
162 185 0
158 182 0
158 181 0
148 171 0
158 181 0
158 181 0
163 187 0
158 181 0
153 176 0
156 178 0
156 179 0
164 188 0
163 186 0
160 183 0
161 184 0
152 175 0
158 182 0
166 189 0
160 183 0
158 180 0
163 186 0
163 186 0
155 177 0
163 186 0
156 179 0
161 184 0
159 182 0
165 188 0
160 184 0
162 185 0
159 181 0
161 184 0
157 181 0
160 182 0
163 187 0
155 178 0
157 179 0
164 186 0
157 179 0
161 183 0
160 182 0
155 177 0
160 182 0
160 182 0
161 184 0
162 186 0
158 181 0
161 185 0
158 181 0
163 188 0
164 186 0
159 181 0
162 184 0
164 188 0
159 182 0
156 178 0
159 182 0
164 188 0
162 185 0
156 178 0
163 186 0
162 184 0
161 183 0
165 186 0
161 184 0
166 188 0
160 182 0
162 185 0
163 186 0
164 187 0
165 189 0
166 188 0
162 184 0
163 185 0
166 190 0
163 188 0
156 179 0
161 183 0
163 186 0
160 183 0
161 183 0
161 184 0
158 181 0
165 189 0
168 191 0
165 187 0
165 189 0
164 188 0
164 187 0
163 187 0
168 190 0
162 185 0
168 191 0
168 191 0
165 187 0
164 188 0
160 181 0
167 190 0
169 192 0
166 188 0
169 191 0
162 185 0
166 190 0
168 190 0
164 187 0
168 191 0
168 191 0
169 191 0
166 189 0
164 186 0
169 191 0
165 189 0
165 187 0
169 192 0
166 189 0
162 184 0
165 188 0
165 188 0
170 193 0
167 190 0
167 190 0
164 188 0
167 190 0
165 189 0
166 189 0
164 185 0
165 189 0
168 191 0
163 186 0
167 190 0
166 189 0
164 187 0
165 188 0
167 190 0
167 189 0
166 190 0
169 192 0
169 191 0
169 191 0
167 190 0
169 192 0
166 189 0
168 189 0
169 192 0
166 188 0
169 192 0
167 188 0
166 189 0
167 190 0
168 191 0
168 190 0
166 189 0
167 189 0
168 191 0
168 191 0
163 186 0
169 193 0
166 190 0
168 190 0
168 191 0
164 188 0
169 191 0
171 194 0
164 187 0
170 193 0
169 193 0
170 194 0
170 192 0
163 186 0
165 189 0
165 188 0
167 189 0
170 193 0
169 193 0
170 193 0
168 192 0
172 195 0
169 191 0
170 193 0
165 187 0
170 193 0
166 189 0
167 189 0
168 191 0
171 194 0
174 197 0
171 193 0
167 190 0
170 192 0
169 192 0
170 193 0
170 194 0
167 189 0
171 195 0
169 192 0
173 195 0
169 192 0
170 193 0
171 193 0
169 192 0
168 191 0
169 191 0
170 193 0
168 191 0
172 196 0
168 191 0
170 192 0
169 192 0
171 194 0
170 193 0
168 190 0
171 193 0
171 194 0
173 195 0
174 197 0
168 191 0
169 192 0
170 193 0
171 194 0
170 192 0
172 195 0
172 195 0
169 191 0
168 191 0
171 193 0
169 192 0
170 193 0
170 192 0
172 196 0
169 193 0
172 195 0
174 197 0
171 194 0
169 192 0
172 195 0
169 192 0
167 190 0
169 193 0
169 193 0
166 189 0
171 193 0
169 191 0
170 193 0
169 193 0
172 194 0
173 195 0
164 186 0
163 183 0
164 185 0
158 179 0
163 184 0
167 187 0
166 186 0
161 182 0
164 186 0
166 187 0
165 186 0
159 180 0
162 183 0
164 185 0
159 179 0
167 188 0
161 183 0
165 186 0
170 191 0
161 182 0
166 188 0
163 185 0
173 194 0
168 189 0
164 185 0
154 174 0
165 187 0
164 186 0
166 188 0
170 190 0
169 190 0
170 191 0
172 194 0
171 192 0
178 199 95
190 209 165
191 209 163
169 190 25
167 188 0
165 185 0
159 180 0
158 178 0
164 185 0
168 189 0
162 184 0
164 184 0
165 186 0
167 189 0
159 179 0
152 174 0
163 182 0
162 183 0
151 172 0
163 183 0
169 190 0
166 188 0
162 184 0
161 181 0
166 187 0
163 184 0
160 180 0
164 184 0
165 186 0
159 180 0
157 179 0
163 185 0
161 183 0
161 182 0
162 185 0
162 183 0
160 182 0
158 180 0
163 185 0
170 191 0
164 185 0
157 178 0
159 181 0
166 189 0
157 179 0
163 185 0
168 190 0
165 188 0
157 179 0
163 185 0
159 182 0
158 181 0
155 177 0
160 183 0
155 178 0
162 185 0
159 181 0
162 184 0
158 179 0
158 181 0
154 177 0
157 179 0
161 182 0
157 179 0
155 178 0
157 179 0
158 181 0
158 180 0
159 181 0
153 175 0
163 186 0
157 180 0
156 178 0
159 182 0
168 190 0
158 182 0
158 182 0
154 177 0
156 179 0
159 181 0
157 180 0
162 183 0
151 174 0
162 185 0
154 177 0
157 179 0
156 179 0
162 185 0
157 179 0
159 182 0
163 186 0
165 189 0
164 186 0
158 181 0
155 178 0
157 179 0
158 180 0
158 181 0
160 183 0
159 182 0
160 182 0
158 181 0
166 188 0
159 182 0
161 184 0
159 183 0
156 179 0
161 183 0
159 182 0
162 184 0
161 183 0
158 181 0
162 186 0
155 177 0
160 183 0
160 183 0
151 175 0
157 180 0
156 178 0
165 189 0
156 179 0
158 181 0
162 184 0
154 176 0
158 181 0
159 182 0
155 178 0
162 185 0
163 185 0
158 182 0
157 180 0
155 178 0
157 180 0
155 178 0
156 179 0
159 183 0
156 178 0
165 187 0
160 182 0
158 181 0
154 177 0
157 179 0
158 181 0
159 182 0
161 184 0
163 187 0
161 184 0
162 186 0
163 185 0
163 186 0
162 185 0
165 187 0
164 187 0
159 181 0
165 187 0
159 183 0
159 182 0
158 180 0
158 181 0
162 185 0
166 189 0
163 186 0
160 183 0
155 177 0
163 187 0
155 178 0
163 187 0
162 186 0
158 179 0
165 187 0
164 187 0
155 179 0
162 185 0
161 184 0
164 188 0
161 184 0
163 185 0
165 189 0
165 188 0
165 188 0
161 185 0
161 184 0
166 190 0
162 186 0
166 189 0
163 184 0
163 185 0
159 182 0
166 190 0
166 190 0
167 189 0
163 187 0
165 188 0
162 185 0
162 185 0
163 186 0
162 184 0
168 191 0
161 182 0
164 186 0
165 188 0
163 186 0
166 189 0
168 191 0
161 184 0
160 182 0
164 187 0
162 186 0
164 187 0
163 187 0
166 189 0
165 187 0
170 193 0
165 188 0
165 187 0
165 188 0
166 188 0
165 187 0
168 191 0
165 187 0
161 185 0
165 188 0
164 187 0
165 188 0
165 188 0
168 191 0
165 187 0
163 185 0
166 188 0
158 180 0
168 190 0
167 189 0
166 191 0
162 184 0
164 187 0
166 190 0
170 194 0
168 192 0
168 191 0
167 189 0
163 186 0
165 188 0
168 191 0
166 189 0
159 183 0
166 189 0
160 182 0
166 188 0
166 188 0
166 189 0
165 188 0
165 189 0
164 186 0
163 185 0
167 190 0
166 187 0
165 187 0
168 192 0
168 191 0
166 188 0
167 190 0
165 187 0
169 191 0
173 195 0
168 191 0
165 188 0
166 188 0
169 192 0
168 191 0
167 190 0
165 187 0
164 188 0
171 193 0
167 190 0
169 193 0
166 189 0
165 188 0
166 190 0
167 190 0
170 193 0
166 190 0
170 193 0
169 192 0
169 192 0
168 191 0
171 194 0
170 193 0
168 191 0
167 191 0
169 192 0
167 189 0
169 191 0
170 194 0
174 196 0
169 192 0
171 194 0
166 188 0
167 190 0
166 189 0
168 191 0
168 191 0
170 192 0
171 194 0
170 192 0
167 189 0
167 189 0
169 191 0
166 189 0
170 194 0
167 190 0
167 189 0
168 191 0
171 193 0
170 194 0
168 192 0
168 191 0
166 189 0
170 194 0
171 193 0
173 196 0
171 194 0
167 189 0
173 196 0
170 192 0
167 189 0
172 195 0
169 192 0
172 193 0
171 194 0
167 190 0
169 192 0
169 192 0
171 193 0
172 195 0
165 189 0
169 192 0
170 194 0
170 194 0
169 193 0
172 195 0
173 195 0
170 193 0
172 195 0
169 192 0
171 194 0
171 194 0
171 194 0
173 196 0
171 194 0
173 196 0
172 194 0
172 195 0
173 195 0
172 195 0
169 194 0
170 194 0
170 193 0
169 192 0
170 193 0
171 194 0
170 194 0
170 192 0
171 195 0
171 193 0
171 194 0
169 192 0
166 188 0
163 183 0
156 178 0
164 184 0
163 184 0
165 185 0
166 186 0
169 191 0
160 181 0
167 187 0
159 181 0
163 183 0
161 182 0
167 187 0
161 183 0
171 191 0
163 185 0
162 183 0
160 181 0
163 184 0
158 179 0
166 187 0
161 182 0
168 188 0
160 181 0
163 184 0
162 183 0
168 189 0
171 191 0
164 185 0
163 185 0
170 190 0
173 194 76
194 212 181
188 206 163
171 191 44
161 183 0
168 190 0
160 180 0
165 187 0
166 186 0
167 187 0
161 182 0
163 184 0
166 187 0
169 190 0
166 187 0
165 187 0
165 186 0
165 185 0
157 178 0
170 191 0
166 186 0
158 179 0
158 180 0
162 184 0
164 185 0
163 185 0
165 186 0
163 184 0
166 186 0
163 184 0
165 187 0
163 185 0
168 188 0
163 184 0
156 178 0
167 188 0
154 175 0
161 183 0
160 182 0
161 183 0
162 183 0
155 177 0
164 185 0
159 181 0
158 180 0
164 185 0
162 184 0
153 175 0
159 181 0
163 186 0
161 182 0
162 184 0
159 182 0
158 180 0
145 166 0
156 178 0
158 181 0
160 183 0
163 186 0
163 185 0
162 185 0
165 186 0
161 183 0
157 179 0
152 172 0
157 180 0
150 172 0
160 182 0
156 178 0
160 182 0
154 176 0
162 185 0
160 183 0
159 180 0
157 179 0
159 182 0
163 186 0
162 185 0
157 179 0
156 178 0
152 174 0
163 185 0
153 176 0
154 178 0
162 184 0
157 181 0
157 179 0
157 179 0
160 183 0
159 182 0
161 184 0
165 188 0
162 185 0
163 186 0
163 185 0
158 180 0
161 183 0
162 185 0
160 183 0
156 178 0
160 182 0
160 183 0
157 180 0
160 182 0
158 181 0
158 182 0
155 177 0
152 175 0
154 177 0
160 183 0
160 183 0
156 179 0
161 184 0
161 183 0
161 184 0
161 184 0
163 185 0
163 185 0
151 174 0
161 185 0
162 184 0
161 184 0
157 180 0
162 185 0
162 186 0
169 192 0
162 185 0
156 178 0
162 185 0
154 176 0
167 190 0
161 185 0
157 180 0
161 184 0
155 177 0
160 183 0
162 184 0
163 186 0
158 180 0
162 185 0
158 181 0
163 186 0
156 179 0
161 184 0
160 183 0
158 181 0
168 190 0
161 184 0
161 184 0
160 184 0
155 177 0
164 187 0
160 183 0
160 183 0
157 180 0
162 184 0
160 183 0
160 182 0
164 186 0
165 187 0
162 186 0
160 184 0
160 184 0
163 186 0
164 187 0
161 183 0
165 188 0
164 187 0
168 191 0
163 186 0
163 185 0
166 189 0
159 181 0
164 186 0
159 182 0
158 181 0
162 185 0
162 185 0
164 187 0
158 181 0
164 187 0
162 185 0
166 188 0
167 190 0
159 182 0
162 185 0
163 185 0
168 191 0
161 184 0
162 185 0
162 185 0
162 186 0
162 185 0
162 184 0
160 182 0
160 182 0
163 185 0
168 191 0
159 181 0
163 186 0
157 180 0
166 189 0
167 190 0
159 181 0
163 186 0
164 187 0
167 190 0
162 184 0
165 188 0
161 184 0
162 185 0
168 191 0
166 189 0
157 180 0
170 193 0
156 178 0
163 186 0
167 189 0
165 188 0
165 188 0
164 187 0
165 188 0
161 184 0
168 190 0
166 189 0
163 186 0
167 190 0
165 188 0
168 191 0
160 183 0
164 187 0
165 187 0
170 193 0
165 189 0
168 192 0
166 189 0
170 193 0
167 189 0
167 190 0
170 193 0
167 189 0
163 187 0
170 192 0
168 190 0
169 191 0
166 190 0
170 193 0
164 187 0
165 188 0
167 190 0
168 190 0
166 189 0
171 193 0
168 191 0
165 189 0
167 190 0
171 194 0
166 189 0
168 190 0
165 187 0
168 191 0
171 194 0
168 192 0
173 196 0
166 189 0
166 189 0
168 190 0
169 191 0
168 190 0
165 186 0
169 193 0
168 191 0
167 190 0
167 189 0
165 187 0
168 190 0
162 185 0
167 190 0
169 192 0
167 190 0
170 193 0
166 189 0
169 192 0
165 188 0
168 190 0
169 191 0
169 191 0
172 195 0
170 192 0
170 192 0
169 192 0
170 192 0
168 191 0
166 189 0
168 191 0
167 190 0
167 190 0
169 192 0
167 189 0
169 192 0
167 192 0
169 192 0
167 189 0
170 193 0
171 193 0
167 191 0
171 194 0
168 193 0
169 191 0
168 191 0
171 193 0
170 193 0
169 192 0
167 190 0
172 195 0
173 196 0
169 192 0
168 190 0
168 192 0
169 192 0
172 194 0
170 192 0
164 187 0
173 196 0
171 195 0
172 195 0
172 194 0
168 191 0
169 192 0
169 191 0
170 193 0
173 195 0
165 188 0
169 192 0
169 191 0
171 195 0
171 195 0
166 190 0
171 192 0
169 193 0
171 193 0
170 193 0
169 193 0
169 191 0
173 195 0
166 189 0
167 189 0
170 192 0
169 192 0
170 194 0
171 195 0
170 193 0
170 192 0
171 194 0
171 195 0
172 195 0
172 193 0
170 193 0
170 192 0
173 196 0
170 193 0
172 194 0
173 195 0
168 191 0
168 191 0
171 194 0
172 196 0
172 194 0
